AlexandreBanks6/RCL_Autocam_Public/dataCollection/ParticipantData/Pilot01/OptimizationData/Data_4.csv
System Time,q_des,q0,q1,q2,q3,q4,q5,T_des,Tx,Ty,Tz,R00,R01,R02,R10,R11,R12,R20,R21,R22,T_target,Tx,Ty,Tz,R00,R01,R02,R10,R11,R12,R20,R21,R22,worldFrame,Tx,Ty,Tz,R00,R01,R02,R10,R11,R12,R20,R21,R22,ECM_T_PSM_RCM,Tx,Ty,Tz,R00,R01,R02,R10,R11,R12,R20,R21,R22,psm3_T_cam,Tx,Ty,Tz,R00,R01,R02,R10,R11,R12,R20,R21,R22,offset,x,y,z,IK Trigered,ECM_T_PSM3,Tx,Ty,Tz,R00,R01,R02,R10,R11,R12,R20,R21,R22
08:07:25.800780,,-0.5906963920836843,-0.3659416972451284,0.18350670127000002,-0.06395134144799214,-0.026157586348184655,0.013118901473159543,,0.012681179072098536,0.44039148145643303,-0.346698911305621,0.9729629899149932,0.21099524364018396,-0.09393629446010833,0.21011752288819063,-0.6397876071312089,0.7392715633220667,0.09588350656399382,-0.7390215321102229,-0.6668234610798058,,-0.02408290150436288,0.2620660325738329,-0.0853291559845437,0.9535482130819463,-6.750710058733844e-05,0.30124043681255536,0.03716626481179515,0.9923861608728383,-0.11742391778512999,-0.2989389136398393,0.1231653488236883,0.9462905593743246,,0.027194247030986173,0.758052222939567,1.1994801867522682,0.9924365357525085,-0.10726834861546562,-0.05969274569720709,-0.04592614198395266,-0.7753849564778317,0.6298166072360598,-0.11384424441327862,-0.6223115543304514,-0.7744467814903666,,0.0,0.0,0.0,1.0,0.0,0.0,0.0,1.0,0.0,0.0,0.0,1.0,,0.0,0.0,0.045,1.0,0.0,0.0,0.0,1.0,0.0,0.0,0.0,1.0,,-0.011918902424781328,-0.15947728233870473,0.25503599610310546,True,,0.012681179072098536,0.44039148145643303,-0.346698911305621,0.058857427443892885,0.8575823195585686,-0.5109680698588048,-0.5325816921193915,-0.40594966866515914,-0.7426719381597056,-0.8443296420557156,0.3158439989792319,0.4328394897128432
08:07:29.703678,,-0.5620373303874372,-0.3647755645811205,0.2025842012,-1.4312519892589977,-1.371998939329398,0.025110665843502467,,0.0038545388812812054,0.4336727280886469,-0.3440654586902012,-0.010512708885685982,0.732896762748426,0.6802586405954447,-0.7761838613755043,0.42291441347909026,-0.4676344856956648,-0.6304189847173834,-0.5329218836044497,0.5644166631872138,,-0.02411978841054701,0.2621248557465739,-0.08530899689539663,0.9536226176063397,-0.00030135966908584333,0.3010045051358053,0.037271616272888504,0.9924218628999034,-0.11708788322777014,-0.29868818113562473,0.12287658426528314,0.9464072142736747,,0.027194247030986173,0.758052222939567,1.1994801867522682,0.9924365357525085,-0.10726834861546562,-0.05969274569720709,-0.04592614198395266,-0.7753849564778317,0.6298166072360598,-0.11384424441327862,-0.6223115543304514,-0.7744467814903666,,0.13282410436417993,0.6064241634724966,-0.4498432444239846,0.9948972203721064,-0.09437588243265708,-0.035675113327276464,-0.054126233911292496,-0.7976548857277658,0.6006804758581764,-0.08514617841357755,-0.5956843762343297,-0.7986928397149188,,0.0,0.0,0.045,1.0,0.0,0.0,0.0,1.0,0.0,0.0,0.0,1.0,,-0.011918902424781328,-0.15947728233870473,0.25503599610310546,False,,0.0038545388812812054,0.4336727280886469,-0.3440654586902012,0.3250252807616886,0.23210395235883674,-0.9167804110937323,0.7738160849006203,-0.6225625274980963,0.11672431667933925,-0.5436609546535984,-0.7473577822265515,-0.3819543319960502
08:07:29.717413,,-0.5620450531203114,-0.3647755645811205,0.2025842012,-1.4312519892589977,-1.371998939329398,0.025110665843502467,,0.0038545388812812054,0.4336727280886469,-0.3440654586902012,-0.009692659592702045,0.7329820528098087,0.6801789195562729,-0.7761593718146587,0.42335266334120025,-0.4672784523024647,-0.630462276345139,-0.5324564138975424,0.56480747640685,,-0.02413208455607735,0.2621444632846058,-0.08530227769465798,0.9536474203574209,-0.00037929452891493146,0.3009258457848999,0.03730675379929525,0.9924337565393763,-0.11697587735153525,-0.2986046125676155,0.12278031559196687,0.9464460842206183,,0.027194247030986173,0.758052222939567,1.1994801867522682,0.9924365357525085,-0.10726834861546562,-0.05969274569720709,-0.04592614198395266,-0.7753849564778317,0.6298166072360598,-0.11384424441327862,-0.6223115543304514,-0.7744467814903666,,0.13282410436417993,0.6064241634724966,-0.4498432444239846,0.9948972203721064,-0.09437588243265708,-0.035675113327276464,-0.054126233911292496,-0.7976548857277658,0.6006804758581764,-0.08514617841357755,-0.5956843762343297,-0.7986928397149188,,0.0,0.0,0.045,1.0,0.0,0.0,0.0,1.0,0.0,0.0,0.0,1.0,,-0.011918902424781328,-0.15947728233870473,0.25503599610310546,False,,0.0038545388812812054,0.4336727280886469,-0.3440654586902012,0.3250252807616886,0.23210395235883674,-0.9167804110937323,0.7738160849006203,-0.6225625274980963,0.11672431667933925,-0.5436609546535984,-0.7473577822265515,-0.3819543319960502
08:07:29.729550,,-0.5620450531203114,-0.3647755645811205,0.2025842012,-1.43104231272966,-1.371998939329398,0.025110665843502467,,0.003853092486420906,0.43367339843837943,-0.34406612700818795,-0.009302915186150654,0.7330268533403924,0.6801360805389772,-0.7761475490868393,0.4235579178222582,-0.4671120553963102,-0.6304827022334012,-0.5322314557896367,0.5649966722490606,,-0.024138299830359235,0.262153747706294,-0.08529894973437092,0.9536599391772207,-0.00041692158487785513,0.30088614429521493,0.03732371657691924,0.9924394145606972,-0.11692251216620152,-0.29856253253436643,0.12273450960003791,0.9464653081671048,,0.027194247030986173,0.758052222939567,1.1994801867522682,0.9924365357525085,-0.10726834861546562,-0.05969274569720709,-0.04592614198395266,-0.7753849564778317,0.6298166072360598,-0.11384424441327862,-0.6223115543304514,-0.7744467814903666,,0.13282410436417993,0.6064241634724966,-0.4498432444239846,0.9948972203721064,-0.09437588243265708,-0.035675113327276464,-0.054126233911292496,-0.7976548857277658,0.6006804758581764,-0.08514617841357755,-0.5956843762343297,-0.7986928397149188,,0.0,0.0,0.045,1.0,0.0,0.0,0.0,1.0,0.0,0.0,0.0,1.0,,-0.011918902424781328,-0.15947728233870473,0.25503599610310546,False,,0.003853092486420906,0.43367339843837943,-0.34406612700818795,0.3250321895619953,0.23210569196378583,-0.9167775212703178,0.7738141931725186,-0.6225641402771697,0.11672825572976381,-0.5436595167872071,-0.74735589848409,-0.3819600644147755
08:07:29.741616,,-0.5620682213189341,-0.3647678418482463,0.20258809007000003,-1.4320906953763486,-1.371998939329398,0.025248429131602912,,0.003853552383319303,0.4336720360111004,-0.3440677911724417,-0.00858930578604902,0.7331172184122354,0.6800480629290995,-0.7761255954931549,0.42392784179609355,-0.4668128586173499,-0.6305198520637628,-0.5318123061923379,0.5653497918420751,,-0.024141975339841422,0.26215973379809,-0.08529692774948326,0.9536673567454103,-0.00044056677704887304,0.30086261763683725,0.03733438328570168,0.9924430389770739,-0.11688838403698906,-0.2985375229599306,0.12270516044167531,0.9464770082247554,,0.027194247030986173,0.758052222939567,1.1994801867522682,0.9924365357525085,-0.10726834861546562,-0.05969274569720709,-0.04592614198395266,-0.7753849564778317,0.6298166072360598,-0.11384424441327862,-0.6223115543304514,-0.7744467814903666,,0.13282410436417993,0.6064241634724966,-0.4498432444239846,0.9948972203721064,-0.09437588243265708,-0.035675113327276464,-0.054126233911292496,-0.7976548857277658,0.6006804758581764,-0.08514617841357755,-0.5956843762343297,-0.7986928397149188,,0.0,0.0,0.045,1.0,0.0,0.0,0.0,1.0,0.0,0.0,0.0,1.0,,-0.011918902424781328,-0.15947728233870473,0.25503599610310546,False,,0.003853552383319303,0.4336720360111004,-0.3440677911724417,0.3250408482810903,0.23228067302385297,-0.9167301325299038,0.773788542042585,-0.6226201519528491,0.1165994793548491,-0.5436908488767489,-0.7472548663754535,-0.3821131056714531
08:07:29.753923,,-0.5621145577161794,-0.3647755645811205,0.20259586781000002,-1.4358648729044268,-1.371998939329398,0.02483513926730152,,0.0038242117555371824,0.4337008280029223,-0.3440300965601143,-0.018642361168323324,0.7313655508389889,0.6817308071490185,-0.7763983092657482,0.41902767038554534,-0.4707669028516666,-0.6299667671705846,-0.5380708526739255,0.560019311955755,,-0.02415678497181082,0.26218284718177165,-0.08528889050485267,0.9536972149723068,-0.0005330006424379037,0.3007679139304371,0.03737608347626668,0.9924570737173452,-0.11675609276635304,-0.29843701265715483,0.12259148716124318,0.9465234686670764,,0.027194247030986173,0.758052222939567,1.1994801867522682,0.9924365357525085,-0.10726834861546562,-0.05969274569720709,-0.04592614198395266,-0.7753849564778317,0.6298166072360598,-0.11384424441327862,-0.6223115543304514,-0.7744467814903666,,0.13282410436417993,0.6064241634724966,-0.4498432444239846,0.9948972203721064,-0.09437588243265708,-0.035675113327276464,-0.054126233911292496,-0.7976548857277658,0.6006804758581764,-0.08514617841357755,-0.5956843762343297,-0.7986928397149188,,0.0,0.0,0.045,1.0,0.0,0.0,0.0,1.0,0.0,0.0,0.0,1.0,,-0.011918902424781328,-0.15947728233870473,0.25503599610310546,False,,0.0038242117555371824,0.4337008280029223,-0.3440300965601143,0.32490570698550003,0.22801651502861958,-0.9178478906891143,0.7743608808183293,-0.6213063181060076,0.11976512572455461,-0.5429562669557413,-0.7496578739370117,-0.37843303795747796
08:07:29.767842,,-0.5622921805722866,-0.3647755645811205,0.20266457118000003,-1.444880963665947,-1.3705233831764236,0.01919673068140848,,0.00378576657898419,0.43371142405101476,-0.34398847195129545,-0.030261394342863977,0.7285846892400618,0.6842869271127341,-0.7766154171897504,0.4138421841183543,-0.47497698936615873,-0.6292477586734938,-0.545801243356144,0.5533066608629177,,-0.024156921630240677,0.26218245617881436,-0.08528916013956041,0.9536973085990011,-0.0005319308374963569,0.3007676189457437,0.03737559550812215,0.9924568439405496,-0.11675820211729505,-0.2984367745723057,0.122593351984657,0.9465233022053557,,0.027194247030986173,0.758052222939567,1.1994801867522682,0.9924365357525085,-0.10726834861546562,-0.05969274569720709,-0.04592614198395266,-0.7753849564778317,0.6298166072360598,-0.11384424441327862,-0.6223115543304514,-0.7744467814903666,,0.13282410436417993,0.6064241634724966,-0.4498432444239846,0.9948972203721064,-0.09437588243265708,-0.035675113327276464,-0.054126233911292496,-0.7976548857277658,0.6006804758581764,-0.08514617841357755,-0.5956843762343297,-0.7986928397149188,,0.0,0.0,0.045,1.0,0.0,0.0,0.0,1.0,0.0,0.0,0.0,1.0,,-0.011918902424781328,-0.15947728233870473,0.25503599610310546,False,,0.00378576657898419,0.43371142405101476,-0.34398847195129545,0.3244344366752149,0.22301445888456822,-0.9192425400446064,0.7749087768811869,-0.6199731430163415,0.12308407472513494,-0.5424561584236459,-0.7522618248102604,-0.3739564989693295
08:07:29.779632,,-0.5624234670311483,-0.3647678418482463,0.20272420052,-1.4526389952514411,-1.369584392897258,0.01286591066365872,,0.003732362552590074,0.4337120313962275,-0.34393328166459125,-0.0466774764363784,0.723811498251115,0.6884171178820347,-0.7767427101194251,0.40702916577299425,-0.4806225343098999,-0.6280859618474702,-0.5571572248563382,0.543216210472885,,-0.024156835013645232,0.26218224362261117,-0.08528948592826141,0.9536970367841094,-0.0005315112121523982,0.3007684815819518,0.03737565612087434,0.9924566994893963,-0.11675941056814725,-0.2984376356071996,0.12259452321583693,0.9465228790255092,,0.027194247030986173,0.758052222939567,1.1994801867522682,0.9924365357525085,-0.10726834861546562,-0.05969274569720709,-0.04592614198395266,-0.7753849564778317,0.6298166072360598,-0.11384424441327862,-0.6223115543304514,-0.7744467814903666,,0.13282410436417993,0.6064241634724966,-0.4498432444239846,0.9948972203721064,-0.09437588243265708,-0.035675113327276464,-0.054126233911292496,-0.7976548857277658,0.6006804758581764,-0.08514617841357755,-0.5956843762343297,-0.7986928397149188,,0.0,0.0,0.045,1.0,0.0,0.0,0.0,1.0,0.0,0.0,0.0,1.0,,-0.011918902424781328,-0.15947728233870473,0.25503599610310546,False,,0.003732362552590074,0.4337120313962275,-0.34393328166459125,0.3233407913998737,0.2153344711751604,-0.9214563463022096,0.7756225444100839,-0.6181413210126123,0.12771443089804024,-0.542088923719837,-0.7559976010414959,-0.3668885743652591
08:07:29.791100,,-0.5625701989557587,-0.36478328731399473,0.20280197792000001,-1.4650099104823642,-1.3693161099603537,0.005359608957862194,,0.0036586578566520367,0.43372301468893404,-0.34384800870518617,-0.07309335439179661,0.7163462431435048,0.6939059168777436,-0.7765053531531877,0.39574214266151325,-0.4903341646735599,-0.6258568510995134,-0.5746618279091289,0.5273205718307795,,-0.02415708758738416,0.2621825050700476,-0.0852896489408641,0.9536973085986481,-0.0005319308323348433,0.3007676189468734,0.037375595502556355,0.9924568439408888,-0.11675820211619524,-0.2984367745741321,0.12259335198193506,0.9465233022051326,,0.027194247030986173,0.758052222939567,1.1994801867522682,0.9924365357525085,-0.10726834861546562,-0.05969274569720709,-0.04592614198395266,-0.7753849564778317,0.6298166072360598,-0.11384424441327862,-0.6223115543304514,-0.7744467814903666,,0.13282410436417993,0.6064241634724966,-0.4498432444239846,0.9948972203721064,-0.09437588243265708,-0.035675113327276464,-0.054126233911292496,-0.7976548857277658,0.6006804758581764,-0.08514617841357755,-0.5956843762343297,-0.7986928397149188,,0.0,0.0,0.045,1.0,0.0,0.0,0.0,1.0,0.0,0.0,0.0,1.0,,-0.011918902424781328,-0.15947728233870473,0.25503599610310546,False,,0.0036586578566520367,0.43372301468893404,-0.34384800870518617,0.32228838228950696,0.203005106145902,-0.9246183675008323,0.7766695261754513,-0.6151256643660681,0.1356645279673498,-0.541215895693773,-0.7618460106326572,-0.3559157348748331
08:07:29.804037,,-0.5627400990789916,-0.36482190097836587,0.20285123694,-1.478219531830638,-1.3691819684919013,-0.0027675262922252086,,0.0034870730571438247,0.4338102278070491,-0.3436181530571994,-0.14960952743449504,0.6931676601638075,0.7050784241514269,-0.7727117500941801,0.36293444339276243,-0.5207639974744558,-0.6168740070445636,-0.6227336386467476,0.48132034522817096,,-0.024157423140451547,0.26218279095707053,-0.08529005635677919,0.9536975804081907,-0.0005323504566088384,0.30076675630845945,0.03737553489072465,0.9924569883857973,-0.11675699366455047,-0.29843591353748483,0.12259218074960165,0.9465237253782189,,0.027194247030986173,0.758052222939567,1.1994801867522682,0.9924365357525085,-0.10726834861546562,-0.05969274569720709,-0.04592614198395266,-0.7753849564778317,0.6298166072360598,-0.11384424441327862,-0.6223115543304514,-0.7744467814903666,,0.13282410436417993,0.6064241634724966,-0.4498432444239846,0.9948972203721064,-0.09437588243265708,-0.035675113327276464,-0.054126233911292496,-0.7976548857277658,0.6006804758581764,-0.08514617841357755,-0.5956843762343297,-0.7986928397149188,,0.0,0.0,0.045,1.0,0.0,0.0,0.0,1.0,0.0,0.0,0.0,1.0,,-0.011918902424781328,-0.15947728233870473,0.25503599610310546,False,,0.0034870730571438247,0.4338102278070491,-0.3436181530571994,0.3212702904936109,0.1669714687284734,-0.9321512372339629,0.7798037633216821,-0.6051347687331304,0.16036833346905888,-0.537300187191009,-0.7784166238595869,-0.32461680262048886
08:07:29.817217,,-0.562925444667973,-0.36485279190986275,0.20289271822000002,-1.4817840328293783,-1.3693161099603537,-0.009449944512935071,,0.003426374476548699,0.4338154842144639,-0.343592873652619,-0.16673173164798297,0.6869741117277841,0.7072956238218127,-0.7712220663540076,0.3560848608496784,-0.5276552816397464,-0.6143427821911152,-0.6334588713480043,0.47043894851531254,,-0.024156855767264312,0.26218120013745466,-0.08528986222782825,0.953696952130052,-0.0005289520471403845,0.3007687541910661,0.0373747408741769,0.9924560953545345,-0.11676483772216728,-0.2984380204204924,0.12259942411540012,0.9465221228075629,,0.027194247030986173,0.758052222939567,1.1994801867522682,0.9924365357525085,-0.10726834861546562,-0.05969274569720709,-0.04592614198395266,-0.7753849564778317,0.6298166072360598,-0.11384424441327862,-0.6223115543304514,-0.7744467814903666,,0.13282410436417993,0.6064241634724966,-0.4498432444239846,0.9948972203721064,-0.09437588243265708,-0.035675113327276464,-0.054126233911292496,-0.7976548857277658,0.6006804758581764,-0.08514617841357755,-0.5956843762343297,-0.7986928397149188,,0.0,0.0,0.045,1.0,0.0,0.0,0.0,1.0,0.0,0.0,0.0,1.0,,-0.011918902424781328,-0.15947728233870473,0.25503599610310546,False,,0.003426374476548699,0.4338154842144639,-0.343592873652619,0.3214384205712997,0.15777277150093721,-0.9336943259726611,0.7801869456015427,-0.6029226419744855,0.16671118051121392,-0.5366429648225759,-0.7820435028612027,-0.31689475845936
08:07:29.828901,,-0.5636899952225212,-0.3647755645811205,0.20294975498,-1.479477591006664,-1.3698526758341625,-0.013104266638951256,,0.003361545088547052,0.43381182200878626,-0.3436137356352811,-0.16637227169297095,0.6867592201543916,0.7075888924683965,-0.771255780770105,0.3564866854653008,-0.5273345842201697,-0.614397906767606,-0.633465876443945,0.4703575188520841,,-0.0241559358641184,0.262176356644644,-0.08528957511149685,0.9536960696918374,-0.0005178764562754658,0.30077156959170204,0.03737120154676181,0.9924533893196571,-0.11678896325943809,-0.2984412816043238,0.12262137027549115,0.9465182510667544,,0.027194247030986173,0.758052222939567,1.1994801867522682,0.9924365357525085,-0.10726834861546562,-0.05969274569720709,-0.04592614198395266,-0.7753849564778317,0.6298166072360598,-0.11384424441327862,-0.6223115543304514,-0.7744467814903666,,0.13282410436417993,0.6064241634724966,-0.4498432444239846,0.9948972203721064,-0.09437588243265708,-0.035675113327276464,-0.054126233911292496,-0.7976548857277658,0.6006804758581764,-0.08514617841357755,-0.5956843762343297,-0.7986928397149188,,0.0,0.0,0.045,1.0,0.0,0.0,0.0,1.0,0.0,0.0,0.0,1.0,,-0.011918902424781328,-0.15947728233870473,0.25503599610310546,False,,0.003361545088547052,0.43381182200878626,-0.3436137356352811,0.3220482114366673,0.15741141257976327,-0.9335451765715932,0.779675057702327,-0.6034447360948353,0.16721619202788812,-0.5370211857155327,-0.7817135649770177,-0.3170680501463451
08:07:29.840550,,-0.564130190996352,-0.3647446736496236,0.2029860511,-1.4828324154760668,-1.3698526758341625,-0.013173148283001479,,0.003258543768535127,0.4338408128655444,-0.3436398516105431,-0.16825748017291062,0.685922751837611,0.7079543762682605,-0.7710777950129993,0.35584311844040317,-0.5280290797830174,-0.6141078524198771,-0.6347327418450449,0.469026536590541,,-0.02415563614032365,0.2621673830827637,-0.08528978532799546,0.9536961226769171,-0.0004961043729116606,0.30077143359700315,0.03736278427498656,0.9924483825301241,-0.11683418233159162,-0.2984421614630984,0.1226619651331331,0.9465127122059388,,0.027194247030986173,0.758052222939567,1.1994801867522682,0.9924365357525085,-0.10726834861546562,-0.05969274569720709,-0.04592614198395266,-0.7753849564778317,0.6298166072360598,-0.11384424441327862,-0.6223115543304514,-0.7744467814903666,,0.13282410436417993,0.6064241634724966,-0.4498432444239846,0.9948972203721064,-0.09437588243265708,-0.035675113327276464,-0.054126233911292496,-0.7976548857277658,0.6006804758581764,-0.08514617841357755,-0.5956843762343297,-0.7986928397149188,,0.0,0.0,0.045,1.0,0.0,0.0,0.0,1.0,0.0,0.0,0.0,1.0,,-0.011918902424781328,-0.15947728233870473,0.25503599610310546,False,,0.003258543768535127,0.4338408128655444,-0.3436398516105431,0.32270429175942295,0.15648808173208617,-0.9334738455660456,0.7795919585422315,-0.6032280399871557,0.16838144182047698,-0.5367479094103091,-0.7820661174408894,-0.3166611275395137
08:07:29.851820,,-0.5646012777016797,-0.3647137827181267,0.20300160658000002,-1.484719504240106,-1.3697185343657103,-0.01310336789111266,,0.0031511918734020705,0.43387816926320477,-0.3436280254574843,-0.1746726861832043,0.6830815405822476,0.709146713746406,-0.7704504613709376,0.3536431418699363,-0.5304173967562428,-0.6131032044238989,-0.6390118442753182,0.4645086905548737,,-0.024153445532141854,0.2621555504454011,-0.08529010219255252,0.9536935509715245,-0.00046906696114583715,0.3007796269309088,0.03735448722356659,0.992441697457076,-0.1168935951965236,-0.2984514136082708,0.12271613703947125,0.9465027715704382,,0.027194247030986173,0.758052222939567,1.1994801867522682,0.9924365357525085,-0.10726834861546562,-0.05969274569720709,-0.04592614198395266,-0.7753849564778317,0.6298166072360598,-0.11384424441327862,-0.6223115543304514,-0.7744467814903666,,0.13282410436417993,0.6064241634724966,-0.4498432444239846,0.9948972203721064,-0.09437588243265708,-0.035675113327276464,-0.054126233911292496,-0.7976548857277658,0.6006804758581764,-0.08514617841357755,-0.5956843762343297,-0.7986928397149188,,0.0,0.0,0.045,1.0,0.0,0.0,0.0,1.0,0.0,0.0,0.0,1.0,,-0.011918902424781328,-0.15947728233870473,0.25503599610310546,False,,0.0031511918734020705,0.43387816926320477,-0.3436280254574843,0.32298753804432634,0.15367198520403935,-0.9338436545972321,0.7798722520746176,-0.6022327783563237,0.17063103796580298,-0.5361700483168833,-0.7833904528628575,-0.3143581995927549
08:07:29.863175,,-0.5649796916125167,-0.3647755645811205,0.20299771771000003,-1.48346144506408,-1.369584392897258,-0.013102469143274065,,0.0030506232500909503,0.4339229890499602,-0.3436396774679902,-0.1781461368568749,0.6814515543199429,0.7098505004843664,-0.7700967948256859,0.3525167100650464,-0.5316793166224555,-0.6125478597809129,-0.6413702115314133,0.46198416773518686,,-0.02415021775715233,0.26214444671945586,-0.08529151427210618,0.9536888819508278,-0.00044485870855026644,0.3007944706282706,0.037348993808262544,0.9924352938997449,-0.11694971184260894,-0.2984670235073257,0.12276801105861546,0.9464911232313915,,0.027194247030986173,0.758052222939567,1.1994801867522682,0.9924365357525085,-0.10726834861546562,-0.05969274569720709,-0.04592614198395266,-0.7753849564778317,0.6298166072360598,-0.11384424441327862,-0.6223115543304514,-0.7744467814903666,,0.13282410436417993,0.6064241634724966,-0.4498432444239846,0.9948972203721064,-0.09437588243265708,-0.035675113327276464,-0.054126233911292496,-0.7976548857277658,0.6006804758581764,-0.08514617841357755,-0.5956843762343297,-0.7986928397149188,,0.0,0.0,0.045,1.0,0.0,0.0,0.0,1.0,0.0,0.0,0.0,1.0,,-0.011918902424781328,-0.15947728233870473,0.25503599610310546,False,,0.0030506232500909503,0.4339229890499602,-0.3436396774679902,0.3232230527425969,0.1522414670552541,-0.933996463528969,0.7799895004583525,-0.6017359174912346,0.1718437219560615,-0.5358574785803465,-0.7840512874231165,-0.3132416660338585
08:07:29.874671,,-0.5653658282562279,-0.36482190097836587,0.20297697707,-1.4798969440653393,-1.3694502514288058,-0.01261939888708391,,0.002929639493331415,0.43396011983906957,-0.343776742950329,-0.16708935559060106,0.6853803103215141,0.7087559364632529,-0.7711884199772584,0.35703177259374913,-0.5270642600779768,-0.6142878544634409,-0.6346511983618641,0.4689011497923119,,-0.024148728894731058,0.26213473338484544,-0.08529384839175047,0.9536862095177929,-0.00042251880522664945,0.30080298005599126,0.03734258889309673,0.9924296703530098,-0.11699947869498724,-0.2984763682227908,0.12281355152423869,0.9464822696340685,,0.027194247030986173,0.758052222939567,1.1994801867522682,0.9924365357525085,-0.10726834861546562,-0.05969274569720709,-0.04592614198395266,-0.7753849564778317,0.6298166072360598,-0.11384424441327862,-0.6223115543304514,-0.7744467814903666,,0.13282410436417993,0.6064241634724966,-0.4498432444239846,0.9948972203721064,-0.09437588243265708,-0.035675113327276464,-0.054126233911292496,-0.7976548857277658,0.6006804758581764,-0.08514617841357755,-0.5956843762343297,-0.7986928397149188,,0.0,0.0,0.045,1.0,0.0,0.0,0.0,1.0,0.0,0.0,0.0,1.0,,-0.011918902424781328,-0.15947728233870473,0.25503599610310546,False,,0.002929639493331415,0.43396011983906957,-0.343776742950329,0.32380715187681886,0.15704867206676076,-0.9329976650536109,0.7793264972171876,-0.6034257603749584,0.16890104336886802,-0.536469140891265,-0.7818011680203416,-0.3177857683305185
08:07:29.889561,,-0.5661998834066442,-0.36509991936183794,0.20293808837000002,-1.471509882891832,-1.3703892417079715,-0.009526016139694282,,0.002869740341649274,0.43396666863149613,-0.34387810848650835,-0.15634474823785502,0.6894907560214594,0.7072190728900049,-0.7721540515750487,0.361168590403391,-0.5228148524499517,-0.6159013235370411,-0.6278214289644659,0.475926268447474,,-0.024149056256084964,0.26212403247175986,-0.08529595335669628,0.9536863660125702,-0.0003960511044062247,0.3008025205295388,0.03733228582289114,0.9924235885199114,-0.11705434343142715,-0.29847715766644334,0.12286277721282077,0.9464756321525541,,0.027194247030986173,0.758052222939567,1.1994801867522682,0.9924365357525085,-0.10726834861546562,-0.05969274569720709,-0.04592614198395266,-0.7753849564778317,0.6298166072360598,-0.11384424441327862,-0.6223115543304514,-0.7744467814903666,,0.13282410436417993,0.6064241634724966,-0.4498432444239846,0.9948972203721064,-0.09437588243265708,-0.035675113327276464,-0.054126233911292496,-0.7976548857277658,0.6006804758581764,-0.08514617841357755,-0.5956843762343297,-0.7986928397149188,,0.0,0.0,0.045,1.0,0.0,0.0,0.0,1.0,0.0,0.0,0.0,1.0,,-0.011918902424781328,-0.15947728233870473,0.25503599610310546,False,,0.002869740341649274,0.43396666863149613,-0.34387810848650835,0.324562585847629,0.16199581473075586,-0.9318886649582231,0.7787406033363315,-0.6049692643511303,0.16605800765340617,-0.5368632978545534,-0.77959575755655,-0.32250310729753007
08:07:29.901283,,-0.5666632473790977,-0.3652543740193224,0.20289401451000003,-1.4652195870117017,-1.3717306563924938,-0.006504211279871108,,0.00281772768510799,0.4339777457359155,-0.34399557135383674,-0.14458665205204374,0.6942879741891463,0.7050240484867963,-0.7731038652290537,0.36544057271566766,-0.5184241520040728,-0.6175800463229671,-0.6200140294457668,0.48391888749473877,,-0.024148212757732213,0.26211883732639246,-0.08529705214023747,0.9536849402383158,-0.0003841376549046406,0.3008070573045132,0.03732887176179084,0.9924205862641333,-0.11708088578177203,-0.2984821412060198,0.12288706571773392,0.9464709076266706,,0.027194247030986173,0.758052222939567,1.1994801867522682,0.9924365357525085,-0.10726834861546562,-0.05969274569720709,-0.04592614198395266,-0.7753849564778317,0.6298166072360598,-0.11384424441327862,-0.6223115543304514,-0.7744467814903666,,0.13282410436417993,0.6064241634724966,-0.4498432444239846,0.9948972203721064,-0.09437588243265708,-0.035675113327276464,-0.054126233911292496,-0.7976548857277658,0.6006804758581764,-0.08514617841357755,-0.5956843762343297,-0.7986928397149188,,0.0,0.0,0.045,1.0,0.0,0.0,0.0,1.0,0.0,0.0,0.0,1.0,,-0.011918902424781328,-0.15947728233870473,0.25503599610310546,False,,0.00281772768510799,0.4339777457359155,-0.34399557135383674,0.32569083855433867,0.16740635437831142,-0.9305377962208388,0.7781181729732389,-0.6065389942724781,0.16322547998311993,-0.5370824765066915,-0.7772294133270399,-0.3278061202734708
08:07:29.914702,,-0.5671652250159223,-0.36537793774531,0.20283179259000003,-1.4564131727795193,-1.3732062125454683,-0.0021056722868819655,,0.002735927307954439,0.4340285040647368,-0.3443215026615667,-0.10298758706740344,0.7105736354831995,0.6960450168388702,-0.7755757976786419,0.38077638613606113,-0.5034794194565451,-0.6227967075741268,-0.5916877997029772,0.5118884729288962,,-0.02414942146874338,0.2621152549087397,-0.08529812032725623,0.9536864197879181,-0.0003742822778057542,0.30080237845761654,0.037323873760299636,0.9924185705727905,-0.11709956229920152,-0.29847803842244053,0.1229033724350796,0.9464700839881081,,0.027194247030986173,0.758052222939567,1.1994801867522682,0.9924365357525085,-0.10726834861546562,-0.05969274569720709,-0.04592614198395266,-0.7753849564778317,0.6298166072360598,-0.11384424441327862,-0.6223115543304514,-0.7744467814903666,,0.13282410436417993,0.6064241634724966,-0.4498432444239846,0.9948972203721064,-0.09437588243265708,-0.035675113327276464,-0.054126233911292496,-0.7976548857277658,0.6006804758581764,-0.08514617841357755,-0.5956843762343297,-0.7986928397149188,,0.0,0.0,0.045,1.0,0.0,0.0,0.0,1.0,0.0,0.0,0.0,1.0,,-0.011918902424781328,-0.15947728233870473,0.25503599610310546,False,,0.002735927307954439,0.4340285040647368,-0.3443215026615667,0.32968617202803374,0.18743623024292383,-0.9252970807075012,0.7757854430153626,-0.6123218527584007,0.15237747550073616,-0.5380185632289649,-0.7680687522786236,-0.3472843466011666
08:07:29.926827,,-0.5676980935842437,-0.3655401151356687,0.20277605212000002,-1.4465583759006482,-1.3744134857615382,0.0038789420149394904,,0.002692526596301481,0.43404014232304394,-0.3445115369523444,-0.07296821860561223,0.7198555983498653,0.690277883607668,-0.7765077663937529,0.3933300887303058,-0.49226733593606936,-0.625868458866325,-0.5719260081721826,0.5302728669020546,,-0.024153793042805034,0.26210999017416264,-0.0852974814783577,0.9536934656037086,-0.0003572385196397264,0.3007800602398867,0.03731156130608118,0.992415875539491,-0.11712632480603952,-0.29845706500294533,0.1229251843614945,0.946473865456412,,0.027194247030986173,0.758052222939567,1.1994801867522682,0.9924365357525085,-0.10726834861546562,-0.05969274569720709,-0.04592614198395266,-0.7753849564778317,0.6298166072360598,-0.11384424441327862,-0.6223115543304514,-0.7744467814903666,,0.13282410436417993,0.6064241634724966,-0.4498432444239846,0.9948972203721064,-0.09437588243265708,-0.035675113327276464,-0.054126233911292496,-0.7976548857277658,0.6006804758581764,-0.08514617841357755,-0.5956843762343297,-0.7986928397149188,,0.0,0.0,0.045,1.0,0.0,0.0,0.0,1.0,0.0,0.0,0.0,1.0,,-0.011918902424781328,-0.15947728233870473,0.25503599610310546,False,,0.002692526596301481,0.43404014232304394,-0.3445115369523444,0.3316368937510533,0.201461068425977,-0.9216454896606487,0.7743835249063844,-0.6161189201297603,0.14397094363690843,-0.5388386837047952,-0.7614531595356359,-0.3603358971522014
08:07:29.939785,,-0.5688796717140001,-0.3658181335191408,0.20255179395000003,-1.4245423403201922,-1.375889041914513,0.024395785715679963,,0.002656309696194764,0.43408006768022483,-0.3447201475235983,-0.03625219290430584,0.7295235447082791,0.6829942724693209,-0.7766862376013357,0.40949385166052477,-0.47861599824171125,-0.6288435948869245,-0.5478231312828038,0.5517658470775385,,-0.024155376140155456,0.2621065902004623,-0.08529648228875439,0.9536964917680376,-0.0003473428375213479,0.3007704781113586,0.0373052829314925,0.9924141229246503,-0.11714317754843163,-0.2984481814583284,0.12293936527286654,0.9464748253448508,,0.027194247030986173,0.758052222939567,1.1994801867522682,0.9924365357525085,-0.10726834861546562,-0.05969274569720709,-0.04592614198395266,-0.7753849564778317,0.6298166072360598,-0.11384424441327862,-0.6223115543304514,-0.7744467814903666,,0.13282410436417993,0.6064241634724966,-0.4498432444239846,0.9948972203721064,-0.09437588243265708,-0.035675113327276464,-0.054126233911292496,-0.7976548857277658,0.6006804758581764,-0.08514617841357755,-0.5956843762343297,-0.7986928397149188,,0.0,0.0,0.045,1.0,0.0,0.0,0.0,1.0,0.0,0.0,0.0,1.0,,-0.011918902424781328,-0.15947728233870473,0.25503599610310546,False,,0.002656309696194764,0.43408006768022483,-0.3447201475235983,0.33344350245226895,0.218774997518548,-0.9170348581886753,0.7728878318832593,-0.6204451944495296,0.1330118792111471,-0.5398701973615131,-0.7531170301787401,-0.375971952219306
08:07:29.951202,,-0.5694357084809443,-0.36604209277249333,0.20241179463000003,-1.4113327189719183,-1.376023183382965,0.03672470125283067,,0.0026451008744855786,0.43413855576768734,-0.34495581631497285,0.0075341487756490156,0.738767767421963,0.6739179641622524,-0.7755238821280209,0.4297673491171618,-0.4624529531551195,-0.6312732727205468,-0.5191552864521135,0.5761699781292967,,-0.024155917587194348,0.26210792911663783,-0.0852958866279718,0.9536974855000266,-0.00035009072087164445,0.30076732395325334,0.037305526700700316,0.9924149333041601,-0.11713623437293168,-0.29844497549648485,0.12293281564323745,0.9464766869868038,,0.027194247030986173,0.758052222939567,1.1994801867522682,0.9924365357525085,-0.10726834861546562,-0.05969274569720709,-0.04592614198395266,-0.7753849564778317,0.6298166072360598,-0.11384424441327862,-0.6223115543304514,-0.7744467814903666,,0.13282410436417993,0.6064241634724966,-0.4498432444239846,0.9948972203721064,-0.09437588243265708,-0.035675113327276464,-0.054126233911292496,-0.7976548857277658,0.6006804758581764,-0.08514617841357755,-0.5956843762343297,-0.7986928397149188,,0.0,0.0,0.045,1.0,0.0,0.0,0.0,1.0,0.0,0.0,0.0,1.0,,-0.011918902424781328,-0.15947728233870473,0.25503599610310546,False,,0.0026451008744855786,0.43413855576768734,-0.34495581631497285,0.33491265666095893,0.23904259616872914,-0.9114231452103974,0.7713950464846996,-0.6250300717524375,0.11952862278137155,-0.5410944415415551,-0.7430989480695401,-0.3937267564069985
08:07:29.962600,,-0.5699145179191462,-0.3662506065600974,0.20230160998000002,-1.3972843915062938,-1.376559749256774,0.04774216930951136,,0.0026478996119198572,0.43417410781392385,-0.3451996305556202,0.05476680310783174,0.7456293178675147,0.6641065559183801,-0.7725953417703485,0.4529769659272336,-0.4448688640645872,-0.6325322404052669,-0.48872158605465993,0.6008778379771642,,-0.02415757105991606,0.2621070803872708,-0.08529459777231864,0.9537005869229658,-0.00034638159217587755,0.30075749405318447,0.03730156470610418,0.9924146232518634,-0.11714012349705874,-0.2984355600122663,0.1229353296746808,0.9464793293804734,,0.027194247030986173,0.758052222939567,1.1994801867522682,0.9924365357525085,-0.10726834861546562,-0.05969274569720709,-0.04592614198395266,-0.7753849564778317,0.6298166072360598,-0.11384424441327862,-0.6223115543304514,-0.7744467814903666,,0.13282410436417993,0.6064241634724966,-0.4498432444239846,0.9948972203721064,-0.09437588243265708,-0.035675113327276464,-0.054126233911292496,-0.7976548857277658,0.6006804758581764,-0.08514617841357755,-0.5956843762343297,-0.7986928397149188,,0.0,0.0,0.045,1.0,0.0,0.0,0.0,1.0,0.0,0.0,0.0,1.0,,-0.011918902424781328,-0.15947728233870473,0.25503599610310546,False,,0.0026478996119198572,0.43417410781392385,-0.3451996305556202,0.336010116651692,0.2598803849692024,-0.9052951933021492,0.76989930921301,-0.6294580914866019,0.10505981503588879,-0.5425423994316451,-0.7322873046627971,-0.41158601561356445
08:07:29.974522,,-0.5703778818915997,-0.36646684308057564,0.20221475855,-1.3817683283353055,-1.3774987395359395,0.0604789822239315,,0.002663564954769826,0.4341586728989653,-0.3457108095719109,0.1678657216747023,0.7504872794423826,0.6392104057990626,-0.7584478979256014,0.5125317848189518,-0.402576645724185,-0.6297443017756237,-0.41722896944659843,0.6552420174528352,,-0.02415833945328897,0.2621084288125738,-0.08529337576215544,0.9537022178076514,-0.0003488992900532034,0.30075231959028187,0.037301199017361765,0.9924154928267864,-0.11713287271349695,-0.2984303939305057,0.12292830263016938,0.9464818709895247,,0.027194247030986173,0.758052222939567,1.1994801867522682,0.9924365357525085,-0.10726834861546562,-0.05969274569720709,-0.04592614198395266,-0.7753849564778317,0.6298166072360598,-0.11384424441327862,-0.6223115543304514,-0.7744467814903666,,0.13282410436417993,0.6064241634724966,-0.4498432444239846,0.9948972203721064,-0.09437588243265708,-0.035675113327276464,-0.054126233911292496,-0.7976548857277658,0.6006804758581764,-0.08514617841357755,-0.5956843762343297,-0.7986928397149188,,0.0,0.0,0.045,1.0,0.0,0.0,0.0,1.0,0.0,0.0,0.0,1.0,,-0.011918902424781328,-0.15947728233870473,0.25503599610310546,False,,0.002663564954769826,0.4341586728989653,-0.3457108095719109,0.33960420585824835,0.3071620196898812,-0.8889997058623933,0.7660219439644018,-0.638778579404762,0.07191875873952092,-0.5457832580140101,-0.7054171958165377,-0.452224739612889
08:07:29.986079,,-0.5707949094668078,-0.3666985250668024,0.20215253663000002,-1.3645748529296158,-1.3785718712835573,0.07562575393227072,,0.0026740420325691017,0.4341031195444579,-0.34595864782837626,0.2351431719054218,0.7454095064361559,0.6237566483981262,-0.7451256905486242,0.5503161790084965,-0.3767489992102491,-0.6240956609292305,-0.37618714868545794,0.6848268651076796,,-0.024154521994573123,0.262112505730738,-0.0852939530186828,0.9536960905703679,-0.0003625040801150149,0.30077173161537,0.03731143931639361,0.9924175554751545,-0.11711213087540231,-0.29844869315219885,0.1229116076407358,0.946478268836762,,0.027194247030986173,0.758052222939567,1.1994801867522682,0.9924365357525085,-0.10726834861546562,-0.05969274569720709,-0.04592614198395266,-0.7753849564778317,0.6298166072360598,-0.11384424441327862,-0.6223115543304514,-0.7744467814903666,,0.13282410436417993,0.6064241634724966,-0.4498432444239846,0.9948972203721064,-0.09437588243265708,-0.035675113327276464,-0.054126233911292496,-0.7976548857277658,0.6006804758581764,-0.08514617841357755,-0.5956843762343297,-0.7986928397149188,,0.0,0.0,0.045,1.0,0.0,0.0,0.0,1.0,0.0,0.0,0.0,1.0,,-0.011918902424781328,-0.15947728233870473,0.25503599610310546,False,,0.0026740420325691017,0.4341031195444579,-0.34595864782837626,0.3417852081907708,0.33450075732769735,-0.8782323808703416,0.7638465982313501,-0.6432787312023932,0.052257519583633893,-0.5474680317903378,-0.6886956637948554,-0.47537042065927676
08:07:29.999183,,-0.5717216374117147,-0.36715416630638165,0.20196716716000002,-1.3270427541781713,-1.3791084371573663,0.11447140618524015,,0.0026888391459987393,0.43404790773836505,-0.34620589550959746,0.3073274415186824,0.7334914047699627,0.6062509404678621,-0.7265498935130568,0.5922959954482289,-0.3482968647750899,-0.6145527608966919,-0.33343037189880886,0.7149469149312242,,-0.024152966995467245,0.26211523823493593,-0.08529418826915823,0.9536935236780497,-0.0003706806090931873,0.3007798603355991,0.03731668129158178,0.9924189916918225,-0.11709828828740503,-0.29845623981582126,0.12289998542857418,0.9464773982455832,,0.027194247030986173,0.758052222939567,1.1994801867522682,0.9924365357525085,-0.10726834861546562,-0.05969274569720709,-0.04592614198395266,-0.7753849564778317,0.6298166072360598,-0.11384424441327862,-0.6223115543304514,-0.7744467814903666,,0.13282410436417993,0.6064241634724966,-0.4498432444239846,0.9948972203721064,-0.09437588243265708,-0.035675113327276464,-0.054126233911292496,-0.7976548857277658,0.6006804758581764,-0.08514617841357755,-0.5956843762343297,-0.7986928397149188,,0.0,0.0,0.045,1.0,0.0,0.0,0.0,1.0,0.0,0.0,0.0,1.0,,-0.011918902424781328,-0.15947728233870473,0.25503599610310546,False,,0.0026888391459987393,0.43404790773836505,-0.34620589550959746,0.3434327416167978,0.3638474518901264,-0.8658342703650812,0.7616779158544116,-0.6472551702773223,0.030124691682321292,-0.5494549157895032,-0.6698326479818204,-0.49942318649859774
08:07:30.012124,,-0.5721850013841682,-0.3673858482926084,0.20184401961,-1.3077525134791046,-1.3791084371573663,0.13568695255270774,,0.002737214886437772,0.4340023840944421,-0.3464773641779744,0.39004275947579814,0.7121591634242243,0.5836916752288089,-0.6994364555301853,0.6414269822138183,-0.31521432575859354,-0.5988783603169141,-0.2853081709993292,0.748294031183693,,-0.024152298323957266,0.2621140077789139,-0.08529372983228459,0.9536910545138334,-0.00037285727533585555,0.30078768670996514,0.03731911097194516,0.9924192344568087,-0.11709545676503857,-0.2984638260411864,0.12289801876434625,0.9464752614237956,,0.027194247030986173,0.758052222939567,1.1994801867522682,0.9924365357525085,-0.10726834861546562,-0.05969274569720709,-0.04592614198395266,-0.7753849564778317,0.6298166072360598,-0.11384424441327862,-0.6223115543304514,-0.7744467814903666,,0.1327985151251469,0.6064208813492494,-0.4498589905191357,0.9948916978570719,-0.09442643765216413,-0.03569534153632663,-0.054152333940877574,-0.7976366160588071,0.600702383423781,-0.08519409758797097,-0.5957008280962663,-0.7986754592083034,,0.0,0.0,0.045,1.0,0.0,0.0,0.0,1.0,0.0,0.0,0.0,1.0,,-0.011918902424781328,-0.15947728233870473,0.25503599610310546,False,,0.002737214886437772,0.4340023840944421,-0.3464773641779744,0.3451051947019556,0.39786561252909447,-0.8500619735975569,0.7592102574363457,-0.6508354684330748,0.003602503703990234,-0.5518171704406837,-0.6466190125540294,-0.5266703551658181
08:07:30.025089,,-0.5726560880894959,-0.36754802568296707,0.20172735351,-1.2874138901333498,-1.3791084371573663,0.15910671152978234,,0.0028266589524778007,0.4339350737482355,-0.3470333292798258,0.5473647492384724,0.645366226376872,0.5328172905820346,-0.6281389709701262,0.7375160206707061,-0.24801522615081067,-0.5530219384795646,-0.1989285125519284,0.8090699490490189,,-0.02415058523696244,0.2621131303246571,-0.08529550709819649,0.9536859426212505,-0.00037702400526706814,0.30080388954025084,0.03732446610504926,0.9924194710279881,-0.11709174615457817,-0.2984794906515639,0.1228960969292947,0.9464705712714767,,0.027194247030986173,0.758052222939567,1.1994801867522682,0.9924365357525085,-0.10726834861546562,-0.05969274569720709,-0.04592614198395266,-0.7753849564778317,0.6298166072360598,-0.11384424441327862,-0.6223115543304514,-0.7744467814903666,,0.1327985151251469,0.6064208813492494,-0.4498589905191357,0.9948916978570719,-0.09442643765216413,-0.03569534153632663,-0.054152333940877574,-0.7976366160588071,0.600702383423781,-0.08519409758797097,-0.5957008280962663,-0.7986754592083034,,0.0,0.0,0.045,1.0,0.0,0.0,0.0,1.0,0.0,0.0,0.0,1.0,,-0.011918902424781328,-0.15947728233870473,0.25503599610310546,False,,0.0028266589524778007,0.4339350737482355,-0.3470333292798258,0.348285532052982,0.46509594631145534,-0.813869122701693,0.7542944091696641,-0.6545329494213428,-0.051249999192056084,-0.5565403241975904,-0.596047295813386,-0.5787836285656249
08:07:30.038731,,-0.5731735111920688,-0.3677797076691938,0.20162624289000003,-1.2668655902582575,-1.3791084371573663,0.18273311543900772,,0.0028612894283690793,0.4338810993945583,-0.34731547005569136,0.6214629072090877,0.599742272222079,0.5040764444735802,-0.583687259418599,0.7836183691072217,-0.21272384631287333,-0.522583044267257,-0.1620230184499582,0.8370516730386067,,-0.0241485295206485,0.2621115909312036,-0.08529801761031224,0.9536800148029053,-0.0003799317378467351,0.3008226795535169,0.037330003965299396,0.9924192729342965,-0.11709166079984452,-0.2984977381586568,0.1228976886551968,0.9464646099848261,,0.027194247030986173,0.758052222939567,1.1994801867522682,0.9924365357525085,-0.10726834861546562,-0.05969274569720709,-0.04592614198395266,-0.7753849564778317,0.6298166072360598,-0.11384424441327862,-0.6223115543304514,-0.7744467814903666,,0.1327985151251469,0.6064208813492494,-0.4498589905191357,0.9948916978570719,-0.09442643765216413,-0.03569534153632663,-0.054152333940877574,-0.7976366160588071,0.600702383423781,-0.08519409758797097,-0.5957008280962663,-0.7986754592083034,,0.0,0.0,0.045,1.0,0.0,0.0,0.0,1.0,0.0,0.0,0.0,1.0,,-0.011918902424781328,-0.15947728233870473,0.25503599610310546,False,,0.0028612894283690793,0.4338810993945583,-0.34731547005569136,0.3500578953949819,0.499080273152987,-0.7927031921350991,0.7517299376554222,-0.6545816541981805,-0.08015584083364591,-0.5588931657340346,-0.5678395362571309,-0.6043150588551268
08:07:30.051601,,-0.5742855847259573,-0.3680577260526659,0.2014564289,-1.2186399885105912,-1.3791084371573663,0.22709289420734913,,0.002896296535196491,0.4338048627670552,-0.34759910426766083,0.6901929958659538,0.5474091037028984,0.47326197992313823,-0.534455566975486,0.8265406503189587,-0.17660068034757012,-0.4878430847992941,-0.13104894716670684,0.8630384105357111,,-0.02414844628739878,0.26210652221886893,-0.0852999616385741,0.9536774783505731,-0.0003722931921787062,0.30083072988285187,0.0373287154015803,0.9924172365326523,-0.11710932924639227,-0.29850600270436467,0.12291415454637901,0.9464598651389234,,0.027194247030986173,0.758052222939567,1.1994801867522682,0.9924365357525085,-0.10726834861546562,-0.05969274569720709,-0.04592614198395266,-0.7753849564778317,0.6298166072360598,-0.11384424441327862,-0.6223115543304514,-0.7744467814903666,,0.1327985151251469,0.6064208813492494,-0.4498589905191357,0.9948916978570719,-0.09442643765216413,-0.03569534153632663,-0.054152333940877574,-0.7976366160588071,0.600702383423781,-0.08519409758797097,-0.5957008280962663,-0.7986754592083034,,0.0,0.0,0.045,1.0,0.0,0.0,0.0,1.0,0.0,0.0,0.0,1.0,,-0.011918902424781328,-0.15947728233870473,0.25503599610310546,False,,0.002896296535196491,0.4338048627670552,-0.34759910426766083,0.3520554779203373,0.5327327452306129,-0.7695796012274092,0.748868219201044,-0.653553947109798,-0.10983455051968383,-0.561474247616879,-0.5376458503292466,-0.6290338694273951
08:07:30.063012,,-0.5748261760271529,-0.36806544878554015,0.20135013312000002,-1.1928497754020566,-1.3791084371573663,0.24631087289736037,,0.002934904102143282,0.4337289390159909,-0.34787537371508764,0.7531161710783972,0.4891790602305075,0.4399089450013625,-0.4807967207581917,0.8656635472842822,-0.13950317634865086,-0.44905517051736954,-0.10644468016388044,0.8871409041952836,,-0.02414666987401376,0.26210089624629673,-0.08530473629522418,0.9536711169626145,-0.00036233780995503437,0.3008509058971437,0.03733108322248298,0.9924134047869092,-0.11714103645277987,-0.2985260274971959,0.12294511339254979,0.9464495275481825,,0.027194247030986173,0.758052222939567,1.1994801867522682,0.9924365357525085,-0.10726834861546562,-0.05969274569720709,-0.04592614198395266,-0.7753849564778317,0.6298166072360598,-0.11384424441327862,-0.6223115543304514,-0.7744467814903666,,0.1327985151251469,0.6064208813492494,-0.4498589905191357,0.9948916978570719,-0.09442643765216413,-0.03569534153632663,-0.054152333940877574,-0.7976366160588071,0.600702383423781,-0.08519409758797097,-0.5957008280962663,-0.7986754592083034,,0.0,0.0,0.045,1.0,0.0,0.0,0.0,1.0,0.0,0.0,0.0,1.0,,-0.011918902424781328,-0.15947728233870473,0.25503599610310546,False,,0.002934904102143282,0.4337289390159909,-0.34787537371508764,0.35439475259646114,0.5665781156195725,-0.7439042937321091,0.745520246233263,-0.6514052501528439,-0.14096369223883973,-0.5644501056677983,-0.5046389194010761,-0.6532500587350346
08:07:30.075555,,-0.5753127081982291,-0.3680808942512886,0.20125161508000003,-1.1666402092348467,-1.3791084371573663,0.2643578636385179,,0.0030719625926635408,0.43359855184828566,-0.34840238926278333,0.8490872297138259,0.374373598800991,0.372686577243795,-0.3759008190819118,0.9238851851373809,-0.07165709244181616,-0.37114613099215843,-0.07925006753600751,0.9251864548538795,,-0.024140906358762593,0.26209587369514703,-0.08531215879740259,0.9536593858426634,-0.00034770829586213553,0.3008880969026212,0.037339308855334784,0.9924061974727207,-0.11719943343074343,-0.2985624620962021,0.12300329378200542,0.9464304717782377,,0.027194247030986173,0.758052222939567,1.1994801867522682,0.9924365357525085,-0.10726834861546562,-0.05969274569720709,-0.04592614198395266,-0.7753849564778317,0.6298166072360598,-0.11384424441327862,-0.6223115543304514,-0.7744467814903666,,0.1327985151251469,0.6064208813492494,-0.4498589905191357,0.9948916978570719,-0.09442643765216413,-0.03569534153632663,-0.054152333940877574,-0.7976366160588071,0.600702383423781,-0.08519409758797097,-0.5957008280962663,-0.7986754592083034,,0.0,0.0,0.045,1.0,0.0,0.0,0.0,1.0,0.0,0.0,0.0,1.0,,-0.011918902424781328,-0.15947728233870473,0.25503599610310546,False,,0.0030719625926635408,0.43359855184828566,-0.34840238926278333,0.3593187852587728,0.62657334913311,-0.6915893642301608,0.7386217914574857,-0.6438911982554218,-0.19960454401974803,-0.5703751920835044,-0.4391013128713178,-0.694162932812168
08:07:30.087709,,-0.5757837949035568,-0.36801911238829477,0.20116735623,-1.1381242012449224,-1.3797791444996275,0.28391575680958714,,0.0031597279292063796,0.43351217486587246,-0.34865214732475686,0.8886906070385199,0.31315022530206427,0.334911841168349,-0.3197961962410253,0.9467762376876322,-0.03667626780117911,-0.32857175446358533,-0.07450967818557924,0.9415354003038882,,-0.02413413864306501,0.2620852937112329,-0.08532080525322976,0.9536459373647224,-0.0003095762349446182,0.300930720234606,0.037345583456956766,0.9923908976130098,-0.11732681620886058,-0.2986045907460624,0.12312667691448116,0.9464011242005037,,0.027194247030986173,0.758052222939567,1.1994801867522682,0.9924365357525085,-0.10726834861546562,-0.05969274569720709,-0.04592614198395266,-0.7753849564778317,0.6298166072360598,-0.11384424441327862,-0.6223115543304514,-0.7744467814903666,,0.1327985151251469,0.6064208813492494,-0.4498589905191357,0.9948916978570719,-0.09442643765216413,-0.03569534153632663,-0.054152333940877574,-0.7976366160588071,0.600702383423781,-0.08519409758797097,-0.5957008280962663,-0.7986754592083034,,0.0,0.0,0.045,1.0,0.0,0.0,0.0,1.0,0.0,0.0,0.0,1.0,,-0.011918902424781328,-0.15947728233870473,0.25503599610310546,False,,0.0031597279292063796,0.43351217486587246,-0.34865214732475686,0.36265461408504995,0.6567474640506189,-0.6611840888481092,0.7348167160711122,-0.6378779381965908,-0.2305561314399004,-0.5731718980072992,-0.40223687601355906,-0.7139183923317587
08:07:30.099670,,-0.5770426003620553,-0.3676793121418289,0.20088087614000003,-1.0838179801464634,-1.3828643982740287,0.32632617834423394,,0.003272265949348263,0.4334935997364445,-0.34891823836204494,0.9213259242500988,0.25341569039403977,0.29485425071857635,-0.263830411903703,0.9645580481551685,-0.004613620467030037,-0.2855732043792332,-0.07354087027771408,0.955531101188953,,-0.024121038792356823,0.26206156034196043,-0.08533356738276458,0.953614730014799,-0.0003737772542066406,0.30102920854906484,0.037521731685980816,0.992348150160208,-0.11763097353677178,-0.29868184370730905,0.12346978000501856,0.9463319433874273,,0.027194247030986173,0.758052222939567,1.1994801867522682,0.9924365357525085,-0.10726834861546562,-0.05969274569720709,-0.04592614198395266,-0.7753849564778317,0.6298166072360598,-0.11384424441327862,-0.6223115543304514,-0.7744467814903666,,0.1327985151251469,0.6064208813492494,-0.4498589905191357,0.9948916978570719,-0.09442643765216413,-0.03569534153632663,-0.054152333940877574,-0.7976366160588071,0.600702383423781,-0.08519409758797097,-0.5957008280962663,-0.7986754592083034,,0.0,0.0,0.045,1.0,0.0,0.0,0.0,1.0,0.0,0.0,0.0,1.0,,-0.011918902424781328,-0.15947728233870473,0.25503599610310546,False,,0.003272265949348263,0.4334935997364445,-0.34891823836204494,0.36673813458415594,0.6858720858505589,-0.6285559819878713,0.7310931314287634,-0.6302966129310409,-0.2612068393157853,-0.5753311862044491,-0.3637384521584998,-0.7325901750651044
08:07:30.112406,,-0.578062001101453,-0.36771792580620005,0.20073698795000003,-1.0538342364511755,-1.3839375300216465,0.3499453922707502,,0.0033442601479418965,0.4335118544299104,-0.3491679023190285,0.9460413187461637,0.19873194666439548,0.25595202011314405,-0.21184971266349242,0.9769963482821777,0.02445065822600999,-0.2452050620795075,-0.07735469486895623,0.9663802195369664,,-0.024103474013083576,0.2620266503763728,-0.08534715340735624,0.9535770109370139,-0.0004299633301012157,0.3011481748956208,0.03773911344027764,0.9922860823230457,-0.11808308110699839,-0.2987744423945437,0.12396640616923149,0.9462376480632722,,0.027194247030986173,0.758052222939567,1.1994801867522682,0.9924365357525085,-0.10726834861546562,-0.05969274569720709,-0.04592614198395266,-0.7753849564778317,0.6298166072360598,-0.11384424441327862,-0.6223115543304514,-0.7744467814903666,,0.1327985151251469,0.6064208813492494,-0.4498589905191357,0.9948916978570719,-0.09442643765216413,-0.03569534153632663,-0.054152333940877574,-0.7976366160588071,0.600702383423781,-0.08519409758797097,-0.5957008280962663,-0.7986754592083034,,0.0,0.0,0.045,1.0,0.0,0.0,0.0,1.0,0.0,0.0,0.0,1.0,,-0.011918902424781328,-0.15947728233870473,0.25503599610310546,False,,0.0033442601479418965,0.4335118544299104,-0.3491679023190285,0.37103839613489853,0.7127858334203233,-0.5952032125828436,0.7274938410803159,-0.6214702386123533,-0.2907360550556348,-0.5771336238548667,-0.32513243177880635,-0.7491366244028853
08:07:30.124617,,-0.5789887290463599,-0.3676793121418289,0.20060606266000003,-1.0261569345786017,-1.3850106617692644,0.3710848670114586,,0.0033926315368203452,0.4334929447157949,-0.34950536185920916,0.9669295122693645,0.14098799076132915,0.21253165590944842,-0.15623624210133172,0.9860932176937621,0.056660415392200444,-0.20158758631568285,-0.08799177506702549,0.975510067894725,,-0.024081454254691437,0.26197666010498394,-0.08536164969722915,0.9535273400516605,-0.00039907064619449165,0.3013051631485315,0.03790948489697743,0.9922111129641983,-0.11865634027953015,-0.29891107632904756,0.12456442861549663,0.9461158599214178,,0.027194247030986173,0.758052222939567,1.1994801867522682,0.9924365357525085,-0.10726834861546562,-0.05969274569720709,-0.04592614198395266,-0.7753849564778317,0.6298166072360598,-0.11384424441327862,-0.6223115543304514,-0.7744467814903666,,0.1327985151251469,0.6064208813492494,-0.4498589905191357,0.9948916978570719,-0.09442643765216413,-0.03569534153632663,-0.054152333940877574,-0.7976366160588071,0.600702383423781,-0.08519409758797097,-0.5957008280962663,-0.7986754592083034,,0.0,0.0,0.045,1.0,0.0,0.0,0.0,1.0,0.0,0.0,0.0,1.0,,-0.011918902424781328,-0.15947728233870473,0.25503599610310546,False,,0.0033926315368203452,0.4334929447157949,-0.34950536185920916,0.3755538487292985,0.7411424880175048,-0.5564774201706963,0.7235134082271577,-0.609692294699122,-0.3237339245430436,-0.5792129615436219,-0.2810393535427764,-0.7651988153023535
08:07:30.136092,,-0.5798150614639019,-0.367509412018596,0.20048810027000002,-0.9934473960019237,-1.3863520764537867,0.39249807083269056,,0.0035385349339335515,0.4334370980669939,-0.3500646021303113,0.9909646222014237,0.041005073861375405,0.12770161104235436,-0.0559607389547343,0.9916922835555795,0.11582232268418767,-0.12189139937185763,-0.12192210076086762,0.985026643347898,,-0.024058237928276632,0.26192113678870577,-0.08537658091751646,0.9534698917206225,-0.0003521280254241213,0.301487045851391,0.03807733601541113,0.9921319777539345,-0.1192629549697493,-0.2990730333753187,0.12519349804203367,0.9459816626043897,,0.027194247030986173,0.758052222939567,1.1994801867522682,0.9924365357525085,-0.10726834861546562,-0.05969274569720709,-0.04592614198395266,-0.7753849564778317,0.6298166072360598,-0.11384424441327862,-0.6223115543304514,-0.7744467814903666,,0.1327985151251469,0.6064208813492494,-0.4498589905191357,0.9948916978570719,-0.09442643765216413,-0.03569534153632663,-0.054152333940877574,-0.7976366160588071,0.600702383423781,-0.08519409758797097,-0.5957008280962663,-0.7986754592083034,,0.0,0.0,0.045,1.0,0.0,0.0,0.0,1.0,0.0,0.0,0.0,1.0,,-0.011918902424781328,-0.15947728233870473,0.25503599610310546,False,,0.0035385349339335515,0.4334370980669939,-0.3500646021303113,0.3848266379109085,0.7892785149190933,-0.47848498894040287,0.7155292012690311,-0.5825786156234175,-0.38551279972214303,-0.5830320925004809,-0.19401438736705381,-0.7889435953280169
08:07:30.149122,,-0.5806105029499471,-0.3674167392241053,0.20038310078000002,-0.9584314156025313,-1.3844740958954556,0.4126929750091458,,0.00364258598533021,0.43332760656451963,-0.35032345177303903,0.9964798667123135,-0.004384348664717317,0.08371769659872458,-0.008150837653416683,0.9888331052171122,0.14880407881584115,-0.08343523885360161,-0.14896263797835219,0.985316544773289,,-0.024018045415274615,0.26186371247989654,-0.0853964485669351,0.9533478693871774,-0.00028019575243595427,0.3018729719107096,0.03823209472386015,0.9920589338266149,-0.11982031752904086,-0.29944227592791495,0.12577171005466495,0.9457882057215402,,0.027194247030986173,0.758052222939567,1.1994801867522682,0.9924365357525085,-0.10726834861546562,-0.05969274569720709,-0.04592614198395266,-0.7753849564778317,0.6298166072360598,-0.11384424441327862,-0.6223115543304514,-0.7744467814903666,,0.1327985151251469,0.6064208813492494,-0.4498589905191357,0.9948916978570719,-0.09442643765216413,-0.03569534153632663,-0.054152333940877574,-0.7976366160588071,0.600702383423781,-0.08519409758797097,-0.5957008280962663,-0.7986754592083034,,0.0,0.0,0.045,1.0,0.0,0.0,0.0,1.0,0.0,0.0,0.0,1.0,,-0.011918902424781328,-0.15947728233870473,0.25503599610310546,False,,0.00364258598533021,0.43332760656451963,-0.35032345177303903,0.3877593323919539,0.8120590857449338,-0.4361223926858705,0.7105432416003142,-0.5647282191950592,-0.419774153874312,-0.5871720377871069,-0.14711247297180302,-0.7959817324141659
08:07:30.161242,,-0.5826956408259877,-0.3672159481693754,0.20010828730000002,-0.8865123660397074,-1.328537103550876,0.4342144175812718,,0.003683803378279088,0.4331278904869811,-0.3505081809726268,0.9980826552832884,-0.035174963250994895,0.050928726500390466,0.024939006073649874,0.9816164562142126,0.1892278490748901,-0.056648558664090215,-0.18759492223869517,0.9806115877102101,,-0.02398107348843929,0.2618097193956592,-0.08541376636324371,0.9532387362348924,-7.404819620772038e-05,0.30221762157355686,0.03821440255874216,0.9920027080225613,-0.120290777885883,-0.29979185397503944,0.12621492116297928,0.9456184338819962,,0.027194247030986173,0.758052222939567,1.1994801867522682,0.9924365357525085,-0.10726834861546562,-0.05969274569720709,-0.04592614198395266,-0.7753849564778317,0.6298166072360598,-0.11384424441327862,-0.6223115543304514,-0.7744467814903666,,0.1327985151251469,0.6064208813492494,-0.4498589905191357,0.9948916978570719,-0.09442643765216413,-0.03569534153632663,-0.054152333940877574,-0.7976366160588071,0.600702383423781,-0.08519409758797097,-0.5957008280962663,-0.7986754592083034,,0.0,0.0,0.045,1.0,0.0,0.0,0.0,1.0,0.0,0.0,0.0,1.0,,-0.011918902424781328,-0.15947728233870473,0.25503599610310546,False,,0.003683803378279088,0.4331278904869811,-0.3505081809726268,0.38075541314760997,0.8324062661147258,-0.4026476418554234,0.7027422016909053,-0.5435080284276148,-0.4590777940582035,-0.6009814583840436,-0.10816113519960671,-0.7919106360637673
08:07:30.172848,,-0.5837768234283791,-0.36705377077901674,0.19998513975,-0.8502383264642889,-1.2772950626021244,0.4362797803568839,,0.0036199211142164955,0.43280024828256536,-0.35054469338310146,0.9982054821662687,-0.05070017180816971,0.03186389731073619,0.04135636306597297,0.9685191644772527,0.2454796921829573,-0.043306657769475745,-0.2437213995916364,0.9688779142770937,,-0.023943610002367846,0.26175843320660175,-0.08543259384950422,0.9531283234664301,0.00019098743820386566,0.3025657047650007,0.038115662636889036,0.9919572754249337,-0.1206963262214888,-0.30015535717007286,0.1265716019706302,0.9454554639467505,,0.027194247030986173,0.758052222939567,1.1994801867522682,0.9924365357525085,-0.10726834861546562,-0.05969274569720709,-0.04592614198395266,-0.7753849564778317,0.6298166072360598,-0.11384424441327862,-0.6223115543304514,-0.7744467814903666,,0.1327985151251469,0.6064208813492494,-0.4498589905191357,0.9948916978570719,-0.09442643765216413,-0.03569534153632663,-0.054152333940877574,-0.7976366160588071,0.600702383423781,-0.08519409758797097,-0.5957008280962663,-0.7986754592083034,,0.0,0.0,0.045,1.0,0.0,0.0,0.0,1.0,0.0,0.0,0.0,1.0,,-0.011918902424781328,-0.15947728233870473,0.25503599610310546,False,,0.0036199211142164955,0.43280024828256536,-0.35054469338310146,0.3587212262188946,0.8524128263876571,-0.38040958882475395,0.6880887879402877,-0.5168581513766579,-0.5093048902831872,-0.630755817865264,-0.07905709813362377,-0.7719436983769037
08:07:30.283327,,-0.5848193923663995,-0.366891593388658,0.19987884397000003,-0.8062062553033762,-1.2150534212402901,0.4369034442861588,,0.10422202776489518,0.421525551559082,-0.41653974184254194,0.41919392593130733,-0.42520916866998104,-0.8021680717538449,0.7191432876260585,0.6948213330974942,0.007499795664277656,0.5541745071046503,-0.5800176531379072,0.5970512019280365,,-0.023904966936316434,0.26171329056568726,-0.08545118789355693,0.9530217729987172,0.00039131539957784275,0.3029010270975153,0.0380648771917719,0.9919166976149789,-0.1210455090908366,-0.3005000007801114,0.1268889160602396,0.9453034632679078,,0.027194247030986173,0.758052222939567,1.1994801867522682,0.9924365357525085,-0.10726834861546562,-0.05969274569720709,-0.04592614198395266,-0.7753849564778317,0.6298166072360598,-0.11384424441327862,-0.6223115543304514,-0.7744467814903666,,0.1327985151251469,0.6064208813492494,-0.4498589905191357,0.9948916978570719,-0.09442643765216413,-0.03569534153632663,-0.054152333940877574,-0.7976366160588071,0.600702383423781,-0.08519409758797097,-0.5957008280962663,-0.7986754592083034,,0.0,0.0,0.045,1.0,0.0,0.0,0.0,1.0,0.0,0.0,0.0,1.0,,-0.011918902424781328,-0.15947728233870473,0.25503599610310546,True,,0.0034665231839898225,0.43182903446222776,-0.35025133687259,0.29653104566248906,0.8894677603904071,-0.3477304159609632,0.6362098162249561,-0.45553108325307173,-0.6226784900165502,-0.71225445502104,-0.03658600027820458,-0.7009672288248039
08:07:30.378684,,-0.5914918335697295,-0.3704826641751724,0.19841662885000003,-0.258111807614683,-0.7405950473247562,0.7676834144942372,,-0.012985717022238996,0.5648221394733535,-0.4754447813894051,-0.9738898200456431,-0.2265796868911836,0.014151462813368102,0.1334793123287054,-0.6219169276346437,-0.7716233590954471,0.18363521337619554,-0.7495872068077059,0.6359222655313312,,-0.023902344614744546,0.2617106037763226,-0.08545064686621127,0.9529999628050263,0.0004800328525019319,0.30296964455770137,0.03798466498659436,0.9919188367816794,-0.12105350686732431,-0.30057944237890855,0.1268722028952034,0.9452804917129325,,0.027194247030986173,0.758052222939567,1.1994801867522682,0.9924365357525085,-0.10726834861546562,-0.05969274569720709,-0.04592614198395266,-0.7753849564778317,0.6298166072360598,-0.11384424441327862,-0.6223115543304514,-0.7744467814903666,,0.1327985151251469,0.6064208813492494,-0.4498589905191357,0.9948916978570719,-0.09442643765216413,-0.03569534153632663,-0.054152333940877574,-0.7976366160588071,0.600702383423781,-0.08519409758797097,-0.5957008280962663,-0.7986754592083034,,0.0,0.0,0.045,1.0,0.0,0.0,0.0,1.0,0.0,0.0,0.0,1.0,,-0.011918902424781328,-0.15947728233870473,0.25503599610310546,True,,0.005230909007605644,0.4282922380095614,-0.34828206814256446,0.24903191055253066,0.94414790594891,0.21579582762149246,0.1732752504255266,0.1757857931734078,-0.9690588436768777,-0.9528687187207521,0.2787186513505769,-0.11982119292006811
08:07:30.490187,,-0.594882113301514,-0.37249057472247077,0.19709052418000003,0.1669025173527926,-0.5458216351321198,0.9176349842163017,,-0.0060842501643772195,0.5092004411144007,-0.44367580904984066,0.2461129552877812,0.9685439538410355,-0.03675626092910199,-0.7432035951712335,0.164238435381978,-0.6485939812146221,-0.6221549882176212,0.1869447667661588,0.7602465552797186,,-0.023961184553372417,0.2617971965539697,-0.08541688584015138,0.9531099313401423,0.0003954711532687914,0.3026220578269088,0.03787939245514932,0.9919779000393314,-0.12059769882059877,-0.30024226535925086,0.12640607950633548,0.9454495717148641,,0.027194247030986173,0.758052222939567,1.1994801867522682,0.9924365357525085,-0.10726834861546562,-0.05969274569720709,-0.04592614198395266,-0.7753849564778317,0.6298166072360598,-0.11384424441327862,-0.6223115543304514,-0.7744467814903666,,0.1327985151251469,0.6064208813492494,-0.4498589905191357,0.9948916978570719,-0.09442643765216413,-0.03569534153632663,-0.054152333940877574,-0.7976366160588071,0.600702383423781,-0.08519409758797097,-0.5957008280962663,-0.7986754592083034,,0.0,0.0,0.045,1.0,0.0,0.0,0.0,1.0,0.0,0.0,0.0,1.0,,-0.011918902424781328,-0.15947728233870473,0.25503599610310546,True,,0.007135753559185998,0.4277820417358714,-0.3467978432793123,0.48083844483464555,0.7521887799717215,0.4505623477984515,-0.16049295964568927,0.5806884947884573,-0.7981496613571184,-0.8619955915624897,0.31146895720917195,0.3999383562773947
08:07:30.599323,,-0.6064507671471023,-0.3718032514966648,0.19446553693000002,0.6028200218458275,-0.413558147238222,1.07198945252908,,-0.001741505029794338,0.4593687996934286,-0.3879593799372169,-0.02415850448515345,0.9860593152340215,-0.16463108303493024,-0.77996259109109,-0.12160466232191919,-0.6138979252286533,-0.6253596750347065,0.11357523031799402,0.7720271652595532,,-0.023991531580629177,0.26184900033121783,-0.08539625643367921,0.9531744828261247,0.00039856213291639825,0.30241854306113214,0.037746437583398365,0.9920217322800123,-0.1202780856339501,-0.3000538959732971,0.12606130485692835,0.9455553583364943,,0.027194247030986173,0.758052222939567,1.1994801867522682,0.9924365357525085,-0.10726834861546562,-0.05969274569720709,-0.04592614198395266,-0.7753849564778317,0.6298166072360598,-0.11384424441327862,-0.6223115543304514,-0.7744467814903666,,0.1327985151251469,0.6064208813492494,-0.4498589905191357,0.9948916978570719,-0.09442643765216413,-0.03569534153632663,-0.054152333940877574,-0.7976366160588071,0.600702383423781,-0.08519409758797097,-0.5957008280962663,-0.7986754592083034,,0.0,0.0,0.045,1.0,0.0,0.0,0.0,1.0,0.0,0.0,0.0,1.0,,-0.011918902424781328,-0.15947728233870473,0.25503599610310546,True,,0.007153440266667088,0.43047943223913937,-0.3462234223881334,0.7155363790509596,0.5500902153418086,0.4305908095162325,-0.3367139094200269,0.8116391478222457,-0.47735273847068393,-0.6120714283951862,0.19657733518282808,0.7659803638701809
08:07:30.713165,,-0.6215718781148339,-0.37370304378372404,0.19074777721000002,0.8481415611709121,-0.41114360080608187,1.1707819075581902,,-0.011050259096041876,0.47522544609818573,-0.40497417531809454,0.14675883115140145,0.98917076115122,-0.0017466432350326058,-0.7649418181474728,0.11237110216414141,-0.6342213732188905,-0.6271569662598935,0.09441366787670179,0.773149532102138,,-0.02403769306713674,0.2619206178342811,-0.08536819311437147,0.9532644307763283,0.00031728431035043386,0.3021352891753658,0.037645691829304787,0.9920813960343722,-0.11981742004782397,-0.29978097925170055,0.12559184524040595,0.9457044789498112,,0.027194247030986173,0.758052222939567,1.1994801867522682,0.9924365357525085,-0.10726834861546562,-0.05969274569720709,-0.04592614198395266,-0.7753849564778317,0.6298166072360598,-0.11384424441327862,-0.6223115543304514,-0.7744467814903666,,0.1327985151251469,0.6064208813492494,-0.4498589905191357,0.9948916978570719,-0.09442643765216413,-0.03569534153632663,-0.054152333940877574,-0.7976366160588071,0.600702383423781,-0.08519409758797097,-0.5957008280962663,-0.7986754592083034,,0.0,0.0,0.045,1.0,0.0,0.0,0.0,1.0,0.0,0.0,0.0,1.0,,-0.011918902424781328,-0.15947728233870473,0.25503599610310546,True,,0.006856364741281512,0.4342618487316639,-0.3484713065703395,0.8497783544613879,0.39692581628033996,0.3468813120637685,-0.33885666703625794,0.9153915211883581,-0.21733504581990948,-0.40379810239025926,0.06714357234054034,0.9123808597287517
08:07:30.724846,,-0.6351021061104752,-0.3770006507210179,0.18758871848000003,0.9420766463141923,-0.40175369801442584,1.223401514317212,,0.006443794541779652,0.43749835368448925,-0.3512290341066563,-0.6885680521257731,0.24667280223672017,-0.6819285638748406,0.5357228588222678,0.8068179326950127,-0.2490900279357695,0.4887484589510386,-0.5368401550912802,-0.6876973111439036,,-0.024090369958369856,0.2620024702640838,-0.08533710047415752,0.9533649365196047,0.00020896416324397635,0.3018193424454242,0.03754276008831603,0.9921511257069037,-0.11927424805344465,-0.2994753751231658,0.1250430382618,0.945874410057877,,0.027194247030986173,0.758052222939567,1.1994801867522682,0.9924365357525085,-0.10726834861546562,-0.05969274569720709,-0.04592614198395266,-0.7753849564778317,0.6298166072360598,-0.11384424441327862,-0.6223115543304514,-0.7744467814903666,,0.1327985151251469,0.6064208813492494,-0.4498589905191357,0.9948916978570719,-0.09442643765216413,-0.03569534153632663,-0.054152333940877574,-0.7976366160588071,0.600702383423781,-0.08519409758797097,-0.5957008280962663,-0.7986754592083034,,0.0,0.0,0.045,1.0,0.0,0.0,0.0,1.0,0.0,0.0,0.0,1.0,,-0.011918902424781328,-0.15947728233870473,0.25503599610310546,False,,0.006443794541779652,0.43749835368448925,-0.3512290341066563,0.8919459041554545,0.3462126891501489,0.2908079743262404,-0.3319734314027225,0.9381170169144504,-0.09864128658039073,-0.3069627744580943,-0.008557829570352941,0.9516830452677161
08:07:30.736784,,-0.6363686343018481,-0.3774022328304776,0.18741242304000003,0.9468992064889589,-0.40229026388823474,1.2247066705628118,,0.006352966020446105,0.43768572638367353,-0.3514751640151737,-0.6921961699214431,0.24095537397133157,-0.6802977069639589,0.5328857863056159,0.8063407661080334,-0.25660730244043173,0.48672086569154815,-0.5401435704205368,-0.6865476838747797,,-0.024111154371363207,0.26205070880266174,-0.08532225980827081,0.9533937810640121,0.00018529823724353425,0.3017285871220825,0.037468493572582334,0.992186822490909,-0.11900125065919843,-0.29939319733675684,0.12476037565515462,0.9459378618326453,,0.027194247030986173,0.758052222939567,1.1994801867522682,0.9924365357525085,-0.10726834861546562,-0.05969274569720709,-0.04592614198395266,-0.7753849564778317,0.6298166072360598,-0.11384424441327862,-0.6223115543304514,-0.7744467814903666,,0.1327985151251469,0.6064208813492494,-0.4498589905191357,0.9948916978570719,-0.09442643765216413,-0.03569534153632663,-0.054152333940877574,-0.7976366160588071,0.600702383423781,-0.08519409758797097,-0.5957008280962663,-0.7986754592083034,,0.0,0.0,0.045,1.0,0.0,0.0,0.0,1.0,0.0,0.0,0.0,1.0,,-0.011918902424781328,-0.15947728233870473,0.25503599610310546,False,,0.006352966020446105,0.43768572638367353,-0.3514751640151737,0.8940588473627431,0.34354444684656604,0.287464763916015,-0.3302428247701108,0.9390849016506888,-0.09517995681641137,-0.3026523651654835,-0.009836693174181399,0.953050253306265
08:07:30.748599,,-0.6376274397603466,-0.377796092207063,0.18723094244000002,0.9502540309583619,-0.40229026388823474,1.2265664749521674,,0.006142796624992203,0.438055716503991,-0.3519634442132348,-0.7019848066916242,0.2271984879833705,-0.6749801317314409,0.5250935461366595,0.8053863756202058,-0.2750082794589586,0.4811383366348505,-0.547479344837245,-0.6846694589338933,,-0.024090645570698538,0.262017615950125,-0.08533257646381455,0.9533611554223127,0.000286906592422833,0.3018317611732705,0.03743011204671938,0.9921681590466704,-0.11916928263033592,-0.2995020552191938,0.12490896242890691,0.9458838496670354,,0.027194247030986173,0.758052222939567,1.1994801867522682,0.9924365357525085,-0.10726834861546562,-0.05969274569720709,-0.04592614198395266,-0.7753849564778317,0.6298166072360598,-0.11384424441327862,-0.6223115543304514,-0.7744467814903666,,0.1327985151251469,0.6064208813492494,-0.4498589905191357,0.9948916978570719,-0.09442643765216413,-0.03569534153632663,-0.054152333940877574,-0.7976366160588071,0.600702383423781,-0.08519409758797097,-0.5957008280962663,-0.7986754592083034,,0.0,0.0,0.045,1.0,0.0,0.0,0.0,1.0,0.0,0.0,0.0,1.0,,-0.011918902424781328,-0.15947728233870473,0.25503599610310546,False,,0.006142796624992203,0.438055716503991,-0.3519634442132348,0.8973713434338735,0.3401354770304076,0.28112724743251427,-0.32893625890278155,0.9402750113558513,-0.08765751878073838,-0.294152357737835,-0.01381159965573666,0.9556587414721964
08:07:30.760689,,-0.6388553542873483,-0.3781976743165227,0.18705075813000002,0.953399178898427,-0.4014854150775214,1.228638316760706,,0.006033738098202179,0.43824116725412093,-0.3522059294519641,-0.705993731523864,0.22069630262195974,-0.672953187865253,0.5218427904998963,0.8045110238647231,-0.2836231910183233,0.47880366858691825,-0.5514119644051364,-0.6831485142035933,,-0.02410334694335197,0.2620284125879135,-0.08532746190805211,0.9533815693872815,0.0002723644186366399,0.3017673085307849,0.03741896671273816,0.9921751942390123,-0.11911424933472683,-0.2994384805105073,0.12485315086952328,0.945911352419008,,0.027194247030986173,0.758052222939567,1.1994801867522682,0.9924365357525085,-0.10726834861546562,-0.05969274569720709,-0.04592614198395266,-0.7753849564778317,0.6298166072360598,-0.11384424441327862,-0.6223115543304514,-0.7744467814903666,,0.1327985151251469,0.6064208813492494,-0.4498589905191357,0.9948916978570719,-0.09442643765216413,-0.03569534153632663,-0.054152333940877574,-0.7976366160588071,0.600702383423781,-0.08519409758797097,-0.5957008280962663,-0.7986754592083034,,0.0,0.0,0.045,1.0,0.0,0.0,0.0,1.0,0.0,0.0,0.0,1.0,,-0.011918902424781328,-0.15947728233870473,0.25503599610310546,False,,0.006033738098202179,0.43824116725412093,-0.3522059294519641,0.8984295892976727,0.33956870667886485,0.27841940758298145,-0.3294375530326499,0.9404397007161515,-0.08392894595296446,-0.2903363079710758,-0.016317559908228974,0.956785537888385
08:07:30.772703,,-0.6399056459582428,-0.3785606427616112,0.18689261075000002,0.9588507686612068,-0.4001440003929991,1.2305071086284483,,0.005941699914332077,0.4384052131730215,-0.35240636059923863,-0.7117985783890831,0.2136537159990444,-0.6691000474092644,0.5170728262991675,0.8041204024673285,-0.2933020126742612,0.4753719344957916,-0.5547454082510113,-0.6828462901108474,,-0.0241029611629803,0.26202954257055056,-0.08532744231988364,0.953374659253002,0.0002672525353066592,0.3017891404457842,0.03742079448129691,0.9921775856589171,-0.11909374575153613,-0.29946024920732206,0.12483414882485226,0.945906967969136,,0.027194247030986173,0.758052222939567,1.1994801867522682,0.9924365357525085,-0.10726834861546562,-0.05969274569720709,-0.04592614198395266,-0.7753849564778317,0.6298166072360598,-0.11384424441327862,-0.6223115543304514,-0.7744467814903666,,0.1327985151251469,0.6064208813492494,-0.4498589905191357,0.9948916978570719,-0.09442643765216413,-0.03569534153632663,-0.054152333940877574,-0.7976366160588071,0.600702383423781,-0.08519409758797097,-0.5957008280962663,-0.7986754592083034,,0.0,0.0,0.045,1.0,0.0,0.0,0.0,1.0,0.0,0.0,0.0,1.0,,-0.011918902424781328,-0.15947728233870473,0.25503599610310546,False,,0.005941699914332077,0.4384052131730215,-0.35240636059923863,0.9001267466335945,0.3385576197027878,0.27413605770858224,-0.329840247769085,0.9407434893946249,-0.07878513891117953,-0.2845650205953803,-0.019504494425843094,0.9584583056923983
08:07:30.785491,,-0.6418440519096732,-0.3793020251175368,0.18664242678,0.9754152144788832,-0.39625389780788445,1.230739817247919,,0.00584722609143945,0.43855723723353834,-0.3525878650753189,-0.7192931305892347,0.20639028636710205,-0.6633403666146391,0.5108015027827877,0.8042904332033117,-0.3036424275566164,0.4708494632491196,-0.5572431684201565,-0.6839450520378674,,-0.024102513574807125,0.2620296046712293,-0.08532755535311651,0.9533676639286939,0.0002646991577958009,0.301811238510635,0.03742171343232961,0.9921793599680369,-0.11907866895052227,-0.29948240202181525,0.12482004634510971,0.9459018148261855,,0.027194247030986173,0.758052222939567,1.1994801867522682,0.9924365357525085,-0.10726834861546562,-0.05969274569720709,-0.04592614198395266,-0.7753849564778317,0.6298166072360598,-0.11384424441327862,-0.6223115543304514,-0.7744467814903666,,0.1327985151251469,0.6064208813492494,-0.4498589905191357,0.9948916978570719,-0.09442643765216413,-0.03569534153632663,-0.054152333940877574,-0.7976366160588071,0.600702383423781,-0.08519409758797097,-0.5957008280962663,-0.7986754592083034,,0.0,0.0,0.045,1.0,0.0,0.0,0.0,1.0,0.0,0.0,0.0,1.0,,-0.011918902424781328,-0.15947728233870473,0.25503599610310546,False,,0.00584722609143945,0.43855723723353834,-0.3525878650753189,0.9024906362992163,0.3374506968447587,0.26765215969840905,-0.3302373708441916,0.9410733859445956,-0.0729668497654262,-0.2765030384826753,-0.022536846846023494,0.9607487498009494
08:07:30.797273,,-0.6427089979915863,-0.3796727162954996,0.18655039019000003,0.9840119521817281,-0.39424177578110103,1.2288246124320925,,0.005747230768676309,0.4386808207771291,-0.3527440405513602,-0.726922581723366,0.200144605178242,-0.6569061555493919,0.5042824899494648,0.8048954332755496,-0.31279787694697236,0.4661359571101593,-0.5586461120514586,-0.6860260862232462,,-0.024100431944899567,0.2620280700035735,-0.08532835292953397,0.9533517610445789,0.0002625384722007608,0.30186146286648874,0.03742398897225202,0.9921818756990594,-0.1190569719119665,-0.29953273066519914,0.1248000343949978,0.9458885170316861,,0.027194247030986173,0.758052222939567,1.1994801867522682,0.9924365357525085,-0.10726834861546562,-0.05969274569720709,-0.04592614198395266,-0.7753849564778317,0.6298166072360598,-0.11384424441327862,-0.6223115543304514,-0.7744467814903666,,0.1327985151251469,0.6064208813492494,-0.4498589905191357,0.9948916978570719,-0.09442643765216413,-0.03569534153632663,-0.054152333940877574,-0.7976366160588071,0.600702383423781,-0.08519409758797097,-0.5957008280962663,-0.7986754592083034,,0.0,0.0,0.045,1.0,0.0,0.0,0.0,1.0,0.0,0.0,0.0,1.0,,-0.011918902424781328,-0.15947728233870473,0.25503599610310546,False,,0.005747230768676309,0.4386808207771291,-0.3527440405513602,0.905030851569177,0.3363321052535336,0.2603840868480567,-0.33029965815213364,0.9414251276857912,-0.06797694304964944,-0.26799495057286804,-0.024483544218874914,0.9631091643889225
08:07:30.809385,,-0.6434426576146377,-0.3800202392748397,0.18647520537,0.994495778648612,-0.39209551228586537,1.2256704367712004,,0.005566360928000863,0.43887592067968206,-0.35300433796239183,-0.7423448971074081,0.19011636184260963,-0.6424794336773136,0.4906693993221741,0.807225265202096,-0.3280715040783378,0.4562538704574554,-0.5587872047382044,-0.6925238375055806,,-0.024096299597229785,0.2620260303340566,-0.08533016528086362,0.9533323862949605,0.0002596677740950605,0.3019226481053678,0.037429374671585,0.9921839466969786,-0.11903801684191367,-0.2995937161857784,0.12478357309601576,0.9458713743065392,,0.027194247030986173,0.758052222939567,1.1994801867522682,0.9924365357525085,-0.10726834861546562,-0.05969274569720709,-0.04592614198395266,-0.7753849564778317,0.6298166072360598,-0.11384424441327862,-0.6223115543304514,-0.7744467814903666,,0.1327985151251469,0.6064208813492494,-0.4498589905191357,0.9948916978570719,-0.09442643765216413,-0.03569534153632663,-0.054152333940877574,-0.7976366160588071,0.600702383423781,-0.08519409758797097,-0.5957008280962663,-0.7986754592083034,,0.0,0.0,0.045,1.0,0.0,0.0,0.0,1.0,0.0,0.0,0.0,1.0,,-0.011918902424781328,-0.15947728233870473,0.25503599610310546,False,,0.005566360928000863,0.43887592067968206,-0.35300433796239183,0.9104206010834266,0.33460428983230195,0.24325767891006747,-0.3300541729019095,0.9420214370880897,-0.060496735585706556,-0.2493964155174027,-0.02521073763917652,0.968073265117243
08:07:30.821520,,-0.6440604762445756,-0.38035231678843134,0.18640779829,1.0072860469382106,-0.38968096585372525,1.2216225972333328,,0.0054988774453774425,0.43895512601813014,-0.3530947231349199,-0.7517780934612618,0.18489051387793157,-0.6329653987934133,0.4820401889534306,0.8090826244029423,-0.33618828522568744,0.44996328119691176,-0.5578537485463386,-0.6973752510716933,,-0.024090884512418934,0.26202483388787934,-0.08533176953596659,0.9533111759406994,0.00025355848723512125,0.30198962624256287,0.037437496330896096,0.9921864574848043,-0.11901455489013614,-0.29966019508520547,0.12476364099895705,0.9458529474446058,,0.027194247030986173,0.758052222939567,1.1994801867522682,0.9924365357525085,-0.10726834861546562,-0.05969274569720709,-0.04592614198395266,-0.7753849564778317,0.6298166072360598,-0.11384424441327862,-0.6223115543304514,-0.7744467814903666,,0.1327985151251469,0.6064208813492494,-0.4498589905191357,0.9948916978570719,-0.09442643765216413,-0.03569534153632663,-0.054152333940877574,-0.7976366160588071,0.600702383423781,-0.08519409758797097,-0.5957008280962663,-0.7986754592083034,,0.0,0.0,0.045,1.0,0.0,0.0,0.0,1.0,0.0,0.0,0.0,1.0,,-0.011918902424781328,-0.15947728233870473,0.25503599610310546,False,,0.0054988774453774425,0.43895512601813014,-0.3530947231349199,0.9139198229082474,0.3330431030002729,0.23201906999060967,-0.32925757700692543,0.9425754810474664,-0.05604382670433754,-0.23736049645820684,-0.025174472627779707,0.9710953818492943
08:07:30.833070,,-0.6446010675457714,-0.38069983976777144,0.18634039121,1.0221730805211857,-0.3874005608900373,1.2172294507273753,,0.005448945816503431,0.4390279650440052,-0.35317454079135285,-0.7621028985730577,0.1790001090717458,-0.622220325076935,0.4723158945811714,0.8110285023629245,-0.3451817841093872,0.44285084138175856,-0.5569485876696832,-0.7026317691224996,,-0.02408849743845904,0.2620237479742309,-0.08533237815510963,0.9533011656182211,0.00025200763187855843,0.30202122782381713,0.03744049442060919,0.9921874633665604,-0.11900523034254577,-0.29969166645336154,0.12475564902438495,0.9458440310262697,,0.027194247030986173,0.758052222939567,1.1994801867522682,0.9924365357525085,-0.10726834861546562,-0.05969274569720709,-0.04592614198395266,-0.7753849564778317,0.6298166072360598,-0.11384424441327862,-0.6223115543304514,-0.7744467814903666,,0.1327985151251469,0.6064208813492494,-0.4498589905191357,0.9948916978570719,-0.09442643765216413,-0.03569534153632663,-0.054152333940877574,-0.7976366160588071,0.600702383423781,-0.08519409758797097,-0.5957008280962663,-0.7986754592083034,,0.0,0.0,0.045,1.0,0.0,0.0,0.0,1.0,0.0,0.0,0.0,1.0,,-0.011918902424781328,-0.15947728233870473,0.25503599610310546,False,,0.005448945816503431,0.4390279650440052,-0.35317454079135285,0.9179520372669288,0.33056258031358077,0.21929988092546332,-0.32764683770298086,0.9434427985407516,-0.05062840729107504,-0.22363275033127744,-0.025378462877446148,0.9743430230679782
08:07:30.845992,,-0.6451571043127156,-0.3812558765347156,0.18626779897,1.051527794628461,-0.38230318508885264,1.2069313565377104,,0.005415040055534448,0.4390725110797945,-0.3532203555565604,-0.7714769674069366,0.17406794270106668,-0.6119833658559802,0.46322053387352335,0.8130422433642904,-0.35268831495116176,0.4361765992789209,-0.5555741731119077,-0.7078752096326694,,-0.024086565027083895,0.2620237884677319,-0.08533271643762468,0.9532918796906822,0.0002481231883754466,0.3020505428345347,0.03744378994726419,0.9921891460021826,-0.11899017197144011,-0.29972079438393806,0.12474228179046239,0.9458365653872332,,0.027194247030986173,0.758052222939567,1.1994801867522682,0.9924365357525085,-0.10726834861546562,-0.05969274569720709,-0.04592614198395266,-0.7753849564778317,0.6298166072360598,-0.11384424441327862,-0.6223115543304514,-0.7744467814903666,,0.1327985151251469,0.6064208813492494,-0.4498589905191357,0.9948916978570719,-0.09442643765216413,-0.03569534153632663,-0.054152333940877574,-0.7976366160588071,0.600702383423781,-0.08519409758797097,-0.5957008280962663,-0.7986754592083034,,0.0,0.0,0.045,1.0,0.0,0.0,0.0,1.0,0.0,0.0,0.0,1.0,,-0.011918902424781328,-0.15947728233870473,0.25503599610310546,False,,0.005415040055534448,0.4390725110797945,-0.3532203555565604,0.9215699261082486,0.3282876986617083,0.20721017880460627,-0.3260466318872692,0.9442395506925771,-0.045883164045734226,-0.2107189244652817,-0.025275636792760736,0.9772198713989169
08:07:30.857497,,-0.6452111634428351,-0.38152617218531343,0.18624187317000002,1.0680922404461375,-0.3785472239721902,1.199723948851919,,0.005394335732978067,0.4391056429473475,-0.35323892864536355,-0.7813249518443403,0.16942078143009998,-0.6006895358211708,0.45337656159582723,0.815514610935816,-0.35970211668233165,0.4289300794080364,-0.5533827953323259,-0.7139933254654393,,-0.024086097127830705,0.26202518874773206,-0.08533245170202758,0.9532912309033531,0.00024426888526310475,0.30205259356131237,0.03744579193495657,0.9921899374841635,-0.11898294198400584,-0.29972260777386744,0.1247359938009757,0.9458368200177815,,0.027194247030986173,0.758052222939567,1.1994801867522682,0.9924365357525085,-0.10726834861546562,-0.05969274569720709,-0.04592614198395266,-0.7753849564778317,0.6298166072360598,-0.11384424441327862,-0.6223115543304514,-0.7744467814903666,,0.1327985151251469,0.6064208813492494,-0.4498589905191357,0.9948916978570719,-0.09442643765216413,-0.03569534153632663,-0.054152333940877574,-0.7976366160588071,0.600702383423781,-0.08519409758797097,-0.5957008280962663,-0.7986754592083034,,0.0,0.0,0.045,1.0,0.0,0.0,0.0,1.0,0.0,0.0,0.0,1.0,,-0.011918902424781328,-0.15947728233870473,0.25503599610310546,False,,0.005394335732978067,0.4391056429473475,-0.35323892864536355,0.9252598209877287,0.3261213586176701,0.19375015643637872,-0.3243991238850341,0.9450108360634766,-0.04146960507687085,-0.19662012127037892,-0.024482221630692223,0.9801740400233252
08:07:30.869512,,-0.6451339361140929,-0.38178874510303706,0.18621594737000002,1.0869631280865286,-0.3741205555132667,1.1916944551767181,,0.005401920983386876,0.43914205562899267,-0.3532159562534431,-0.80303065603328,0.15997658826879804,-0.5740638088894259,0.43054473268170634,0.8217701329395057,-0.3732627516490562,0.4120351910101829,-0.5469015814700688,-0.7287836863944881,,-0.02408579872228876,0.2620268260109789,-0.08533210533202988,0.953290855140855,0.0002399932380840672,0.3020537830196717,0.03744773139588935,0.9921908761739768,-0.11897450390251338,-0.2997235607131187,0.12472853550328217,0.9458375016423739,,0.027194247030986173,0.758052222939567,1.1994801867522682,0.9924365357525085,-0.10726834861546562,-0.05969274569720709,-0.04592614198395266,-0.7753849564778317,0.6298166072360598,-0.11384424441327862,-0.6223115543304514,-0.7744467814903666,,0.1327985151251469,0.6064208813492494,-0.4498589905191357,0.9948916978570719,-0.09442643765216413,-0.03569534153632663,-0.054152333940877574,-0.7976366160588071,0.600702383423781,-0.08519409758797097,-0.5957008280962663,-0.7986754592083034,,0.0,0.0,0.045,1.0,0.0,0.0,0.0,1.0,0.0,0.0,0.0,1.0,,-0.011918902424781328,-0.15947728233870473,0.25503599610310546,False,,0.005401920983386876,0.43914205562899267,-0.3532159562534431,0.9327548327651825,0.32226389571778397,0.16159951568613687,-0.3212614628477784,0.9464144639831351,-0.03302627518235758,-0.16358329511934358,-0.021110279020244004,0.986303635640458
08:07:30.881091,,-0.6449408677922372,-0.38206676348650914,0.18618872528000002,1.1085598106083097,-0.3691573211805342,1.183461911560721,,0.005431940088711978,0.439152874968534,-0.35317864835590485,-0.8156417380309937,0.15359974875779528,-0.5577953678216787,0.41649023037612215,0.825077260550452,-0.3818159270169409,0.40157744356851566,-0.5437413275667975,-0.7369402455510705,,-0.02408661357191671,0.26202738304874196,-0.08533204867316964,0.9532920410883727,0.00023937678535111348,0.30205004064455626,0.037446996539248795,0.9921912304157601,-0.1189717810798376,-0.29971988056319016,0.124725718846892,0.9458390392716787,,0.027194247030986173,0.758052222939567,1.1994801867522682,0.9924365357525085,-0.10726834861546562,-0.05969274569720709,-0.04592614198395266,-0.7753849564778317,0.6298166072360598,-0.11384424441327862,-0.6223115543304514,-0.7744467814903666,,0.1327985151251469,0.6064208813492494,-0.4498589905191357,0.9948916978570719,-0.09442643765216413,-0.03569534153632663,-0.054152333940877574,-0.7976366160588071,0.600702383423781,-0.08519409758797097,-0.5957008280962663,-0.7986754592083034,,0.0,0.0,0.045,1.0,0.0,0.0,0.0,1.0,0.0,0.0,0.0,1.0,,-0.011918902424781328,-0.15947728233870473,0.25503599610310546,False,,0.005431940088711978,0.439152874968534,-0.35317864835590485,0.9368773586404157,0.31937422162675955,0.14234086351873726,-0.3188594168584872,0.947416369138801,-0.027035084030145762,-0.1434903730137455,-0.020058166619933426,0.9894484235189945
08:07:30.894203,,-0.644315326429425,-0.38253785019183684,0.18615631803000002,1.1511241460638584,-0.35788943783054694,1.172585224975181,,0.005464890460039201,0.4391522678943447,-0.35313068238372214,-0.8274796636437615,0.14665463498960177,-0.5420053729365365,0.40270969191396444,0.8276766843874862,-0.39086597467661127,0.3912829031462621,-0.5417044620061793,-0.7439448672771583,,-0.024087258924241232,0.2620277031033961,-0.08533207365494781,0.9532929540122013,0.00023918168766199482,0.30204715951770333,0.03744632417721536,0.992191437416752,-0.11897026633741639,-0.29971706088610894,0.12472407249164527,0.9458401498693068,,0.027194247030986173,0.758052222939567,1.1994801867522682,0.9924365357525085,-0.10726834861546562,-0.05969274569720709,-0.04592614198395266,-0.7753849564778317,0.6298166072360598,-0.11384424441327862,-0.6223115543304514,-0.7744467814903666,,0.1327985151251469,0.6064208813492494,-0.4498589905191357,0.9948916978570719,-0.09442643765216413,-0.03569534153632663,-0.054152333940877574,-0.7976366160588071,0.600702383423781,-0.08519409758797097,-0.5957008280962663,-0.7986754592083034,,0.0,0.0,0.045,1.0,0.0,0.0,0.0,1.0,0.0,0.0,0.0,1.0,,-0.011918902424781328,-0.15947728233870473,0.25503599610310546,False,,0.005464890460039201,0.4391522678943447,-0.35313068238372214,0.9403616137049793,0.3166604379018973,0.12428275237516291,-0.31670159173558715,0.9483153189165037,-0.01995388935609714,-0.1241778452958212,-0.020596673907903804,0.9920461883206944
08:07:30.905776,,-0.6439446352514623,-0.3827386412465667,0.18613428110000002,1.174188564291003,-0.35037751559722213,1.1685715378551813,,0.005499617934663442,0.43915506054554737,-0.35306515925470955,-0.8400861303117664,0.13784916926935742,-0.524645499541881,0.3873464541646707,0.8295393597585229,-0.4022774851485929,0.3797604746466626,-0.5411673097510304,-0.7502798976068689,,-0.024088181465685483,0.26202742922581596,-0.08533206799870455,0.9532943277995778,0.00024070309122062664,0.3020428224202729,0.03744461955410712,0.9921913223330434,-0.11897176254005042,-0.29971290426011155,0.1247249849767874,0.9458413466702229,,0.027194247030986173,0.758052222939567,1.1994801867522682,0.9924365357525085,-0.10726834861546562,-0.05969274569720709,-0.04592614198395266,-0.7753849564778317,0.6298166072360598,-0.11384424441327862,-0.6223115543304514,-0.7744467814903666,,0.1327985151251469,0.6064208813492494,-0.4498589905191357,0.9948916978570719,-0.09442643765216413,-0.03569534153632663,-0.054152333940877574,-0.7976366160588071,0.600702383423781,-0.08519409758797097,-0.5957008280962663,-0.7986754592083034,,0.0,0.0,0.045,1.0,0.0,0.0,0.0,1.0,0.0,0.0,0.0,1.0,,-0.011918902424781328,-0.15947728233870473,0.25503599610310546,False,,0.005499617934663442,0.43915506054554737,-0.35306515925470955,0.9436318029343679,0.31377091849179073,0.10538895198099425,-0.3144691560764483,0.9492111638378943,-0.010359359153762137,-0.10328683540219778,-0.023366154033735386,0.9943771178372273
08:07:30.917732,,-0.6435739440734995,-0.3829162641026739,0.18611613304000002,1.199140071282187,-0.34125589574247056,1.164499754065195,,0.00552553339354564,0.43916936166966325,-0.3529953144777853,-0.8532514569310315,0.12775812147314694,-0.5056083599414913,0.37046092521544444,0.8308660200044048,-0.41523530641138506,0.36704312298909625,-0.541608270985306,-0.7562670339679752,,-0.02409016688533966,0.2620266784466134,-0.0853317562085962,0.953297442167862,0.0002443935345552428,0.302032989579318,0.03744066282047044,0.9921910046640595,-0.11897565632303453,-0.2997034922886018,0.12472750419106945,0.9458439967428515,,0.027194247030986173,0.758052222939567,1.1994801867522682,0.9924365357525085,-0.10726834861546562,-0.05969274569720709,-0.04592614198395266,-0.7753849564778317,0.6298166072360598,-0.11384424441327862,-0.6223115543304514,-0.7744467814903666,,0.1327985151251469,0.6064208813492494,-0.4498589905191357,0.9948916978570719,-0.09442643765216413,-0.03569534153632663,-0.054152333940877574,-0.7976366160588071,0.600702383423781,-0.08519409758797097,-0.5957008280962663,-0.7986754592083034,,0.0,0.0,0.045,1.0,0.0,0.0,0.0,1.0,0.0,0.0,0.0,1.0,,-0.011918902424781328,-0.15947728233870473,0.25503599610310546,False,,0.00552553339354564,0.43916936166966325,-0.3529953144777853,0.9463579657335663,0.3116697582726244,0.08525586473029347,-0.3128429906030627,0.9498047612922345,0.00042267852299874946,-0.08084469013582936,-0.02707170487585954,0.9963590009991159
08:07:30.930784,,-0.6432418665599079,-0.3830629960272841,0.18609020724000003,1.2270270496840983,-0.3298538709240311,1.1598921958360635,,0.005509841248790254,0.43924001068363205,-0.352832000926221,-0.8829331535550164,0.10279628797032778,-0.4581069411533895,0.3286276721017205,0.8321720719670724,-0.4466469475626511,0.3353101541593957,-0.5449060155820918,-0.7685340166186864,,-0.02409330169590769,0.2620256631853856,-0.0853308122830862,0.9533025699771415,0.00024983164673758954,0.30201679968461853,0.03743439143283847,0.9921906316786423,-0.11898073953293131,-0.2996879644657819,0.12473045989612361,0.9458485269645828,,0.027194247030986173,0.758052222939567,1.1994801867522682,0.9924365357525085,-0.10726834861546562,-0.05969274569720709,-0.04592614198395266,-0.7753849564778317,0.6298166072360598,-0.11384424441327862,-0.6223115543304514,-0.7744467814903666,,0.1327985151251469,0.6064208813492494,-0.4498589905191357,0.9948916978570719,-0.09442643765216413,-0.03569534153632663,-0.054152333940877574,-0.7976366160588071,0.600702383423781,-0.08519409758797097,-0.5957008280962663,-0.7986754592083034,,0.0,0.0,0.045,1.0,0.0,0.0,0.0,1.0,0.0,0.0,0.0,1.0,,-0.011918902424781328,-0.15947728233870473,0.25503599610310546,False,,0.005509841248790254,0.43924001068363205,-0.352832000926221,0.9500754308159411,0.30977435285207156,0.037370122758484496,-0.31079464923419975,0.950136818537195,0.0254305341549933,-0.02762900228554533,-0.03577535988774694,0.998977858542224
08:07:30.942769,,-0.64297157090931,-0.38317111428752326,0.18607854063,1.2536559689099835,-0.319256694916305,1.156450233068754,,0.0054730225733938265,0.4392835752142049,-0.35275064951384155,-0.8969857170226112,0.08953238901215985,-0.43289788030805526,0.30658582312087274,0.8314836736325899,-0.463292600355056,0.318467826504859,-0.5482871982822761,-0.7732783403671948,,-0.02409506726514643,0.2620252787396949,-0.08532998625623504,0.95330559022649,0.00025245316055887493,0.3020072641395194,0.03743091952124589,0.9921905487342195,-0.11898252371249517,-0.2996787906900148,0.12473111461300339,0.945851347274338,,0.027194247030986173,0.758052222939567,1.1994801867522682,0.9924365357525085,-0.10726834861546562,-0.05969274569720709,-0.04592614198395266,-0.7753849564778317,0.6298166072360598,-0.11384424441327862,-0.6223115543304514,-0.7744467814903666,,0.1327985151251469,0.6064208813492494,-0.4498589905191357,0.9948916978570719,-0.09442643765216413,-0.03569534153632663,-0.054152333940877574,-0.7976366160588071,0.600702383423781,-0.08519409758797097,-0.5957008280962663,-0.7986754592083034,,0.0,0.0,0.045,1.0,0.0,0.0,0.0,1.0,0.0,0.0,0.0,1.0,,-0.011918902424781328,-0.15947728233870473,0.25503599610310546,False,,0.0054730225733938265,0.4392835752142049,-0.35275064951384155,0.9509553074810508,0.3090516031915848,0.013080892107631753,-0.3093279097452937,0.9501714135296808,0.0386073718817481,-0.0004974195690697451,-0.04076017021210048,0.9991688351315071
08:07:30.955234,,-0.6426858297929637,-0.38329467801351086,0.18607335547,1.3119460440658584,-0.29819648436930507,1.1545248871579123,,0.005412826049599001,0.4393361211384101,-0.3526686842186163,-0.9110846842738107,0.07471569024580946,-0.4053914943764643,0.28263137748881456,0.8291124578316755,-0.48238162975707666,0.3000736618573277,-0.5540668713245817,-0.776508660325256,,-0.024095538650299057,0.26202406631347724,-0.0853296806178681,0.9533065118711664,0.0002558859942597899,0.3020043521062661,0.037428854898285735,0.9921899045010735,-0.11898854554910566,-0.299676116815756,0.12473623239959776,0.9458515195746745,,0.027194247030986173,0.758052222939567,1.1994801867522682,0.9924365357525085,-0.10726834861546562,-0.05969274569720709,-0.04592614198395266,-0.7753849564778317,0.6298166072360598,-0.11384424441327862,-0.6223115543304514,-0.7744467814903666,,0.1327985151251469,0.6064208813492494,-0.4498589905191357,0.9948916978570719,-0.09442643765216413,-0.03569534153632663,-0.054152333940877574,-0.7976366160588071,0.600702383423781,-0.08519409758797097,-0.5957008280962663,-0.7986754592083034,,0.0,0.0,0.045,1.0,0.0,0.0,0.0,1.0,0.0,0.0,0.0,1.0,,-0.011918902424781328,-0.15947728233870473,0.25503599610310546,False,,0.005412826049599001,0.4393361211384101,-0.3526686842186163,0.9513943576283413,0.3077277446380232,-0.012345503349466828,-0.3066651322939796,0.9502791882976819,0.054092152142572104,0.028377330883508172,-0.04767703292251687,0.9984596274380019
08:07:30.967324,,-0.6426394933957184,-0.3833024007463851,0.18607076289000002,1.3433975234665103,-0.2877334498300312,1.1564547938786816,,0.005337158423754262,0.43939791194000344,-0.3525886508980378,-0.924598418030779,0.058967846185737804,-0.3763516420732027,0.25753272572486935,0.8247401765136841,-0.5034685058917752,0.28070386629987865,-0.5624290482899976,-0.7777396126493156,,-0.024095224350907964,0.26202273686478367,-0.08532965050712538,0.9533061537825078,0.0002588663089433327,0.3020054798193083,0.03742801006508575,0.992189140593867,-0.118995180752947,-0.29967736136589357,0.12474230223982875,0.9458503247390351,,0.027194247030986173,0.758052222939567,1.1994801867522682,0.9924365357525085,-0.10726834861546562,-0.05969274569720709,-0.04592614198395266,-0.7753849564778317,0.6298166072360598,-0.11384424441327862,-0.6223115543304514,-0.7744467814903666,,0.1327985151251469,0.6064208813492494,-0.4498589905191357,0.9948916978570719,-0.09442643765216413,-0.03569534153632663,-0.054152333940877574,-0.7976366160588071,0.600702383423781,-0.08519409758797097,-0.5957008280962663,-0.7986754592083034,,0.0,0.0,0.045,1.0,0.0,0.0,0.0,1.0,0.0,0.0,0.0,1.0,,-0.011918902424781328,-0.15947728233870473,0.25503599610310546,False,,0.005337158423754262,0.43939791194000344,-0.3525886508980378,0.951246244007123,0.30604235174743155,-0.0383231287767895,-0.30286360845899296,0.9503372672500885,0.07164295601684689,0.05834567621974098,-0.056543411751815986,0.9966938470031435
08:07:30.980651,,-0.6426240479299699,-0.3832792325477624,0.18606817031000003,1.3754780324551752,-0.27780698116456626,1.1601031467093517,,0.005155357659015342,0.43955330431291373,-0.35243188025013883,-0.9489856992081283,0.02618326335328977,-0.3142301376676533,0.2048344752269055,0.8088320024939287,-0.5512110571280112,0.2397268872216429,-0.5874565758095093,-0.7729332384373103,,-0.024092445288444418,0.26202188726939946,-0.08533039596397408,0.9533017685934297,0.00025835151785089105,0.3020193216066037,0.037431794440597126,0.9921884871958406,-0.11899943703046294,-0.29969083758796633,0.12474749898536426,0.9458453693576454,,0.027194247030986173,0.758052222939567,1.1994801867522682,0.9924365357525085,-0.10726834861546562,-0.05969274569720709,-0.04592614198395266,-0.7753849564778317,0.6298166072360598,-0.11384424441327862,-0.6223115543304514,-0.7744467814903666,,0.1327985151251469,0.6064208813492494,-0.4498589905191357,0.9948916978570719,-0.09442643765216413,-0.03569534153632663,-0.054152333940877574,-0.7976366160588071,0.600702383423781,-0.08519409758797097,-0.5957008280962663,-0.7986754592083034,,0.0,0.0,0.045,1.0,0.0,0.0,0.0,1.0,0.0,0.0,0.0,1.0,,-0.011918902424781328,-0.15947728233870473,0.25503599610310546,False,,0.005155357659015342,0.43955330431291373,-0.35243188025013883,0.9488612959672694,0.30202468920358455,-0.09188758418193393,-0.2913981183109173,0.9498904505023603,0.11311617342042521,0.12144701585535347,-0.0805556897798115,0.9893237100079671
08:07:30.992371,,-0.6426703843272152,-0.38324834161626553,0.18606428144,1.409445630207879,-0.268282936904458,1.162853341923853,,0.005054041681330168,0.43964156248642416,-0.35236042250793004,-0.9596425686809428,0.010647365302322853,-0.2810209493748835,0.17738290363295278,0.7983419305295558,-0.575487156639559,0.2182233852596566,-0.6021102852222843,-0.7680115614724526,,-0.024088909679369237,0.26202136066540915,-0.08533163579458586,0.95329600968412,0.0002563153848724811,0.30203750052627976,0.037437283674440894,0.9921879491166364,-0.11900219712344386,-0.29970847037215753,0.12475178328004384,0.9458392172335822,,0.027194247030986173,0.758052222939567,1.1994801867522682,0.9924365357525085,-0.10726834861546562,-0.05969274569720709,-0.04592614198395266,-0.7753849564778317,0.6298166072360598,-0.11384424441327862,-0.6223115543304514,-0.7744467814903666,,0.1327985151251469,0.6064208813492494,-0.4498589905191357,0.9948916978570719,-0.09442643765216413,-0.03569534153632663,-0.054152333940877574,-0.7976366160588071,0.600702383423781,-0.08519409758797097,-0.5957008280962663,-0.7986754592083034,,0.0,0.0,0.045,1.0,0.0,0.0,0.0,1.0,0.0,0.0,0.0,1.0,,-0.011918902424781328,-0.15947728233870473,0.25503599610310546,False,,0.005054041681330168,0.43964156248642416,-0.35236042250793004,0.9465466068320805,0.29927112610876627,-0.12035910506590725,-0.28318606578061245,0.9496331776796725,0.13417332073741933,0.15445120019725922,-0.09291728002690704,0.9836214748723351
