AlexandreBanks6/RCL_Autocam_Public/dataCollection/ParticipantData/Pilot01/OptimizationData/Data_11.csv
System Time,q_des,q0,q1,q2,q3,q4,q5,T_des,Tx,Ty,Tz,R00,R01,R02,R10,R11,R12,R20,R21,R22,T_target,Tx,Ty,Tz,R00,R01,R02,R10,R11,R12,R20,R21,R22,worldFrame,Tx,Ty,Tz,R00,R01,R02,R10,R11,R12,R20,R21,R22,ECM_T_PSM_RCM,Tx,Ty,Tz,R00,R01,R02,R10,R11,R12,R20,R21,R22,psm3_T_cam,Tx,Ty,Tz,R00,R01,R02,R10,R11,R12,R20,R21,R22,offset,x,y,z,IK Trigered,ECM_T_PSM3,Tx,Ty,Tz,R00,R01,R02,R10,R11,R12,R20,R21,R22
09:48:33.716839,,-0.19026496982226926,-0.5051594027687736,0.04726662227,2.9361004403155206,-0.4104728934638207,0.7309082223926813,,0.11697097560449185,0.5262955466494738,-0.4068967377879859,-0.45368103403962656,-0.4484115427717006,-0.7701302536985796,0.6726512332633784,0.3945589371933728,-0.6259900665905908,0.5845629459194205,-0.8020288856331419,0.1226206706394531,,-0.009315172658838416,0.284494618372998,-0.11038532106683704,0.7992411284271749,-0.42479607918536033,0.42516103977105124,0.49620131655414157,0.865541369624718,-0.06798816748599727,-0.3391133616954556,0.26530440738312755,0.9025606347180751,,0.02708271473312675,0.7553707625887367,1.201059175102431,0.9924375907233272,-0.10709333496636303,-0.05998871664788355,-0.04536804055907484,-0.774116664425919,0.6314151809656776,-0.11405862271265524,-0.6239185904137428,-0.7731210921459979,,0.13270802882795202,0.6072036163898038,-0.44861459691199546,0.9949230583746996,-0.09399190512119329,-0.03596706390606161,-0.053465129630694,-0.7964365872761937,0.6023539178601092,-0.0852618779285749,-0.5973728184471894,-0.7974184146058795,,0.0,0.0,0.045,1.0,0.0,0.0,0.0,1.0,0.0,0.0,0.0,1.0,,-0.011918902424781328,-0.15947728233870473,0.25503599610310546,False,,0.11697097560449185,0.5262955466494738,-0.4068967377879859,0.2631562390484007,-0.6617122686713155,-0.7020581652112324,0.6987198750831249,0.6325071415830644,-0.33425327524235826,0.6652362963742459,-0.40258115869509126,0.6287997142572462
09:48:35.141809,,-0.16155184899590253,-0.48847057702757446,0.04698791992,3.719871306979765,-0.28894072304610124,0.7065118062120995,,0.11684598785506894,0.5261675493526625,-0.4069523356469538,-0.22435972564428375,-0.5908417464855082,-0.7749637050331946,0.7461695573977125,0.40734858140648467,-0.526591041358497,0.6268123364466621,-0.6964001463498404,0.34947550850123604,,-0.009341313410284624,0.2844875208985045,-0.11038104946147846,0.799248279162438,-0.42478134052794453,0.42516232294461814,0.49618695650077344,0.8655493524143947,-0.06799134202250383,-0.33911751991143263,0.2653019621691554,0.9025597910470058,,0.02708271473312675,0.7553707625887367,1.201059175102431,0.9924375907233272,-0.10709333496636303,-0.05998871664788355,-0.04536804055907484,-0.774116664425919,0.6314151809656776,-0.11405862271265524,-0.6239185904137428,-0.7731210921459979,,0.1326234310901784,0.6072159196066492,-0.4486138082202542,0.9949098404668286,-0.09412890927708031,-0.035974404520120316,-0.053569767345141794,-0.7964250869675975,0.6023598267441499,-0.08535039173230224,-0.5973665786491258,-0.7974136199891377,,0.0,0.0,0.045,1.0,0.0,0.0,0.0,1.0,0.0,0.0,0.0,1.0,,-0.011918902424781328,-0.15947728233870473,0.25503599610310546,False,,0.11684598785506894,0.5261675493526625,-0.4069523356469538,-0.4538446070272251,-0.4474635272493288,-0.7705851441949116,0.6761359306074615,0.39033957780689765,-0.6248801623824484,0.5804009614170929,-0.8046187953180824,0.12539265611267775
09:48:35.153313,,-0.16155957172877675,-0.48847057702757446,0.04698791992,3.719871306979765,-0.28894072304610124,0.7065118062120995,,0.11684598785506894,0.5261675493526625,-0.4069523356469538,-0.22434739474156867,-0.5908192366099168,-0.774984436052974,0.7461722330391181,0.4073702126000316,-0.526570516196664,0.6268135648772183,-0.6964065906766537,0.3494604632115526,,-0.009350026994046518,0.2844851550734237,-0.11037962559200469,0.7992506627121503,-0.42477642762835194,0.42516275067076187,0.4961821698025602,0.8655520133165306,-0.06799240020890487,-0.33911890598528455,0.2653011470903208,0.9025595098542523,,0.02708271473312675,0.7553707625887367,1.201059175102431,0.9924375907233272,-0.10709333496636303,-0.05998871664788355,-0.04536804055907484,-0.774116664425919,0.6314151809656776,-0.11405862271265524,-0.6239185904137428,-0.7731210921459979,,0.1326234310901784,0.6072159196066492,-0.4486138082202542,0.9949098404668286,-0.09412890927708031,-0.035974404520120316,-0.053569767345141794,-0.7964250869675975,0.6023598267441499,-0.08535039173230224,-0.5973665786491258,-0.7974136199891377,,0.0,0.0,0.045,1.0,0.0,0.0,0.0,1.0,0.0,0.0,0.0,1.0,,-0.011918902424781328,-0.15947728233870473,0.25503599610310546,False,,0.11684598785506894,0.5261675493526625,-0.4069523356469538,-0.4538446070272251,-0.4474635272493288,-0.7705851441949116,0.6761359306074615,0.39033957780689765,-0.6248801623824484,0.5804009614170929,-0.8046187953180824,0.12539265611267775
09:48:35.164834,,-0.16156729446165097,-0.4884628542947002,0.04698791992,3.7196616304504277,-0.28894072304610124,0.7065118062120995,,0.11684535760955446,0.5261676526430771,-0.40695237413119373,-0.22434388256619173,-0.5908132222226139,-0.774990037872784,0.7461729951109505,0.407376103724303,-0.5265648787011523,0.6268139147484523,-0.6964082470514965,0.3494565348028017,,-0.009354383785917434,0.28448397216083643,-0.11037891365707642,0.7992518544816233,-0.4247739711759705,0.42516296453413777,0.4961797764508741,0.8655533437623942,-0.06799292930352392,-0.3391195990225592,0.26530073954949535,0.9025593692636759,,0.02708271473312675,0.7553707625887367,1.201059175102431,0.9924375907233272,-0.10709333496636303,-0.05998871664788355,-0.04536804055907484,-0.774116664425919,0.6314151809656776,-0.11405862271265524,-0.6239185904137428,-0.7731210921459979,,0.1326234310901784,0.6072159196066492,-0.4486138082202542,0.9949098404668286,-0.09412890927708031,-0.035974404520120316,-0.053569767345141794,-0.7964250869675975,0.6023598267441499,-0.08535039173230224,-0.5973665786491258,-0.7974136199891377,,0.0,0.0,0.045,1.0,0.0,0.0,0.0,1.0,0.0,0.0,0.0,1.0,,-0.011918902424781328,-0.15947728233870473,0.25503599610310546,False,,0.11684535760955446,0.5261676526430771,-0.40695237413119373,-0.45384505731138763,-0.44745677761124986,-0.7705887983378553,0.6761384459928317,0.39034105783366463,-0.6248765161371441,0.5803976790136415,-0.8046218308864435,0.1253883704995234
09:48:35.178607,,-0.1615750171945252,-0.4884860224933229,0.04698791992,3.7177745416863885,-0.2890748645145535,0.7067175523964117,,0.11684878414623888,0.5261688755853485,-0.406949502226308,-0.2250814639392308,-0.5906268440806024,-0.7749182315847012,0.7460127272143452,0.40712371291401217,-0.5269869953018993,0.6267402535542039,-0.6967138676921085,0.348979141411511,,-0.009357174483994616,0.2844830898667812,-0.1103783983585651,0.799253345650119,-0.4247721058271271,0.4251620249726474,0.49617794109999636,0.8655542947279544,-0.06799421699177516,-0.3391187699515063,0.26530062361356027,0.9025597148540345,,0.02708271473312675,0.7553707625887367,1.201059175102431,0.9924375907233272,-0.10709333496636303,-0.05998871664788355,-0.04536804055907484,-0.774116664425919,0.6314151809656776,-0.11405862271265524,-0.6239185904137428,-0.7731210921459979,,0.1326234310901784,0.6072159196066492,-0.4486138082202542,0.9949098404668286,-0.09412890927708031,-0.035974404520120316,-0.053569767345141794,-0.7964250869675975,0.6023598267441499,-0.08535039173230224,-0.5973665786491258,-0.7974136199891377,,0.0,0.0,0.045,1.0,0.0,0.0,0.0,1.0,0.0,0.0,0.0,1.0,,-0.011918902424781328,-0.15947728233870473,0.25503599610310546,False,,0.11684878414623888,0.5261688755853485,-0.406949502226308,-0.4521176018869705,-0.4483966996346447,-0.7710577629599052,0.6764496657875942,0.39108616749606895,-0.6240732803518263,0.5813824246740068,-0.8037362809715605,0.12650085742862693
09:48:35.192206,,-0.16159046266027363,-0.4885169134248198,0.04698662363,3.714629393746324,-0.28987971332526685,0.7070565681296309,,0.11685185261805744,0.5261758020880662,-0.4069425947004262,-0.22646970537552819,-0.590331217381719,-0.7747390052990355,0.745709837850547,0.40661085482977755,-0.5278109988125563,0.6266005986910899,-0.6972636994130808,0.3481307558960464,,-0.009367807407604364,0.28448007833016714,-0.11037660157640222,0.7992569819830938,-0.4247658188522726,0.42516147036023605,0.496171797703825,0.8655576404753201,-0.06799645704736675,-0.339119188350459,0.2652997741092106,0.9025598074050113,,0.02708271473312675,0.7553707625887367,1.201059175102431,0.9924375907233272,-0.10709333496636303,-0.05998871664788355,-0.04536804055907484,-0.774116664425919,0.6314151809656776,-0.11405862271265524,-0.6239185904137428,-0.7731210921459979,,0.1326234310901784,0.6072159196066492,-0.4486138082202542,0.9949098404668286,-0.09412890927708031,-0.035974404520120316,-0.053569767345141794,-0.7964250869675975,0.6023598267441499,-0.08535039173230224,-0.5973665786491258,-0.7974136199891377,,0.0,0.0,0.045,1.0,0.0,0.0,0.0,1.0,0.0,0.0,0.0,1.0,,-0.011918902424781328,-0.15947728233870473,0.25503599610310546,False,,0.11685185261805744,0.5261758020880662,-0.4069425947004262,-0.4493451557605632,-0.44960861891674475,-0.7719721632224135,0.6773452834977138,0.3919623857238813,-0.62255028319088,0.5824880238407626,-0.8026316577194177,0.1284138781777987
09:48:35.204183,,-0.16165996725614165,-0.48871770447954965,0.046991808790000006,3.7047745968674524,-0.2924284012258592,0.7066262020563956,,0.1168549601311787,0.5261795532855746,-0.40693485929740186,-0.22836315536598362,-0.5898224810950485,-0.7745706617644209,0.7452941065002645,0.4059826982770227,-0.5288806514854562,0.626407985331656,-0.6980598036662685,0.3468797290389663,,-0.009367630785593503,0.28448025087683737,-0.11037668971541412,0.7992562058714175,-0.4247662103275811,0.4251625382406975,0.496172197042151,0.8655574877717666,-0.06799548682003982,-0.3391204332411899,0.2652996455132845,0.9025593774550983,,0.02708271473312675,0.7553707625887367,1.201059175102431,0.9924375907233272,-0.10709333496636303,-0.05998871664788355,-0.04536804055907484,-0.774116664425919,0.6314151809656776,-0.11405862271265524,-0.6239185904137428,-0.7731210921459979,,0.1326234310901784,0.6072159196066492,-0.4486138082202542,0.9949098404668286,-0.09412890927708031,-0.035974404520120316,-0.053569767345141794,-0.7964250869675975,0.6023598267441499,-0.08535039173230224,-0.5973665786491258,-0.7974136199891377,,0.0,0.0,0.045,1.0,0.0,0.0,0.0,1.0,0.0,0.0,0.0,1.0,,-0.011918902424781328,-0.15947728233870473,0.25503599610310546,False,,0.1168549601311787,0.5261795532855746,-0.40693485929740186,-0.44547837955584235,-0.4516224279227492,-0.7730369951984591,0.6785300337101945,0.3929903819660752,-0.6206090178489201,0.5840770554486315,-0.8009967180203175,0.131370662703424
09:48:35.216523,,-0.16171402638626123,-0.4888644364041599,0.04699440137000001,3.6980649479286467,-0.2941722403157382,0.7060634651820917,,0.11685831134273979,0.5261853621483632,-0.40692550433398833,-0.23079988330910084,-0.5889917511526499,-0.7744805555587825,0.7447546456059604,0.4052940867697386,-0.5301671633341921,0.6261564754219553,-0.6991605111157368,0.3451125149622016,,-0.009367807408663015,0.2844800783304849,-0.11037660157786552,0.7992569819783272,-0.42476581884973924,0.42516147035770036,0.4961717977008658,0.865557640470158,-0.06799645704696125,-0.33911918834843646,0.2652997741076283,0.9025598073996285,,0.02708271473312675,0.7553707625887367,1.201059175102431,0.9924375907233272,-0.10709333496636303,-0.05998871664788355,-0.04536804055907484,-0.774116664425919,0.6314151809656776,-0.11405862271265524,-0.6239185904137428,-0.7731210921459979,,0.1326234310901784,0.6072159196066492,-0.4486138082202542,0.9949098404668286,-0.09412890927708031,-0.035974404520120316,-0.053569767345141794,-0.7964250869675975,0.6023598267441499,-0.08535039173230224,-0.5973665786491258,-0.7974136199891377,,0.0,0.0,0.045,1.0,0.0,0.0,0.0,1.0,0.0,0.0,0.0,1.0,,-0.011918902424781328,-0.15947728233870473,0.25503599610310546,False,,0.11685831134273979,0.5261853621483632,-0.40692550433398833,-0.4406385169931999,-0.4545047913930427,-0.7741208509934352,0.6800839312306697,0.3938571925247755,-0.6183545571743932,0.5859381740626493,-0.7989379866405583,0.1355527560725336
09:48:35.229114,,-0.1617680855163808,-0.48903433652739287,0.04699699395,3.689887563284478,-0.2961843623425216,0.7056366941002109,,0.11686976612513719,0.5262008813123514,-0.4069025079537828,-0.23729050373925847,-0.5867849257240829,-0.7741942054666591,0.7432932244528525,0.40345478981409916,-0.5336097966290936,0.6254665453224901,-0.7020738447763482,0.34041726919077686,,-0.009367630786652162,0.2844802508771551,-0.11037668971687742,0.7992562058666505,-0.42476621032504774,0.4251625382381617,0.49617219703919174,0.865557487766604,-0.06799548681963426,-0.33912043323916724,0.2652996455117022,0.902559377449715,,0.02708271473312675,0.7553707625887367,1.201059175102431,0.9924375907233272,-0.10709333496636303,-0.05998871664788355,-0.04536804055907484,-0.774116664425919,0.6314151809656776,-0.11405862271265524,-0.6239185904137428,-0.7731210921459979,,0.1326234310901784,0.6072159196066492,-0.4486138082202542,0.9949098404668286,-0.09412890927708031,-0.035974404520120316,-0.053569767345141794,-0.7964250869675975,0.6023598267441499,-0.08535039173230224,-0.5973665786491258,-0.7974136199891377,,0.0,0.0,0.045,1.0,0.0,0.0,0.0,1.0,0.0,0.0,0.0,1.0,,-0.011918902424781328,-0.15947728233870473,0.25503599610310546,False,,0.11686976612513719,0.5262008813123514,-0.4069025079537828,-0.4274448256020601,-0.4621425104014892,-0.7769911332478858,0.6840532369573817,0.3965869265263962,-0.612200930019283,0.5910686001422785,-0.793185419550912,0.14661105053061674
09:48:35.242348,,-0.16182214464650038,-0.48925829578074537,0.04700217911000001,3.679403736817594,-0.2985989087746617,0.7052072267748142,,0.11688124278921153,0.5262083466496663,-0.40688710373519915,-0.24170536705425436,-0.5852469206870682,-0.773992608080641,0.7422787705846469,0.4022283712151583,-0.5359426873546705,0.6249805935199216,-0.7040585055348068,0.3371956086718525,,-0.009367113328372973,0.2844803914983285,-0.11037694169609447,0.7992545765034905,-0.42476625186470124,0.4251655597313123,0.4961729082755028,0.8655571418505318,-0.06799470017265186,-0.339123232760978,0.2653007075658723,0.9025580133893844,,0.02708271473312675,0.7553707625887367,1.201059175102431,0.9924375907233272,-0.10709333496636303,-0.05998871664788355,-0.04536804055907484,-0.774116664425919,0.6314151809656776,-0.11405862271265524,-0.6239185904137428,-0.7731210921459979,,0.1326234310901784,0.6072159196066492,-0.4486138082202542,0.9949098404668286,-0.09412890927708031,-0.035974404520120316,-0.053569767345141794,-0.7964250869675975,0.6023598267441499,-0.08535039173230224,-0.5973665786491258,-0.7974136199891377,,0.0,0.0,0.045,1.0,0.0,0.0,0.0,1.0,0.0,0.0,0.0,1.0,,-0.011918902424781328,-0.15947728233870473,0.25503599610310546,False,,0.11688124278921153,0.5262083466496663,-0.40688710373519915,-0.41816978260123017,-0.4673618115646473,-0.7789139682983295,0.6866082750635284,0.39878938312500434,-0.6078948136981138,0.5947294422958442,-0.7890120182847594,0.15413281762390652
09:48:35.254039,,-0.1619920447697333,-0.48988383714355754,0.04701384572,3.6542425532970717,-0.3045011333865598,0.7036522857008097,,0.11689350199353908,0.5262203593484025,-0.40686858686907806,-0.24723914607770087,-0.58339362503501,-0.7736437700358476,0.7409837768379668,0.40063837330560936,-0.5389173742773353,0.6243523421191848,-0.7064989540710909,0.33323172235959625,,-0.009367080799411471,0.2844806109615905,-0.1103769612043429,0.7992729961073001,-0.42473447965995653,0.42516266993050306,0.4961369727500233,0.8655778656350482,-0.06799308210329073,-0.3391323906454388,0.2652839549076577,0.9025594946065602,,0.02708271473312675,0.7553707625887367,1.201059175102431,0.9924375907233272,-0.10709333496636303,-0.05998871664788355,-0.04536804055907484,-0.774116664425919,0.6314151809656776,-0.11405862271265524,-0.6239185904137428,-0.7731210921459979,,0.1326234310901784,0.6072159196066492,-0.4486138082202542,0.9949098404668286,-0.09412890927708031,-0.035974404520120316,-0.053569767345141794,-0.7964250869675975,0.6023598267441499,-0.08535039173230224,-0.5973665786491258,-0.7974136199891377,,0.0,0.0,0.045,1.0,0.0,0.0,0.0,1.0,0.0,0.0,0.0,1.0,,-0.011918902424781328,-0.15947728233870473,0.25503599610310546,False,,0.11689350199353908,0.5262203593484025,-0.40686858686907806,-0.40668653592629517,-0.4733900386248968,-0.781350070600233,0.6899319262082118,0.4014719813890044,-0.6023405891671371,0.5988321957734881,-0.7840421669083276,0.16333365181369458
09:48:35.266909,,-0.16208471756422402,-0.4902622510543945,0.04702162346,3.6420813145954867,-0.3070498212871522,0.7022575766108714,,0.11690750447790751,0.5262242867802877,-0.4068573715958673,-0.2522146003903003,-0.5812558838837966,-0.7736468139922943,0.7397970965024147,0.39953737274068113,-0.5413595328338378,0.6237692292479312,-0.7088804449510091,0.32924225641539606,,-0.009367722248620727,0.2844803597248912,-0.11037664772872906,0.7993129341302804,-0.42466936587035786,0.4251526181686301,0.49606350078257344,0.8656199177985205,-0.06799372628523402,-0.33914572418904326,0.265250962890018,0.902564175093682,,0.02708271473312675,0.7553707625887367,1.201059175102431,0.9924375907233272,-0.10709333496636303,-0.05998871664788355,-0.04536804055907484,-0.774116664425919,0.6314151809656776,-0.11405862271265524,-0.6239185904137428,-0.7731210921459979,,0.1326234310901784,0.6072159196066492,-0.4486138082202542,0.9949098404668286,-0.09412890927708031,-0.035974404520120316,-0.053569767345141794,-0.7964250869675975,0.6023598267441499,-0.08535039173230224,-0.5973665786491258,-0.7974136199891377,,0.0,0.0,0.045,1.0,0.0,0.0,0.0,1.0,0.0,0.0,0.0,1.0,,-0.011918902424781328,-0.15947728233870473,0.25503599610310546,False,,0.11690750447790751,0.5262242867802877,-0.4068573715958673,-0.39573086695532456,-0.4800979846218748,-0.7828812209401891,0.6925550618230955,0.4038431090545036,-0.5977275546705211,0.6031289806351504,-0.7787275957812246,0.1726811057608737
09:48:35.279450,,-0.16219283582446314,-0.4906638331638542,0.04702810491000001,3.628032987129862,-0.3100009335931012,0.7012734611417184,,0.11693873901134191,0.5262285926552683,-0.40684073737313964,-0.2625769354915755,-0.5766730445792639,-0.7736288209493848,0.7372573098500979,0.39734232349675414,-0.5464162671725628,0.6224990056381212,-0.713839812292564,0.32082348786469383,,-0.009367833778775942,0.2844806261458464,-0.11037659856230009,0.7993505413789188,-0.4246054250660774,0.4251457716000353,0.49599122519165334,0.8656615089700823,-0.06799145923001601,-0.3391627907625132,0.265217584258284,0.9025675689221766,,0.02708271473312675,0.7553707625887367,1.201059175102431,0.9924375907233272,-0.10709333496636303,-0.05998871664788355,-0.04536804055907484,-0.774116664425919,0.6314151809656776,-0.11405862271265524,-0.6239185904137428,-0.7731210921459979,,0.1326234310901784,0.6072159196066492,-0.4486138082202542,0.9949098404668286,-0.09412890927708031,-0.035974404520120316,-0.053569767345141794,-0.7964250869675975,0.6023598267441499,-0.08535039173230224,-0.5973665786491258,-0.7974136199891377,,0.0,0.0,0.045,1.0,0.0,0.0,0.0,1.0,0.0,0.0,0.0,1.0,,-0.011918902424781328,-0.15947728233870473,0.25503599610310546,False,,0.11693873901134191,0.5262285926552683,-0.40684073737313964,-0.37233084378153763,-0.4938912033247015,-0.7857742818694223,0.6978813271178864,0.40914289477928395,-0.5878467018805202,0.6118262792893957,-0.7672506571715048,0.19234092918770102
09:48:35.292736,,-0.16231639955045074,-0.49116581080067884,0.047035882650000006,3.6095814525481464,-0.31375689470976365,0.7005594797617345,,0.11696529286748195,0.5262341226378848,-0.4068271027445676,-0.26976007141516833,-0.5735857096920819,-0.7734526084428921,0.7354422403313331,0.395762488547469,-0.5499970579877169,0.621573981925332,-0.7171969647842529,0.31507824218397235,,-0.009368298506826947,0.2844805474981582,-0.11037637301198644,0.7993896981315386,-0.42454069939239836,0.42513679069781785,0.4959181491622363,0.8657034024653251,-0.0679911318902747,-0.3391773659561157,0.2651844626738755,0.9025718258973624,,0.02708271473312675,0.7553707625887367,1.201059175102431,0.9924375907233272,-0.10709333496636303,-0.05998871664788355,-0.04536804055907484,-0.774116664425919,0.6314151809656776,-0.11405862271265524,-0.6239185904137428,-0.7731210921459979,,0.1326234310901784,0.6072159196066492,-0.4486138082202542,0.9949098404668286,-0.09412890927708031,-0.035974404520120316,-0.053569767345141794,-0.7964250869675975,0.6023598267441499,-0.08535039173230224,-0.5973665786491258,-0.7974136199891377,,0.0,0.0,0.045,1.0,0.0,0.0,0.0,1.0,0.0,0.0,0.0,1.0,,-0.011918902424781328,-0.15947728233870473,0.25503599610310546,False,,0.11696529286748195,0.5262341226378848,-0.4068271027445676,-0.3557505504405673,-0.502758379472473,-0.7878296501982179,0.7013718654096459,0.4135085811131098,-0.5805929380879659,0.6176722854985702,-0.7591078086912529,0.20551467711805232
09:48:35.305892,,-0.16259441793392282,-0.4921929342729507,0.047052734420000006,3.5795977088528583,-0.32046396813237504,0.6985169746923467,,0.11698749985225139,0.5262354364883987,-0.4068198236140254,-0.2762288179861806,-0.5706262092589313,-0.7733584999343707,0.7337692358784679,0.394470861910843,-0.5531504746284197,0.6207095525221815,-0.7202627773320645,0.3097437376245307,,-0.009369280639020903,0.28448032825567776,-0.11037589538881586,0.7994304813382427,-0.4244759296438957,0.42512478999348635,0.4958443599812582,0.8657456385761302,-0.06799159042069053,-0.33918913984506016,0.26515027973982797,0.9025774498467203,,0.02708271473312675,0.7553707625887367,1.201059175102431,0.9924375907233272,-0.10709333496636303,-0.05998871664788355,-0.04536804055907484,-0.774116664425919,0.6314151809656776,-0.11405862271265524,-0.6239185904137428,-0.7731210921459979,,0.1326234310901784,0.6072159196066492,-0.4486138082202542,0.9949098404668286,-0.09412890927708031,-0.035974404520120316,-0.053569767345141794,-0.7964250869675975,0.6023598267441499,-0.08535039173230224,-0.5973665786491258,-0.7974136199891377,,0.0,0.0,0.045,1.0,0.0,0.0,0.0,1.0,0.0,0.0,0.0,1.0,,-0.011918902424781328,-0.15947728233870473,0.25503599610310546,False,,0.11698749985225139,0.5262354364883987,-0.4068198236140254,-0.34054390206748636,-0.510853129177347,-0.78934082066897,0.7045029511273142,0.41732756257607717,-0.574032488076429,0.6226599735148837,-0.7515762010096004,0.21777918049809358
09:48:35.319780,,-0.16275659532428155,-0.49284164383438556,0.047060512160000005,3.5655493813872337,-0.32328093896987187,0.6968449415305302,,0.11701982927512483,0.526226555206691,-0.40682964994255066,-0.28631400600015783,-0.5653700340660318,-0.7735509127060194,0.7310877112680346,0.39292866017594874,-0.557779370759802,0.6193020655552576,-0.7252336124260292,0.3008341054576154,,-0.009369424674453432,0.28448037522711317,-0.11037582666053039,0.7994496676269233,-0.42444376006649165,0.4251208339434035,0.4958080190340345,0.8657665044236197,-0.067990941018398,-0.3391970477077636,0.26513365372890574,0.9025793640825234,,0.02708271473312675,0.7553707625887367,1.201059175102431,0.9924375907233272,-0.10709333496636303,-0.05998871664788355,-0.04536804055907484,-0.774116664425919,0.6314151809656776,-0.11405862271265524,-0.6239185904137428,-0.7731210921459979,,0.1326234310901784,0.6072159196066492,-0.4486138082202542,0.9949098404668286,-0.09412890927708031,-0.035974404520120316,-0.053569767345141794,-0.7964250869675975,0.6023598267441499,-0.08535039173230224,-0.5973665786491258,-0.7974136199891377,,0.0,0.0,0.045,1.0,0.0,0.0,0.0,1.0,0.0,0.0,0.0,1.0,,-0.011918902424781328,-0.15947728233870473,0.25503599610310546,False,,0.11701982927512483,0.526226555206691,-0.40682964994255066,-0.3157022035375873,-0.5247392883319044,-0.7905572705139322,0.7091643775790872,0.423060388725096,-0.5640086817280713,0.6304109804360786,-0.7386938383205165,0.2385653138512071
09:48:35.332134,,-0.16291877271464025,-0.4934594624643235,0.047070882480000006,3.5538074957443238,-0.32529306099665534,0.6945583660592936,,0.1170331711577785,0.5262101854650342,-0.4068469499482841,-0.29015818846967995,-0.5627976972057239,-0.7739941716085,0.7300419652946898,0.39275678641343487,-0.5592681249944955,0.618746276411148,-0.7273244521849421,0.2969043392764971,,-0.009369424674453435,0.2844803752271131,-0.11037582666053039,0.7994496676269233,-0.42444376006649165,0.4251208339434034,0.4958080190340345,0.8657665044236197,-0.06799094101839803,-0.3391970477077635,0.26513365372890574,0.9025793640825234,,0.02708271473312675,0.7553707625887367,1.201059175102431,0.9924375907233272,-0.10709333496636303,-0.05998871664788355,-0.04536804055907484,-0.774116664425919,0.6314151809656776,-0.11405862271265524,-0.6239185904137428,-0.7731210921459979,,0.1326234310901784,0.6072159196066492,-0.4486138082202542,0.9949098404668286,-0.09412890927708031,-0.035974404520120316,-0.053569767345141794,-0.7964250869675975,0.6023598267441499,-0.08535039173230224,-0.5973665786491258,-0.7974136199891377,,0.0,0.0,0.045,1.0,0.0,0.0,0.0,1.0,0.0,0.0,0.0,1.0,,-0.011918902424781328,-0.15947728233870473,0.25503599610310546,False,,0.1170331711577785,0.5262101854650342,-0.4068469499482841,-0.3051037490392729,-0.5315625498445586,-0.7901600837329937,0.7106119856896715,0.425294635560568,-0.560495386919095,0.633989201892558,-0.7325064699824535,0.24797573130748624
09:48:35.344631,,-0.16322768202960924,-0.4947105451899479,0.04709032683000001,3.534097901986582,-0.3299880123924833,0.6901873663097775,,0.11704098890688436,0.5261979837752085,-0.406864068457892,-0.2932136841383564,-0.5607326938384429,-0.7743413856269695,0.7292014170054084,0.39263837045266925,-0.5604466107360959,0.6182968776173117,-0.7289814511419035,0.29376013177374444,,-0.009369601297969786,0.28448020268145857,-0.11037573852432431,0.7994504435317082,-0.42444336823673706,0.4251197660425933,0.4958076195934436,0.8657666569833846,-0.06799191122624819,-0.3391958028533648,0.26513378283230626,0.9025797939855473,,0.02708271473312675,0.7553707625887367,1.201059175102431,0.9924375907233272,-0.10709333496636303,-0.05998871664788355,-0.04536804055907484,-0.774116664425919,0.6314151809656776,-0.11405862271265524,-0.6239185904137428,-0.7731210921459979,,0.1326234310901784,0.6072159196066492,-0.4486138082202542,0.9949098404668286,-0.09412890927708031,-0.035974404520120316,-0.053569767345141794,-0.7964250869675975,0.6023598267441499,-0.08535039173230224,-0.5973665786491258,-0.7974136199891377,,0.0,0.0,0.045,1.0,0.0,0.0,0.0,1.0,0.0,0.0,0.0,1.0,,-0.011918902424781328,-0.15947728233870473,0.25503599610310546,False,,0.11704098890688436,0.5261979837752085,-0.406864068457892,-0.2968297101890109,-0.536857003143744,-0.7897320313401416,0.7119565855102906,0.42673319345202027,-0.5576886245520607,0.6364039153695052,-0.7277934733025293,0.2555517887251129
09:48:35.356806,,-0.1633744139542195,-0.4952897501555147,0.047096808280000006,3.525920517342412,-0.3325367002930757,0.687759432559086,,0.11704905308099081,0.5261820466193905,-0.4068844090288475,-0.29689089207897695,-0.5582499125021803,-0.7747340404241041,0.7281788203402797,0.39249824524233135,-0.561872523878441,0.6177470386884811,-0.7309597544824193,0.2899766085714732,,-0.009369424675512088,0.28448037522743097,-0.11037582666199369,0.7994496676221555,-0.42444376006396023,0.42512083394086786,0.4958080190310774,0.8657665044184565,-0.06799094101799254,-0.33919704770574044,0.2651336537273244,0.9025793640771406,,0.02708271473312675,0.7553707625887367,1.201059175102431,0.9924375907233272,-0.10709333496636303,-0.05998871664788355,-0.04536804055907484,-0.774116664425919,0.6314151809656776,-0.11405862271265524,-0.6239185904137428,-0.7731210921459979,,0.1326234310901784,0.6072159196066492,-0.4486138082202542,0.9949098404668286,-0.09412890927708031,-0.035974404520120316,-0.053569767345141794,-0.7964250869675975,0.6023598267441499,-0.08535039173230224,-0.5973665786491258,-0.7974136199891377,,0.0,0.0,0.045,1.0,0.0,0.0,0.0,1.0,0.0,0.0,0.0,1.0,,-0.011918902424781328,-0.15947728233870473,0.25503599610310546,False,,0.11704905308099081,0.5261820466193905,-0.4068844090288475,-0.2869202450171879,-0.5430175506281516,-0.7891823063836898,0.713683856519804,0.42836484856279095,-0.5542191890026882,0.6390087056858436,-0.7222433774189836,0.2646363123838506
09:48:35.368741,,-0.1634979776802071,-0.49581489599096196,0.047104586020000005,3.51983989799162,-0.33481710525676356,0.6862287576767244,,0.11705308830941535,0.5261739828331391,-0.40690168962355644,-0.2998663661934876,-0.5561199273480548,-0.7751198544949724,0.7273425310845452,0.3924760760250373,-0.5629701343974799,0.617294909181536,-0.7325934453394892,0.28679930080838056,,-0.009368894805111246,0.28448089286448747,-0.11037609107077075,0.7994473399032254,-0.4244449355564026,0.42512403763880696,0.49580921734746375,0.8657660467429442,-0.06798803039162986,-0.33920078226781253,0.2651332664223013,0.902578074363259,,0.02708271473312675,0.7553707625887367,1.201059175102431,0.9924375907233272,-0.10709333496636303,-0.05998871664788355,-0.04536804055907484,-0.774116664425919,0.6314151809656776,-0.11405862271265524,-0.6239185904137428,-0.7731210921459979,,0.1326234310901784,0.6072159196066492,-0.4486138082202542,0.9949098404668286,-0.09412890927708031,-0.035974404520120316,-0.053569767345141794,-0.7964250869675975,0.6023598267441499,-0.08535039173230224,-0.5973665786491258,-0.7974136199891377,,0.0,0.0,0.045,1.0,0.0,0.0,0.0,1.0,0.0,0.0,0.0,1.0,,-0.011918902424781328,-0.15947728233870473,0.25503599610310546,False,,0.11705308830941535,0.5261739828331391,-0.40690168962355644,-0.27920484986899347,-0.548088344055895,-0.7884439224952527,0.715285524376924,0.42909441329459164,-0.5515837226534149,0.6406334914960831,-0.7179673750174428,0.27223441733936043
09:48:35.380542,,-0.16361381867332045,-0.49637865549078036,0.047111067470000004,3.5143883082288396,-0.3370975102204515,0.6853180175908149,,0.1170526844558842,0.526154389389696,-0.4069399588149537,-0.30417771563457746,-0.5535012436682485,-0.7753143172733445,0.7261167021015835,0.3921092969802512,-0.564805129359475,0.6166282934154499,-0.7347698091779189,0.28263558742698064,,-0.009368718182752355,0.2844810654105217,-0.11037617920854598,0.7994465639906221,-0.4244453273857448,0.4251251055340874,0.4958096167815067,0.8657658941805375,-0.06798706018149946,-0.33920202711943886,0.2651331373207718,0.9025776444516456,,0.02708271473312675,0.7553707625887367,1.201059175102431,0.9924375907233272,-0.10709333496636303,-0.05998871664788355,-0.04536804055907484,-0.774116664425919,0.6314151809656776,-0.11405862271265524,-0.6239185904137428,-0.7731210921459979,,0.1326234310901784,0.6072159196066492,-0.4486138082202542,0.9949098404668286,-0.09412890927708031,-0.035974404520120316,-0.053569767345141794,-0.7964250869675975,0.6023598267441499,-0.08535039173230224,-0.5973665786491258,-0.7974136199891377,,0.0,0.0,0.045,1.0,0.0,0.0,0.0,1.0,0.0,0.0,0.0,1.0,,-0.011918902424781328,-0.15947728233870473,0.25503599610310546,False,,0.1170526844558842,0.526154389389696,-0.4069399588149537,-0.2680933597720863,-0.5542200472499385,-0.7880140161649352,0.7179875814173405,0.4304416868827436,-0.5470043757814155,0.6423548733967794,-0.7124325185024994,0.2825245532756285
09:48:35.393154,,-0.16371421420068538,-0.4968883558604792,0.04711754892,3.509565748054073,-0.338573066373426,0.6843437883478869,,0.11705384705130426,0.5261401222679302,-0.4069632331576729,-0.3056836373554671,-0.5524852675724741,-0.775446673194555,0.7256845922996981,0.3920562646175184,-0.5653969913901022,0.6163922341755713,-0.735562311765312,0.28108486113363995,,-0.009368200722805458,0.2844812060305104,-0.11037643118334642,0.7994449347460076,-0.42444536968874214,0.425128127080393,0.49581032818729476,0.8657655485438635,-0.06798627356675956,-0.3392048271294245,0.2651341982477444,0.9025762805147092,,0.02708271473312675,0.7553707625887367,1.201059175102431,0.9924375907233272,-0.10709333496636303,-0.05998871664788355,-0.04536804055907484,-0.774116664425919,0.6314151809656776,-0.11405862271265524,-0.6239185904137428,-0.7731210921459979,,0.1326234310901784,0.6072159196066492,-0.4486138082202542,0.9949098404668286,-0.09412890927708031,-0.035974404520120316,-0.053569767345141794,-0.7964250869675975,0.6023598267441499,-0.08535039173230224,-0.5973665786491258,-0.7974136199891377,,0.0,0.0,0.045,1.0,0.0,0.0,0.0,1.0,0.0,0.0,0.0,1.0,,-0.011918902424781328,-0.15947728233870473,0.25503599610310546,False,,0.11705384705130426,0.5261401222679302,-0.4069632331576729,-0.2635607589947207,-0.5568082864058163,-0.787718387818861,0.718759689433745,0.4312692891008932,-0.5453359598665,0.6433663304550786,-0.7099093832794641,0.2865456898446352
09:48:35.405263,,-0.16386094612529564,-0.4977455792095181,0.047129215530000004,3.5057915705259948,-0.3405851884002094,0.6817816863004493,,0.1170521774048415,0.5261235344255357,-0.4069874227792711,-0.30632223624439503,-0.5517530063473794,-0.7757159967210048,0.7255007356668314,0.39225381138342863,-0.5654959151064313,0.6162916275020452,-0.736006499592091,0.2801411473330506,,-0.009368024099454756,0.2844813785762768,-0.11037651931974243,0.799444158835216,-0.4244457615215555,0.42512919497618334,0.4958107276223093,0.8657653959894395,-0.06798530335552236,-0.3392060719818369,0.26513406915010573,0.9025758506059295,,0.02708271473312675,0.7553707625887367,1.201059175102431,0.9924375907233272,-0.10709333496636303,-0.05998871664788355,-0.04536804055907484,-0.774116664425919,0.6314151809656776,-0.11405862271265524,-0.6239185904137428,-0.7731210921459979,,0.1326234310901784,0.6072159196066492,-0.4486138082202542,0.9949098404668286,-0.09412890927708031,-0.035974404520120316,-0.053569767345141794,-0.7964250869675975,0.6023598267441499,-0.08535039173230224,-0.5973665786491258,-0.7974136199891377,,0.0,0.0,0.045,1.0,0.0,0.0,0.0,1.0,0.0,0.0,0.0,1.0,,-0.011918902424781328,-0.15947728233870473,0.25503599610310546,False,,0.1170521774048415,0.5261235344255357,-0.4069874227792711,-0.2610254206808631,-0.558844906967979,-0.7871201304212271,0.7190811536131921,0.43143858000880636,-0.5447779788118328,0.644040390252583,-0.7082041525124911,0.2892384035486385
09:48:35.417723,,-0.163907282522541,-0.49808537945598397,0.04713569698,3.5057915705259948,-0.34219488602163617,0.6801866235132307,,0.11704472090886531,0.5261113747234489,-0.40701091213809837,-0.3066991947850454,-0.5513201731002981,-0.7758747776870067,0.7253920343675279,0.3923709358714723,-0.5655541045377395,0.616232099451452,-0.7362683718699333,0.27958341186424757,,-0.009368213131611661,0.2844808290118851,-0.11037641874580977,0.799445633236289,-0.4244442365076549,0.42512794493966305,0.4958098413018865,0.8657656605776752,-0.06798839758707459,-0.3392038925799428,0.2651356464787297,0.9025762063109569,,0.02708271473312675,0.7553707625887367,1.201059175102431,0.9924375907233272,-0.10709333496636303,-0.05998871664788355,-0.04536804055907484,-0.774116664425919,0.6314151809656776,-0.11405862271265524,-0.6239185904137428,-0.7731210921459979,,0.1326234310901784,0.6072159196066492,-0.4486138082202542,0.9949098404668286,-0.09412890927708031,-0.035974404520120316,-0.053569767345141794,-0.7964250869675975,0.6023598267441499,-0.08535039173230224,-0.5973665786491258,-0.7974136199891377,,0.0,0.0,0.045,1.0,0.0,0.0,0.0,1.0,0.0,0.0,0.0,1.0,,-0.011918902424781328,-0.15947728233870473,0.25503599610310546,False,,0.11704472090886531,0.5261113747234489,-0.40701091213809837,-0.2598555949316713,-0.5600094094214327,-0.7866794335319601,0.7196683007740943,0.43087721766424303,-0.5444468386893699,0.6438575981097338,-0.7076258083601665,0.2910551643571814
09:48:35.430231,,-0.16393817345403788,-0.49836339783945605,0.04714217843000001,3.5055818939966574,-0.3442070080484196,0.6781755746181949,,0.11702546166179455,0.5261029043801265,-0.4070316135099029,-0.3077317329586211,-0.5501119235755632,-0.7763234197615563,0.7250936309614189,0.3927086024049695,-0.5657023775240133,0.6160685082598119,-0.7369917402095693,0.27803375333473623,,-0.009368389753960383,0.28448065646582843,-0.11037633060799865,0.7994464091509893,-0.42444384467908186,0.4251268770446909,0.49580944186732573,0.8657658131375933,-0.06798936779788593,-0.33920264772985365,0.2651357755799558,0.902576636223659,,0.02708271473312675,0.7553707625887367,1.201059175102431,0.9924375907233272,-0.10709333496636303,-0.05998871664788355,-0.04536804055907484,-0.774116664425919,0.6314151809656776,-0.11405862271265524,-0.6239185904137428,-0.7731210921459979,,0.1326234310901784,0.6072159196066492,-0.4486138082202542,0.9949098404668286,-0.09412890927708031,-0.035974404520120316,-0.053569767345141794,-0.7964250869675975,0.6023598267441499,-0.08535039173230224,-0.5973665786491258,-0.7974136199891377,,0.0,0.0,0.045,1.0,0.0,0.0,0.0,1.0,0.0,0.0,0.0,1.0,,-0.011918902424781328,-0.15947728233870473,0.25503599610310546,False,,0.11702546166179455,0.5261029043801265,-0.4070316135099029,-0.2588226162615923,-0.5622313954753111,-0.7854340909671474,0.7217975370680936,0.42778216759056503,-0.5440686836916384,0.6418871931998168,-0.7077416725284744,0.2950975367105918
09:48:35.443498,,-0.1639458961869121,-0.4986182480243055,0.047148659880000006,3.5074689827606966,-0.3466215544805597,0.6762307111236934,,0.117010105789959,0.5261051617540019,-0.4070359083767562,-0.3080422861614525,-0.5497295776828168,-0.7764710821125909,0.7250036928640423,0.3928240585474041,-0.5657374871438583,0.6160191517070938,-0.7372154708407969,0.2775495528424699,,-0.009368566376333806,0.2844804839197872,-0.11037624247021395,0.7994471850649274,-0.4244434528510387,0.42512580914897014,0.4958090424318673,0.865765965698142,-0.06799033800822858,-0.33920140287957723,0.26513590468204506,0.9025770661355599,,0.02708271473312675,0.7553707625887367,1.201059175102431,0.9924375907233272,-0.10709333496636303,-0.05998871664788355,-0.04536804055907484,-0.774116664425919,0.6314151809656776,-0.11405862271265524,-0.6239185904137428,-0.7731210921459979,,0.1326234310901784,0.6072159196066492,-0.4486138082202542,0.9949098404668286,-0.09412890927708031,-0.035974404520120316,-0.053569767345141794,-0.7964250869675975,0.6023598267441499,-0.08535039173230224,-0.5973665786491258,-0.7974136199891377,,0.0,0.0,0.045,1.0,0.0,0.0,0.0,1.0,0.0,0.0,0.0,1.0,,-0.011918902424781328,-0.15947728233870473,0.25503599610310546,False,,0.117010105789959,0.5261051617540019,-0.4070359083767562,-0.25988150765208456,-0.5624768671596225,-0.7849085143446819,0.7232887533567958,0.4251523261956518,-0.5441496841844147,0.6397772903503622,-0.709129941153751,0.2963439645264026
09:48:35.455616,,-0.1639458961869121,-0.49892715733927445,0.047156437620000005,3.5156463674048664,-0.3502433741287699,0.6722113095771377,,0.11699136477882394,0.526110038688241,-0.40703934178221385,-0.3077933323105481,-0.5496869927992776,-0.7765999449732504,0.7250757983384951,0.3929857942991092,-0.5655327153603867,0.616058723864018,-0.7371610240825169,0.2776063279621923,,-0.00936890721292648,0.2844805158455854,-0.11037607863180746,0.799448038396732,-0.42444380238155544,0.42512385549856163,0.4958087304599532,0.8657661587826706,-0.06799015441110971,-0.3391998477207267,0.2651347146585,0.9025780001637804,,0.02708271473312675,0.7553707625887367,1.201059175102431,0.9924375907233272,-0.10709333496636303,-0.05998871664788355,-0.04536804055907484,-0.774116664425919,0.6314151809656776,-0.11405862271265524,-0.6239185904137428,-0.7731210921459979,,0.1326234310901784,0.6072159196066492,-0.4486138082202542,0.9949098404668286,-0.09412890927708031,-0.035974404520120316,-0.053569767345141794,-0.7964250869675975,0.6023598267441499,-0.08535039173230224,-0.5973665786491258,-0.7974136199891377,,0.0,0.0,0.045,1.0,0.0,0.0,0.0,1.0,0.0,0.0,0.0,1.0,,-0.011918902424781328,-0.15947728233870473,0.25503599610310546,False,,0.11699136477882394,0.526110038688241,-0.40703934178221385,-0.26249288739590043,-0.5619672687524273,-0.7844044064878147,0.7245349789377589,0.42210414625246867,-0.5448643445960989,0.6372962798904643,-0.7113514451854387,0.29636560709765775
09:48:35.467479,,-0.16393045072116366,-0.4989889392022682,0.04716032649,3.5213076336969835,-0.35091408147103104,0.6708291829569402,,0.11697016763770059,0.5261130409341698,-0.40704452127596286,-0.3070883856149074,-0.549775969888027,-0.7768160054698339,0.7252796712402843,0.39329091930801763,-0.5650589803511129,0.6161705298908858,-0.7369319071145809,0.2779662612088947,,-0.00936890721292648,0.2844805158455854,-0.11037607863180746,0.799448038396732,-0.42444380238155544,0.42512385549856163,0.4958087304599532,0.8657661587826706,-0.06799015441110971,-0.3391998477207267,0.2651347146585,0.9025780001637804,,0.02708271473312675,0.7553707625887367,1.201059175102431,0.9924375907233272,-0.10709333496636303,-0.05998871664788355,-0.04536804055907484,-0.774116664425919,0.6314151809656776,-0.11405862271265524,-0.6239185904137428,-0.7731210921459979,,0.1326234310901784,0.6072159196066492,-0.4486138082202542,0.9949098404668286,-0.09412890927708031,-0.035974404520120316,-0.053569767345141794,-0.7964250869675975,0.6023598267441499,-0.08535039173230224,-0.5973665786491258,-0.7974136199891377,,0.0,0.0,0.045,1.0,0.0,0.0,0.0,1.0,0.0,0.0,0.0,1.0,,-0.011918902424781328,-0.15947728233870473,0.25503599610310546,False,,0.11697016763770059,0.5261130409341698,-0.40704452127596286,-0.26610973735180704,-0.5612385521216414,-0.7837071489395487,0.7255046181324989,0.4187048571996945,-0.5461952870776169,0.6346878419782195,-0.7139310402061162,0.29575972186091143
09:48:35.480575,,-0.163907282522541,-0.49901983013376516,0.04716291907,3.527178576518438,-0.35091408147103104,0.6701403665164379,,0.11693091290713196,0.5261074211429653,-0.4070608014019754,-0.3039966682941886,-0.551250281097695,-0.7769872285023387,0.7261685144497972,0.39384059932543347,-0.5635324932466256,0.6166565610514558,-0.7355356618904999,0.2805743676808281,,-0.009369071426436188,0.284480720318151,-0.1103760029315587,0.7994481158198335,-0.4244445437301216,0.4251229697453136,0.4958088179154802,0.8657661993111446,-0.06798900060169707,-0.3391995374180219,0.26513339552627524,0.9025785042794535,,0.02708271473312675,0.7553707625887367,1.201059175102431,0.9924375907233272,-0.10709333496636303,-0.05998871664788355,-0.04536804055907484,-0.774116664425919,0.6314151809656776,-0.11405862271265524,-0.6239185904137428,-0.7731210921459979,,0.1326234310901784,0.6072159196066492,-0.4486138082202542,0.9949098404668286,-0.09412890927708031,-0.035974404520120316,-0.053569767345141794,-0.7964250869675975,0.6023598267441499,-0.08535039173230224,-0.5973665786491258,-0.7974136199891377,,0.0,0.0,0.045,1.0,0.0,0.0,0.0,1.0,0.0,0.0,0.0,1.0,,-0.011918902424781328,-0.15947728233870473,0.25503599610310546,False,,0.11693091290713196,0.5261074211429653,-0.4070608014019754,-0.27596126006900873,-0.5573696561759844,-0.7830609486594193,0.7257352067126057,0.41333648270594975,-0.549964873243815,0.6302013905720427,-0.7200638988579687,0.2904379260401861
09:48:35.493776,,-0.16388411432391833,-0.4990352755995136,0.047166807940000006,3.5317914601638676,-0.3510482229394833,0.6701394677685993,,0.11691610298324992,0.5261037105624871,-0.4070659838314742,-0.30271590122278436,-0.5521053179285704,-0.7768801716235714,0.7265342041928622,0.39389166112374546,-0.5630252298387889,0.6168558448168598,-0.7348667071055599,0.28188612861066686,,-0.009369248049903139,0.28448054777246545,-0.11037591479529968,0.7994488917261441,-0.4244441518993074,0.42512190184600046,0.49580841847668466,0.8657663518696491,-0.06798997081048465,-0.33919829256399786,0.26513352462794954,0.902578934184081,,0.02708271473312675,0.7553707625887367,1.201059175102431,0.9924375907233272,-0.10709333496636303,-0.05998871664788355,-0.04536804055907484,-0.774116664425919,0.6314151809656776,-0.11405862271265524,-0.6239185904137428,-0.7731210921459979,,0.1326234310901784,0.6072159196066492,-0.4486138082202542,0.9949098404668286,-0.09412890927708031,-0.035974404520120316,-0.053569767345141794,-0.7964250869675975,0.6023598267441499,-0.08535039173230224,-0.5973665786491258,-0.7974136199891377,,0.0,0.0,0.045,1.0,0.0,0.0,0.0,1.0,0.0,0.0,0.0,1.0,,-0.011918902424781328,-0.15947728233870473,0.25503599610310546,False,,0.11691610298324992,0.5261037105624871,-0.4070659838314742,-0.2799211003604453,-0.5551791868322626,-0.7832114963924273,0.725731606648911,0.4116894577965551,-0.5512036152366644,0.6284566911759217,-0.7226948601224765,0.28767051720460707
09:48:35.506031,,-0.1638146097280503,-0.49895804827077134,0.047166807940000006,3.539968844808037,-0.34997509119186543,0.6695267229548564,,0.1169042363325277,0.5261013160667637,-0.40707222343556704,-0.30116945366061126,-0.5529442845851799,-0.7768845334580632,0.7269737884168755,0.39409409519121275,-0.5623157076680635,0.6170948639687294,-0.7341270069136557,0.28328689800873674,,-0.009369248049903136,0.2844805477724655,-0.11037591479529968,0.7994488917261441,-0.4244441518993074,0.42512190184600057,0.49580841847668466,0.8657663518696491,-0.06798997081048462,-0.33919829256399797,0.26513352462794954,0.902578934184081,,0.02708271473312675,0.7553707625887367,1.201059175102431,0.9924375907233272,-0.10709333496636303,-0.05998871664788355,-0.04536804055907484,-0.774116664425919,0.6314151809656776,-0.11405862271265524,-0.6239185904137428,-0.7731210921459979,,0.1326234310901784,0.6072159196066492,-0.4486138082202542,0.9949098404668286,-0.09412890927708031,-0.035974404520120316,-0.053569767345141794,-0.7964250869675975,0.6023598267441499,-0.08535039173230224,-0.5973665786491258,-0.7974136199891377,,0.0,0.0,0.045,1.0,0.0,0.0,0.0,1.0,0.0,0.0,0.0,1.0,,-0.011918902424781328,-0.15947728233870473,0.25503599610310546,False,,0.1169042363325277,0.5261013160667637,-0.40707222343556704,-0.2841917987509902,-0.553145337736863,-0.7831125441867528,0.7253763325418744,0.4100609581014333,-0.5528826157775583,0.6269483214035885,-0.7251760103457,0.28470257516980135
09:48:35.517922,,-0.16379144152942762,-0.4988885436749033,0.047166807940000006,3.5429043162187646,-0.3495726667865088,0.6692538926221713,,0.11689758008604442,0.5260970341824692,-0.40707822470791427,-0.2999031376552114,-0.5534580158132539,-0.7770085795900937,0.7273321465033815,0.3943854948938207,-0.5616476031108293,0.6172892812023735,-0.7335831964742731,0.2842703592765962,,-0.009369424673394793,0.28448037522679537,-0.1103758266590671,0.7994496676316913,-0.4244437600690231,0.4251208339459389,0.4958080190369916,0.8657665044287834,-0.06799094101880347,-0.33919704770978654,0.265133653730487,0.9025793640879067,,0.02708271473312675,0.7553707625887367,1.201059175102431,0.9924375907233272,-0.10709333496636303,-0.05998871664788355,-0.04536804055907484,-0.774116664425919,0.6314151809656776,-0.11405862271265524,-0.6239185904137428,-0.7731210921459979,,0.1326234310901784,0.6072159196066492,-0.4486138082202542,0.9949098404668286,-0.09412890927708031,-0.035974404520120316,-0.053569767345141794,-0.7964250869675975,0.6023598267441499,-0.08535039173230224,-0.5973665786491258,-0.7974136199891377,,0.0,0.0,0.045,1.0,0.0,0.0,0.0,1.0,0.0,0.0,0.0,1.0,,-0.011918902424781328,-0.15947728233870473,0.25503599610310546,False,,0.11689758008604442,0.5260970341824692,-0.40707822470791427,-0.28726308396361855,-0.5520059737407645,-0.7827958389939367,0.7248607063344117,0.4089478387587381,-0.5543812962095085,0.6261444537837004,-0.726671225609675,0.28265182268445366
09:48:35.530781,,-0.1637837187965534,-0.49880359361328686,0.047166807940000006,3.5464688172175047,-0.3491702423811521,0.6690499439335366,,0.11688113795953001,0.5260962396746061,-0.40708017397734964,-0.29780535391433965,-0.5544731272538108,-0.7770917078011669,0.7279226436893523,0.394749978839897,-0.5606256139441055,0.6176087725933459,-0.7326199597057673,0.286054887489203,,-0.009369083836753556,0.2844803433009574,-0.11037599049737318,0.7994488143028253,-0.42444341054021556,0.425122787597819,0.49580833100762706,0.8657663113409257,-0.06799112461713132,-0.3391986028706216,0.26513484375362845,0.9025784300627293,,0.02708271473312675,0.7553707625887367,1.201059175102431,0.9924375907233272,-0.10709333496636303,-0.05998871664788355,-0.04536804055907484,-0.774116664425919,0.6314151809656776,-0.11405862271265524,-0.6239185904137428,-0.7731210921459979,,0.1326234310901784,0.6072159196066492,-0.4486138082202542,0.9949098404668286,-0.09412890927708031,-0.035974404520120316,-0.053569767345141794,-0.7964250869675975,0.6023598267441499,-0.08535039173230224,-0.5973665786491258,-0.7974136199891377,,0.0,0.0,0.045,1.0,0.0,0.0,0.0,1.0,0.0,0.0,0.0,1.0,,-0.011918902424781328,-0.15947728233870473,0.25503599610310546,False,,0.11688113795953001,0.5260962396746061,-0.40708017397734964,-0.2930632365103456,-0.5494315187644265,-0.7824569928081012,0.7242446886040239,0.40669626544137344,-0.5568373000301797,0.6241663003038066,-0.7298788624588711,0.2787351353898584
09:48:35.545257,,-0.1637219369335596,-0.4986259707571797,0.047166807940000006,3.551920406980284,-0.34823125210198647,0.6687118269481559,,0.11687530673019234,0.526095966597444,-0.4070800049601277,-0.296847624768238,-0.554913908064455,-0.7771435146136709,0.7281909227011406,0.39493291929965485,-0.5601481673174641,0.6177535655624473,-0.7321875059642071,0.2868483716962626,,-0.009368742999437692,0.2844803113744508,-0.1103761543341021,0.7994479609752768,-0.4244430610166719,0.4251247412506283,0.495808642987621,0.8657661182570794,-0.06799130821646385,-0.33920015802972386,0.26513603378079376,0.9025774960410567,,0.02708271473312675,0.7553707625887367,1.201059175102431,0.9924375907233272,-0.10709333496636303,-0.05998871664788355,-0.04536804055907484,-0.774116664425919,0.6314151809656776,-0.11405862271265524,-0.6239185904137428,-0.7731210921459979,,0.1326234310901784,0.6072159196066492,-0.4486138082202542,0.9949098404668286,-0.09412890927708031,-0.035974404520120316,-0.053569767345141794,-0.7964250869675975,0.6023598267441499,-0.08535039173230224,-0.5973665786491258,-0.7974136199891377,,0.0,0.0,0.045,1.0,0.0,0.0,0.0,1.0,0.0,0.0,0.0,1.0,,-0.011918902424781328,-0.15947728233870473,0.25503599610310546,False,,0.11687530673019234,0.526095966597444,-0.4070800049601277,-0.2956865928309984,-0.5482754871846215,-0.7822809143603477,0.7239390101340492,0.40568868071654607,-0.5579686406462302,0.6232830403806355,-0.7313075170480164,0.27696130972202004
09:48:35.556735,,-0.16369876873493694,-0.498533297962689,0.047166807940000006,3.554017172273661,-0.34782882769662976,0.6686456415476215,,0.11687135710112383,0.5260950088389508,-0.4070794899274267,-0.2959479257670667,-0.5553035984970238,-0.7772082981610702,0.7284422000304362,0.39512242410139825,-0.5596876192904866,0.6178889758273638,-0.7317897126008884,0.28757091313712607,,-0.00936874299943769,0.28448031137445084,-0.1103761543341021,0.7994479609752768,-0.42444306101667195,0.4251247412506284,0.49580864298762106,0.8657661182570794,-0.06799130821646382,-0.3392001580297239,0.26513603378079376,0.9025774960410567,,0.02708271473312675,0.7553707625887367,1.201059175102431,0.9924375907233272,-0.10709333496636303,-0.05998871664788355,-0.04536804055907484,-0.774116664425919,0.6314151809656776,-0.11405862271265524,-0.6239185904137428,-0.7731210921459979,,0.1326234310901784,0.6072159196066492,-0.4486138082202542,0.9949098404668286,-0.09412890927708031,-0.035974404520120316,-0.053569767345141794,-0.7964250869675975,0.6023598267441499,-0.08535039173230224,-0.5973665786491258,-0.7974136199891377,,0.0,0.0,0.045,1.0,0.0,0.0,0.0,1.0,0.0,0.0,0.0,1.0,,-0.011918902424781328,-0.15947728233870473,0.25503599610310546,False,,0.11687135710112383,0.5260950088389508,-0.4070794899274267,-0.297983161361968,-0.5472903495052991,-0.7820992960507606,0.7235531365356423,0.40491891353345927,-0.5590273088788393,0.622637048491464,-0.7324711235272354,0.27533463103029343
09:48:35.569119,,-0.1636833232691885,-0.49845607063394676,0.047166807940000006,3.555484907979025,-0.3474264032912731,0.6685794561470874,,0.11686777803035991,0.526095229869386,-0.4070775087872403,-0.29523969218710694,-0.5556301966765457,-0.7772442400548526,0.7286394947679383,0.395257364013392,-0.5593354117678483,0.6179951543673994,-0.7314688651845462,0.28815844329820733,,-0.009368919622919174,0.2844801388287582,-0.11037606619783359,0.7994487368829215,-0.4244426691871568,0.4251236733508748,0.49580824354741004,0.8657662708137253,-0.0679922784254636,-0.3391989131770496,0.26513616288302777,0.9025779259459712,,0.02708271473312675,0.7553707625887367,1.201059175102431,0.9924375907233272,-0.10709333496636303,-0.05998871664788355,-0.04536804055907484,-0.774116664425919,0.6314151809656776,-0.11405862271265524,-0.6239185904137428,-0.7731210921459979,,0.1326234310901784,0.6072159196066492,-0.4486138082202542,0.9949098404668286,-0.09412890927708031,-0.035974404520120316,-0.053569767345141794,-0.7964250869675975,0.6023598267441499,-0.08535039173230224,-0.5973665786491258,-0.7974136199891377,,0.0,0.0,0.045,1.0,0.0,0.0,0.0,1.0,0.0,0.0,0.0,1.0,,-0.011918902424781328,-0.15947728233870473,0.25503599610310546,False,,0.11686777803035991,0.526095229869386,-0.4070775087872403,-0.29988179029330614,-0.5464227882671848,-0.7819802096682479,0.7232704010279281,0.4042728845323063,-0.5598601270217667,0.6220537266566143,-0.7334749970477821,0.27397735282021835
09:48:35.581134,,-0.1636833232691885,-0.4984020115038272,0.047166807940000006,3.5565332906257137,-0.34715812035436866,0.668719016930865,,0.1168631631193312,0.5260950383351334,-0.4070747941073827,-0.2943234774315284,-0.5560829844890459,-0.7772679106938406,0.7288940638852218,0.39541023973474054,-0.5588955053905884,0.6181319715606844,-0.7310420348206187,0.2889470696508803,,-0.009368775589007514,0.2844800918632066,-0.11037613492348373,0.7994295506592355,-0.42447483883324594,0.4251276293570073,0.49584458452854135,0.8657454050100184,-0.06799292764842245,-0.3391910052447401,0.2651527888104806,0.9025760117904384,,0.02708271473312675,0.7553707625887367,1.201059175102431,0.9924375907233272,-0.10709333496636303,-0.05998871664788355,-0.04536804055907484,-0.774116664425919,0.6314151809656776,-0.11405862271265524,-0.6239185904137428,-0.7731210921459979,,0.1326234310901784,0.6072159196066492,-0.4486138082202542,0.9949098404668286,-0.09412890927708031,-0.035974404520120316,-0.053569767345141794,-0.7964250869675975,0.6023598267441499,-0.08535039173230224,-0.5973665786491258,-0.7974136199891377,,0.0,0.0,0.045,1.0,0.0,0.0,0.0,1.0,0.0,0.0,0.0,1.0,,-0.011918902424781328,-0.15947728233870473,0.25503599610310546,False,,0.1168631631193312,0.5260950383351334,-0.4070747941073827,-0.30220872465062176,-0.5452866532171213,-0.7818774536769273,0.7228142511872114,0.40365680431554274,-0.5608928084852173,0.6214575166700582,-0.7346588665176749,0.2721523558987684
09:48:35.593848,,-0.16367560053631425,-0.49835567510658185,0.04716810423000001,3.5571623202137266,-0.34675569594901196,0.6687217131743808,,0.11686292353457114,0.5260925269256636,-0.40707400195208626,-0.29398430338778136,-0.5561934963364558,-0.7773171965128713,0.7289881132529819,0.39550791311997546,-0.55870369731669,0.6181824650517503,-0.7309051137408403,0.289185329174961,,-0.009368828371385295,0.284480029871301,-0.11037610859928362,0.7993920259652025,-0.42453952435008174,0.4251335871578926,0.49591695098024463,0.8657038603353862,-0.06799404218569431,-0.3391736316336941,0.26518484931628095,0.9025731156750654,,0.02708271473312675,0.7553707625887367,1.201059175102431,0.9924375907233272,-0.10709333496636303,-0.05998871664788355,-0.04536804055907484,-0.774116664425919,0.6314151809656776,-0.11405862271265524,-0.6239185904137428,-0.7731210921459979,,0.1326234310901784,0.6072159196066492,-0.4486138082202542,0.9949098404668286,-0.09412890927708031,-0.035974404520120316,-0.053569767345141794,-0.7964250869675975,0.6023598267441499,-0.08535039173230224,-0.5973665786491258,-0.7974136199891377,,0.0,0.0,0.045,1.0,0.0,0.0,0.0,1.0,0.0,0.0,0.0,1.0,,-0.011918902424781328,-0.15947728233870473,0.25503599610310546,False,,0.11686292353457114,0.5260925269256636,-0.40707400195208626,-0.3028529725428996,-0.5450630428006973,-0.7817840855343469,0.7225451738593656,0.40358876825504886,-0.5612883197349751,0.621456795565443,-0.7348621540882464,0.27160461287377563
09:48:35.605943,,-0.1636601550705658,-0.4983170614422107,0.04716810423000001,3.5577913498017395,-0.3464874130121075,0.6688612739581585,,0.11686374170178451,0.5260914889953547,-0.4070737837100783,-0.29375713539600923,-0.5562634903002331,-0.7773529923805099,0.7290510472347587,0.39557621630423423,-0.5585732070376518,0.6182162371936152,-0.7308148783744267,0.2893411440095231,,-0.00936888110763052,0.28447996789787455,-0.1103760821684236,0.799354498731124,-0.42460420838019325,0.4251395463805206,0.49598931576501576,0.8656623127383319,-0.06799515618017117,-0.33915625649213216,0.26521690904398193,0.9025702228369222,,0.02708271473312675,0.7553707625887367,1.201059175102431,0.9924375907233272,-0.10709333496636303,-0.05998871664788355,-0.04536804055907484,-0.774116664425919,0.6314151809656776,-0.11405862271265524,-0.6239185904137428,-0.7731210921459979,,0.1326234310901784,0.6072159196066492,-0.4486138082202542,0.9949098404668286,-0.09412890927708031,-0.035974404520120316,-0.053569767345141794,-0.7964250869675975,0.6023598267441499,-0.08535039173230224,-0.5973665786491258,-0.7974136199891377,,0.0,0.0,0.045,1.0,0.0,0.0,0.0,1.0,0.0,0.0,0.0,1.0,,-0.011918902424781328,-0.15947728233870473,0.25503599610310546,False,,0.11686374170178451,0.5260914889953547,-0.4070737837100783,-0.3032817993872042,-0.5449225071001634,-0.7817158124383389,0.7223631604290749,0.4035407447839709,-0.5615570601053084,0.621459262233156,-0.7349927404776666,0.27124538121367386
09:48:35.618233,,-0.1636601550705658,-0.4983170614422107,0.04716810423000001,3.5577913498017395,-0.3464874130121075,0.668999037246259,,0.11686306650606415,0.5260917874658848,-0.40707345800834,-0.29370798336650594,-0.5563447106522353,-0.7773134396342706,0.7290646581275908,0.3955435147570421,-0.5585785998433388,0.6182235394871983,-0.7307707512366146,0.2894369782197747,,-0.009368416329212993,0.2844800465627431,-0.11037630761065491,0.7993153395038802,-0.4246689326002867,0.425148528783724,0.4960623901515787,0.8656204163369575,-0.0679954829879929,-0.33914167971503406,0.2652500298092362,0.9025659690988243,,0.02708271473312675,0.7553707625887367,1.201059175102431,0.9924375907233272,-0.10709333496636303,-0.05998871664788355,-0.04536804055907484,-0.774116664425919,0.6314151809656776,-0.11405862271265524,-0.6239185904137428,-0.7731210921459979,,0.1326234310901784,0.6072159196066492,-0.4486138082202542,0.9949098404668286,-0.09412890927708031,-0.035974404520120316,-0.053569767345141794,-0.7964250869675975,0.6023598267441499,-0.08535039173230224,-0.5973665786491258,-0.7974136199891377,,0.0,0.0,0.045,1.0,0.0,0.0,0.0,1.0,0.0,0.0,0.0,1.0,,-0.011918902424781328,-0.15947728233870473,0.25503599610310546,False,,0.11686306650606415,0.5260917874658848,-0.40707345800834,-0.3034607130899951,-0.5447129179976287,-0.7817924485292889,0.7223617787398828,0.4035409087341938,-0.5615587196311121,0.6213735239183149,-0.7351479932261872,0.2710209804218958
09:48:35.631277,,-0.1636601550705658,-0.4983170614422107,0.04716810423000001,3.5577913498017395,-0.3464874130121075,0.6690679188903091,,0.11686306650606415,0.5260917874658848,-0.40707345800834,-0.2937105823719517,-0.5564160218790558,-0.7772614131674201,0.7290639384800544,0.39549090981572754,-0.5586167862328159,0.6182231534087674,-0.7307449287196004,0.2895029908997582,,-0.009368128124272767,0.28447995270172377,-0.1103764448105924,0.7992769537179617,-0.42473326351032237,0.4251564448067245,0.49613506345067016,0.8655786695865147,-0.0679967794025984,-0.33912585644215015,0.26528327889672426,0.9025621484793543,,0.02708271473312675,0.7553707625887367,1.201059175102431,0.9924375907233272,-0.10709333496636303,-0.05998871664788355,-0.04536804055907484,-0.774116664425919,0.6314151809656776,-0.11405862271265524,-0.6239185904137428,-0.7731210921459979,,0.1326234310901784,0.6072159196066492,-0.4486138082202542,0.9949098404668286,-0.09412890927708031,-0.035974404520120316,-0.053569767345141794,-0.7964250869675975,0.6023598267441499,-0.08535039173230224,-0.5973665786491258,-0.7974136199891377,,0.0,0.0,0.045,1.0,0.0,0.0,0.0,1.0,0.0,0.0,0.0,1.0,,-0.011918902424781328,-0.15947728233870473,0.25503599610310546,False,,0.11686306650606415,0.5260917874658848,-0.40707345800834,-0.3034607130899951,-0.5445513529210957,-0.7819049940003683,0.7223617787398828,0.4036569433808569,-0.5614753179581239,0.6213735239183146,-0.7352039826417075,0.27086906002920974
09:48:35.644342,,-0.16365243233769158,-0.4983170614422107,0.04716810423000001,3.5580010263310773,-0.34635327154365525,0.6690688176381477,,0.11686343727777075,0.5260906234723148,-0.4070746229484885,-0.29357955041165684,-0.5564614626797748,-0.7772783852213921,0.7291002128772499,0.39552667803571184,-0.5585441133378662,0.6182426118947466,-0.7306909658086104,0.2895976265842693,,-0.00936798403069858,0.28447990578383014,-0.11037651343888008,0.7992577580892409,-0.42476542737496015,0.4251604024764903,0.49617139836164226,0.8655577931743422,-0.0679974272738196,-0.33911794345751783,0.2652999027044174,0.9025602373487399,,0.02708271473312675,0.7553707625887367,1.201059175102431,0.9924375907233272,-0.10709333496636303,-0.05998871664788355,-0.04536804055907484,-0.774116664425919,0.6314151809656776,-0.11405862271265524,-0.6239185904137428,-0.7731210921459979,,0.1326234310901784,0.6072159196066492,-0.4486138082202542,0.9949098404668286,-0.09412890927708031,-0.035974404520120316,-0.053569767345141794,-0.7964250869675975,0.6023598267441499,-0.08535039173230224,-0.5973665786491258,-0.7974136199891377,,0.0,0.0,0.045,1.0,0.0,0.0,0.0,1.0,0.0,0.0,0.0,1.0,,-0.011918902424781328,-0.15947728233870473,0.25503599610310546,False,,0.11686343727777075,0.5260906234723148,-0.4070746229484885,-0.30367707221509527,-0.5444796649919762,-0.7818709165975501,0.7222610092821592,0.4036438037314849,-0.5616143820985139,0.6213849614221321,-0.73526428861968,0.27067906383577484
09:48:35.656286,,-0.16365243233769158,-0.4983479523737076,0.04716810423000001,3.557581673272402,-0.3466215544805597,0.669204783430571,,0.11686409236865222,0.5260900025589813,-0.40707558567877644,-0.29362182773884843,-0.5564328659135986,-0.7772828880185625,0.7290885106507339,0.3955251517266496,-0.5585604694110616,0.6182363349985123,-0.7307135691108999,0.28955399151940087,,-0.00936798403069858,0.28447990578383014,-0.11037651343888005,0.7992577580892409,-0.42476542737496015,0.4251604024764903,0.49617139836164226,0.8655577931743422,-0.0679974272738196,-0.33911794345751783,0.2652999027044174,0.9025602373487399,,0.02708271473312675,0.7553707625887367,1.201059175102431,0.9924375907233272,-0.10709333496636303,-0.05998871664788355,-0.04536804055907484,-0.774116664425919,0.6314151809656776,-0.11405862271265524,-0.6239185904137428,-0.7731210921459979,,0.1326234310901784,0.6072159196066492,-0.4486138082202542,0.9949098404668286,-0.09412890927708031,-0.035974404520120316,-0.053569767345141794,-0.7964250869675975,0.6023598267441499,-0.08535039173230224,-0.5973665786491258,-0.7974136199891377,,0.0,0.0,0.045,1.0,0.0,0.0,0.0,1.0,0.0,0.0,0.0,1.0,,-0.011918902424781328,-0.15947728233870473,0.25503599610310546,False,,0.11686409236865222,0.5260900025589813,-0.40707558567877644,-0.3034991443000663,-0.5445808558482147,-0.7818695293031653,0.7222575636744214,0.403726395254565,-0.5615594443065165,0.6214758894150411,-0.7351439921664195,0.2707970266775521
09:48:35.668904,,-0.16364470960481736,-0.4983711205723303,0.04716810423000001,3.5567429671550514,-0.3468898374174642,0.6693407492229941,,0.11686387690592207,0.5260914551739457,-0.4070747645153548,-0.293803135509504,-0.5564292040177148,-0.7772169957489327,0.7290383072033468,0.3954330979692868,-0.5586911594615499,0.6182094015743067,-0.7307661773417163,0.28947872090796717,,-0.009367819818160504,0.2844797013111771,-0.11037658914107211,0.799257680945737,-0.42476468597111605,0.42516128820622134,0.4961713109280653,0.8655577526487599,-0.06799858108538218,-0.33911825319383737,0.2653012219526313,0.9025597331862711,,0.02708271473312675,0.7553707625887367,1.201059175102431,0.9924375907233272,-0.10709333496636303,-0.05998871664788355,-0.04536804055907484,-0.774116664425919,0.6314151809656776,-0.11405862271265524,-0.6239185904137428,-0.7731210921459979,,0.1326234310901784,0.6072159196066492,-0.4486138082202542,0.9949098404668286,-0.09412890927708031,-0.035974404520120316,-0.053569767345141794,-0.7964250869675975,0.6023598267441499,-0.08535039173230224,-0.5973665786491258,-0.7974136199891377,,0.0,0.0,0.045,1.0,0.0,0.0,0.0,1.0,0.0,0.0,0.0,1.0,,-0.011918902424781328,-0.15947728233870473,0.25503599610310546,False,,0.11686387690592207,0.5260914551739457,-0.4070747645153548,-0.3032472894726062,-0.5445252308919557,-0.7820059810190583,0.7224394303830801,0.4037651083780815,-0.5612976097260766,0.6213874402136628,-0.7351639342204558,0.2709458229355333
09:48:35.681530,,-0.16365243233769158,-0.49838656603807874,0.04716810423000001,3.5563236140963754,-0.3468898374174642,0.6693407492229941,,0.1168670833656002,0.526092059615701,-0.40707429877304624,-0.29426082569379497,-0.5562457556006263,-0.7771751577593653,0.7289114442646645,0.3953259146682403,-0.5589324893148725,0.6181413049473453,-0.7309638025018801,0.28912496701251095,,-0.00936765560529049,0.2844794968388942,-0.11037666484348051,0.7992576038047662,-0.4247639445621309,0.4251621739359804,0.4961712234905071,0.8655577121253822,-0.0679997348957585,-0.33911856293320647,0.26530254119774116,0.9025592290225745,,0.02708271473312675,0.7553707625887367,1.201059175102431,0.9924375907233272,-0.10709333496636303,-0.05998871664788355,-0.04536804055907484,-0.774116664425919,0.6314151809656776,-0.11405862271265524,-0.6239185904137428,-0.7731210921459979,,0.1326234310901784,0.6072159196066492,-0.4486138082202542,0.9949098404668286,-0.09412890927708031,-0.035974404520120316,-0.053569767345141794,-0.7964250869675975,0.6023598267441499,-0.08535039173230224,-0.5973665786491258,-0.7974136199891377,,0.0,0.0,0.045,1.0,0.0,0.0,0.0,1.0,0.0,0.0,0.0,1.0,,-0.011918902424781328,-0.15947728233870473,0.25503599610310546,False,,0.1168670833656002,0.526092059615701,-0.40707429877304624,-0.30209872379022334,-0.544980186975093,-0.7821335927377827,0.7226374404844802,0.4041787876725984,-0.5607447166095715,0.6217165678139503,-0.7345992808328238,0.27172119149146284
09:48:35.694637,,-0.16365243233769158,-0.4984020115038272,0.04716810423000001,3.5563236140963754,-0.3468898374174642,0.6693407492229941,,0.11686704378920747,0.5260914145780649,-0.4070755728015697,-0.29424199076022534,-0.5562559151375532,-0.7771750174497007,0.7289166686282801,0.39532844818644597,-0.5589238841294463,0.6181441102763251,-0.7309547010102472,0.28914197896831006,,-0.009367478982181748,0.2844796693852381,-0.11037675298101213,0.7992568276972851,-0.4247643360381436,0.42516324182016635,0.49617162283410593,0.8655575594282179,-0.06799876466909344,-0.33911980782479806,0.265302412601974,0.9025587990785586,,0.02708271473312675,0.7553707625887367,1.201059175102431,0.9924375907233272,-0.10709333496636303,-0.05998871664788355,-0.04536804055907484,-0.774116664425919,0.6314151809656776,-0.11405862271265524,-0.6239185904137428,-0.7731210921459979,,0.1326234310901784,0.6072159196066492,-0.4486138082202542,0.9949098404668286,-0.09412890927708031,-0.035974404520120316,-0.053569767345141794,-0.7964250869675975,0.6023598267441499,-0.08535039173230224,-0.5973665786491258,-0.7974136199891377,,0.0,0.0,0.045,1.0,0.0,0.0,0.0,1.0,0.0,0.0,0.0,1.0,,-0.011918902424781328,-0.15947728233870473,0.25503599610310546,False,,0.11686704378920747,0.5260914145780649,-0.4070755728015697,-0.30210068337434115,-0.5449787601963995,-0.7821338300058066,0.7226277444608965,0.40418960697506634,-0.5607494133288944,0.6217268854087893,-0.7345943864120779,0.271710815779846
09:48:35.706337,,-0.1636601550705658,-0.4984174569695756,0.04716810423000001,3.554855878391012,-0.34715812035436866,0.6694767150154174,,0.11686733372577851,0.5260919569864551,-0.40707537118244363,-0.2944164771212127,-0.5562053799590856,-0.7771451044072165,0.7288682581540501,0.39527363149259376,-0.5590257762412554,0.6181181118969218,-0.731022798243137,0.28902537638373244,,-0.009367478982181748,0.28447966938523817,-0.11037675298101213,0.7992568276972851,-0.4247643360381436,0.42516324182016635,0.49617162283410593,0.8655575594282179,-0.06799876466909344,-0.33911980782479806,0.265302412601974,0.9025587990785586,,0.02708271473312675,0.7553707625887367,1.201059175102431,0.9924375907233272,-0.10709333496636303,-0.05998871664788355,-0.04536804055907484,-0.774116664425919,0.6314151809656776,-0.11405862271265524,-0.6239185904137428,-0.7731210921459979,,0.1326234310901784,0.6072159196066492,-0.4486138082202542,0.9949098404668286,-0.09412890927708031,-0.035974404520120316,-0.053569767345141794,-0.7964250869675975,0.6023598267441499,-0.08535039173230224,-0.5973665786491258,-0.7974136199891377,,0.0,0.0,0.045,1.0,0.0,0.0,0.0,1.0,0.0,0.0,0.0,1.0,,-0.011918902424781328,-0.15947728233870473,0.25503599610310546,False,,0.11686733372577851,0.5260919569864551,-0.40707537118244363,-0.3017062602781134,-0.5450975516320371,-0.7822032930854701,0.7227246825328848,0.4043239217610886,-0.5605276081955946,0.6218057299243358,-0.7344323151227019,0.2719683965771983
09:48:35.718357,,-0.1636601550705658,-0.49842517970244987,0.047166807940000006,3.554436525332337,-0.34729226182282086,0.669544697911629,,0.11687038538133773,0.5260931108645238,-0.40707292636777853,-0.2947886315202841,-0.5560218481598076,-0.7771353595708729,0.7287649149134736,0.3952112081849115,-0.5592046134611015,0.6180625870553529,-0.7311961469359465,0.28870544364190637,,-0.009367478982181746,0.2844796693852381,-0.11037675298101213,0.799256827697285,-0.42476433603814373,0.4251632418201664,0.49617162283410604,0.8655575594282178,-0.06799876466909342,-0.339119807824798,0.265302412601974,0.9025587990785587,,0.02708271473312675,0.7553707625887367,1.201059175102431,0.9924375907233272,-0.10709333496636303,-0.05998871664788355,-0.04536804055907484,-0.774116664425919,0.6314151809656776,-0.11405862271265524,-0.6239185904137428,-0.7731210921459979,,0.1326234310901784,0.6072159196066492,-0.4486138082202542,0.9949098404668286,-0.09412890927708031,-0.035974404520120316,-0.053569767345141794,-0.7964250869675975,0.6023598267441499,-0.08535039173230224,-0.5973665786491258,-0.7974136199891377,,0.0,0.0,0.045,1.0,0.0,0.0,0.0,1.0,0.0,0.0,0.0,1.0,,-0.011918902424781328,-0.15947728233870473,0.25503599610310546,False,,0.11687038538133773,0.5260931108645238,-0.40707292636777853,-0.30076924748695383,-0.5455311438819384,-0.782261868443679,0.7228473800297206,0.40466079618985634,-0.5601261511580766,0.6221169704728368,-0.7339246630832457,0.272626234922181
09:48:35.732112,,-0.1636601550705658,-0.49842517970244987,0.047166807940000006,3.554017172273661,-0.3474264032912731,0.6696126808078405,,0.1168724955899135,0.5260961158744801,-0.4070710786298982,-0.2951609898485301,-0.5558988526992977,-0.7770820134575503,0.7286613914930541,0.39510512216851545,-0.5594144429522789,0.61800693088269,-0.7313469819475615,0.2884424125837792,,-0.009367643194706125,0.28447987385788925,-0.11037667727878209,0.7992569048408666,-0.42476507744345754,0.42516235609085035,0.4961717102660244,0.8655575999535905,-0.0679976108575902,-0.33911949808873837,0.26530109335452323,0.9025593032421795,,0.02708271473312675,0.7553707625887367,1.201059175102431,0.9924375907233272,-0.10709333496636303,-0.05998871664788355,-0.04536804055907484,-0.774116664425919,0.6314151809656776,-0.11405862271265524,-0.6239185904137428,-0.7731210921459979,,0.1326234310901784,0.6072159196066492,-0.4486138082202542,0.9949098404668286,-0.09412890927708031,-0.035974404520120316,-0.053569767345141794,-0.7964250869675975,0.6023598267441499,-0.08535039173230224,-0.5973665786491258,-0.7974136199891377,,0.0,0.0,0.045,1.0,0.0,0.0,0.0,1.0,0.0,0.0,0.0,1.0,,-0.011918902424781328,-0.15947728233870473,0.25503599610310546,False,,0.1168724955899135,0.5260961158744801,-0.4070710786298982,-0.29997618426411793,-0.5457831131342001,-0.7823906200178278,0.7230514453977335,0.40490917532476767,-0.5596830951941153,0.6222627227968814,-0.7336002679629811,0.2731661594379035
09:48:35.744987,,-0.1636601550705658,-0.49842517970244987,0.047166807940000006,3.553597819214986,-0.3475605447597253,0.6696806637040521,,0.11687346137876281,0.5260971993149599,-0.4070695658559315,-0.29534771425558803,-0.5558317674300157,-0.7770590543836579,0.7286094316544426,0.3950558125848071,-0.559516935442662,0.6179789832900385,-0.7314246039466972,0.2883054369123612,,-0.009367630785593503,0.28448025087683737,-0.11037668971541412,0.7992562058714175,-0.4247662103275811,0.4251625382406975,0.496172197042151,0.8655574877717666,-0.06799548682003982,-0.3391204332411899,0.2652996455132845,0.9025593774550983,,0.02708271473312675,0.7553707625887367,1.201059175102431,0.9924375907233272,-0.10709333496636303,-0.05998871664788355,-0.04536804055907484,-0.774116664425919,0.6314151809656776,-0.11405862271265524,-0.6239185904137428,-0.7731210921459979,,0.1326234310901784,0.6072159196066492,-0.4486138082202542,0.9949098404668286,-0.09412890927708031,-0.035974404520120316,-0.053569767345141794,-0.7964250869675975,0.6023598267441499,-0.08535039173230224,-0.5973665786491258,-0.7974136199891377,,0.0,0.0,0.045,1.0,0.0,0.0,0.0,1.0,0.0,0.0,0.0,1.0,,-0.011918902424781328,-0.15947728233870473,0.25503599610310546,False,,0.11687346137876281,0.5260971993149599,-0.4070695658559315,-0.2995791136548201,-0.5459093712435804,-0.7824546715626609,0.7231557717991343,0.4050306366131589,-0.5594603767187968,0.6223327762342196,-0.7334392556941428,0.27343879357441386
09:48:35.756692,,-0.1636601550705658,-0.49843290243532407,0.04716810423000001,3.55233976003896,-0.3475605447597253,0.6696806637040521,,0.11687485794156616,0.5260972445982208,-0.40706894668092547,-0.29546889227755124,-0.5557530582566048,-0.7770692838703044,0.7285756947846315,0.3950491402737031,-0.5595655759051834,0.6179608326304898,-0.7314880142609576,0.2881834386761197,,-0.009367454163607347,0.28448042342352303,-0.11037677785445246,0.7992554297589779,-0.4247666018034192,0.4251636061204103,0.49617259637957956,0.8655573350688436,-0.06799451659224418,-0.33912167813173305,0.2652995169182214,0.9025589475043833,,0.02708271473312675,0.7553707625887367,1.201059175102431,0.9924375907233272,-0.10709333496636303,-0.05998871664788355,-0.04536804055907484,-0.774116664425919,0.6314151809656776,-0.11405862271265524,-0.6239185904137428,-0.7731210921459979,,0.1326234310901784,0.6072159196066492,-0.4486138082202542,0.9949098404668286,-0.09412890927708031,-0.035974404520120316,-0.053569767345141794,-0.7964250869675975,0.6023598267441499,-0.08535039173230224,-0.5973665786491258,-0.7974136199891377,,0.0,0.0,0.045,1.0,0.0,0.0,0.0,1.0,0.0,0.0,0.0,1.0,,-0.011918902424781328,-0.15947728233870473,0.25503599610310546,False,,0.11687485794156616,0.5260972445982208,-0.40706894668092547,-0.29921883079571604,-0.5461136840519727,-0.7824499571144644,0.7231674538965269,0.40517428005833644,-0.5593412521922765,0.6224925099324968,-0.7332077787846984,0.27369586808636587
09:48:35.768852,,-0.16367560053631425,-0.4984483479010725,0.04716810423000001,3.55233976003896,-0.34769468622817756,0.6697486466002637,,0.11687742958993468,0.5260958514314513,-0.4070678054842347,-0.29569704241683015,-0.5555961304981017,-0.7770947168019327,0.7285121405310775,0.39504288268910404,-0.5596527333405158,0.6179266301145847,-0.7316105935620528,0.2879455142609691,,-0.009367277540587249,0.2844805959699065,-0.11037686599205399,0.7992546536505418,-0.4247669932823198,0.4251646740019101,0.4961729957190696,0.865557182371713,-0.06799354636438541,-0.3391229230241108,0.26529938832560346,0.9025585175582491,,0.02708271473312675,0.7553707625887367,1.201059175102431,0.9924375907233272,-0.10709333496636303,-0.05998871664788355,-0.04536804055907484,-0.774116664425919,0.6314151809656776,-0.11405862271265524,-0.6239185904137428,-0.7731210921459979,,0.1326234310901784,0.6072159196066492,-0.4486138082202542,0.9949098404668286,-0.09412890927708031,-0.035974404520120316,-0.053569767345141794,-0.7964250869675975,0.6023598267441499,-0.08535039173230224,-0.5973665786491258,-0.7974136199891377,,0.0,0.0,0.045,1.0,0.0,0.0,0.0,1.0,0.0,0.0,0.0,1.0,,-0.011918902424781328,-0.15947728233870473,0.25503599610310546,False,,0.11687742958993468,0.5260958514314513,-0.4070678054842347,-0.29849906054196335,-0.5465212626607001,-0.7824402982434634,0.7231857423312802,0.4054670237047118,-0.5591054236696318,0.6228167410597768,-0.7327421116244086,0.2742048593805044
09:48:35.782170,,-0.16366787780344003,-0.49846379336682095,0.04716810423000001,3.55233976003896,-0.34782882769662976,0.6698166294964752,,0.11687586377156578,0.5260967404623892,-0.40706860395597816,-0.29579955202488906,-0.5556459223551167,-0.7770200988340048,0.7284835699982609,0.39495342388284466,-0.5597530537708632,0.617911250313881,-0.7316210781089824,0.28795187931699034,,-0.009367277540587249,0.2844805959699065,-0.11037686599205399,0.7992546536505418,-0.4247669932823199,0.4251646740019101,0.4961729957190697,0.865557182371713,-0.06799354636438541,-0.3391229230241108,0.2652993883256035,0.9025585175582491,,0.02708271473312675,0.7553707625887367,1.201059175102431,0.9924375907233272,-0.10709333496636303,-0.05998871664788355,-0.04536804055907484,-0.774116664425919,0.6314151809656776,-0.11405862271265524,-0.6239185904137428,-0.7731210921459979,,0.1326234310901784,0.6072159196066492,-0.4486138082202542,0.9949098404668286,-0.09412890927708031,-0.035974404520120316,-0.053569767345141794,-0.7964250869675975,0.6023598267441499,-0.08535039173230224,-0.5973665786491258,-0.7974136199891377,,0.0,0.0,0.045,1.0,0.0,0.0,0.0,1.0,0.0,0.0,0.0,1.0,,-0.011918902424781328,-0.15947728233870473,0.25503599610310546,False,,0.11687586377156578,0.5260967404623892,-0.40706860395597816,-0.2984299018549413,-0.5463559385687708,-0.7825821248083089,0.7233532555736317,0.4054461420055086,-0.5589038321427733,0.6226553310860499,-0.7328769435065388,0.274211094499539
09:48:35.795547,,-0.16366787780344003,-0.4984715160996952,0.04716810423000001,3.5521300835096223,-0.347962969165082,0.6698846123926868,,0.11687611504735793,0.5260974784568275,-0.4070680380504382,-0.2959220139551048,-0.5556244318045145,-0.7769888367529261,0.728449426247604,0.39490486737884145,-0.5598317417939395,0.6178928669731438,-0.731663608841119,0.2878832548817292,,-0.009367289952459031,0.28448021895082665,-0.11037685355793886,0.7992553526067628,-0.42476586039941333,0.42516449184760274,0.49617250895009934,0.8655572945379618,-0.06799567040431598,-0.3391219878613707,0.2653008361666336,0.9025584433363206,,0.02708271473312675,0.7553707625887367,1.201059175102431,0.9924375907233272,-0.10709333496636303,-0.05998871664788355,-0.04536804055907484,-0.774116664425919,0.6314151809656776,-0.11405862271265524,-0.6239185904137428,-0.7731210921459979,,0.1326234310901784,0.6072159196066492,-0.4486138082202542,0.9949098404668286,-0.09412890927708031,-0.035974404520120316,-0.053569767345141794,-0.7964250869675975,0.6023598267441499,-0.08535039173230224,-0.5973665786491258,-0.7974136199891377,,0.0,0.0,0.045,1.0,0.0,0.0,0.0,1.0,0.0,0.0,0.0,1.0,,-0.011918902424781328,-0.15947728233870473,0.25503599610310546,False,,0.11687611504735793,0.5260974784568275,-0.4070680380504382,-0.2982138865765088,-0.5463792192915177,-0.7826482138095793,0.7234466701222121,0.4055011149053341,-0.5587430190164479,0.622650297793245,-0.7328291714560243,0.2743501633333951
09:48:35.807010,,-0.16366787780344003,-0.49851785249694053,0.04716810423000001,3.5512913773922716,-0.347962969165082,0.6698846123926868,,0.11687745461541318,0.5260965550617985,-0.4070693308790586,-0.29601599580638605,-0.5555620652878605,-0.7769976330979657,0.728423213984643,0.3949006553117689,-0.5598688183517802,0.6178787514998689,-0.7317132389450275,0.28778739443822166,,-0.009367819821689364,0.28447970131175865,-0.11037658914527888,0.799257680929493,-0.42476468596783695,0.4251612881979509,0.4961713109241192,0.8655577526303492,-0.06799858108539868,-0.33911825318513483,0.2653012219505055,0.9025597331703418,,0.02708271473312675,0.7553707625887367,1.201059175102431,0.9924375907233272,-0.10709333496636303,-0.05998871664788355,-0.04536804055907484,-0.774116664425919,0.6314151809656776,-0.11405862271265524,-0.6239185904137428,-0.7731210921459979,,0.1326234310901784,0.6072159196066492,-0.4486138082202542,0.9949098404668286,-0.09412890927708031,-0.035974404520120316,-0.053569767345141794,-0.7964250869675975,0.6023598267441499,-0.08535039173230224,-0.5973665786491258,-0.7974136199891377,,0.0,0.0,0.045,1.0,0.0,0.0,0.0,1.0,0.0,0.0,0.0,1.0,,-0.011918902424781328,-0.15947728233870473,0.25503599610310546,False,,0.11687745461541318,0.5260965550617985,-0.4070693308790586,-0.297856386152935,-0.5465811018730999,-0.7826433876952528,0.7234435203574452,0.40566097456368516,-0.5586310469074093,0.6228250525474555,-0.7325901124034021,0.27459184461310987
09:48:35.820027,,-0.16366787780344003,-0.4985410206955632,0.04716810423000001,3.5512913773922716,-0.34809711063353427,0.6699525952888985,,0.11687879442639845,0.5260956313996754,-0.4070706242405025,-0.29611242179513114,-0.5554998890525307,-0.7770053454907814,0.7283963118404893,0.3948950308865099,-0.5599077847988141,0.6178642622419549,-0.7317634780745542,0.2876907464629967,,-0.009368008854405193,0.2844791517461447,-0.110376488571057,0.7992591560040182,-0.42476316161526917,0.4251600381589648,0.49617042480456164,0.8655580175054306,-0.06800167534933774,-0.3391160731401454,0.265302798393942,0.9025600888978739,,0.02708271473312675,0.7553707625887367,1.201059175102431,0.9924375907233272,-0.10709333496636303,-0.05998871664788355,-0.04536804055907484,-0.774116664425919,0.6314151809656776,-0.11405862271265524,-0.6239185904137428,-0.7731210921459979,,0.1326723481717718,0.6072069767245024,-0.44863436527126077,0.9949171004880967,-0.09404351286431928,-0.03599695604488637,-0.05348445669452817,-0.7964065941564497,0.602391857245942,-0.0853192595399773,-0.5974046823320543,-0.7973884056589281,,0.0,0.0,0.045,1.0,0.0,0.0,0.0,1.0,0.0,0.0,0.0,1.0,,-0.011918902424781328,-0.15947728233870473,0.25503599610310546,False,,0.11687879442639845,0.5260956313996754,-0.4070706242405025,-0.29749882516192144,-0.5467828742749195,-0.782638446172263,0.7234402901688239,0.4058208435612905,-0.5585191039630161,0.6229996754314758,-0.7323509618556258,0.27483353703908747
09:48:35.832312,,-0.16366787780344003,-0.49855646616131166,0.04716810423000001,3.5510817008629343,-0.34809711063353427,0.6699525952888985,,0.1167907163307846,0.5261174679603291,-0.40705594741718937,-0.2967998973510133,-0.5557527294927406,-0.7765621189536589,0.7282042706653042,0.3943528542423185,-0.5605393532444881,0.617760763659558,-0.7318638739631199,0.287657624391314,,-0.009366880808407854,0.28448144714376306,-0.11037518662914164,0.799261210864519,-0.42476271848132,0.4251566178999425,0.4961704718474825,0.8655576526732232,-0.06800597557452254,-0.33911116115870543,0.2653046981030581,0.9025613760240441,,0.02708271473312675,0.7553707625887367,1.201059175102431,0.9924375907233272,-0.10709333496636303,-0.05998871664788355,-0.04536804055907484,-0.774116664425919,0.6314151809656776,-0.11405862271265524,-0.6239185904137428,-0.7731210921459979,,0.1326723481717718,0.6072069767245024,-0.44863436527126077,0.9949171004880967,-0.09404351286431928,-0.03599695604488637,-0.05348445669452817,-0.7964065941564497,0.602391857245942,-0.0853192595399773,-0.5974046823320543,-0.7973884056589281,,0.0,0.0,0.045,1.0,0.0,0.0,0.0,1.0,0.0,0.0,0.0,1.0,,-0.011918902424781328,-0.15947728233870473,0.25503599610310546,False,,0.1167907163307846,0.5261174679603291,-0.40705594741718937,-0.29718278182793206,-0.5468191501821359,-0.7827331672920848,0.7235432098143345,0.405939024694511,-0.558299858285527,0.6230309925810931,-0.7322583732700885,0.27500919449949685
09:48:35.845635,,-0.16366787780344003,-0.49858735709280855,0.04716810423000001,3.5510817008629343,-0.34809711063353427,0.6699525952888985,,0.11679063690478166,0.526116177856866,-0.407058495322665,-0.2967390423396607,-0.5557826086829483,-0.7765639913342094,0.7282212870833386,0.3943631655591137,-0.5605099916048606,0.6177699392087856,-0.7318356274026101,0.2877097785515836,,-0.009365752762573398,0.2844837425413603,-0.11037388468772927,0.7992632657199039,-0.42476227536174344,0.42515319763598436,0.4961705188753797,0.8655572878465823,-0.068010275800344,-0.3391062491749811,0.2653065978165957,0.9025626631349717,,0.02708271473312675,0.7553707625887367,1.201059175102431,0.9924375907233272,-0.10709333496636303,-0.05998871664788355,-0.04536804055907484,-0.774116664425919,0.6314151809656776,-0.11405862271265524,-0.6239185904137428,-0.7731210921459979,,0.1326723481717718,0.6072069767245024,-0.44863436527126077,0.9949171004880967,-0.09404351286431928,-0.03599695604488637,-0.05348445669452817,-0.7964065941564497,0.602391857245942,-0.0853192595399773,-0.5974046823320543,-0.7973884056589281,,0.0,0.0,0.045,1.0,0.0,0.0,0.0,1.0,0.0,0.0,0.0,1.0,,-0.011918902424781328,-0.15947728233870473,0.25503599610310546,False,,0.11679063690478166,0.526116177856866,-0.407058495322665,-0.2971867089805175,-0.5468163072734931,-0.7827336623048162,0.7235237851789786,0.40596058987617345,-0.558309351298787,0.6230516770586629,-0.7322485408433191,0.2749885127550195
09:48:35.857272,,-0.16363698687194314,-0.4986414162229281,0.04716810423000001,3.5510817008629343,-0.3484995350388909,0.6701565439775332,,0.11679015081026672,0.5261162488592946,-0.4070595120454815,-0.2967515545249722,-0.5558182815192522,-0.7765336778376052,0.7282177886674405,0.39433086176873045,-0.5605372634580447,0.6177680528768994,-0.7318259420010441,0.28773846364184397,,-0.0093647563971724,0.28448646187022164,-0.11037252656081095,0.7992838170847868,-0.4247308008339998,0.4251460019676855,0.49613471774288115,0.8655776872983886,-0.0680118042782985,-0.3391101856570953,0.265290426691027,0.9025659354914345,,0.02708271473312675,0.7553707625887367,1.201059175102431,0.9924375907233272,-0.10709333496636303,-0.05998871664788355,-0.04536804055907484,-0.774116664425919,0.6314151809656776,-0.11405862271265524,-0.6239185904137428,-0.7731210921459979,,0.1326723481717718,0.6072069767245024,-0.44863436527126077,0.9949171004880967,-0.09404351286431928,-0.03599695604488637,-0.05348445669452817,-0.7964065941564497,0.602391857245942,-0.0853192595399773,-0.5974046823320543,-0.7973884056589281,,0.0,0.0,0.045,1.0,0.0,0.0,0.0,1.0,0.0,0.0,0.0,1.0,,-0.011918902424781328,-0.15947728233870473,0.25503599610310546,False,,0.11679015081026672,0.5261162488592946,-0.4070595120454815,-0.2971528960591161,-0.5467362064647617,-0.7828024507525521,0.7236017308859971,0.4059544451637349,-0.5582127941122393,0.622977280021085,-0.7323117566940501,0.27498872628747006
09:48:35.870070,,-0.16359065047469779,-0.4986645844215508,0.04716810423000001,3.5512913773922716,-0.34863367650734317,0.6702245268737448,,0.11679173772650786,0.526116623862484,-0.40706011911291257,-0.29681106822634484,-0.5558506895334847,-0.7764877337881686,0.7282011466802079,0.3942762849747391,-0.5605972717380533,0.6177590790526405,-0.7318307331970065,0.2877455441816007,,-0.009363563311520297,0.284489196220797,-0.11037126369218997,0.799322705343243,-0.4246668091123141,0.4251368013731134,0.49606289023523137,0.8656187640564097,-0.06801286764693952,-0.3391235874646077,0.26525882166754927,0.9025701833504778,,0.02708271473312675,0.7553707625887367,1.201059175102431,0.9924375907233272,-0.10709333496636303,-0.05998871664788355,-0.04536804055907484,-0.774116664425919,0.6314151809656776,-0.11405862271265524,-0.6239185904137428,-0.7731210921459979,,0.1326723481717718,0.6072069767245024,-0.44863436527126077,0.9949171004880967,-0.09404351286431928,-0.03599695604488637,-0.05348445669452817,-0.7964065941564497,0.602391857245942,-0.0853192595399773,-0.5974046823320543,-0.7973884056589281,,0.0,0.0,0.045,1.0,0.0,0.0,0.0,1.0,0.0,0.0,0.0,1.0,,-0.011918902424781328,-0.15947728233870473,0.25503599610310546,False,,0.11679173772650786,0.526116623862484,-0.40706011911291257,-0.29708132367739676,-0.5466029242140091,-0.7829226847925536,0.7237600098519934,0.40592336347888974,-0.55803017043976,0.6228275325169307,-0.7324284717449748,0.27501708768037
09:48:35.883068,,-0.16355203681032668,-0.49868002988729926,0.04716940052,3.5517107304509468,-0.34863367650734317,0.6702245268737448,,0.11679583467549787,0.5261136901168304,-0.40706237681181756,-0.29658075942409334,-0.5559543534217024,-0.776501519670686,0.7282655310283426,0.3943221227502193,-0.5604813822293897,0.6177937920175585,-0.7317272855519451,0.28793403779919435,,-0.009362887641124876,0.2844917899754532,-0.11036974875632084,0.799363220175143,-0.42460277369110816,0.4251245806997634,0.4959903496662133,0.8656601836917739,-0.06801471692816223,-0.3391341881605561,0.2652261549218858,0.9025757981887939,,0.02708271473312675,0.7553707625887367,1.201059175102431,0.9924375907233272,-0.10709333496636303,-0.05998871664788355,-0.04536804055907484,-0.774116664425919,0.6314151809656776,-0.11405862271265524,-0.6239185904137428,-0.7731210921459979,,0.1326723481717718,0.6072069767245024,-0.44863436527126077,0.9949171004880967,-0.09404351286431928,-0.03599695604488637,-0.05348445669452817,-0.7964065941564497,0.602391857245942,-0.0853192595399773,-0.5974046823320543,-0.7973884056589281,,0.0,0.0,0.045,1.0,0.0,0.0,0.0,1.0,0.0,0.0,0.0,1.0,,-0.011918902424781328,-0.15947728233870473,0.25503599610310546,False,,0.11679583467549787,0.5261136901168304,-0.40706237681181756,-0.29758474104191457,-0.5462855519176736,-0.7829530111475527,0.723791237138593,0.40569066043843666,-0.5581588779858389,0.6225508549029566,-0.7327940937255351,0.27466934532373655
09:48:35.895895,,-0.16350570041308132,-0.49870319808592195,0.04716940052,3.551920406980284,-0.34863367650734317,0.6702245268737448,,0.1167988530185508,0.526112082218298,-0.40706436840665355,-0.2964700326300007,-0.5559787720948101,-0.7765263194073422,0.7282964685762116,0.39436250825260377,-0.5604127639018711,0.6178104673860629,-0.7316869665811072,0.28800071063029015,,-0.009363352372111682,0.2844917113262857,-0.11036952322176588,0.7994023764635784,-0.42453804676958806,0.4251155998032772,0.49591727352364523,0.8657020772010046,-0.06801438963479775,-0.33914876407251016,0.26519303577127185,0.902580054872231,,0.02708271473312675,0.7553707625887367,1.201059175102431,0.9924375907233272,-0.10709333496636303,-0.05998871664788355,-0.04536804055907484,-0.774116664425919,0.6314151809656776,-0.11405862271265524,-0.6239185904137428,-0.7731210921459979,,0.1326723481717718,0.6072069767245024,-0.44863436527126077,0.9949171004880967,-0.09404351286431928,-0.03599695604488637,-0.05348445669452817,-0.7964065941564497,0.602391857245942,-0.0853192595399773,-0.5974046823320543,-0.7973884056589281,,0.0,0.0,0.045,1.0,0.0,0.0,0.0,1.0,0.0,0.0,0.0,1.0,,-0.011918902424781328,-0.15947728233870473,0.25503599610310546,False,,0.1167988530185508,0.526112082218298,-0.40706436840665355,-0.29776494180590285,-0.5462196374441854,-0.782930486762184,0.7237600440680327,0.40562313392423005,-0.5582483961787313,0.6225009542498445,-0.732880604802603,0.2745515999993522
09:48:35.907967,,-0.1634130276185906,-0.4987418117502931,0.04716940052,3.551920406980284,-0.34863367650734317,0.6702245268737448,,0.11680257214412881,0.5261104965678943,-0.4070660507220336,-0.29641977380287204,-0.5559635342041765,-0.7765564154225084,0.7283105074992299,0.39439983222632147,-0.560368251247395,0.6178180333762266,-0.7316784272992137,0.2880061746908924,,-0.009363640426940273,0.28449180524353473,-0.11036938571196048,0.7994407542084442,-0.4244737098439814,0.42510768832690426,0.4958445951075762,0.8657438151081508,-0.06801309151414103,-0.33916458324235554,0.2651597872340272,0.9025838848665356,,0.02708271473312675,0.7553707625887367,1.201059175102431,0.9924375907233272,-0.10709333496636303,-0.05998871664788355,-0.04536804055907484,-0.774116664425919,0.6314151809656776,-0.11405862271265524,-0.6239185904137428,-0.7731210921459979,,0.1326723481717718,0.6072069767245024,-0.44863436527126077,0.9949171004880967,-0.09404351286431928,-0.03599695604488637,-0.05348445669452817,-0.7964065941564497,0.602391857245942,-0.0853192595399773,-0.5974046823320543,-0.7973884056589281,,0.0,0.0,0.045,1.0,0.0,0.0,0.0,1.0,0.0,0.0,0.0,1.0,,-0.011918902424781328,-0.15947728233870473,0.25503599610310546,False,,0.11680257214412881,0.5261104965678943,-0.4070660507220336,-0.2977649432527241,-0.5462557758833747,-0.782905272612054,0.7237345294171308,0.40562740152244364,-0.5582783732722547,0.6225306173185914,-0.7328513071887113,0.27456254670426333
09:48:35.919534,,-0.1633744139542195,-0.4987572572160415,0.04716940052,3.551920406980284,-0.34863367650734317,0.6702245268737448,,0.1168063111372808,0.5261092335062145,-0.4070670961866767,-0.29638014019400966,-0.555943240492711,-0.776586071114492,0.7283215768632905,0.39443523480803117,-0.5603289446542123,0.6178239985416148,-0.7316747630555511,0.28800268737227747,,-0.00936378446090515,0.2844918522110953,-0.11036931698843346,0.7994599402995203,-0.4244415396968198,0.42510373231591697,0.4958082541292687,0.8657646809797689,-0.0680124422302864,-0.33917249149424894,0.26514316234938895,0.9025857989497682,,0.02708271473312675,0.7553707625887367,1.201059175102431,0.9924375907233272,-0.10709333496636303,-0.05998871664788355,-0.04536804055907484,-0.774116664425919,0.6314151809656776,-0.11405862271265524,-0.6239185904137428,-0.7731210921459979,,0.1326723481717718,0.6072069767245024,-0.44863436527126077,0.9949171004880967,-0.09404351286431928,-0.03599695604488637,-0.05348445669452817,-0.7964065941564497,0.602391857245942,-0.0853192595399773,-0.5974046823320543,-0.7973884056589281,,0.0,0.0,0.045,1.0,0.0,0.0,0.0,1.0,0.0,0.0,0.0,1.0,,-0.011918902424781328,-0.15947728233870473,0.25503599610310546,False,,0.1168063111372808,0.5261092335062145,-0.4070670961866767,-0.2977639625330335,-0.5462926248778308,-0.7828799337195428,0.7237138664904494,0.4056262709838781,-0.5583059803881357,0.6225551076539891,-0.7328244648562184,0.2745786620298941
09:48:35.933636,,-0.16332807755697415,-0.49877270268178997,0.04716940052,3.551920406980284,-0.34863367650734317,0.6702245268737448,,0.11681315923321746,0.5261068107664799,-0.4070692256167161,-0.29630680254545944,-0.5559080470380664,-0.7766392483023304,0.7283420558099698,0.3944990322163501,-0.5602574080892371,0.6178350334059999,-0.7316671079245574,0.2879984629777058,,-0.009363784460905149,0.2844918522110952,-0.11036931698843339,0.7994599402995207,-0.4244415396968199,0.425103732315917,0.4958082541292688,0.8657646809797693,-0.06801244223028645,-0.339172491494249,0.265143162349389,0.9025857989497686,,0.02708271473312675,0.7553707625887367,1.201059175102431,0.9924375907233272,-0.10709333496636303,-0.05998871664788355,-0.04536804055907484,-0.774116664425919,0.6314151809656776,-0.11405862271265524,-0.6239185904137428,-0.7731210921459979,,0.1326723481717718,0.6072069767245024,-0.44863436527126077,0.9949171004880967,-0.09404351286431928,-0.03599695604488637,-0.05348445669452817,-0.7964065941564497,0.602391857245942,-0.0853192595399773,-0.5974046823320543,-0.7973884056589281,,0.0,0.0,0.045,1.0,0.0,0.0,0.0,1.0,0.0,0.0,0.0,1.0,,-0.011918902424781328,-0.15947728233870473,0.25503599610310546,False,,0.11681315923321746,0.5261068107664799,-0.4070692256167161,-0.29776248535225164,-0.5463599420093788,-0.782833517476327,0.7236743660517717,0.40562599417236384,-0.5583573808693213,0.6226017300300546,-0.7327744309261822,0.2746064805214789
09:48:35.947272,,-0.16328946389260304,-0.4987881481475384,0.04716940052,3.55233976003896,-0.34863367650734317,0.6702245268737448,,0.1168143079089419,0.5261058347837597,-0.4070706950382873,-0.29621746283873446,-0.5559423622057335,-0.7766487652822813,0.7283669967155716,0.3945210600662376,-0.5602094708765203,0.6178484707474169,-0.7316291567927848,0.28806604125748164,,-0.00936360783438674,0.2844920247570808,-0.11036940511798249,0.79945916442006,-0.42444193152598525,0.4251048002317937,0.4958086536001672,0.8657645284264176,-0.06801147202211677,-0.3391737363547063,0.26514303323662225,0.9025853690848941,,0.02708271473312675,0.7553707625887367,1.201059175102431,0.9924375907233272,-0.10709333496636303,-0.05998871664788355,-0.04536804055907484,-0.774116664425919,0.6314151809656776,-0.11405862271265524,-0.6239185904137428,-0.7731210921459979,,0.1326723481717718,0.6072069767245024,-0.44863436527126077,0.9949171004880967,-0.09404351286431928,-0.03599695604488637,-0.05348445669452817,-0.7964065941564497,0.602391857245942,-0.0853192595399773,-0.5974046823320543,-0.7973884056589281,,0.0,0.0,0.045,1.0,0.0,0.0,0.0,1.0,0.0,0.0,0.0,1.0,,-0.011918902424781328,-0.15947728233870473,0.25503599610310546,False,,0.1168143079089419,0.5261058347837597,-0.4070706950382873,-0.2979431655458865,-0.5462755825128673,-0.7828236442869646,0.7236534668832737,0.40555906454810564,-0.5584330801722659,0.6225395810487196,-0.7328743637985253,0.2744806676518251
09:48:35.958908,,-0.16327401842685457,-0.4987958708804126,0.04717069681,3.5525494365682975,-0.34863367650734317,0.6702245268737448,,0.11681486673235139,0.5261056065205593,-0.4070709285622511,-0.29615000135690545,-0.5559713513263751,-0.7766537408656635,0.7283858251709866,0.39453547395714506,-0.5601748383133535,0.6178586135891332,-0.7315993550391738,0.28811997035953446,,-0.009363431207893031,0.2844921973030818,-0.11036949324755803,0.7994583885398369,-0.42444232335568033,0.425105868146922,0.49580905307016776,0.8657643758736965,-0.06801050181347845,-0.33917498121497647,0.26514290412471864,0.9025849392192179,,0.02708271473312675,0.7553707625887367,1.201059175102431,0.9924375907233272,-0.10709333496636303,-0.05998871664788355,-0.04536804055907484,-0.774116664425919,0.6314151809656776,-0.11405862271265524,-0.6239185904137428,-0.7731210921459979,,0.1326723481717718,0.6072069767245024,-0.44863436527126077,0.9949171004880967,-0.09404351286431928,-0.03599695604488637,-0.05348445669452817,-0.7964065941564497,0.602391857245942,-0.0853192595399773,-0.5974046823320543,-0.7973884056589281,,0.0,0.0,0.045,1.0,0.0,0.0,0.0,1.0,0.0,0.0,0.0,1.0,,-0.011918902424781328,-0.15947728233870473,0.25503599610310546,False,,0.11681486673235139,0.5261056065205593,-0.4070709285622511,-0.29812236504897865,-0.5461862405168824,-0.7828177604830117,0.7236440779620591,0.4054833364014577,-0.5585002348532933,0.6224647009172849,-0.7329828473919269,0.27436078717844964
09:48:35.971065,,-0.16326629569398035,-0.4987958708804126,0.04717069681,3.5525494365682975,-0.34863367650734317,0.6702245268737448,,0.11681520361285594,0.526103895246627,-0.4070712582695021,-0.29606866030188916,-0.5560011542034307,-0.7766634180335117,0.728408522004779,0.3945565683066991,-0.5601304664779932,0.617870838814924,-0.7315653292293818,0.28818014437439704,,-0.00936360783438674,0.2844920247570808,-0.11036940511798249,0.79945916442006,-0.42444193152598514,0.4251048002317937,0.49580865360016707,0.8657645284264176,-0.0680114720221168,-0.3391737363547063,0.26514303323662225,0.9025853690848941,,0.02708271473312675,0.7553707625887367,1.201059175102431,0.9924375907233272,-0.10709333496636303,-0.05998871664788355,-0.04536804055907484,-0.774116664425919,0.6314151809656776,-0.11405862271265524,-0.6239185904137428,-0.7731210921459979,,0.1326723481717718,0.6072069767245024,-0.44863436527126077,0.9949171004880967,-0.09404351286431928,-0.03599695604488637,-0.05348445669452817,-0.7964065941564497,0.602391857245942,-0.0853192595399773,-0.5974046823320543,-0.7973884056589281,,0.0,0.0,0.045,1.0,0.0,0.0,0.0,1.0,0.0,0.0,0.0,1.0,,-0.011918902424781328,-0.15947728233870473,0.25503599610310546,False,,0.11681520361285594,0.526103895246627,-0.4070712582695021,-0.2983025290603756,-0.5460961603308586,-0.7828119728441031,0.7236298164646094,0.40541301504075883,-0.5585697592592682,0.6223949629291511,-0.733088856079162,0.2742357365715967
