AlexandreBanks6/RCL_Autocam_Public/dataCollection/ParticipantData/P01/optimizationData/Data_39.csv
System Time,q_des,q0,q1,q2,q3,q4,q5,T_des,Tx,Ty,Tz,R00,R01,R02,R10,R11,R12,R20,R21,R22,T_target,Tx,Ty,Tz,R00,R01,R02,R10,R11,R12,R20,R21,R22,worldFrame,Tx,Ty,Tz,R00,R01,R02,R10,R11,R12,R20,R21,R22,ECM_T_PSM_RCM,Tx,Ty,Tz,R00,R01,R02,R10,R11,R12,R20,R21,R22,psm3_T_cam,Tx,Ty,Tz,R00,R01,R02,R10,R11,R12,R20,R21,R22,offset,x,y,z,IK Trigered,ECM_T_PSM3,Tx,Ty,Tz,R00,R01,R02,R10,R11,R12,R20,R21,R22
10:08:35.805985,,-0.08314294212390107,-0.5784867514095353,0.10020451329,-3.2650829148463396,-0.5176519267571517,1.0890634883712598,,0.15008307802672047,0.5107582512517355,-0.3467227281693592,0.08411543381533376,-0.49468300072580573,-0.8649932500239356,0.7245843466304639,0.6262659280253774,-0.28769517203564005,0.6840337114588446,-0.602560964706,0.4111181890897224,,0.0029199616111822164,0.2628884734297914,-0.08684582857204634,-0.832079734335986,0.5488124353083392,0.08030085029615204,-0.4984817334863947,-0.8034169247163893,0.3256335462750405,0.24322680174634137,0.2309245676193633,0.9420799153904388,,-0.09313313826961853,0.6116128384143904,1.1857929561149692,0.9962021599755055,0.04609329572830634,-0.0738692395320274,0.08439912666732821,-0.7197231663426924,0.6891120019615399,-0.021401959674979064,-0.6927293641232136,-0.7208800067996883,,0.0,0.0,0.0,1.0,0.0,0.0,0.0,1.0,0.0,0.0,0.0,1.0,,0.0,0.0,0.045,1.0,0.0,0.0,0.0,1.0,0.0,0.0,0.0,1.0,,-0.02272741252427273,-0.20692986320293497,0.201818166158785,True,,0.15008307802672047,0.5107582512517355,-0.3467227281693592,0.08430570435508325,-0.47524207714844646,-0.8758067802436925,0.7108639397701484,0.6446022579691777,-0.2813545595072179,0.698258553365196,-0.5988596639686695,0.3921761026932622
10:08:37.684275,,-0.083312842247134,-0.5797532796009082,0.10023043909000001,-3.2665506505517032,-0.5191274829101262,1.0894668920093362,,0.15008735643343768,0.5106983943987546,-0.3468713398278875,0.08510345228293692,-0.4949123680655936,-0.8647653730031241,0.7245739378791424,0.6264880618614183,-0.2872373876977657,0.6839225182400698,-0.6021415583405867,0.4119169003128315,,0.0029031565870727078,0.26288345239066857,-0.0868467248361995,-0.8320328687275793,0.5488763434121027,0.08034956825781496,-0.4985007848310301,-0.8033562408544599,0.3257540574156228,0.24334802444134368,0.23098376142589191,0.942034091250282,,-0.09313313826961853,0.6116128384143904,1.1857929561149692,0.9962021599755055,0.04609329572830634,-0.0738692395320274,0.08439912666732821,-0.7197231663426924,0.6891120019615399,-0.021401959674979064,-0.6927293641232136,-0.7208800067996883,,0.1537921216916865,0.648458205504974,-0.3913872823048037,0.9991445169087859,0.02009789640803572,-0.03614289544406837,0.03885326181686473,-0.7555567849330441,0.6539299418040376,-0.014165393651401086,-0.6547747851754935,-0.7556912877101912,,0.0,0.0,0.045,1.0,0.0,0.0,0.0,1.0,0.0,0.0,0.0,1.0,,-0.02272741252427273,-0.20692986320293497,0.201818166158785,False,,0.15008735643343768,0.5106983943987546,-0.3468713398278875,0.0854709559160487,-0.4754666174523191,-0.8755719338713678,0.7109479490628087,0.6447788487274837,-0.28073697646916174,0.6980313240952606,-0.5984912129030056,0.39314188108074477
10:08:37.697150,,-0.083312842247134,-0.5797610023337824,0.10023043909000001,-3.2665506505517032,-0.5191274829101262,1.0894668920093362,,0.15008735643343768,0.5106983943987546,-0.3468713398278875,0.08508225174300482,-0.4948964132566436,-0.8647765899838232,0.7245741687566399,0.6264869581706567,-0.28723921252625323,0.6839249113820641,-0.6021558198571093,0.41189207834486025,,0.0028975548431555555,0.2628817787190542,-0.08684702364320679,-0.832017246864604,0.5488976477167434,0.08036580548097584,-0.49850713267156166,-0.8033360125691116,0.3257942280410656,0.24338843241854835,0.23100349062367362,0.9420188149523637,,-0.09313313826961853,0.6116128384143904,1.1857929561149692,0.9962021599755055,0.04609329572830634,-0.0738692395320274,0.08439912666732821,-0.7197231663426924,0.6891120019615399,-0.021401959674979064,-0.6927293641232136,-0.7208800067996883,,0.1537921216916865,0.648458205504974,-0.3913872823048037,0.9991445169087859,0.02009789640803572,-0.03614289544406837,0.03885326181686473,-0.7555567849330441,0.6539299418040376,-0.014165393651401086,-0.6547747851754935,-0.7556912877101912,,0.0,0.0,0.045,1.0,0.0,0.0,0.0,1.0,0.0,0.0,0.0,1.0,,-0.02272741252427273,-0.20692986320293497,0.201818166158785,False,,0.15008735643343768,0.5106983943987546,-0.3468713398278875,0.0854709559160487,-0.4754666174523191,-0.8755719338713678,0.7109479490628087,0.6447788487274837,-0.28073697646916174,0.6980313240952606,-0.5984912129030056,0.39314188108074477
10:08:37.708796,,-0.08332056498000824,-0.5797687250666567,0.10023043909000001,-3.2665506505517032,-0.5191274829101262,1.0894668920093362,,0.15008649309482494,0.5106977168751865,-0.34687350854035925,0.08509892928918511,-0.49490136482755775,-0.8647721152567623,0.7245739871630312,0.6264903505331971,-0.2872322715424909,0.6839230288274417,-0.6021482207734342,0.4119063132059108,,0.0028947539582193575,0.26288094188476446,-0.08684717305651474,-0.832009435934334,0.5489083001696988,0.08037392369929502,-0.4985103061028875,-0.8033258983643051,0.32581431339977124,0.2434086364844389,0.23101335483424054,0.9420111765063047,,-0.09313313826961853,0.6116128384143904,1.1857929561149692,0.9962021599755055,0.04609329572830634,-0.0738692395320274,0.08439912666732821,-0.7197231663426924,0.6891120019615399,-0.021401959674979064,-0.6927293641232136,-0.7208800067996883,,0.1537921216916865,0.648458205504974,-0.3913872823048037,0.9991445169087859,0.02009789640803572,-0.03614289544406837,0.03885326181686473,-0.7555567849330441,0.6539299418040376,-0.014165393651401086,-0.6547747851754935,-0.7556912877101912,,0.0,0.0,0.045,1.0,0.0,0.0,0.0,1.0,0.0,0.0,0.0,1.0,,-0.02272741252427273,-0.20692986320293497,0.201818166158785,False,,0.15008649309482494,0.5106977168751865,-0.34687350854035925,0.08546977282752491,-0.4754602050656427,-0.875575531483006,0.7109367057027851,0.644790219419199,-0.28073933359223613,0.6980429201827656,-0.5984840568806142,0.39313218545730755
10:08:37.721669,,-0.08332056498000824,-0.5797764477995309,0.10023043909000001,-3.2667603270810406,-0.5191274829101262,1.0894668920093362,,0.1500876484166701,0.5106973169530548,-0.34687465106358756,0.08502511297405384,-0.4948553396875838,-0.8648057139880816,0.7245747893629639,0.626483344289088,-0.28724552903043876,0.6839313597016633,-0.602193334495697,0.4118265206438117,,0.002893073423104799,0.26288043978467623,-0.08684726270763687,-0.8320047493765617,0.5489146917376754,0.08037879450444291,-0.4985122100052223,-0.803319829821539,0.32582636462970954,0.24342075894870546,0.23101927323631705,0.9420065933435975,,-0.09313313826961853,0.6116128384143904,1.1857929561149692,0.9962021599755055,0.04609329572830634,-0.0738692395320274,0.08439912666732821,-0.7197231663426924,0.6891120019615399,-0.021401959674979064,-0.6927293641232136,-0.7208800067996883,,0.1537921216916865,0.648458205504974,-0.3913872823048037,0.9991445169087859,0.02009789640803572,-0.03614289544406837,0.03885326181686473,-0.7555567849330441,0.6539299418040376,-0.014165393651401086,-0.6547747851754935,-0.7556912877101912,,0.0,0.0,0.045,1.0,0.0,0.0,0.0,1.0,0.0,0.0,0.0,1.0,,-0.02272741252427273,-0.20692986320293497,0.201818166158785,False,,0.1500876484166701,0.5106973169530548,-0.34687465106358756,0.0856507807318305,-0.4755442432183944,-0.8755122023717732,0.7109223063839084,0.644825373149368,-0.2806950523763514,0.6980353988486632,-0.5983794037937995,0.39330480682234836
10:08:37.734296,,-0.08332828771288246,-0.5798227841967762,0.10023043909000001,-3.2667603270810406,-0.5191274829101262,1.0894668920093362,,0.15008678510246445,0.510696639479739,-0.34687681979058377,0.08502695504155208,-0.4948491255816768,-0.8648090886591167,0.7245747693929792,0.6264859645811119,-0.28723986447215993,0.6839311518533666,-0.602195714941516,0.4118233849972625,,0.002886351251500277,0.2628784313879653,-0.08684762133565574,-0.8319860031483944,0.5489402587311049,0.0803982767812075,-0.498519824441105,-0.8032955555013573,0.3258745696598246,0.24346924899126351,0.23104294591264554,0.9419882599797286,,-0.09313313826961853,0.6116128384143904,1.1857929561149692,0.9962021599755055,0.04609329572830634,-0.0738692395320274,0.08439912666732821,-0.7197231663426924,0.6891120019615399,-0.021401959674979064,-0.6927293641232136,-0.7208800067996883,,0.1537921216916865,0.648458205504974,-0.3913872823048037,0.9991445169087859,0.02009789640803572,-0.03614289544406837,0.03885326181686473,-0.7555567849330441,0.6539299418040376,-0.014165393651401086,-0.6547747851754935,-0.7556912877101912,,0.0,0.0,0.045,1.0,0.0,0.0,0.0,1.0,0.0,0.0,0.0,1.0,,-0.02272741252427273,-0.20692986320293497,0.201818166158785,False,,0.15008678510246445,0.510696639479739,-0.34687681979058377,0.08564959738969594,-0.47553783132234445,-0.8755158007987205,0.7109110621981519,0.6448367423869904,-0.2806974123714536,0.6980469956322988,-0.5983722475591394,0.3932951121483024
10:08:37.746260,,-0.08332056498000824,-0.5798536751282731,0.10023173538,-3.2667603270810406,-0.5191274829101262,1.0894668920093362,,0.1500869710091637,0.5106952612176978,-0.34688107163632864,0.08507853474818271,-0.49486011677875885,-0.8647977264926264,0.7245742092013185,0.626497890975699,-0.2872152641544057,0.6839253309283011,-0.6021742749609239,0.4118644003672805,,0.002886351251500277,0.2628784313879653,-0.08684762133565574,-0.8319860031483944,0.5489402587311049,0.0803982767812075,-0.498519824441105,-0.8032955555013573,0.3258745696598246,0.24346924899126351,0.23104294591264554,0.9419882599797286,,-0.09313313826961853,0.6116128384143904,1.1857929561149692,0.9962021599755055,0.04609329572830634,-0.0738692395320274,0.08439912666732821,-0.7197231663426924,0.6891120019615399,-0.021401959674979064,-0.6927293641232136,-0.7208800067996883,,0.1537921216916865,0.648458205504974,-0.3913872823048037,0.9991445169087859,0.02009789640803572,-0.03614289544406837,0.03885326181686473,-0.7555567849330441,0.6539299418040376,-0.014165393651401086,-0.6547747851754935,-0.7556912877101912,,0.0,0.0,0.045,1.0,0.0,0.0,0.0,1.0,0.0,0.0,0.0,1.0,,-0.02272741252427273,-0.20692986320293497,0.201818166158785,False,,0.1500869710091637,0.5106952612176978,-0.34688107163632864,0.0856481871963588,-0.4755385119295973,-0.8755155690801631,0.710889655889945,0.6448544857081213,-0.28071086443312115,0.6980689687836389,-0.5983525849646669,0.39328602681438884
10:08:37.758974,,-0.08332056498000824,-0.57988456605977,0.10023173538,-3.2667603270810406,-0.5192616243785785,1.089534874905548,,0.1500883851027961,0.5106922669366175,-0.346888177859479,0.08514153563486376,-0.4948928559573108,-0.8647727909874093,0.7245735223154126,0.6265060446041456,-0.2871992110607277,0.6839182185533395,-0.6021388853054456,0.4119279465318443,,0.0028865717757438646,0.26287869864795643,-0.08684769426293969,-0.8319853894239426,0.548941090564084,0.0803989481935783,-0.4985202262922189,-0.8032949258142845,0.3258755071093977,0.24347052338604447,0.23104315883956916,0.9419878783672262,,-0.09313313826961853,0.6116128384143904,1.1857929561149692,0.9962021599755055,0.04609329572830634,-0.0738692395320274,0.08439912666732821,-0.7197231663426924,0.6891120019615399,-0.021401959674979064,-0.6927293641232136,-0.7208800067996883,,0.1537921216916865,0.648458205504974,-0.3913872823048037,0.9991445169087859,0.02009789640803572,-0.03614289544406837,0.03885326181686473,-0.7555567849330441,0.6539299418040376,-0.014165393651401086,-0.6547747851754935,-0.7556912877101912,,0.0,0.0,0.045,1.0,0.0,0.0,0.0,1.0,0.0,0.0,0.0,1.0,,-0.02272741252427273,-0.20692986320293497,0.201818166158785,False,,0.1500883851027961,0.5106922669366175,-0.346888177859479,0.08564367388871877,-0.475497287986202,-0.8755384002090427,0.7109414880399467,0.6448220289164601,-0.2806541494573107,0.6980167345460919,-0.5984203206290936,0.3932756770406529
10:08:37.771777,,-0.08332056498000824,-0.5799154569912669,0.10023173538,-3.2667603270810406,-0.5193957658470306,1.0896028578017594,,0.15008869392571844,0.5106919094884237,-0.3468914280043708,0.0851470034689685,-0.4949308882336071,-0.8647504863673383,0.7245734625631723,0.6264950644830252,-0.28722331299465437,0.6839176011402766,-0.6021190497324451,0.41195796484571906,,0.002886792299954981,0.26287896590796556,-0.08684776719023696,-0.8319847756989385,0.5489419223974495,0.08039961960496513,-0.4985206281422777,-0.8032942961273435,0.3258764445595115,0.24347179778089195,0.23104337176537204,0.9419874967543211,,-0.09313313826961853,0.6116128384143904,1.1857929561149692,0.9962021599755055,0.04609329572830634,-0.0738692395320274,0.08439912666732821,-0.7197231663426924,0.6891120019615399,-0.021401959674979064,-0.6927293641232136,-0.7208800067996883,,0.1537921216916865,0.648458205504974,-0.3913872823048037,0.9991445169087859,0.02009789640803572,-0.03614289544406837,0.03885326181686473,-0.7555567849330441,0.6539299418040376,-0.014165393651401086,-0.6547747851754935,-0.7556912877101912,,0.0,0.0,0.045,1.0,0.0,0.0,0.0,1.0,0.0,0.0,0.0,1.0,,-0.02272741252427273,-0.20692986320293497,0.201818166158785,False,,0.15008869392571844,0.5106919094884237,-0.3468914280043708,0.0856400902142232,-0.4754486292753145,-0.8755651751116673,0.7110141783186211,0.6447743129019234,-0.28057962087747745,0.6979431303322616,-0.5985103895022019,0.39326924680163694
10:08:37.784717,,-0.08332056498000824,-0.5800004070528834,0.10023173538,-3.2667603270810406,-0.5193957658470306,1.0896028578017594,,0.15008797013207395,0.5106901989525078,-0.3468967858143152,0.08521295548166076,-0.4949520522560538,-0.8647318764713149,0.72457274011194,0.6265079558583434,-0.2871970151879636,0.6839101523626885,-0.6020882387272823,0.4120153592786603,,0.0028867922999549814,0.2628789659079655,-0.08684776719023696,-0.8319847756989385,0.5489419223974495,0.08039961960496514,-0.4985206281422777,-0.8032942961273435,0.3258764445595114,0.24347179778089192,0.23104337176537199,0.9419874967543211,,-0.09313313826961853,0.6116128384143904,1.1857929561149692,0.9962021599755055,0.04609329572830634,-0.0738692395320274,0.08439912666732821,-0.7197231663426924,0.6891120019615399,-0.021401959674979064,-0.6927293641232136,-0.7208800067996883,,0.1537921216916865,0.648458205504974,-0.3913872823048037,0.9991445169087859,0.02009789640803572,-0.03614289544406837,0.03885326181686473,-0.7555567849330441,0.6539299418040376,-0.014165393651401086,-0.6547747851754935,-0.7556912877101912,,0.0,0.0,0.045,1.0,0.0,0.0,0.0,1.0,0.0,0.0,0.0,1.0,,-0.02272741252427273,-0.20692986320293497,0.201818166158785,False,,0.15008797013207395,0.5106901989525078,-0.3468967858143152,0.08563785011106109,-0.4754427271494669,-0.8755685991565901,0.7109868830717653,0.6447989944554356,-0.2805920684002945,0.6979712105296693,-0.5984884877338387,0.3932527422940767
10:08:37.798701,,-0.08332056498000824,-0.5800467434501287,0.10023303167000001,-3.2667603270810406,-0.5193957658470306,1.0896028578017594,,0.15008944718853306,0.5106848078515889,-0.34690914662700506,0.08537544567487544,-0.4949677546043851,-0.8647068608364973,0.724570946523752,0.6265518221114121,-0.2871058300741096,0.6838917872949569,-0.602029680423451,0.41213139550360256,,0.0028870128241336277,0.26287923316799244,-0.08684784011754748,-0.8319841619733814,0.5489427542312018,0.08040029101536803,-0.49852102999128145,-0.8032936664405337,0.3258773820101659,0.24347307217580608,0.23104358469005407,0.9419871151410129,,-0.09313313826961853,0.6116128384143904,1.1857929561149692,0.9962021599755055,0.04609329572830634,-0.0738692395320274,0.08439912666732821,-0.7197231663426924,0.6891120019615399,-0.021401959674979064,-0.6927293641232136,-0.7208800067996883,,0.1537921216916865,0.648458205504974,-0.3913872823048037,0.9991445169087859,0.02009789640803572,-0.03614289544406837,0.03885326181686473,-0.7555567849330441,0.6539299418040376,-0.014165393651401086,-0.6547747851754935,-0.7556912877101912,,0.0,0.0,0.045,1.0,0.0,0.0,0.0,1.0,0.0,0.0,0.0,1.0,,-0.02272741252427273,-0.20692986320293497,0.201818166158785,False,,0.15008944718853306,0.5106848078515889,-0.34690914662700506,0.08563409760295368,-0.475451521326007,-0.8755641907915795,0.7109232102702349,0.644849736896332,-0.2806367864763902,0.6980365251380413,-0.5984268273511115,0.3932306471775714
10:08:37.813007,,-0.08332056498000824,-0.5801471389774936,0.10023303167000001,-3.2667603270810406,-0.5195299073154829,1.0896708406979712,,0.15008989546212284,0.5106834181434623,-0.34691558613506274,0.08542237021293284,-0.4950124603615456,-0.8646766347913037,0.7245704249538034,0.6265511525929708,-0.2871086074409554,0.6838864803090272,-0.6019936189622187,0.41219287327572934,,0.0028870063961560066,0.2628797289342265,-0.08684776336736111,-0.8319836798642313,0.5489435614971154,0.08039976816442386,-0.4985214483859835,-0.803292645786362,0.3258792578780454,0.2434738629281829,0.23104521528667743,0.9419865108134082,,-0.09313313826961853,0.6116128384143904,1.1857929561149692,0.9962021599755055,0.04609329572830634,-0.0738692395320274,0.08439912666732821,-0.7197231663426924,0.6891120019615399,-0.021401959674979064,-0.6927293641232136,-0.7208800067996883,,0.1537921216916865,0.648458205504974,-0.3913872823048037,0.9991445169087859,0.02009789640803572,-0.03614289544406837,0.03885326181686473,-0.7555567849330441,0.6539299418040376,-0.014165393651401086,-0.6547747851754935,-0.7556912877101912,,0.0,0.0,0.045,1.0,0.0,0.0,0.0,1.0,0.0,0.0,0.0,1.0,,-0.02272741252427273,-0.20692986320293497,0.201818166158785,False,,0.15008989546212284,0.5106834181434623,-0.34691558613506274,0.0856294543706243,-0.4754033704662607,-0.8755907902059662,0.7109798498327006,0.6448153302600351,-0.2805723489467776,0.6979794049082392,-0.5985021513837365,0.3932174018440425
10:08:37.824917,,-0.08332056498000824,-0.5801857526418648,0.10023303167000001,-3.2667603270810406,-0.5195299073154829,1.0896708406979712,,0.15009017435509173,0.5106813526009127,-0.3469219645305684,0.08549789460215455,-0.4950298907494802,-0.8646591914061613,0.724569582096135,0.6265681799459429,-0.2870735734620324,0.683877935540862,-0.6019615628458236,0.4122538612755282,,0.0028867858720224835,0.2628794616742028,-0.08684769044003993,-0.8319842935894316,0.5489427296626532,0.08039909675538835,-0.49852104653847146,-0.8032932754739202,0.32587832042748804,0.24347258853257858,0.23104500236310793,0.9419868924270389,,-0.09313313826961853,0.6116128384143904,1.1857929561149692,0.9962021599755055,0.04609329572830634,-0.0738692395320274,0.08439912666732821,-0.7197231663426924,0.6891120019615399,-0.021401959674979064,-0.6927293641232136,-0.7208800067996883,,0.1537921216916865,0.648458205504974,-0.3913872823048037,0.9991445169087859,0.02009789640803572,-0.03614289544406837,0.03885326181686473,-0.7555567849330441,0.6539299418040376,-0.014165393651401086,-0.6547747851754935,-0.7556912877101912,,0.0,0.0,0.045,1.0,0.0,0.0,0.0,1.0,0.0,0.0,0.0,1.0,,-0.02272741252427273,-0.20692986320293497,0.201818166158785,False,,0.15009017435509173,0.5106813526009127,-0.3469219645305684,0.08562733933800595,-0.4754043912138767,-0.8755904428284136,0.7109477431627124,0.644841951467502,-0.2805925232778481,0.6980123675478394,-0.5984726580572809,0.39320377962083863
10:08:37.838598,,-0.08332056498000824,-0.580193475374739,0.10023303167000001,-3.2667603270810406,-0.5195299073154829,1.0896708406979712,,0.1500904532573757,0.5106792873541592,-0.34692834302144804,0.08557523495848493,-0.4950463521244034,-0.8646421157971207,0.7245687146278722,0.626586078677564,-0.2870366941524842,0.6838691811628252,-0.6019293939124379,0.4123153499445443,,0.0028867858720224814,0.2628794616742028,-0.08684769044003993,-0.8319842935894314,0.5489427296626531,0.0803990967553883,-0.49852104653847135,-0.8032932754739199,0.325878320427488,0.24347258853257853,0.23104500236310788,0.9419868924270387,,-0.09313313826961853,0.6116128384143904,1.1857929561149692,0.9962021599755055,0.04609329572830634,-0.0738692395320274,0.08439912666732821,-0.7197231663426924,0.6891120019615399,-0.021401959674979064,-0.6927293641232136,-0.7208800067996883,,0.1537921216916865,0.648458205504974,-0.3913872823048037,0.9991445169087859,0.02009789640803572,-0.03614289544406837,0.03885326181686473,-0.7555567849330441,0.6539299418040376,-0.014165393651401086,-0.6547747851754935,-0.7556912877101912,,0.0,0.0,0.045,1.0,0.0,0.0,0.0,1.0,0.0,0.0,0.0,1.0,,-0.02272741252427273,-0.20692986320293497,0.201818166158785,False,,0.1500904532573757,0.5106792873541592,-0.34692834302144804,0.08562522435390924,-0.4754054120431338,-0.8755900953953516,0.7109156349626159,0.6448685713078146,-0.28061269697773605,0.698045328700109,-0.5984431634996896,0.39319015646432504
10:08:37.853066,,-0.08332828771288246,-0.5802166435733617,0.10023303167000001,-3.2667603270810406,-0.5195299073154829,1.0895330774098708,,0.15008954370258298,0.5106789548761919,-0.3469294489187777,0.08559021504113948,-0.4950292739294593,-0.8646504108841236,0.7245685460994339,0.6265962731916465,-0.2870148644681877,0.6838674850382668,-0.6019328271287518,0.4123131510541763,,0.0028867858720224814,0.2628794616742028,-0.08684769044003993,-0.8319842935894314,0.5489427296626531,0.0803990967553883,-0.49852104653847135,-0.8032932754739199,0.325878320427488,0.24347258853257853,0.23104500236310788,0.9419868924270387,,-0.09313313826961853,0.6116128384143904,1.1857929561149692,0.9962021599755055,0.04609329572830634,-0.0738692395320274,0.08439912666732821,-0.7197231663426924,0.6891120019615399,-0.021401959674979064,-0.6927293641232136,-0.7208800067996883,,0.1537921216916865,0.648458205504974,-0.3913872823048037,0.9991445169087859,0.02009789640803572,-0.03614289544406837,0.03885326181686473,-0.7555567849330441,0.6539299418040376,-0.014165393651401086,-0.6547747851754935,-0.7556912877101912,,0.0,0.0,0.045,1.0,0.0,0.0,0.0,1.0,0.0,0.0,0.0,1.0,,-0.02272741252427273,-0.20692986320293497,0.201818166158785,False,,0.15008954370258298,0.5106789548761919,-0.3469294489187777,0.08562439347310949,-0.47545914062820277,-0.8755610023496097,0.7109097422891404,0.6448561739475361,-0.28065611206623164,0.6980514318879021,-0.5984138371685903,0.3932239539046595
10:08:37.864904,,-0.08332828771288246,-0.5802243663062359,0.10023303167000001,-3.2667603270810406,-0.5195299073154829,1.0895330774098708,,0.1500896366815241,0.5106782665426334,-0.34693157510845796,0.08561477466728139,-0.49500847462227154,-0.8646598871295017,0.7245682694426908,0.6266105957499437,-0.28698429262021435,0.68386470392578,-0.6019350225282066,0.4123145587757878,,0.002886565347856489,0.26287919441419694,-0.08684761751273203,-0.8319849073140793,0.5489418978285778,0.08039842534536887,-0.4985206446899044,-0.8032939051616097,0.32587738297747143,0.2434713141370409,0.23104478943841772,0.9419872740402666,,-0.09313313826961853,0.6116128384143904,1.1857929561149692,0.9962021599755055,0.04609329572830634,-0.0738692395320274,0.08439912666732821,-0.7197231663426924,0.6891120019615399,-0.021401959674979064,-0.6927293641232136,-0.7208800067996883,,0.1537921216916865,0.648458205504974,-0.3913872823048037,0.9991445169087859,0.02009789640803572,-0.03614289544406837,0.03885326181686473,-0.7555567849330441,0.6539299418040376,-0.014165393651401086,-0.6547747851754935,-0.7556912877101912,,0.0,0.0,0.045,1.0,0.0,0.0,0.0,1.0,0.0,0.0,0.0,1.0,,-0.02272741252427273,-0.20692986320293497,0.201818166158785,False,,0.1500896366815241,0.5106782665426334,-0.34693157510845796,0.08562368837366169,-0.47551978987715254,-0.8755281339994042,0.7108990391326233,0.6448457123373853,-0.28070725576729005,0.6980624185197216,-0.5983769186017109,0.3932606300344828
10:08:37.877410,,-0.08332828771288246,-0.58023208903911,0.10023303167000001,-3.2667603270810406,-0.5195299073154829,1.0895330774098708,,0.15008968317138288,0.5106779223881793,-0.3469326382072711,0.08562488315995595,-0.4950127749909349,-0.8646564242400666,0.7245681554448101,0.6266122218667672,-0.2869810299000595,0.683863559125027,-0.6019297932508139,0.4123240915807408,,0.0028867922999549806,0.2628789659079655,-0.08684776719023696,-0.8319847756989383,0.5489419223974495,0.08039961960496511,-0.4985206281422777,-0.8032942961273433,0.32587644455951137,0.2434717977808919,0.23104337176537193,0.9419874967543209,,-0.09313313826961853,0.6116128384143904,1.1857929561149692,0.9962021599755055,0.04609329572830634,-0.0738692395320274,0.08439912666732821,-0.7197231663426924,0.6891120019615399,-0.021401959674979064,-0.6927293641232136,-0.7208800067996883,,0.1537921216916865,0.648458205504974,-0.3913872823048037,0.9991445169087859,0.02009789640803572,-0.03614289544406837,0.03885326181686473,-0.7555567849330441,0.6539299418040376,-0.014165393651401086,-0.6547747851754935,-0.7556912877101912,,0.0,0.0,0.045,1.0,0.0,0.0,0.0,1.0,0.0,0.0,0.0,1.0,,-0.02272741252427273,-0.20692986320293497,0.201818166158785,False,,0.15008968317138288,0.5106779223881793,-0.3469326382072711,0.08562333582595921,-0.4755199600283747,-0.8755280760641821,0.710893687490615,0.6448501482674528,-0.28071061854771473,0.698067911773655,-0.5983720029330063,0.39325835866248465
10:08:37.889683,,-0.08332056498000824,-0.5802243663062359,0.10023303167000001,-3.2667603270810406,-0.5195299073154829,1.0895330774098708,,0.1500906391974064,0.5106779106873236,-0.34693259540168,0.08562339293884651,-0.4950053454389466,-0.8646608251612358,0.7245681722554029,0.6266142375815005,-0.28697658617841937,0.6838637278991369,-0.6019338047053215,0.4123179554868684,,0.0028867922999549814,0.2628789659079655,-0.08684776719023696,-0.8319847756989385,0.5489419223974495,0.08039961960496514,-0.4985206281422777,-0.8032942961273435,0.3258764445595114,0.24347179778089192,0.23104337176537199,0.9419874967543211,,-0.09313313826961853,0.6116128384143904,1.1857929561149692,0.9962021599755055,0.04609329572830634,-0.0738692395320274,0.08439912666732821,-0.7197231663426924,0.6891120019615399,-0.021401959674979064,-0.6927293641232136,-0.7208800067996883,,0.1537921216916865,0.648458205504974,-0.3913872823048037,0.9991445169087859,0.02009789640803572,-0.03614289544406837,0.03885326181686473,-0.7555567849330441,0.6539299418040376,-0.014165393651401086,-0.6547747851754935,-0.7556912877101912,,0.0,0.0,0.045,1.0,0.0,0.0,0.0,1.0,0.0,0.0,0.0,1.0,,-0.02272741252427273,-0.20692986320293497,0.201818166158785,False,,0.1500906391974064,0.5106779106873236,-0.34693259540168,0.08562381439146963,-0.4755267122683014,-0.8755243619273854,0.7108942286458589,0.6448476510084602,-0.2807149847565682,0.6980673019752925,-0.5983693281813258,0.3932635108991991
10:08:37.903308,,-0.083312842247134,-0.5802089208404874,0.10023432796000001,-3.2667603270810406,-0.5195299073154829,1.0895330774098708,,0.150091511906665,0.5106769962260751,-0.34693113707865775,0.08561464233855581,-0.49498729148766013,-0.8646720270038527,0.7245682709345216,0.6266175863152443,-0.2869690249406985,0.6838647189117151,-0.6019451650990875,0.4122997264632047,,0.0028865717757438646,0.26287869864795643,-0.08684769426293969,-0.8319853894239426,0.548941090564084,0.0803989481935783,-0.4985202262922189,-0.8032949258142845,0.3258755071093977,0.24347052338604447,0.23104315883956916,0.9419878783672262,,-0.09313313826961853,0.6116128384143904,1.1857929561149692,0.9962021599755055,0.04609329572830634,-0.0738692395320274,0.08439912666732821,-0.7197231663426924,0.6891120019615399,-0.021401959674979064,-0.6927293641232136,-0.7208800067996883,,0.1537921216916865,0.648458205504974,-0.3913872823048037,0.9991445169087859,0.02009789640803572,-0.03614289544406837,0.03885326181686473,-0.7555567849330441,0.6539299418040376,-0.014165393651401086,-0.6547747851754935,-0.7556912877101912,,0.0,0.0,0.045,1.0,0.0,0.0,0.0,1.0,0.0,0.0,0.0,1.0,,-0.02272741252427273,-0.20692986320293497,0.201818166158785,False,,0.150091511906665,0.5106769962260751,-0.34693113707865775,0.08562464538015854,-0.47553329434127556,-0.8755207056811712,0.7109001214472987,0.6448407177858695,-0.28071598816529986,0.6980611989143489,-0.5983715690591747,0.3932709344865488
10:08:37.915060,,-0.083312842247134,-0.5802089208404874,0.10023432796000001,-3.2665506505517032,-0.5195299073154829,1.0895330774098708,,0.1500914654255642,0.5106773403913374,-0.3469300739724361,0.08560357320332151,-0.49498358210475946,-0.8646752463795667,0.7245683956787705,0.6266154739852068,-0.28697332235904316,0.6838659724231907,-0.6019504142444256,0.4122899835706032,,0.0028867922999549806,0.2628789659079655,-0.08684776719023696,-0.8319847756989383,0.5489419223974495,0.08039961960496511,-0.4985206281422777,-0.8032942961273433,0.32587644455951137,0.2434717977808919,0.23104337176537193,0.9419874967543209,,-0.09313313826961853,0.6116128384143904,1.1857929561149692,0.9962021599755055,0.04609329572830634,-0.0738692395320274,0.08439912666732821,-0.7197231663426924,0.6891120019615399,-0.021401959674979064,-0.6927293641232136,-0.7208800067996883,,0.1537921216916865,0.648458205504974,-0.3913872823048037,0.9991445169087859,0.02009789640803572,-0.03614289544406837,0.03885326181686473,-0.7555567849330441,0.6539299418040376,-0.014165393651401086,-0.6547747851754935,-0.7556912877101912,,0.0,0.0,0.045,1.0,0.0,0.0,0.0,1.0,0.0,0.0,0.0,1.0,,-0.02272741252427273,-0.20692986320293497,0.201818166158785,False,,0.1500914654255642,0.5106773403913374,-0.3469300739724361,0.08562499781097999,-0.47553312420482574,-0.8755207636223528,0.7109054730486692,0.6448362818180224,-0.28071262536721764,0.6980557056133254,-0.5983764846942983,0.3932732058322518
10:08:37.927164,,-0.083312842247134,-0.5802011981076132,0.10023432796000001,-3.2665506505517032,-0.5195299073154829,1.0895330774098708,,0.15009035579237762,0.5106773956855879,-0.3469299943197859,0.08568390993552275,-0.49502754568991214,-0.8646421205252397,0.7245674882745422,0.6266251498033032,-0.2869544851879978,0.6838568728277009,-0.6019041872609042,0.41237255830633057,,0.0028867922999549814,0.2628789659079655,-0.08684776719023696,-0.8319847756989385,0.5489419223974495,0.08039961960496514,-0.4985206281422777,-0.8032942961273435,0.3258764445595114,0.24347179778089192,0.23104337176537199,0.9419874967543211,,-0.09313313826961853,0.6116128384143904,1.1857929561149692,0.9962021599755055,0.04609329572830634,-0.0738692395320274,0.08439912666732821,-0.7197231663426924,0.6891120019615399,-0.021401959674979064,-0.6927293641232136,-0.7208800067996883,,0.1537921216916865,0.648458205504974,-0.3913872823048037,0.9991445169087859,0.02009789640803572,-0.03614289544406837,0.03885326181686473,-0.7555567849330441,0.6539299418040376,-0.014165393651401086,-0.6547747851754935,-0.7556912877101912,,0.0,0.0,0.045,1.0,0.0,0.0,0.0,1.0,0.0,0.0,0.0,1.0,,-0.02272741252427273,-0.20692986320293497,0.201818166158785,False,,0.15009035579237762,0.5106773956855879,-0.3469299943197859,0.08544367887578094,-0.4754491863914148,-0.8755840615839888,0.7109145083720073,0.6448056100720393,-0.2807601948386069,0.6980687212061286,-0.5984762287504551,0.3930982880836208
10:08:37.939545,,-0.083312842247134,-0.580193475374739,0.10023432796000001,-3.2667603270810406,-0.5195299073154829,1.0895330774098708,,0.1500913724641386,0.5106780287465124,-0.346927947767939,0.08557779392221099,-0.49497809472364707,-0.8646809393823573,0.7245686858507816,0.6266095086606447,-0.28698561486690755,0.6838688914345198,-0.6019611361207747,0.41226948702069516,,0.00288679229995498,0.2628789659079655,-0.08684776719023696,-0.8319847756989383,0.5489419223974495,0.0803996196049651,-0.4985206281422777,-0.8032942961273433,0.3258764445595114,0.2434717977808919,0.23104337176537199,0.9419874967543209,,-0.09313313826961853,0.6116128384143904,1.1857929561149692,0.9962021599755055,0.04609329572830634,-0.0738692395320274,0.08439912666732821,-0.7197231663426924,0.6891120019615399,-0.021401959674979064,-0.6927293641232136,-0.7208800067996883,,0.1537921216916865,0.648458205504974,-0.3913872823048037,0.9991445169087859,0.02009789640803572,-0.03614289544406837,0.03885326181686473,-0.7555567849330441,0.6539299418040376,-0.014165393651401086,-0.6547747851754935,-0.7556912877101912,,0.0,0.0,0.045,1.0,0.0,0.0,0.0,1.0,0.0,0.0,0.0,1.0,,-0.02272741252427273,-0.20692986320293497,0.201818166158785,False,,0.1500913724641386,0.5106780287465124,-0.346927947767939,0.08562570267666658,-0.47553278393872733,-0.8755208795000899,0.7109161761239089,0.6448274097684001,-0.28070589971843385,0.6980447188873267,-0.5983863158619687,0.39327774844587093
10:08:37.953567,,-0.08332056498000824,-0.5802398117719844,0.10023562425000002,-3.266970003610379,-0.5195299073154829,1.0895330774098708,,0.15009166548166963,0.5106769525606962,-0.3469312597499047,0.08553762678233981,-0.4949497807047238,-0.864701121188582,0.7245691369994062,0.6266067740223938,-0.28699044663051826,0.6838734386656502,-0.6019872634280515,0.4122237918388805,,0.0028867922999549814,0.2628789659079655,-0.08684776719023696,-0.8319847756989385,0.5489419223974495,0.08039961960496514,-0.4985206281422777,-0.8032942961273435,0.3258764445595114,0.24347179778089192,0.23104337176537199,0.9419874967543211,,-0.09313313826961853,0.6116128384143904,1.1857929561149692,0.9962021599755055,0.04609329572830634,-0.0738692395320274,0.08439912666732821,-0.7197231663426924,0.6891120019615399,-0.021401959674979064,-0.6927293641232136,-0.7208800067996883,,0.1537921216916865,0.648458205504974,-0.3913872823048037,0.9991445169087859,0.02009789640803572,-0.03614289544406837,0.03885326181686473,-0.7555567849330441,0.6539299418040376,-0.014165393651401086,-0.6547747851754935,-0.7556912877101912,,0.0,0.0,0.045,1.0,0.0,0.0,0.0,1.0,0.0,0.0,0.0,1.0,,-0.02272741252427273,-0.20692986320293497,0.201818166158785,False,,0.15009166548166963,0.5106769525606962,-0.3469312597499047,0.08580548270648633,-0.4756104585196554,-0.8754610847343417,0.7108905339609678,0.644873890622346,-0.28066405882885836,0.698048757510675,-0.5982744829426723,0.3934406882841187
10:08:37.965144,,-0.08332056498000824,-0.5802629799706069,0.10023562425000002,-3.266970003610379,-0.5195299073154829,1.0895330774098708,,0.15009176809678265,0.51067467318949,-0.3469340966901988,0.08558374475766903,-0.4949491657549119,-0.8646969098775426,0.7245686189114391,0.6266209069787343,-0.28696089529048735,0.683868217657484,-0.6019730577489868,0.41225319722509257,,0.0028867922999549814,0.2628789659079655,-0.08684776719023696,-0.8319847756989385,0.5489419223974495,0.08039961960496514,-0.4985206281422777,-0.8032942961273435,0.3258764445595114,0.24347179778089192,0.23104337176537199,0.9419874967543211,,-0.09313313826961853,0.6116128384143904,1.1857929561149692,0.9962021599755055,0.04609329572830634,-0.0738692395320274,0.08439912666732821,-0.7197231663426924,0.6891120019615399,-0.021401959674979064,-0.6927293641232136,-0.7208800067996883,,0.1537921216916865,0.648458205504974,-0.3913872823048037,0.9991445169087859,0.02009789640803572,-0.03614289544406837,0.03885326181686473,-0.7555567849330441,0.6539299418040376,-0.014165393651401086,-0.6547747851754935,-0.7556912877101912,,0.0,0.0,0.045,1.0,0.0,0.0,0.0,1.0,0.0,0.0,0.0,1.0,,-0.02272741252427273,-0.20692986320293497,0.201818166158785,False,,0.15009176809678265,0.51067467318949,-0.3469340966901988,0.08580442525974166,-0.47561096903237166,-0.8754609110302607,0.7108744794114582,0.6448871958952691,-0.2806741510930877,0.6980652370139442,-0.5982597351539092,0.3934338752144264
10:08:37.976880,,-0.08332056498000824,-0.5802707027034812,0.10023562425000002,-3.266970003610379,-0.5196640487839351,1.0896010603060824,,0.15009190755872673,0.5106736408116518,-0.3469372860776804,0.085620592384991,-0.4949583629624051,-0.8646879975420148,0.7245682038429236,0.626628983814323,-0.28694430578714814,0.6838640450699851,-0.6019570878205565,0.412283436828491,,0.0028865717757438655,0.26287869864795643,-0.08684769426293969,-0.8319853894239426,0.548941090564084,0.08039894819357833,-0.4985202262922189,-0.8032949258142845,0.32587550710939767,0.2434705233860444,0.2310431588395691,0.9419878783672263,,-0.09313313826961853,0.6116128384143904,1.1857929561149692,0.9962021599755055,0.04609329572830634,-0.0738692395320274,0.08439912666732821,-0.7197231663426924,0.6891120019615399,-0.021401959674979064,-0.6927293641232136,-0.7208800067996883,,0.1537921216916865,0.648458205504974,-0.3913872823048037,0.9991445169087859,0.02009789640803572,-0.03614289544406837,0.03885326181686473,-0.7555567849330441,0.6539299418040376,-0.014165393651401086,-0.6547747851754935,-0.7556912877101912,,0.0,0.0,0.045,1.0,0.0,0.0,0.0,1.0,0.0,0.0,0.0,1.0,,-0.02272741252427273,-0.20692986320293497,0.201818166158785,False,,0.15009190755872673,0.5106736408116518,-0.3469372860776804,0.0858033678251286,-0.4756114795654923,-0.8754607373122962,0.7108584244794592,0.6449005008263811,-0.280684243199479,0.6980817161453572,-0.5982449870574817,0.3934270619112859
10:08:37.990203,,-0.08332828771288246,-0.5802707027034812,0.10023562425000002,-3.2671796801397166,-0.5196640487839351,1.0896010603060824,,0.15009223103826727,0.5106742733254405,-0.3469374702134351,0.0855067370873134,-0.49495256396959486,-0.8647025831652205,0.7245694831392346,0.6265965205983567,-0.2870119587706682,0.6838769348472162,-0.6019956476536665,0.41220574740051724,,0.0028865717757438655,0.26287869864795643,-0.08684769426293969,-0.8319853894239426,0.548941090564084,0.08039894819357833,-0.4985202262922189,-0.8032949258142845,0.32587550710939767,0.2434705233860444,0.2310431588395691,0.9419878783672263,,-0.09313313826961853,0.6116128384143904,1.1857929561149692,0.9962021599755055,0.04609329572830634,-0.0738692395320274,0.08439912666732821,-0.7197231663426924,0.6891120019615399,-0.021401959674979064,-0.6927293641232136,-0.7208800067996883,,0.1537921216916865,0.648458205504974,-0.3913872823048037,0.9991445169087859,0.02009789640803572,-0.03614289544406837,0.03885326181686473,-0.7555567849330441,0.6539299418040376,-0.014165393651401086,-0.6547747851754935,-0.7556912877101912,,0.0,0.0,0.045,1.0,0.0,0.0,0.0,1.0,0.0,0.0,0.0,1.0,,-0.02272741252427273,-0.20692986320293497,0.201818166158785,False,,0.15009223103826727,0.5106742733254405,-0.3469374702134351,0.08598164454411811,-0.47563950376920294,-0.8754280206023082,0.7109375797552058,0.64487265397552,-0.2805477104636213,0.6979791647988496,-0.5982527246981462,0.3935972089559893
10:08:38.002874,,-0.08333601044575668,-0.5802861481692296,0.10023562425000002,-3.2671796801397166,-0.5196640487839351,1.0896010603060824,,0.15009136801563927,0.510673596811058,-0.3469396392711055,0.08553678591678764,-0.494963924585008,-0.8646931083421633,0.7245691464311552,0.6266018256520218,-0.28700122670396394,0.6838735338460267,-0.6019807849499513,0.4122330945666393,,0.0028863448236580267,0.26287892715420896,-0.08684754458543742,-0.8319855210381745,0.5489410659948887,0.0803977539343655,-0.49852024284028223,-0.8032945348494309,0.32587644552799544,0.24347003974156983,0.23104457651260668,0.9419876556530913,,-0.09313313826961853,0.6116128384143904,1.1857929561149692,0.9962021599755055,0.04609329572830634,-0.0738692395320274,0.08439912666732821,-0.7197231663426924,0.6891120019615399,-0.021401959674979064,-0.6927293641232136,-0.7208800067996883,,0.1537921216916865,0.648458205504974,-0.3913872823048037,0.9991445169087859,0.02009789640803572,-0.03614289544406837,0.03885326181686473,-0.7555567849330441,0.6539299418040376,-0.014165393651401086,-0.6547747851754935,-0.7556912877101912,,0.0,0.0,0.045,1.0,0.0,0.0,0.0,1.0,0.0,0.0,0.0,1.0,,-0.02272741252427273,-0.20692986320293497,0.201818166158785,False,,0.15009136801563927,0.510673596811058,-0.3469396392711055,0.08598046149100941,-0.47563309245093144,-0.8754316201779306,0.7109263350333891,0.6448840216032485,-0.280550075453232,0.6979907638341545,-0.5982455683466319,0.3935875170223632
10:08:38.014832,,-0.08332828771288246,-0.5803633754979719,0.10023692054000001,-3.2671796801397166,-0.5196640487839351,1.0896010603060824,,0.1500915171497552,0.510670973539112,-0.3469435395270382,0.08559579237049247,-0.4949660534283933,-0.8646860507039468,0.7245684833114132,0.6266189412506096,-0.2869655300863911,0.6838668535031259,-0.6019612183683314,0.41227274741395176,,0.002886344823658027,0.262878927154209,-0.08684754458543742,-0.8319855210381745,0.5489410659948886,0.08039775393436552,-0.4985202428402821,-0.8032945348494309,0.32587644552799544,0.2434700397415698,0.2310445765126067,0.9419876556530912,,-0.09313313826961853,0.6116128384143904,1.1857929561149692,0.9962021599755055,0.04609329572830634,-0.0738692395320274,0.08439912666732821,-0.7197231663426924,0.6891120019615399,-0.021401959674979064,-0.6927293641232136,-0.7208800067996883,,0.1537921216916865,0.648458205504974,-0.3913872823048037,0.9991445169087859,0.02009789640803572,-0.03614289544406837,0.03885326181686473,-0.7555567849330441,0.6539299418040376,-0.014165393651401086,-0.6547747851754935,-0.7556912877101912,,0.0,0.0,0.045,1.0,0.0,0.0,0.0,1.0,0.0,0.0,0.0,1.0,,-0.02272741252427273,-0.20692986320293497,0.201818166158785,False,,0.1500915171497552,0.510670973539112,-0.3469435395270382,0.08597905106502249,-0.4756337732135504,-0.8754313888344416,0.7109049309816923,0.6449017607804417,-0.2805635365620439,0.6980127376229417,-0.5982259044215044,0.3935784361410054
10:08:38.026270,,-0.08332828771288246,-0.5803942664294688,0.10023692054000001,-3.2671796801397166,-0.5196640487839351,1.0896010603060824,,0.15009275211553727,0.5106688976004639,-0.3469498756996267,0.08567623432407655,-0.4949725619491939,-0.8646743582352244,0.724567575175598,0.6266410777215364,-0.2869194812419427,0.683857742426157,-0.6019328223559857,0.41232931680194307,,0.0028863383957602987,0.26287942292042205,-0.08684746783526592,-0.8319850389296447,0.5489418732585932,0.08039723108584236,-0.49852066123863464,-0.8032935141954657,0.32587832139524103,0.24347083049334328,0.231046207111331,0.941987051325036,,-0.09313313826961853,0.6116128384143904,1.1857929561149692,0.9962021599755055,0.04609329572830634,-0.0738692395320274,0.08439912666732821,-0.7197231663426924,0.6891120019615399,-0.021401959674979064,-0.6927293641232136,-0.7208800067996883,,0.1537921216916865,0.648458205504974,-0.3913872823048037,0.9991445169087859,0.02009789640803572,-0.03614289544406837,0.03885326181686473,-0.7555567849330441,0.6539299418040376,-0.014165393651401086,-0.6547747851754935,-0.7556912877101912,,0.0,0.0,0.045,1.0,0.0,0.0,0.0,1.0,0.0,0.0,0.0,1.0,,-0.02272741252427273,-0.20692986320293497,0.201818166158785,False,,0.15009275211553727,0.5106688976004639,-0.3469498756996267,0.08597741400785236,-0.475641546036358,-0.875427326489564,0.7108733665689303,0.6449258705943959,-0.2805880933700075,0.6980450852083107,-0.5981937320987274,0.39356996569138564
10:08:38.039763,,-0.08332056498000824,-0.5804251573609657,0.10023821683,-3.2671796801397166,-0.5197981902523874,1.089669043202294,,0.1500941665896665,0.510665907386026,-0.3469569842810998,0.08573738430574626,-0.4950062433807157,-0.8646490154661143,0.7245668816515464,0.6266483715376832,-0.2869053022565532,0.6838508133695265,-0.6018975307004357,0.4123923224195079,,0.0028863383957603,0.2628794229204221,-0.08684746783526592,-0.831985038929645,0.5489418732585933,0.08039723108584239,-0.49852066123863475,-0.803293514195466,0.3258783213952411,0.24347083049334328,0.23104620711133106,0.9419870513250364,,-0.09313313826961853,0.6116128384143904,1.1857929561149692,0.9962021599755055,0.04609329572830634,-0.0738692395320274,0.08439912666732821,-0.7197231663426924,0.6891120019615399,-0.021401959674979064,-0.6927293641232136,-0.7208800067996883,,0.1537921216916865,0.648458205504974,-0.3913872823048037,0.9991445169087859,0.02009789640803572,-0.03614289544406837,0.03885326181686473,-0.7555567849330441,0.6539299418040376,-0.014165393651401086,-0.6547747851754935,-0.7556912877101912,,0.0,0.0,0.045,1.0,0.0,0.0,0.0,1.0,0.0,0.0,0.0,1.0,,-0.02272741252427273,-0.20692986320293497,0.201818166158785,False,,0.1500941665896665,0.510665907386026,-0.3469569842810998,0.08597286505321686,-0.47560036775572095,-0.8754501451625699,0.7109252046052318,0.644893390863761,-0.28053140265797366,0.6979928509172219,-0.5982614851474761,0.39355962122350086
10:08:38.052739,,-0.08332056498000824,-0.5804483255595884,0.10023821683,-3.2671796801397166,-0.5197981902523874,1.089669043202294,,0.15009430606985308,0.5106648755404676,-0.3469601738705224,0.08577604556637058,-0.49501447034751755,-0.8646404710361196,0.7245664417621829,0.6266573196024983,-0.2868868684005973,0.6838464312103157,-0.601881448405896,0.412423060201216,,0.0028863383957602987,0.2628794229204221,-0.08684746783526592,-0.8319850389296447,0.5489418732585932,0.08039723108584236,-0.49852066123863464,-0.8032935141954657,0.32587832139524103,0.24347083049334328,0.231046207111331,0.941987051325036,,-0.09313313826961853,0.6116128384143904,1.1857929561149692,0.9962021599755055,0.04609329572830634,-0.0738692395320274,0.08439912666732821,-0.7197231663426924,0.6891120019615399,-0.021401959674979064,-0.6927293641232136,-0.7208800067996883,,0.1537921216916865,0.648458205504974,-0.3913872823048037,0.9991445169087859,0.02009789640803572,-0.03614289544406837,0.03885326181686473,-0.7555567849330441,0.6539299418040376,-0.014165393651401086,-0.6547747851754935,-0.7556912877101912,,0.0,0.0,0.045,1.0,0.0,0.0,0.0,1.0,0.0,0.0,0.0,1.0,,-0.02272741252427273,-0.20692986320293497,0.201818166158785,False,,0.15009430606985308,0.5106648755404676,-0.3469601738705224,0.08597180758767628,-0.4756008782952024,-0.8754499716516871,0.7109091515383564,0.6449066958473384,-0.2805414976617232,0.6980093312837027,-0.5982467369038469,0.3935528112271308
10:08:38.064616,,-0.08332056498000824,-0.5804869392239594,0.10023821683,-3.2671796801397166,-0.5199323317208396,1.0897370260985055,,0.15009461543996153,0.5106645202758991,-0.3469634248681612,0.08577690890506204,-0.4950550118782516,-0.8646171737323501,0.7245664319265414,0.6266441278940578,-0.28691570661282473,0.6838463333410024,-0.6018618381240998,0.41245183983823697,,0.0028865653478564878,0.2628791944141969,-0.08684761751273204,-0.8319849073140789,0.5489418978285776,0.08039842534536883,-0.4985206446899042,-0.8032939051616093,0.3258773829774714,0.24347131413704082,0.23104478943841766,0.941987274040266,,-0.09313313826961853,0.6116128384143904,1.1857929561149692,0.9962021599755055,0.04609329572830634,-0.0738692395320274,0.08439912666732821,-0.7197231663426924,0.6891120019615399,-0.021401959674979064,-0.6927293641232136,-0.7208800067996883,,0.1537921216916865,0.648458205504974,-0.3913872823048037,0.9991445169087859,0.02009789640803572,-0.03614289544406837,0.03885326181686473,-0.7555567849330441,0.6539299418040376,-0.014165393651401086,-0.6547747851754935,-0.7556912877101912,,0.0,0.0,0.045,1.0,0.0,0.0,0.0,1.0,0.0,0.0,0.0,1.0,,-0.02272741252427273,-0.20692986320293497,0.201818166158785,False,,0.15009461543996153,0.5106645202758991,-0.3469634248681612,0.08596818822581603,-0.47555226553936625,-0.8754767349013604,0.7109818465084101,0.6448589645870346,-0.28046698509312895,0.6979357309585621,-0.5983368269897098,0.3935463847111594
10:08:38.076128,,-0.08332056498000824,-0.5804946619568337,0.10023821683,-3.2671796801397166,-0.5199323317208396,1.0897370260985055,,0.15009466193440302,0.5106641763690049,-0.34696448807263175,0.08578979548182754,-0.4950577537050647,-0.8646143252847952,0.7245662850502729,0.6266471108960014,-0.2869095623609314,0.6838448724379184,-0.6018564769961273,0.4124620849704578,,0.002886565347856489,0.26287919441419694,-0.08684761751273203,-0.8319849073140793,0.5489418978285778,0.08039842534536887,-0.4985206446899044,-0.8032939051616097,0.32587738297747143,0.2434713141370409,0.23104478943841772,0.9419872740402666,,-0.09313313826961853,0.6116128384143904,1.1857929561149692,0.9962021599755055,0.04609329572830634,-0.0738692395320274,0.08439912666732821,-0.7197231663426924,0.6891120019615399,-0.021401959674979064,-0.6927293641232136,-0.7208800067996883,,0.1537921216916865,0.648458205504974,-0.3913872823048037,0.9991445169087859,0.02009789640803572,-0.03614289544406837,0.03885326181686473,-0.7555567849330441,0.6539299418040376,-0.014165393651401086,-0.6547747851754935,-0.7556912877101912,,0.0,0.0,0.045,1.0,0.0,0.0,0.0,1.0,0.0,0.0,0.0,1.0,,-0.02272741252427273,-0.20692986320293497,0.201818166158785,False,,0.15009466193440302,0.5106641763690049,-0.34696448807263175,0.08596783572156291,-0.4755524356948114,-0.875476677088592,0.7109764959674004,0.644863400218735,-0.28047035001983506,0.6979412248916577,-0.598331911202356,0.3935441152319122
10:08:38.087683,,-0.08332056498000824,-0.5804869392239594,0.10023821683,-3.2671796801397166,-0.5199323317208396,1.0897370260985055,,0.15009470842910314,0.5106638324703281,-0.34696555127974915,0.0857999017341676,-0.4950620527391709,-0.8646108609080072,0.7245661697776856,0.6266487372965027,-0.2869063011827951,0.6838437266482024,-0.6018512473879047,0.41247161543737976,,0.00288679229995498,0.2628789659079655,-0.08684776719023696,-0.8319847756989383,0.5489419223974495,0.0803996196049651,-0.4985206281422777,-0.8032942961273433,0.3258764445595114,0.2434717977808919,0.23104337176537199,0.9419874967543209,,-0.09313313826961853,0.6116128384143904,1.1857929561149692,0.9962021599755055,0.04609329572830634,-0.0738692395320274,0.08439912666732821,-0.7197231663426924,0.6891120019615399,-0.021401959674979064,-0.6927293641232136,-0.7208800067996883,,0.1537921216916865,0.648458205504974,-0.3913872823048037,0.9991445169087859,0.02009789640803572,-0.03614289544406837,0.03885326181686473,-0.7555567849330441,0.6539299418040376,-0.014165393651401086,-0.6547747851754935,-0.7556912877101912,,0.0,0.0,0.045,1.0,0.0,0.0,0.0,1.0,0.0,0.0,0.0,1.0,,-0.02272741252427273,-0.20692986320293497,0.201818166158785,False,,0.15009470842910314,0.5106638324703281,-0.34696555127974915,0.08596748321865774,-0.4755526058525239,-0.8754766192742809,0.710971145383885,0.6448678358124587,-0.2804737149290159,0.6979467187834447,-0.5983269953808119,0.3935418457267197
10:08:38.100407,,-0.08332828771288246,-0.5804869392239594,0.10023821683,-3.2671796801397166,-0.5199323317208396,1.0897370260985055,,0.15009370602502578,0.510664188054462,-0.3469645308568784,0.085788507151194,-0.49506673863248196,-0.8646093084975244,0.7245662997396634,0.6266437401426967,-0.286916887306315,0.6838450184964001,-0.6018525959400443,0.41246750591760317,,0.0028867922999549814,0.2628789659079655,-0.08684776719023696,-0.8319847756989385,0.5489419223974495,0.08039961960496514,-0.4985206281422777,-0.8032942961273435,0.3258764445595114,0.24347179778089192,0.23104337176537199,0.9419874967543211,,-0.09313313826961853,0.6116128384143904,1.1857929561149692,0.9962021599755055,0.04609329572830634,-0.0738692395320274,0.08439912666732821,-0.7197231663426924,0.6891120019615399,-0.021401959674979064,-0.6927293641232136,-0.7208800067996883,,0.1537921216916865,0.648458205504974,-0.3913872823048037,0.9991445169087859,0.02009789640803572,-0.03614289544406837,0.03885326181686473,-0.7555567849330441,0.6539299418040376,-0.014165393651401086,-0.6547747851754935,-0.7556912877101912,,0.0,0.0,0.045,1.0,0.0,0.0,0.0,1.0,0.0,0.0,0.0,1.0,,-0.02272741252427273,-0.20692986320293497,0.201818166158785,False,,0.15009370602502578,0.510664188054462,-0.3469645308568784,0.08596735830769789,-0.4755456835935765,-0.8754803916257142,0.7109759530921256,0.644865897602001,-0.280465984095593,0.6979418367101514,-0.5983345861016925,0.39353896331135596
10:08:38.112157,,-0.08332056498000824,-0.5804869392239594,0.10023821683,-3.2671796801397166,-0.5199323317208396,1.0897370260985055,,0.15009466193440302,0.5106641763690049,-0.34696448807263175,0.08578701522539624,-0.4950593109854241,-0.8646137094826538,0.7245663167488969,0.626645754254917,-0.2869124453683099,0.6838451876350778,-0.6018566085712804,0.41246137039415187,,0.0028867922999549814,0.2628789659079655,-0.08684776719023696,-0.8319847756989385,0.5489419223974495,0.08039961960496514,-0.4985206281422777,-0.8032942961273435,0.3258764445595114,0.24347179778089192,0.23104337176537199,0.9419874967543211,,-0.09313313826961853,0.6116128384143904,1.1857929561149692,0.9962021599755055,0.04609329572830634,-0.0738692395320274,0.08439912666732821,-0.7197231663426924,0.6891120019615399,-0.021401959674979064,-0.6927293641232136,-0.7208800067996883,,0.1537921216916865,0.648458205504974,-0.3913872823048037,0.9991445169087859,0.02009789640803572,-0.03614289544406837,0.03885326181686473,-0.7555567849330441,0.6539299418040376,-0.014165393651401086,-0.6547747851754935,-0.7556912877101912,,0.0,0.0,0.045,1.0,0.0,0.0,0.0,1.0,0.0,0.0,0.0,1.0,,-0.02272741252427273,-0.20692986320293497,0.201818166158785,False,,0.15009466193440302,0.5106641763690049,-0.34696448807263175,0.08596783572156291,-0.4755524356948114,-0.875476677088592,0.7109764959674004,0.644863400218735,-0.28047035001983506,0.6979412248916577,-0.598331911202356,0.3935441152319122
10:08:38.124893,,-0.08332056498000824,-0.5804792164910852,0.10023821683,-3.2671796801397166,-0.5199323317208396,1.0897370260985055,,0.15009466193440302,0.5106641763690049,-0.34696448807263175,0.08578883580632612,-0.4950583452734672,-0.8646140817879915,0.724566295992493,0.6266466246877871,-0.2869105966657953,0.683844981236767,-0.6018564966356184,0.41246187592889794,,0.0028870128229314044,0.2628792331683966,-0.08684784011979874,-0.8319841619684192,0.5489427542279279,0.08040029101488848,-0.49852102998830833,-0.8032936664357426,0.3258773820082223,0.243473072174354,0.23104358468867606,0.9419871151353946,,-0.09313313826961853,0.6116128384143904,1.1857929561149692,0.9962021599755055,0.04609329572830634,-0.0738692395320274,0.08439912666732821,-0.7197231663426924,0.6891120019615399,-0.021401959674979064,-0.6927293641232136,-0.7208800067996883,,0.1537921216916865,0.648458205504974,-0.3913872823048037,0.9991445169087859,0.02009789640803572,-0.03614289544406837,0.03885326181686473,-0.7555567849330441,0.6539299418040376,-0.014165393651401086,-0.6547747851754935,-0.7556912877101912,,0.0,0.0,0.045,1.0,0.0,0.0,0.0,1.0,0.0,0.0,0.0,1.0,,-0.02272741252427273,-0.20692986320293497,0.201818166158785,False,,0.15009466193440302,0.5106641763690049,-0.34696448807263175,0.08596783572156291,-0.4755524356948114,-0.875476677088592,0.7109764959674004,0.644863400218735,-0.28047035001983506,0.6979412248916577,-0.598331911202356,0.3935441152319122
10:08:38.136597,,-0.08332828771288246,-0.5804792164910852,0.10023821683,-3.2671796801397166,-0.5199323317208396,1.0897370260985055,,0.15009461543996153,0.5106645202758991,-0.3469634248681612,0.08578237061349611,-0.4950521147246185,-0.8646182906916855,0.7245663696909818,0.6266467391719163,-0.28691016049982565,0.6838457141817591,-0.6018615023341228,0.4124533563972445,,0.0028872269177818355,0.2628799961950211,-0.0868478362991694,-0.8319830661263019,0.5489443933292274,0.08040043956880469,-0.4985218502314254,-0.80329201608725,0.3258801953228986,0.2434751373185499,0.23104542820462992,0.9419861291891858,,-0.09313313826961853,0.6116128384143904,1.1857929561149692,0.9962021599755055,0.04609329572830634,-0.0738692395320274,0.08439912666732821,-0.7197231663426924,0.6891120019615399,-0.021401959674979064,-0.6927293641232136,-0.7208800067996883,,0.1537921216916865,0.648458205504974,-0.3913872823048037,0.9991445169087859,0.02009789640803572,-0.03614289544406837,0.03885326181686473,-0.7555567849330441,0.6539299418040376,-0.014165393651401086,-0.6547747851754935,-0.7556912877101912,,0.0,0.0,0.045,1.0,0.0,0.0,0.0,1.0,0.0,0.0,0.0,1.0,,-0.02272741252427273,-0.20692986320293497,0.201818166158785,False,,0.15009461543996153,0.5106645202758991,-0.3469634248681612,0.08596818822581603,-0.47555226553936625,-0.8754767349013604,0.7109818465084101,0.6448589645870346,-0.28046698509312895,0.6979357309585621,-0.5983368269897098,0.3935463847111594
10:08:38.148213,,-0.08332828771288246,-0.580471493758211,0.10023821683,-3.267389356669054,-0.5199323317208396,1.0897370260985055,,0.15009365952611944,0.5106645319614267,-0.34696346765262587,0.0857856831067227,-0.49505857673545767,-0.8646142620698413,0.7245663319348097,0.6266455954921345,-0.2869127537716709,0.6838453386552021,-0.6018573778321334,0.4124599975131899,,0.002887447440648194,0.26288026345548476,-0.0868479092287684,-0.8319824523950349,0.5489452251611889,0.08040111097539274,-0.4985222520738545,-0.8032913863951646,0.3258811327725939,0.24347641171283532,0.23104564112458015,0.9419857475691318,,-0.09313313826961853,0.6116128384143904,1.1857929561149692,0.9962021599755055,0.04609329572830634,-0.0738692395320274,0.08439912666732821,-0.7197231663426924,0.6891120019615399,-0.021401959674979064,-0.6927293641232136,-0.7208800067996883,,0.1537921216916865,0.648458205504974,-0.3913872823048037,0.9991445169087859,0.02009789640803572,-0.03614289544406837,0.03885326181686473,-0.7555567849330441,0.6539299418040376,-0.014165393651401086,-0.6547747851754935,-0.7556912877101912,,0.0,0.0,0.045,1.0,0.0,0.0,0.0,1.0,0.0,0.0,0.0,1.0,,-0.02272741252427273,-0.20692986320293497,0.201818166158785,False,,0.15009365952611944,0.5106645319614267,-0.34696346765262587,0.08596771087106336,-0.4755455134318766,-0.8754804494347103,0.7109813036322044,0.6448614619702017,-0.2804626191689464,0.697936342779942,-0.5983395018887414,0.3935412327907871
10:08:38.160273,,-0.08332828771288246,-0.5804637710253369,0.10023821683,-3.267389356669054,-0.5199323317208396,1.0897370260985055,,0.15009467688640474,0.5106651643014419,-0.3469614216303386,0.08568602198817793,-0.49500561361590895,-0.8646544674750597,0.7245674643548958,0.6266330662513033,-0.2869372577390509,0.6838566335381695,-0.6019139828656809,0.41235865699244695,,0.002887661535242834,0.2628810264821048,-0.08684790540824439,-0.8319813565545725,0.5489468642653118,0.0804012595215577,-0.4985230723095614,-0.8032897360426507,0.3258839460871347,0.24347847686070195,0.23104748463371774,0.9419847616197317,,-0.09313313826961853,0.6116128384143904,1.1857929561149692,0.9962021599755055,0.04609329572830634,-0.0738692395320274,0.08439912666732821,-0.7197231663426924,0.6891120019615399,-0.021401959674979064,-0.6927293641232136,-0.7208800067996883,,0.1537921216916865,0.648458205504974,-0.3913872823048037,0.9991445169087859,0.02009789640803572,-0.03614289544406837,0.03885326181686473,-0.7555567849330441,0.6539299418040376,-0.014165393651401086,-0.6547747851754935,-0.7556912877101912,,0.0,0.0,0.045,1.0,0.0,0.0,0.0,1.0,0.0,0.0,0.0,1.0,,-0.02272741252427273,-0.20692986320293497,0.201818166158785,False,,0.15009467688640474,0.5106651643014419,-0.3469614216303386,0.08614968396174927,-0.4756291245553841,-0.8754171393272867,0.7109829443375022,0.6448832428215552,-0.280408373607373,0.6979122328878233,-0.5982495624759243,0.39372068295036045
10:08:38.172167,,-0.08332056498000824,-0.5804560482924626,0.10023821683,-3.267389356669054,-0.5199323317208396,1.0897370260985055,,0.1500955863152917,0.5106654965518846,-0.3469603156550851,0.0856752846726748,-0.4949935114327701,-0.8646624597122927,0.724567585924267,0.6266338391118376,-0.2869352629215163,0.6838578500128051,-0.601923130739645,0.412343286178456,,0.002888102581925181,0.2628815610027106,-0.08684805126527892,-0.8319801290949511,0.5489485279358607,0.08040260232755898,-0.49852387598913334,-0.8032884766624323,0.3258858209909779,0.24348102565243818,0.23104791046716705,0.9419839983825821,,-0.09313313826961853,0.6116128384143904,1.1857929561149692,0.9962021599755055,0.04609329572830634,-0.0738692395320274,0.08439912666732821,-0.7197231663426924,0.6891120019615399,-0.021401959674979064,-0.6927293641232136,-0.7208800067996883,,0.1537921216916865,0.648458205504974,-0.3913872823048037,0.9991445169087859,0.02009789640803572,-0.03614289544406837,0.03885326181686473,-0.7555567849330441,0.6539299418040376,-0.014165393651401086,-0.6547747851754935,-0.7556912877101912,,0.0,0.0,0.045,1.0,0.0,0.0,0.0,1.0,0.0,0.0,0.0,1.0,,-0.02272741252427273,-0.20692986320293497,0.201818166158785,False,,0.1500955863152917,0.5106654965518846,-0.3469603156550851,0.08615051367080778,-0.4756357060759037,-0.8754134817901383,0.7109888383741527,0.6448763100850184,-0.28040937287919687,0.697906125995201,-0.598251803003391,0.39372810352013604
10:08:38.184813,,-0.083312842247134,-0.5804483255595884,0.10023821683,-3.267389356669054,-0.5199323317208396,1.0897370260985055,,0.1500955863152917,0.5106654965518846,-0.3469603156550851,0.0856752846726748,-0.4949935114327701,-0.8646624597122927,0.724567585924267,0.6266338391118376,-0.2869352629215163,0.6838578500128051,-0.601923130739645,0.412343286178456,,0.002888102581925181,0.2628815610027106,-0.08684805126527892,-0.8319801290949511,0.5489485279358607,0.08040260232755898,-0.49852387598913334,-0.8032884766624323,0.3258858209909779,0.24348102565243818,0.23104791046716705,0.9419839983825821,,-0.09313313826961853,0.6116128384143904,1.1857929561149692,0.9962021599755055,0.04609329572830634,-0.0738692395320274,0.08439912666732821,-0.7197231663426924,0.6891120019615399,-0.021401959674979064,-0.6927293641232136,-0.7208800067996883,,0.1537921216916865,0.648458205504974,-0.3913872823048037,0.9991445169087859,0.02009789640803572,-0.03614289544406837,0.03885326181686473,-0.7555567849330441,0.6539299418040376,-0.014165393651401086,-0.6547747851754935,-0.7556912877101912,,0.0,0.0,0.045,1.0,0.0,0.0,0.0,1.0,0.0,0.0,0.0,1.0,,-0.02272741252427273,-0.20692986320293497,0.201818166158785,False,,0.1500955863152917,0.5106654965518846,-0.3469603156550851,0.08615051367080778,-0.4756357060759037,-0.8754134817901383,0.7109888383741527,0.6448763100850184,-0.28040937287919687,0.697906125995201,-0.598251803003391,0.39372810352013604
10:08:38.197223,,-0.08332056498000824,-0.5804560482924626,0.10023821683,-3.267389356669054,-0.5199323317208396,1.0897370260985055,,0.15009649575367529,0.5106658288152446,-0.3469592096876188,0.08565908665877471,-0.4949843065460947,-0.8646693339918251,0.7245677691600934,0.6266320011718224,-0.286938814038399,0.6838596849991598,-0.6019326136541191,0.4123263996548982,,0.0028878820592721306,0.26288129374225194,-0.08684797833565806,-0.8319807428297717,0.5489476960982189,0.08040193092800171,-0.4985234741464302,-0.8032891063569751,0.3258848835421156,0.2434797512596625,0.23104769755343219,0.9419843800031203,,-0.09313313826961853,0.6116128384143904,1.1857929561149692,0.9962021599755055,0.04609329572830634,-0.0738692395320274,0.08439912666732821,-0.7197231663426924,0.6891120019615399,-0.021401959674979064,-0.6927293641232136,-0.7208800067996883,,0.1537921216916865,0.648458205504974,-0.3913872823048037,0.9991445169087859,0.02009789640803572,-0.03614289544406837,0.03885326181686473,-0.7555567849330441,0.6539299418040376,-0.014165393651401086,-0.6547747851754935,-0.7556912877101912,,0.0,0.0,0.045,1.0,0.0,0.0,0.0,1.0,0.0,0.0,0.0,1.0,,-0.02272741252427273,-0.20692986320293497,0.201818166158785,False,,0.15009649575367529,0.5106658288152446,-0.3469592096876188,0.08615134325666413,-0.47564228758296623,-0.8754098242068772,0.7109947323724768,0.644869377276975,-0.2804103721137947,0.6979000190526311,-0.5982540434575011,0.39373552404258355
10:08:38.210975,,-0.08332056498000824,-0.5804637710253369,0.10023821683,-3.267389356669054,-0.5199323317208396,1.0897370260985055,,0.15009563280898794,0.5106651526213758,-0.34696137885190825,0.08568453130493955,-0.49499818584714894,-0.8646588674749621,0.7245674812376827,0.6266350808779052,-0.2869328153871936,0.6838568024286465,-0.6019179939337022,0.41235252194074734,,0.0028876615365158345,0.2628810264817559,-0.08684790540602183,-0.8319813565617871,0.5489468642647743,0.0804012595247489,-0.49852307230760307,-0.8032897360495456,0.32588394609143606,0.2434784768645537,0.23104748463683608,0.9419847616243026,,-0.09313313826961853,0.6116128384143904,1.1857929561149692,0.9962021599755055,0.04609329572830634,-0.0738692395320274,0.08439912666732821,-0.7197231663426924,0.6891120019615399,-0.021401959674979064,-0.6927293641232136,-0.7208800067996883,,0.1537921216916865,0.648458205504974,-0.3913872823048037,0.9991445169087859,0.02009789640803572,-0.03614289544406837,0.03885326181686473,-0.7555567849330441,0.6539299418040376,-0.014165393651401086,-0.6547747851754935,-0.7556912877101912,,0.0,0.0,0.045,1.0,0.0,0.0,0.0,1.0,0.0,0.0,0.0,1.0,,-0.02272741252427273,-0.20692986320293497,0.201818166158785,False,,0.15009563280898794,0.5106651526213758,-0.34696137885190825,0.08615016116751811,-0.47563587624820763,-0.8754134240211368,0.7109834881301305,0.6448807450295431,-0.2804127391836085,0.6979116200043697,-0.5982468870923956,0.39372583449290594
10:08:38.225841,,-0.08332056498000824,-0.580471493758211,0.10023821683,-3.267389356669054,-0.5199323317208396,1.0897370260985055,,0.1500956793029428,0.5106648086990845,-0.34696244205137833,0.0856909972581107,-0.49500441716038646,-0.8646546593759942,0.7245674079954746,0.626634966106498,-0.2869332509895419,0.6838560698419148,-0.6019129889314685,0.4123610426506801,,0.0028874474419211924,0.2628802634551359,-0.08684790922654587,-0.831982452402249,0.5489452251606515,0.08040111097858386,-0.49852225207189615,-0.803291386402059,0.3258811327768951,0.24347641171668705,0.2310456411276984,0.9419857475737022,,-0.09313313826961853,0.6116128384143904,1.1857929561149692,0.9962021599755055,0.04609329572830634,-0.0738692395320274,0.08439912666732821,-0.7197231663426924,0.6891120019615399,-0.021401959674979064,-0.6927293641232136,-0.7208800067996883,,0.1537921216916865,0.648458205504974,-0.3913872823048037,0.9991445169087859,0.02009789640803572,-0.03614289544406837,0.03885326181686473,-0.7555567849330441,0.6539299418040376,-0.014165393651401086,-0.6547747851754935,-0.7556912877101912,,0.0,0.0,0.045,1.0,0.0,0.0,0.0,1.0,0.0,0.0,0.0,1.0,,-0.02272741252427273,-0.20692986320293497,0.201818166158785,False,,0.1500956793029428,0.5106648086990845,-0.34696244205137833,0.08614980866557553,-0.4756360464227789,-0.8754133662505921,0.7109781378436029,0.6448851799360886,-0.2804161054704984,0.6979171139722309,-0.5982419711472164,0.39372356543972
10:08:38.238523,,-0.08332056498000824,-0.580471493758211,0.10023821683,-3.267389356669054,-0.5199323317208396,1.0897370260985055,,0.1500956793029428,0.5106648086990845,-0.34696244205137833,0.08569195743390147,-0.49500382590912817,-0.864654902701923,0.7245673971165932,0.6266354523376199,-0.28693221657616513,0.6838559610523486,-0.6019129689655739,0.41236125221002123,,0.0028869999669206814,0.2628802247008343,-0.08684768661947276,-0.8319831977518095,0.5489443687596758,0.08039924531131894,-0.49852186677688753,-0.8032916251253606,0.3258811337430561,0.2434746536805747,0.23104684588068605,0.9419859064787679,,-0.09313313826961853,0.6116128384143904,1.1857929561149692,0.9962021599755055,0.04609329572830634,-0.0738692395320274,0.08439912666732821,-0.7197231663426924,0.6891120019615399,-0.021401959674979064,-0.6927293641232136,-0.7208800067996883,,0.1537921216916865,0.648458205504974,-0.3913872823048037,0.9991445169087859,0.02009789640803572,-0.03614289544406837,0.03885326181686473,-0.7555567849330441,0.6539299418040376,-0.014165393651401086,-0.6547747851754935,-0.7556912877101912,,0.0,0.0,0.045,1.0,0.0,0.0,0.0,1.0,0.0,0.0,0.0,1.0,,-0.02272741252427273,-0.20692986320293497,0.201818166158785,False,,0.1500956793029428,0.5106648086990845,-0.34696244205137833,0.08614980866557553,-0.4756360464227789,-0.8754133662505921,0.7109781378436029,0.6448851799360886,-0.2804161054704984,0.6979171139722309,-0.5982419711472164,0.39372356543972
10:08:38.251481,,-0.08332828771288246,-0.580471493758211,0.10023951312000001,-3.267389356669054,-0.5199323317208396,1.0897370260985055,,0.15009468654604521,0.5106635733696818,-0.3469621327241677,0.08569907949329097,-0.4950033742627511,-0.8646544553996662,0.724567316401843,0.6266377534663008,-0.28692739488054997,0.6838551540905676,-0.6019109447411621,0.4123655451472245,,0.0028867794440345057,0.2628799574404096,-0.08684761368988969,-0.8319838114816149,0.5489435369277775,0.08039857390413037,-0.4985214649338403,-0.8032922548184578,0.3258801962945393,0.24347337928573226,0.23104663295960698,0.9419862880983386,,-0.09313313826961853,0.6116128384143904,1.1857929561149692,0.9962021599755055,0.04609329572830634,-0.0738692395320274,0.08439912666732821,-0.7197231663426924,0.6891120019615399,-0.021401959674979064,-0.6927293641232136,-0.7208800067996883,,0.1537921216916865,0.648458205504974,-0.3913872823048037,0.9991445169087859,0.02009789640803572,-0.03614289544406837,0.03885326181686473,-0.7555567849330441,0.6539299418040376,-0.014165393651401086,-0.6547747851754935,-0.7556912877101912,,0.0,0.0,0.045,1.0,0.0,0.0,0.0,1.0,0.0,0.0,0.0,1.0,,-0.02272741252427273,-0.20692986320293497,0.201818166158785,False,,0.15009468654604521,0.5106635733696818,-0.3469621327241677,0.08614933140069564,-0.4756292947362144,-0.8754170815605238,0.7109775940519054,0.6448876777281995,-0.28041173989420287,0.6979177268527985,-0.5982446465310505,0.39371841389698997
10:08:38.263601,,-0.08332828771288246,-0.580471493758211,0.10023951312000001,-3.267389356669054,-0.5199323317208396,1.0897370260985055,,0.15009468654604521,0.5106635733696818,-0.3469621327241677,0.08569907949329113,-0.49500337426275126,-0.8646544553996661,0.7245673164018429,0.6266377534663009,-0.2869273948805499,0.6838551540905676,-0.6019109447411618,0.41236554514722473,,0.0028867794440345074,0.2628799574404096,-0.08684761368988966,-0.8319838114816154,0.5489435369277776,0.08039857390413042,-0.4985214649338404,-0.8032922548184582,0.32588019629453935,0.24347337928573232,0.23104663295960703,0.9419862880983391,,-0.09313313826961853,0.6116128384143904,1.1857929561149692,0.9962021599755055,0.04609329572830634,-0.0738692395320274,0.08439912666732821,-0.7197231663426924,0.6891120019615399,-0.021401959674979064,-0.6927293641232136,-0.7208800067996883,,0.1537921216916865,0.648458205504974,-0.3913872823048037,0.9991445169087859,0.02009789640803572,-0.03614289544406837,0.03885326181686473,-0.7555567849330441,0.6539299418040376,-0.014165393651401086,-0.6547747851754935,-0.7556912877101912,,0.0,0.0,0.045,1.0,0.0,0.0,0.0,1.0,0.0,0.0,0.0,1.0,,-0.02272741252427273,-0.20692986320293497,0.201818166158785,False,,0.15009468654604521,0.5106635733696818,-0.3469621327241677,0.08614933140069564,-0.4756292947362144,-0.8754170815605238,0.7109775940519054,0.6448876777281995,-0.28041173989420287,0.6979177268527985,-0.5982446465310505,0.39371841389698997
10:08:38.276369,,-0.08332056498000824,-0.5805178301554564,0.10023951312000001,-3.267389356669054,-0.5199323317208396,1.0897370260985055,,0.15009477954451422,0.5106628855441524,-0.34696425914985657,0.08572667396151407,-0.4950078935288894,-0.8646491327212374,0.7245670033199522,0.6266445888725009,-0.28691325681599145,0.6838520271750613,-0.601900111796722,0.4123865423939692,,0.0028869999669206827,0.2628802247008343,-0.08684768661947276,-0.8319831977518096,0.5489443687596757,0.08039924531131898,-0.4985218667768874,-0.8032916251253606,0.3258811337430561,0.2434746536805747,0.23104684588068605,0.9419859064787678,,-0.09313313826961853,0.6116128384143904,1.1857929561149692,0.9962021599755055,0.04609329572830634,-0.0738692395320274,0.08439912666732821,-0.7197231663426924,0.6891120019615399,-0.021401959674979064,-0.6927293641232136,-0.7208800067996883,,0.1537921216916865,0.648458205504974,-0.3913872823048037,0.9991445169087859,0.02009789640803572,-0.03614289544406837,0.03885326181686473,-0.7555567849330441,0.6539299418040376,-0.014165393651401086,-0.6547747851754935,-0.7556912877101912,,0.0,0.0,0.045,1.0,0.0,0.0,0.0,1.0,0.0,0.0,0.0,1.0,,-0.02272741252427273,-0.20692986320293497,0.201818166158785,False,,0.15009477954451422,0.5106628855441524,-0.34696425914985657,0.08614862628263029,-0.47562963510467793,-0.8754169660223674,0.7109668933531966,0.6448965474275514,-0.2804184724152964,0.6979287146588256,-0.5982348145387519,0.39371387571238203
10:08:38.287848,,-0.08332056498000824,-0.5805255528883306,0.10023951312000001,-3.267389356669054,-0.5199323317208396,1.0897370260985055,,0.15009592144424538,0.5106614983119999,-0.34696846925568253,0.0857785496091934,-0.49501046938905946,-0.8646425131938437,0.7245664132332041,0.6266594034641646,-0.28688238855723946,0.6838461473469839,-0.6018825693149457,0.412421895046234,,0.002887220490976611,0.2628804919608726,-0.0868477595468179,-0.8319825840264135,0.5489452005952344,0.08039991671800313,-0.4985222686218529,-0.8032909954371859,0.32588207119405704,0.24347592807693574,0.2310470588020222,0.9419855248644121,,-0.09313313826961853,0.6116128384143904,1.1857929561149692,0.9962021599755055,0.04609329572830634,-0.0738692395320274,0.08439912666732821,-0.7197231663426924,0.6891120019615399,-0.021401959674979064,-0.6927293641232136,-0.7208800067996883,,0.1537921216916865,0.648458205504974,-0.3913872823048037,0.9991445169087859,0.02009789640803572,-0.03614289544406837,0.03885326181686473,-0.7555567849330441,0.6539299418040376,-0.014165393651401086,-0.6547747851754935,-0.7556912877101912,,0.0,0.0,0.045,1.0,0.0,0.0,0.0,1.0,0.0,0.0,0.0,1.0,,-0.02272741252427273,-0.20692986320293497,0.201818166158785,False,,0.15009592144424538,0.5106614983119999,-0.34696846925568253,0.08614769368221839,-0.47563706751781526,-0.8754130195949156,0.7109460352318359,0.6449117885777983,-0.28043630282386467,0.6979500769119292,-0.5982124747582905,0.3937099505755395
10:08:38.301278,,-0.08332056498000824,-0.5805255528883306,0.10023951312000001,-3.267389356669054,-0.5199323317208396,1.0897370260985055,,0.15009596794043753,0.5106611544445028,-0.34696953248330153,0.08579047630282821,-0.4950138028123922,-0.864639421493693,0.7245662772871414,0.6266618999778675,-0.28687727852582257,0.683844795252539,-0.6018772284622033,0.4124319311894627,,0.002887667965957307,0.2628805307152131,-0.08684798215390693,-0.8319818386753914,0.5489460569962732,0.08040178238466761,-0.49852265391624306,-0.8032907567148961,0.3258820702290746,0.2434776861124912,0.23104585404790573,0.9419853659588631,,-0.09313313826961853,0.6116128384143904,1.1857929561149692,0.9962021599755055,0.04609329572830634,-0.0738692395320274,0.08439912666732821,-0.7197231663426924,0.6891120019615399,-0.021401959674979064,-0.6927293641232136,-0.7208800067996883,,0.1537921216916865,0.648458205504974,-0.3913872823048037,0.9991445169087859,0.02009789640803572,-0.03614289544406837,0.03885326181686473,-0.7555567849330441,0.6539299418040376,-0.014165393651401086,-0.6547747851754935,-0.7556912877101912,,0.0,0.0,0.045,1.0,0.0,0.0,0.0,1.0,0.0,0.0,0.0,1.0,,-0.02272741252427273,-0.20692986320293497,0.201818166158785,False,,0.15009596794043753,0.5106611544445028,-0.34696953248330153,0.0861473411897078,-0.4756372377082563,-0.8754129618135684,0.7109406846477779,0.6449162232184866,-0.2804396689880956,0.6979555705906311,-0.5982075585738311,0.39370768134066625
10:08:38.313068,,-0.08332828771288246,-0.5805178301554564,0.10023951312000001,-3.267389356669054,-0.5199323317208396,1.0897370260985055,,0.15009496554455667,0.5106615099917053,-0.34696851203299495,0.08578090221299135,-0.49501752222926654,-0.864638241984197,0.724566386425397,0.6266577739787207,-0.28688601564816085,0.6838458806470705,-0.601878465305108,0.4124283265295927,,0.0028878884887587265,0.26288079797571245,-0.08684805508353255,-0.8319812249430193,0.5489468888290076,0.0804024537892878,-0.49852305575656175,-0.8032901270230739,0.3258830076798511,0.24347896050690981,0.23104606696561433,0.9419849843380029,,-0.09313313826961853,0.6116128384143904,1.1857929561149692,0.9962021599755055,0.04609329572830634,-0.0738692395320274,0.08439912666732821,-0.7197231663426924,0.6891120019615399,-0.021401959674979064,-0.6927293641232136,-0.7208800067996883,,0.1537921216916865,0.648458205504974,-0.3913872823048037,0.9991445169087859,0.02009789640803572,-0.03614289544406837,0.03885326181686473,-0.7555567849330441,0.6539299418040376,-0.014165393651401086,-0.6547747851754935,-0.7556912877101912,,0.0,0.0,0.045,1.0,0.0,0.0,0.0,1.0,0.0,0.0,0.0,1.0,,-0.02272741252427273,-0.20692986320293497,0.201818166158785,False,,0.15009496554455667,0.5106615099917053,-0.34696851203299495,0.08614721606266848,-0.47563031586881493,-0.8754167349275336,0.7109454914457254,0.6449142863705006,-0.28043193724721227,0.6979506897751792,-0.5982151501439592,0.3937047990317013
10:08:38.325138,,-0.08332828771288246,-0.5805255528883306,0.10023951312000001,-3.267389356669054,-0.5199323317208396,1.0897370260985055,,0.15009501204521403,0.5106611661241378,-0.3469695752603959,0.08579560934440822,-0.49501929839099745,-0.8646357658793131,0.7245662187461398,0.6266616270741437,-0.2868780225195161,0.6838442133038364,-0.6018729927262658,0.4124390773891165,,0.0028881090114569016,0.26288106523617416,-0.08684812801314276,-0.831980611207842,0.5489477206659396,0.08040312519021249,-0.4985234576007567,-0.8032894973292796,0.3258839451288107,0.24348023489899534,0.2310462798804619,0.9419846027177871,,-0.09313313826961853,0.6116128384143904,1.1857929561149692,0.9962021599755055,0.04609329572830634,-0.0738692395320274,0.08439912666732821,-0.7197231663426924,0.6891120019615399,-0.021401959674979064,-0.6927293641232136,-0.7208800067996883,,0.1537921216916865,0.648458205504974,-0.3913872823048037,0.9991445169087859,0.02009789640803572,-0.03614289544406837,0.03885326181686473,-0.7555567849330441,0.6539299418040376,-0.014165393651401086,-0.6547747851754935,-0.7556912877101912,,0.0,0.0,0.045,1.0,0.0,0.0,0.0,1.0,0.0,0.0,0.0,1.0,,-0.02272741252427273,-0.20692986320293497,0.201818166158785,False,,0.15009501204521403,0.5106611661241378,-0.3469695752603959,0.08614686351104736,-0.47563048606551794,-0.8754166771499665,0.7109401408625983,0.6449187210112874,-0.2804353034113833,0.6979561834509946,-0.5982102339598052,0.393702529796644
10:08:38.337602,,-0.08332828771288246,-0.5805255528883306,0.10024080941,-3.267389356669054,-0.5199323317208396,1.0897370260985055,,0.15009592144424538,0.5106614983119999,-0.34696846925568253,0.08577941040728494,-0.49501009485987013,-0.8646426422152687,0.7245664034249233,0.6266597877374099,-0.28688157393038666,0.683846049764163,-0.6018824772492775,0.4124221912097155,,0.002887888488687951,0.262880797975657,-0.08684805508350385,-0.8319812249407669,0.5489468888328187,0.0804024537865762,-0.49852305576149314,-0.8032901270209702,0.3258830076774934,0.24347896050451015,0.231046066963874,0.9419849843390503,,-0.09313313826961853,0.6116128384143904,1.1857929561149692,0.9962021599755055,0.04609329572830634,-0.0738692395320274,0.08439912666732821,-0.7197231663426924,0.6891120019615399,-0.021401959674979064,-0.6927293641232136,-0.7208800067996883,,0.1537921216916865,0.648458205504974,-0.3913872823048037,0.9991445169087859,0.02009789640803572,-0.03614289544406837,0.03885326181686473,-0.7555567849330441,0.6539299418040376,-0.014165393651401086,-0.6547747851754935,-0.7556912877101912,,0.0,0.0,0.045,1.0,0.0,0.0,0.0,1.0,0.0,0.0,0.0,1.0,,-0.02272741252427273,-0.20692986320293497,0.201818166158785,False,,0.15009592144424538,0.5106614983119999,-0.34696846925568253,0.08614769368221839,-0.47563706751781526,-0.8754130195949156,0.7109460352318359,0.6449117885777983,-0.28043630282386467,0.6979500769119292,-0.5982124747582905,0.3937099505755395
10:08:38.349464,,-0.08332056498000824,-0.5805255528883306,0.10024080941,-3.267389356669054,-0.5199323317208396,1.0897370260985055,,0.15009497520942294,0.5106599190956347,-0.34696922322232854,0.08580402122010768,-0.4950098618027612,-0.8646403336997822,0.7245661227690191,0.6266672988218162,-0.2868658751452312,0.6838432595836053,-0.6018748485402758,0.4124379505049093,,0.0028876615365158354,0.2628810264817559,-0.08684790540602184,-0.8319813565617873,0.5489468642647745,0.08040125952474893,-0.4985230723076032,-0.8032897360495458,0.3258839460914361,0.24347847686455376,0.23104748463683614,0.9419847616243028,,-0.09313313826961853,0.6116128384143904,1.1857929561149692,0.9962021599755055,0.04609329572830634,-0.0738692395320274,0.08439912666732821,-0.7197231663426924,0.6891120019615399,-0.021401959674979064,-0.6927293641232136,-0.7208800067996883,,0.1537921216916865,0.648458205504974,-0.3913872823048037,0.9991445169087859,0.02009789640803572,-0.03614289544406837,0.03885326181686473,-0.7555567849330441,0.6539299418040376,-0.014165393651401086,-0.6547747851754935,-0.7556912877101912,,0.0,0.0,0.045,1.0,0.0,0.0,0.0,1.0,0.0,0.0,0.0,1.0,,-0.02272741252427273,-0.20692986320293497,0.201818166158785,False,,0.15009497520942294,0.5106599190956347,-0.34696922322232854,0.08614686351104736,-0.47563048606551794,-0.8754166771499665,0.7109401408625983,0.6449187210112874,-0.2804353034113833,0.6979561834509946,-0.5982102339598052,0.393702529796644
10:08:38.362491,,-0.08332056498000824,-0.5805255528883306,0.10024080941,-3.267389356669054,-0.5199323317208396,1.0897370260985055,,0.1500959311130063,0.5106599074158679,-0.34696918044482594,0.08579888803517866,-0.4950043662961381,-0.8646439892578249,0.724566181343391,0.6266675716080352,-0.2868651312870639,0.6838438415788968,-0.6018790842375625,0.412430804247173,,0.002887220489703612,0.26288049196122143,-0.08684775954904045,-0.8319825840191991,0.5489452005957716,0.08039991671481198,-0.4985222686238109,-0.8032909954302913,0.3258820711897557,0.2434759280730839,0.23104705879890391,0.9419855248598412,,-0.09313313826961853,0.6116128384143904,1.1857929561149692,0.9962021599755055,0.04609329572830634,-0.0738692395320274,0.08439912666732821,-0.7197231663426924,0.6891120019615399,-0.021401959674979064,-0.6927293641232136,-0.7208800067996883,,0.1537921216916865,0.648458205504974,-0.3913872823048037,0.9991445169087859,0.02009789640803572,-0.03614289544406837,0.03885326181686473,-0.7555567849330441,0.6539299418040376,-0.014165393651401086,-0.6547747851754935,-0.7556912877101912,,0.0,0.0,0.045,1.0,0.0,0.0,0.0,1.0,0.0,0.0,0.0,1.0,,-0.02272741252427273,-0.20692986320293497,0.201818166158785,False,,0.1500959311130063,0.5106599074158679,-0.34696918044482594,0.0861473411897078,-0.4756372377082563,-0.8754129618135684,0.7109406846477779,0.6449162232184866,-0.2804396689880956,0.6979555705906311,-0.5982075585738311,0.39370768134066625
10:08:38.375291,,-0.08332056498000824,-0.5805255528883306,0.10024080941,-3.267389356669054,-0.5199323317208396,1.0897370260985055,,0.1500959311130063,0.5106599074158679,-0.34696918044482594,0.08579524697015761,-0.49500629806632235,-0.8646432446228934,0.724566222879559,0.6266658309152466,-0.2868688289538493,0.6838442543879264,-0.601879307866601,0.4124297934226409,,0.0028867794427615053,0.2628799574407584,-0.08684761369211223,-0.8319838114744007,0.548943536928315,0.08039857390093917,-0.49852146493579863,-0.8032922548115633,0.3258801962902381,0.2434733792818805,0.23104663295648878,0.941986288093768,,-0.09313313826961853,0.6116128384143904,1.1857929561149692,0.9962021599755055,0.04609329572830634,-0.0738692395320274,0.08439912666732821,-0.7197231663426924,0.6891120019615399,-0.021401959674979064,-0.6927293641232136,-0.7208800067996883,,0.1537921216916865,0.648458205504974,-0.3913872823048037,0.9991445169087859,0.02009789640803572,-0.03614289544406837,0.03885326181686473,-0.7555567849330441,0.6539299418040376,-0.014165393651401086,-0.6547747851754935,-0.7556912877101912,,0.0,0.0,0.045,1.0,0.0,0.0,0.0,1.0,0.0,0.0,0.0,1.0,,-0.02272741252427273,-0.20692986320293497,0.201818166158785,False,,0.1500959311130063,0.5106599074158679,-0.34696918044482594,0.0861473411897078,-0.4756372377082563,-0.8754129618135684,0.7109406846477779,0.6449162232184866,-0.2804396689880956,0.6979555705906311,-0.5982075585738311,0.39370768134066625
10:08:38.387693,,-0.08332056498000824,-0.580571889285576,0.10024080941,-3.267389356669054,-0.5199323317208396,1.0896681444544551,,0.15009602410702017,0.5106592197000691,-0.3469713069272477,0.08581702224496891,-0.49498705807735177,-0.8646520982620322,0.7245659743287018,0.6266787910183859,-0.28684114372389685,0.6838417854577954,-0.6018816372208599,0.4124304877651892,,0.0028867858720224814,0.26287946167420273,-0.08684769044003993,-0.8319842935894314,0.5489427296626531,0.0803990967553883,-0.49852104653847135,-0.8032932754739199,0.325878320427488,0.24347258853257853,0.23104500236310788,0.9419868924270387,,-0.09313313826961853,0.6116128384143904,1.1857929561149692,0.9962021599755055,0.04609329572830634,-0.0738692395320274,0.08439912666732821,-0.7197231663426924,0.6891120019615399,-0.021401959674979064,-0.6927293641232136,-0.7208800067996883,,0.1537921216916865,0.648458205504974,-0.3913872823048037,0.9991445169087859,0.02009789640803572,-0.03614289544406837,0.03885326181686473,-0.7555567849330441,0.6539299418040376,-0.014165393651401086,-0.6547747851754935,-0.7556912877101912,,0.0,0.0,0.045,1.0,0.0,0.0,0.0,1.0,0.0,0.0,0.0,1.0,,-0.02272741252427273,-0.20692986320293497,0.201818166158785,False,,0.15009602410702017,0.5106592197000691,-0.3469713069272477,0.08614663620873114,-0.4756978768435893,-0.8753800814711412,0.7109299833521525,0.6449057732467667,-0.2804908240992887,0.6979665578241041,-0.5981706057635158,0.3937443467018669
10:08:38.399399,,-0.08332056498000824,-0.5805873347513244,0.10024080941,-3.267389356669054,-0.5199323317208396,1.0896681444544551,,0.15009621009815144,0.5106578443670862,-0.3469755599238468,0.08586674520501894,-0.49499899163746675,-0.8646403300481579,0.7245654054664147,0.626689850481244,-0.2868184173045482,0.6838361465067391,-0.6018603073651617,0.412470962795112,,0.002886565347856489,0.26287919441419694,-0.08684761751273203,-0.8319849073140793,0.5489418978285778,0.08039842534536887,-0.4985206446899044,-0.8032939051616097,0.32587738297747143,0.2434713141370409,0.23104478943841772,0.9419872740402666,,-0.09313313826961853,0.6116128384143904,1.1857929561149692,0.9962021599755055,0.04609329572830634,-0.0738692395320274,0.08439912666732821,-0.7197231663426924,0.6891120019615399,-0.021401959674979064,-0.6927293641232136,-0.7208800067996883,,0.1537921216916865,0.648458205504974,-0.3913872823048037,0.9991445169087859,0.02009789640803572,-0.03614289544406837,0.03885326181686473,-0.7555567849330441,0.6539299418040376,-0.014165393651401086,-0.6547747851754935,-0.7556912877101912,,0.0,0.0,0.045,1.0,0.0,0.0,0.0,1.0,0.0,0.0,0.0,1.0,,-0.02272741252427273,-0.20692986320293497,0.201818166158785,False,,0.15009621009815144,0.5106578443670862,-0.3469755599238468,0.08614522626294721,-0.4756985576302359,-0.8753798502710805,0.7109085802508754,0.6449235101983689,-0.2805042896625634,0.697988531795323,-0.5981509410357289,0.39373526794063285
10:08:38.412672,,-0.08332056498000824,-0.5805950574841986,0.10024080941,-3.267389356669054,-0.5200664731892918,1.0897361273506667,,0.15009647323652536,0.5106578333749621,-0.34697774791150326,0.08585472078533608,-0.49503678895518055,-0.8646198843999692,0.7245655432000068,0.6266736794301475,-0.28685340004392484,0.6838375103240178,-0.6018460576346952,0.412489493664292,,0.00288679229995498,0.2628789659079655,-0.08684776719023696,-0.8319847756989383,0.5489419223974495,0.0803996196049651,-0.4985206281422777,-0.8032942961273433,0.3258764445595114,0.2434717977808919,0.23104337176537199,0.9419874967543209,,-0.09313313826961853,0.6116128384143904,1.1857929561149692,0.9962021599755055,0.04609329572830634,-0.0738692395320274,0.08439912666732821,-0.7197231663426924,0.6891120019615399,-0.021401959674979064,-0.6927293641232136,-0.7208800067996883,,0.1537921216916865,0.648458205504974,-0.3913872823048037,0.9991445169087859,0.02009789640803572,-0.03614289544406837,0.03885326181686473,-0.7555567849330441,0.6539299418040376,-0.014165393651401086,-0.6547747851754935,-0.7556912877101912,,0.0,0.0,0.045,1.0,0.0,0.0,0.0,1.0,0.0,0.0,0.0,1.0,,-0.02272741252427273,-0.20692986320293497,0.201818166158785,False,,0.15009647323652536,0.5106578333749621,-0.34697774791150326,0.08614194356512272,-0.4756498001586074,-0.875406667308343,0.7109866260802102,0.6448713385198013,-0.2804264151087751,0.6979094376019733,-0.5982459564132101,0.3937311170600323
10:08:38.426749,,-0.08332828771288246,-0.5805950574841986,0.10024080941,-3.267389356669054,-0.5200664731892918,1.0897361273506667,,0.15009647323652536,0.5106578333749621,-0.34697774791150326,0.08585472078533608,-0.49503678895518055,-0.8646198843999692,0.7245655432000068,0.6266736794301475,-0.28685340004392484,0.6838375103240178,-0.6018460576346952,0.412489493664292,,0.0028867922999549814,0.2628789659079655,-0.08684776719023696,-0.8319847756989385,0.5489419223974495,0.08039961960496514,-0.4985206281422777,-0.8032942961273435,0.3258764445595114,0.24347179778089192,0.23104337176537199,0.9419874967543211,,-0.09313313826961853,0.6116128384143904,1.1857929561149692,0.9962021599755055,0.04609329572830634,-0.0738692395320274,0.08439912666732821,-0.7197231663426924,0.6891120019615399,-0.021401959674979064,-0.6927293641232136,-0.7208800067996883,,0.1537921216916865,0.648458205504974,-0.3913872823048037,0.9991445169087859,0.02009789640803572,-0.03614289544406837,0.03885326181686473,-0.7555567849330441,0.6539299418040376,-0.014165393651401086,-0.6547747851754935,-0.7556912877101912,,0.0,0.0,0.045,1.0,0.0,0.0,0.0,1.0,0.0,0.0,0.0,1.0,,-0.02272741252427273,-0.20692986320293497,0.201818166158785,False,,0.15009647323652536,0.5106578333749621,-0.34697774791150326,0.08614194356512272,-0.4756498001586074,-0.875406667308343,0.7109866260802102,0.6448713385198013,-0.2804264151087751,0.6979094376019733,-0.5982459564132101,0.3937311170600323
10:08:38.438188,,-0.08332056498000824,-0.5806027802170729,0.10024080941,-3.267389356669054,-0.5200664731892918,1.0897361273506667,,0.15009551737244595,0.5106578450533155,-0.34697779068616386,0.08585803408245504,-0.49504324990522025,-0.864615856150449,0.7245655052584854,0.6266725367214933,-0.2868559922828259,0.6838371345379043,-0.6018419331039727,0.4124961345087511,,0.0028870128241336277,0.26287923316799244,-0.08684784011754748,-0.8319841619733814,0.5489427542312018,0.08040029101536803,-0.49852102999128145,-0.8032936664405337,0.3258773820101659,0.24347307217580608,0.23104358469005407,0.9419871151410129,,-0.09313313826961853,0.6116128384143904,1.1857929561149692,0.9962021599755055,0.04609329572830634,-0.0738692395320274,0.08439912666732821,-0.7197231663426924,0.6891120019615399,-0.021401959674979064,-0.6927293641232136,-0.7208800067996883,,0.1537921216916865,0.648458205504974,-0.3913872823048037,0.9991445169087859,0.02009789640803572,-0.03614289544406837,0.03885326181686473,-0.7555567849330441,0.6539299418040376,-0.014165393651401086,-0.6547747851754935,-0.7556912877101912,,0.0,0.0,0.045,1.0,0.0,0.0,0.0,1.0,0.0,0.0,0.0,1.0,,-0.02272741252427273,-0.20692986320293497,0.201818166158785,False,,0.15009551737244595,0.5106578450533155,-0.34697779068616386,0.0861414663879558,-0.47564304851877853,-0.8754103827144706,0.7109860823294729,0.6448738363820767,-0.2804220495675238,0.6979100504379636,-0.5982486318794434,0.39372596555479245
10:08:38.449966,,-0.08332056498000824,-0.580641393881444,0.10024210570000001,-3.267389356669054,-0.5200664731892918,1.0897361273506667,,0.15009651973522461,0.5106574895792353,-0.34697881116732104,0.08587124754091771,-0.4950375987589346,-0.8646177795192246,0.7245653538671097,0.6266784029457664,-0.28684355885529944,0.683835635822817,-0.6018404731291604,0.41250074919019464,,0.002887233347077581,0.2628795004284414,-0.0868479130471226,-0.8319835482423098,0.5489435860620666,0.08040096242430743,-0.49852143183625713,-0.8032930367490647,0.3258783194594175,0.2434743465693347,0.23104379761223748,0.9419867335216836,,-0.09313313826961853,0.6116128384143904,1.1857929561149692,0.9962021599755055,0.04609329572830634,-0.0738692395320274,0.08439912666732821,-0.7197231663426924,0.6891120019615399,-0.021401959674979064,-0.6927293641232136,-0.7208800067996883,,0.1537921216916865,0.648458205504974,-0.3913872823048037,0.9991445169087859,0.02009789640803572,-0.03614289544406837,0.03885326181686473,-0.7555567849330441,0.6539299418040376,-0.014165393651401086,-0.6547747851754935,-0.7556912877101912,,0.0,0.0,0.045,1.0,0.0,0.0,0.0,1.0,0.0,0.0,0.0,1.0,,-0.02272741252427273,-0.20692986320293497,0.201818166158785,False,,0.15009651973522461,0.5106574895792353,-0.34697881116732104,0.08614159106226355,-0.47564997032974954,-0.8754066095332902,0.71098127580742,0.6448757734139265,-0.28042978143386244,0.6979149315930384,-0.5982410405422708,0.39372884790219015
10:08:38.462710,,-0.08332056498000824,-0.5806722848129409,0.10024210570000001,-3.267389356669054,-0.5200664731892918,1.0897361273506667,,0.15009690141583387,0.5106531487070335,-0.34698802873309026,0.08599830729523039,-0.49505149127832754,-0.8645971964594029,0.7245638915476534,0.6267121750052264,-0.2867734589628877,0.683821218015115,-0.6017938772398095,0.4125926212488559,,0.002887674394070302,0.2628800349489887,-0.0868480589040614,-0.8319823207834718,0.5489452497282299,0.08040230523971399,-0.4985222355260164,-0.8032917773713132,0.3258801943614865,0.24347689535804395,0.2310442234546202,0.9419859702874349,,-0.09313313826961853,0.6116128384143904,1.1857929561149692,0.9962021599755055,0.04609329572830634,-0.0738692395320274,0.08439912666732821,-0.7197231663426924,0.6891120019615399,-0.021401959674979064,-0.6927293641232136,-0.7208800067996883,,0.1537921216916865,0.648458205504974,-0.3913872823048037,0.9991445169087859,0.02009789640803572,-0.03614289544406837,0.03885326181686473,-0.7555567849330441,0.6539299418040376,-0.014165393651401086,-0.6547747851754935,-0.7556912877101912,,0.0,0.0,0.045,1.0,0.0,0.0,0.0,1.0,0.0,0.0,0.0,1.0,,-0.02272741252427273,-0.20692986320293497,0.201818166158785,False,,0.15009690141583387,0.5106531487070335,-0.34698802873309026,0.0861384185971697,-0.4756515019720471,-0.8754060894883668,0.7109331214395984,0.6449156857519958,-0.28046007757109104,0.6979643756537492,-0.5981967961655837,0.3937084243136069
10:08:38.475798,,-0.08332056498000824,-0.5806800075458151,0.10024210570000001,-3.267389356669054,-0.5200664731892918,1.0897361273506667,,0.15009694791754596,0.5106528049907599,-0.34698909202498673,0.0860130127553668,-0.49505326584538806,-0.8645947175483787,0.724563721537683,0.6267160284508991,-0.28676546708799283,0.6838195486151357,-0.6017884043902368,0.4126033704094583,,0.0028878949169168443,0.26288030220949116,-0.08684813183367636,-0.8319817070507429,0.5489460815602545,0.08040297664570155,-0.49852263736782687,-0.8032911476802395,0.32588113181236034,0.24347816975177244,0.23104443637344152,0.9419855886668972,,-0.09313313826961853,0.6116128384143904,1.1857929561149692,0.9962021599755055,0.04609329572830634,-0.0738692395320274,0.08439912666732821,-0.7197231663426924,0.6891120019615399,-0.021401959674979064,-0.6927293641232136,-0.7208800067996883,,0.1537921216916865,0.648458205504974,-0.3913872823048037,0.9991445169087859,0.02009789640803572,-0.03614289544406837,0.03885326181686473,-0.7555567849330441,0.6539299418040376,-0.014165393651401086,-0.6547747851754935,-0.7556912877101912,,0.0,0.0,0.045,1.0,0.0,0.0,0.0,1.0,0.0,0.0,0.0,1.0,,-0.02272741252427273,-0.20692986320293497,0.201818166158785,False,,0.15009694791754596,0.5106528049907599,-0.34698909202498673,0.08613806610778538,-0.47565167216585974,-0.8754060316978817,0.7109277707417678,0.6449201202663257,-0.28046344372094,0.6979698692317252,-0.5981918799528207,0.3937061548962104
10:08:38.488090,,-0.08332056498000824,-0.5806800075458151,0.10024210570000001,-3.2675990331983917,-0.5200664731892918,1.0897361273506667,,0.1500959920942335,0.5106528166684711,-0.34698913479765675,0.08601632826576222,-0.49505972602608095,-0.8645906886721937,0.7245636831850766,0.6267148872619539,-0.286768058007708,0.6838191722092564,-0.6017842784181204,0.41261001195781655,,0.0028881154409331426,0.2628805694696073,-0.0868482047610534,-0.8319810933224236,0.5489469133959394,0.0804036480511848,-0.4985230392115555,-0.8032905179940883,0.3258820692657183,0.24347944414701964,0.23104464929251997,0.9419852070515747,,-0.09313313826961853,0.6116128384143904,1.1857929561149692,0.9962021599755055,0.04609329572830634,-0.0738692395320274,0.08439912666732821,-0.7197231663426924,0.6891120019615399,-0.021401959674979064,-0.6927293641232136,-0.7208800067996883,,0.1537921216916865,0.648458205504974,-0.3913872823048037,0.9991445169087859,0.02009789640803572,-0.03614289544406837,0.03885326181686473,-0.7555567849330441,0.6539299418040376,-0.014165393651401086,-0.6547747851754935,-0.7556912877101912,,0.0,0.0,0.045,1.0,0.0,0.0,0.0,1.0,0.0,0.0,0.0,1.0,,-0.02272741252427273,-0.20692986320293497,0.201818166158785,False,,0.1500959920942335,0.5106528166684711,-0.34698913479765675,0.08613758828039159,-0.47564492059490077,-0.8754097471455916,0.7109272270012725,0.6449226181296855,-0.2804590781790338,0.6979704820359663,-0.5981945554224167,0.39370100338894026
10:08:38.500304,,-0.08332056498000824,-0.5806800075458151,0.10024210570000001,-3.2675990331983917,-0.5200664731892918,1.0897361273506667,,0.15009805851630217,0.5106527494511403,-0.34698917266113516,0.08593272181619782,-0.49500927732624167,-0.8646278868289017,0.724564647846799,0.6267063663358292,-0.28678424204405945,0.6838286615899514,-0.6018346498458638,0.41252080654556367,,0.0028878949169168443,0.26288030220949116,-0.08684813183367637,-0.8319817070507431,0.5489460815602546,0.08040297664570155,-0.49852263736782704,-0.8032911476802397,0.32588113181236034,0.24347816975177244,0.23104443637344152,0.9419855886668974,,-0.09313313826961853,0.6116128384143904,1.1857929561149692,0.9962021599755055,0.04609329572830634,-0.0738692395320274,0.08439912666732821,-0.7197231663426924,0.6891120019615399,-0.021401959674979064,-0.6927293641232136,-0.7208800067996883,,0.1537921216916865,0.648458205504974,-0.3913872823048037,0.9991445169087859,0.02009789640803572,-0.03614289544406837,0.03885326181686473,-0.7555567849330441,0.6539299418040376,-0.014165393651401086,-0.6547747851754935,-0.7556912877101912,,0.0,0.0,0.045,1.0,0.0,0.0,0.0,1.0,0.0,0.0,0.0,1.0,,-0.02272741252427273,-0.20692986320293497,0.201818166158785,False,,0.15009805851630217,0.5106527494511403,-0.34698917266113516,0.08631931708888863,-0.4757356234668783,-0.8753425569809161,0.7109187066126332,0.6449507549579432,-0.28041597006483016,0.6979567093205197,-0.5980920834150538,0.3938810628485607
10:08:38.512990,,-0.08332828771288246,-0.5806800075458151,0.10024210570000001,-3.2675990331983917,-0.5200664731892918,1.0897361273506667,,0.15009710269317939,0.5106527611232481,-0.3469892154273334,0.08593239455366752,-0.49501766929092417,-0.8646231148055517,0.7245646516127006,0.6267034839593701,-0.2867905312707401,0.6838286987247894,-0.6018307488679594,0.4125264361436641,,0.0028876743940703014,0.2628800349489887,-0.0868480589040614,-0.8319823207834718,0.5489452497282299,0.08040230523971398,-0.4985222355260164,-0.8032917773713132,0.3258801943614865,0.24347689535804395,0.23104422345462025,0.9419859702874349,,-0.09313313826961853,0.6116128384143904,1.1857929561149692,0.9962021599755055,0.04609329572830634,-0.0738692395320274,0.08439912666732821,-0.7197231663426924,0.6891120019615399,-0.021401959674979064,-0.6927293641232136,-0.7208800067996883,,0.1537921216916865,0.648458205504974,-0.3913872823048037,0.9991445169087859,0.02009789640803572,-0.03614289544406837,0.03885326181686473,-0.7555567849330441,0.6539299418040376,-0.014165393651401086,-0.6547747851754935,-0.7556912877101912,,0.0,0.0,0.045,1.0,0.0,0.0,0.0,1.0,0.0,0.0,0.0,1.0,,-0.02272741252427273,-0.20692986320293497,0.201818166158785,False,,0.15009710269317939,0.5106527611232481,-0.3469892154273334,0.08631883929244513,-0.47572887232332706,-0.8753462732091688,0.710918161957669,0.6449532532303426,-0.28041160487099515,0.6979573231809626,-0.5980947593697618,0.3938759117190238
10:08:38.526022,,-0.08332828771288246,-0.5806800075458151,0.10024210570000001,-3.2675990331983917,-0.5200664731892918,1.0897361273506667,,0.1501298385456437,0.5106436853747987,-0.34699036378949943,0.08598757051777792,-0.4948304194450418,-0.864724808079596,0.7245640155752543,0.6267822336595057,-0.28661999040936287,0.6838224367845155,-0.6019027226725633,0.412431797257974,,0.002890906457748836,0.2628804265478271,-0.08685072566377255,-0.831981410494492,0.5489466374573818,0.08040224989558949,-0.4985236771819709,-0.8032910218524449,0.32587985128366626,0.24347705405849862,0.2310435530542503,0.94198609369327,,-0.09313313826961853,0.6116128384143904,1.1857929561149692,0.9962021599755055,0.04609329572830634,-0.0738692395320274,0.08439912666732821,-0.7197231663426924,0.6891120019615399,-0.021401959674979064,-0.6927293641232136,-0.7208800067996883,,0.15376636522830298,0.6484596219715787,-0.3913750091342991,0.9991453878953446,0.020069332794922637,-0.0361346887163589,0.03882610424699133,-0.7555665051178803,0.6539203238720709,-0.014178415865789617,-0.6547644448388436,-0.7557000028439976,,0.0,0.0,0.045,1.0,0.0,0.0,0.0,1.0,0.0,0.0,0.0,1.0,,-0.02272741252427273,-0.20692986320293497,0.201818166158785,False,,0.1501298385456437,0.5106436853747987,-0.34699036378949943,0.08627379595119666,-0.47572457903029214,-0.8753530470836455,0.7109253312840143,0.6449361194524015,-0.28043283538913993,0.6979555898987313,-0.5981166497700339,0.39384574111825166
