AlexandreBanks6/RCL_Autocam_Public/dataCollection/ParticipantData/P01/optimizationData/Data_36.csv
System Time,q_des,q0,q1,q2,q3,q4,q5,T_des,Tx,Ty,Tz,R00,R01,R02,R10,R11,R12,R20,R21,R22,T_target,Tx,Ty,Tz,R00,R01,R02,R10,R11,R12,R20,R21,R22,worldFrame,Tx,Ty,Tz,R00,R01,R02,R10,R11,R12,R20,R21,R22,ECM_T_PSM_RCM,Tx,Ty,Tz,R00,R01,R02,R10,R11,R12,R20,R21,R22,psm3_T_cam,Tx,Ty,Tz,R00,R01,R02,R10,R11,R12,R20,R21,R22,offset,x,y,z,IK Trigered,ECM_T_PSM3,Tx,Ty,Tz,R00,R01,R02,R10,R11,R12,R20,R21,R22
09:58:28.065018,,-0.06844658146425182,-0.953487214316129,0.09823415249,-3.350421262286775,-0.6323428822838075,1.1954748971113731,,0.15552911080432097,0.5061363125685215,-0.39893289992426656,0.4360399778403157,-0.5602972172819957,-0.704227353935552,0.6724157959865806,0.7229305060865355,-0.15883475903340222,0.598102110874682,-0.40427529194290107,0.6919793012018002,,0.0008686759167769453,0.2636994454986343,-0.09107966713311487,-0.7604103375404078,0.601816240769682,0.24411745309897784,-0.44928788952438625,-0.7589000231730241,0.47139277376165495,0.4689525678449862,0.248772922911301,0.8474641714773327,,-0.09313508770947523,0.6116067624507842,1.1857951693503068,0.9962010248067968,0.04611782328827141,-0.0738692395320274,0.08441684700402388,-0.7197210881268231,0.68911200196154,-0.021384903922802456,-0.692729890852628,-0.7208800067996884,,0.0,0.0,0.0,1.0,0.0,0.0,0.0,1.0,0.0,0.0,0.0,1.0,,0.0,0.0,0.045,1.0,0.0,0.0,0.0,1.0,0.0,0.0,0.0,1.0,,-0.02272741252427273,-0.20692986320293497,0.201818166158785,True,,0.15552911080432097,0.5061363125685215,-0.39893289992426656,0.13952832695690248,-0.4514269545510813,-0.8813316916356431,0.5106178763040643,0.7953782615822861,-0.3265621003745968,0.8484110032144419,-0.40445905318966086,0.34148447097575024
09:58:30.176028,,-0.11414199188103825,-0.9532709777956508,0.09950840556000001,-3.8798544988644146,-0.8326160946829854,1.368748034255605,,0.15179104436464896,0.5050381359380566,-0.3944347786820824,0.33669344018810565,-0.5540876002960824,-0.7613307156107835,0.697660008002628,0.6898041990783695,-0.1934959435430692,0.6323828275404638,-0.4660011782517062,0.6188173085006188,,0.0008694074781210089,0.2637029045725213,-0.09109044316957898,-0.7603264672108759,0.6018822820164819,0.24421582844451079,-0.44930525685329215,-0.7588675942055187,0.47142841411852016,0.4690718904733086,0.248712046489385,0.8474159949566895,,-0.09313508770947523,0.6116067624507842,1.1857951693503068,0.9962010248067968,0.04611782328827141,-0.0738692395320274,0.08441684700402388,-0.7197210881268231,0.68911200196154,-0.021384903922802456,-0.692729890852628,-0.7208800067996884,,0.15515732685031536,0.648139823403016,-0.3913848415301646,0.9992182124796336,0.018703884688815453,-0.03482999492611955,0.03693973971078889,-0.7556136626705656,0.65397511299412,-0.014086144934125336,-0.6547504543588498,-0.7557138499708569,,0.0,0.0,0.045,1.0,0.0,0.0,0.0,1.0,0.0,0.0,0.0,1.0,,-0.02272741252427273,-0.20692986320293497,0.201818166158785,True,,0.1556170614226126,0.5062312394274033,-0.3991103077511098,0.4365454554080935,-0.5835897575887286,-0.6847269968389368,0.6710457167744441,0.7181551663450254,-0.18425743689366064,0.5992709832464883,-0.3790463716875257,0.7051227813291168
09:58:30.255412,,-0.11414199188103825,-0.9532709777956508,0.09950840556000001,-3.8798544988644146,-0.8326160946829854,1.368748034255605,,0.15179161672276462,0.5050382614104517,-0.39443470184220986,0.33668813830502964,-0.5540804923685677,-0.7613382333111208,0.697660880036676,0.6898043700008815,-0.19349219000811882,0.6323846882959328,-0.4660093766270084,0.6188092330472804,,0.0008696512916002404,0.26370405765438654,-0.09109403522167789,-0.7602985084423403,0.601904295054621,0.24424861900507866,-0.4493110454894036,-0.7588567862026907,0.4714402959719062,0.46911166335138943,0.24869175269730848,0.8473999349060448,,-0.09313508770947523,0.6116067624507842,1.1857951693503068,0.9962010248067968,0.04611782328827141,-0.0738692395320274,0.08441684700402388,-0.7197210881268231,0.68911200196154,-0.021384903922802456,-0.692729890852628,-0.7208800067996884,,0.15515732685031536,0.648139823403016,-0.3913848415301646,0.9992182124796336,0.018703884688815453,-0.03482999492611955,0.03693973971078889,-0.7556136626705656,0.65397511299412,-0.014086144934125336,-0.6547504543588498,-0.7557138499708569,,0.0,0.0,0.045,1.0,0.0,0.0,0.0,1.0,0.0,0.0,0.0,1.0,,-0.02272741252427273,-0.20692986320293497,0.201818166158785,True,,0.1556170614226126,0.5062312394274033,-0.3991103077511098,0.4365454554080935,-0.5835897575887286,-0.6847269968389368,0.6710457167744441,0.7181551663450254,-0.18425743689366064,0.5992709832464883,-0.3790463716875257,0.7051227813291168
09:58:30.287901,,-0.11607267509959437,-0.9517959358166739,0.09965877520000001,-3.8473546368170743,-0.8331526605567943,1.3630272628080824,,0.1566272679419192,0.5735604205722584,-0.37869005350145535,0.33537085560501423,-0.5997078206976855,-0.7265513877247733,0.8700531175073208,0.4929298927316075,-0.005262467804994979,0.3612948407139982,-0.6303734215888541,0.6870919788702294,,0.0008702928886132246,0.26370421394693394,-0.09109615767962514,-0.7603011162315151,0.6018820861326379,0.24429522026020556,-0.4492680879234874,-0.7588742058939496,0.47145319215659937,0.46914857499829643,0.2486923432952804,0.8473793250697214,,-0.09313508770947523,0.6116067624507842,1.1857951693503068,0.9962010248067968,0.04611782328827141,-0.0738692395320274,0.08441684700402388,-0.7197210881268231,0.68911200196154,-0.021384903922802456,-0.692729890852628,-0.7208800067996884,,0.15515732685031536,0.648139823403016,-0.3913848415301646,0.9992182124796336,0.018703884688815453,-0.03482999492611955,0.03693973971078889,-0.7556136626705656,0.65397511299412,-0.014086144934125336,-0.6547504543588498,-0.7557138499708569,,0.0,0.0,0.045,1.0,0.0,0.0,0.0,1.0,0.0,0.0,0.0,1.0,,-0.02272741252427273,-0.20692986320293497,0.201818166158785,True,,0.15522530192596415,0.5060655170734714,-0.3987626812365644,0.4189370681966714,-0.5714481132325929,-0.7056477781256647,0.6709849378962923,0.7184223912245923,-0.1834352226358053,0.6117768759989921,-0.3966312162072578,0.6844068470747976
09:58:30.372556,,-0.11925444104377488,-0.9500042617898539,0.09979488565000001,-3.81338703906437,-0.8319453873407242,1.356078305489558,,0.15104141972441834,0.5048282548514728,-0.3944913115717135,0.33726027632814315,-0.5570897601622269,-0.7588850407890889,0.6975367472376983,0.6892323715462557,-0.19596230317531946,0.6322167288708169,-0.4632599023605616,0.6210412793049809,,0.0008713056295534469,0.26370471822030533,-0.09109768968278649,-0.760314781833905,0.6018437119572076,0.2443472070987044,-0.4492056111296846,-0.758901148490585,0.47146934626100945,0.4691862425188681,0.24870297929809093,0.847355342600603,,-0.09313508770947523,0.6116067624507842,1.1857951693503068,0.9962010248067968,0.04611782328827141,-0.0738692395320274,0.08441684700402388,-0.7197210881268231,0.68911200196154,-0.021384903922802456,-0.692729890852628,-0.7208800067996884,,0.15515732685031536,0.648139823403016,-0.3913848415301646,0.9992182124796336,0.018703884688815453,-0.03482999492611955,0.03693973971078889,-0.7556136626705656,0.65397511299412,-0.014086144934125336,-0.6547504543588498,-0.7557138499708569,,0.0,0.0,0.045,1.0,0.0,0.0,0.0,1.0,0.0,0.0,0.0,1.0,,-0.02272741252427273,-0.20692986320293497,0.201818166158785,True,,0.15469699776598006,0.5059017372409526,-0.3983846045396823,0.4007458935324174,-0.5573675279240888,-0.7271479681830203,0.6696030432225397,0.7198809136188585,-0.18276551839554256,0.6253275088495774,-0.41365796139209965,0.6617043128565162
09:58:30.421014,,-0.13015893986217988,-0.9424359835731139,0.09994266271,-3.7722904393141854,-0.8358354899258389,1.3431024927207964,,0.15113828193224427,0.5038421098001902,-0.39449062159167086,0.36806863862893935,-0.5249746381167927,-0.7674158628748708,0.6906948156776879,0.7069222966736066,-0.1523205109684128,0.6224677894106683,-0.4739857548490847,0.6227931882626364,,0.0008730785709749108,0.26370621233189434,-0.09110273669203965,-0.7603053677582574,0.601819430347047,0.24443629721848673,-0.4491396068298785,-0.7589226397945499,0.47149763813525275,0.4692646840726784,0.2486961649225325,0.847313906541219,,-0.09313508770947523,0.6116067624507842,1.1857951693503068,0.9962010248067968,0.04611782328827141,-0.0738692395320274,0.08441684700402388,-0.7197210881268231,0.68911200196154,-0.021384903922802456,-0.692729890852628,-0.7208800067996884,,0.15515732685031536,0.648139823403016,-0.3913848415301646,0.9992182124796336,0.018703884688815453,-0.03482999492611955,0.03693973971078889,-0.7556136626705656,0.65397511299412,-0.014086144934125336,-0.6547504543588498,-0.7557138499708569,,0.0,0.0,0.045,1.0,0.0,0.0,0.0,1.0,0.0,0.0,0.0,1.0,,-0.02272741252427273,-0.20692986320293497,0.201818166158785,True,,0.153431429401398,0.5057089396319625,-0.3972938285056299,0.3765678754931443,-0.5397289252074273,-0.7529205286356688,0.6724120604070396,0.7183034842284592,-0.1786116613337867,0.6372273190673321,-0.43901343013590255,0.6334102556752375
09:58:30.510353,,-0.12982686234858823,-0.9387367945263603,0.09945136880000001,-3.7735484984902112,-0.8395914510425013,1.3437661442218172,,0.15014573745400206,0.5051846366039777,-0.39409450760856657,0.32058420998058423,-0.5608241726606861,-0.7633492068971985,0.7010138630446244,0.6824497037853073,-0.2069830080528333,0.6370285143777926,-0.46876289226303286,0.6119281189051694,,0.0008741222062921099,0.26370628639381305,-0.0911032563031118,-0.760330732144244,0.6017678100890798,0.24448449112517992,-0.4490662207358074,-0.7589573871263576,0.47151161154688265,0.4692938237972072,0.24871504411690176,0.847292228029309,,-0.09313508770947523,0.6116067624507842,1.1857951693503068,0.9962010248067968,0.04611782328827141,-0.0738692395320274,0.08441684700402388,-0.7197210881268231,0.68911200196154,-0.021384903922802456,-0.692729890852628,-0.7208800067996884,,0.15515732685031536,0.648139823403016,-0.3913848415301646,0.9992182124796336,0.018703884688815453,-0.03482999492611955,0.03693973971078889,-0.7556136626705656,0.65397511299412,-0.014086144934125336,-0.6547504543588498,-0.7557138499708569,,0.0,0.0,0.045,1.0,0.0,0.0,0.0,1.0,0.0,0.0,0.0,1.0,,-0.02272741252427273,-0.20692986320293497,0.201818166158785,True,,0.15338616340098885,0.5060813306350584,-0.3966842910194297,0.3762303203126902,-0.5405472011737452,-0.7525021391203093,0.6775483767191895,0.714482118701341,-0.1744806558367828,0.6319643528575023,-0.4442116898048422,0.6350567150720674
09:58:30.543151,,-0.130954381348225,-0.93570176050679,0.09715952808000002,-3.7745968811368997,-0.8468350903389217,1.344681954855234,,0.15436994492182277,0.525970360004581,-0.3882204717062351,0.36351111096075,-0.5649250387457214,-0.7407559468584961,0.7462717362260451,0.6525373428235378,-0.13142873327762475,0.5576182994829398,-0.5050294217359445,0.6587921639354952,,0.0008758190228109718,0.2637066576782787,-0.09110406395173845,-0.7603540676691265,0.6017179279215195,0.24453470807386973,-0.44899340583309044,-0.7589911544806452,0.4715266115443171,0.4693256968815381,0.2487327061202379,0.8472693949439506,,-0.09313508770947523,0.6116067624507842,1.1857951693503068,0.9962010248067968,0.04611782328827141,-0.0738692395320274,0.08441684700402388,-0.7197210881268231,0.68911200196154,-0.021384903922802456,-0.692729890852628,-0.7208800067996884,,0.15515732685031536,0.648139823403016,-0.3913848415301646,0.9992182124796336,0.018703884688815453,-0.03482999492611955,0.03693973971078889,-0.7556136626705656,0.65397511299412,-0.014086144934125336,-0.6547504543588498,-0.7557138499708569,,0.0,0.0,0.045,1.0,0.0,0.0,0.0,1.0,0.0,0.0,0.0,1.0,,-0.02272741252427273,-0.20692986320293497,0.201818166158785,True,,0.15341197977598606,0.5082176732442278,-0.39597913987707645,0.3744186167604596,-0.5424887163241954,-0.7520084388383622,0.684942403431535,0.7084735571238502,-0.17005623433944134,0.6250316819206979,-0.45141024746587816,0.636839214463257
09:58:30.622770,,-0.13178071376576703,-0.9350762191439779,0.09604212610000001,-3.774806557666237,-0.8491154953026095,1.3443911495657763,,0.15011222524410683,0.5083113048524002,-0.3931879273990288,0.3017129738942025,-0.5709689121696317,-0.7635206498319108,0.704440473567569,0.673148708182887,-0.22502096762659654,0.6424429162064249,-0.46996310281503784,0.6053113095000346,,0.0008768837257278105,0.2637071042852691,-0.091104539163434,-0.7603649352604419,0.6016938016944826,0.2445602874650099,-0.4489571355040913,-0.7590073504245527,0.47153508083450696,0.4693427912331122,0.2487416550963762,0.8472573005371925,,-0.09313508770947523,0.6116067624507842,1.1857951693503068,0.9962010248067968,0.04611782328827141,-0.0738692395320274,0.08441684700402388,-0.7197210881268231,0.68911200196154,-0.021384903922802456,-0.692729890852628,-0.7208800067996884,,0.15515732685031536,0.648139823403016,-0.3913848415301646,0.9992182124796336,0.018703884688815453,-0.03482999492611955,0.03693973971078889,-0.7556136626705656,0.65397511299412,-0.014086144934125336,-0.6547504543588498,-0.7557138499708569,,0.0,0.0,0.045,1.0,0.0,0.0,0.0,1.0,0.0,0.0,0.0,1.0,,-0.02272741252427273,-0.20692986320293497,0.201818166158785,True,,0.1533896133961349,0.5092872709173275,-0.3957949553021667,0.373634734474816,-0.5425762500824398,-0.7523350969085597,0.6867660177989763,0.7070039720933657,-0.16881297414813728,0.623497812338159,-0.4536037877825551,0.6367841720071635
09:58:30.678276,,-0.13408208816228595,-0.9319639577956654,0.09293880784000001,-3.7720807627848476,-0.8554201443198644,1.3427646306042058,,0.15006423913196978,0.5113644792791434,-0.39241615783973677,0.2923025669194155,-0.586746869277535,-0.7551737023793479,0.706073405932299,0.664998843958121,-0.24338628344573096,0.6449957789067178,-0.4620656327053269,0.608667229498305,,0.0008754074166356773,0.2637065082846607,-0.09110387693686259,-0.760341170257948,0.6017437897344903,0.24451114950871733,-0.44903024641103484,-0.7589739766305701,0.4715191687651212,0.4693113343252494,0.24872253661636518,0.8472803297376268,,-0.09313508770947523,0.6116067624507842,1.1857951693503068,0.9962010248067968,0.04611782328827141,-0.0738692395320274,0.08441684700402388,-0.7197210881268231,0.68911200196154,-0.021384903922802456,-0.692729890852628,-0.7208800067996884,,0.15515732685031536,0.648139823403016,-0.3913848415301646,0.9992182124796336,0.018703884688815453,-0.03482999492611955,0.03693973971078889,-0.7556136626705656,0.65397511299412,-0.014086144934125336,-0.6547504543588498,-0.7557138499708569,,0.0,0.0,0.045,1.0,0.0,0.0,0.0,1.0,0.0,0.0,0.0,1.0,,-0.02272741252427273,-0.20692986320293497,0.201818166158785,True,,0.1533036386756257,0.5124576227637034,-0.3951176436938148,0.3705661422211267,-0.5431676536435364,-0.7534252678764678,0.6923011645811248,0.7023010997083495,-0.16580790954614152,0.6191928873614184,-0.46015439298546135,0.6362846083767951
09:58:30.746599,,-0.13546445734677212,-0.928720409988491,0.09150122223000001,-3.769564644432796,-0.8575664078151,1.3397883399446282,,0.14987617881069262,0.5131270465073692,-0.3918399804002913,0.2749835146108573,-0.58922291573812,-0.7597370744286001,0.7089688489467721,0.658017380325845,-0.25372484784151783,0.6494206940923191,-0.4688597687562673,0.5986846242609459,,0.0008737106186420393,0.2637061369612998,-0.09110306926320617,-0.7603178332472962,0.6017936718664225,0.24446093311524553,-0.4491030605665702,-0.7589402083200685,0.4715041675921242,0.46927946077767735,0.24870487644702688,0.847303163569919,,-0.09313508770947523,0.6116067624507842,1.1857951693503068,0.9962010248067968,0.04611782328827141,-0.0738692395320274,0.08441684700402388,-0.7197210881268231,0.68911200196154,-0.021384903922802456,-0.692729890852628,-0.7208800067996884,,0.15515732685031536,0.648139823403016,-0.3913848415301646,0.9992182124796336,0.018703884688815453,-0.03482999492611955,0.03693973971078889,-0.7556136626705656,0.65397511299412,-0.014086144934125336,-0.6547504543588498,-0.7557138499708569,,0.0,0.0,0.045,1.0,0.0,0.0,0.0,1.0,0.0,0.0,0.0,1.0,,-0.02272741252427273,-0.20692986320293497,0.201818166158785,True,,0.15318402745361312,0.514251384892339,-0.39445093472774345,0.3680685706154553,-0.5435132249667087,-0.7543996961898805,0.6961817144100146,0.6989113057074513,-0.16387192338969717,0.6163250342524054,-0.4648831692378139,0.6356312540405622
09:58:30.777837,,-0.13680049013401296,-0.9248822117500015,0.09025678383,-3.762645318964652,-0.85877368103117,1.3342697196900628,,0.1522937350433115,0.5068868774138221,-0.39449155837171,0.3662305086079839,-0.5360695289974687,-0.7605949478172793,0.689349983992357,0.705340634939792,-0.16520044876594256,0.6250374501855667,-0.4638146707286909,0.6278567807090736,,0.0008722344128925565,0.2637055407764075,-0.09110240694027924,-0.7602940619441828,0.6018436600191356,0.24441179829054843,-0.44917616875686633,-0.7589068312167055,0.4714882499383792,0.46924800230768354,0.248685764176045,0.8473261956902185,,-0.09313508770947523,0.6116067624507842,1.1857951693503068,0.9962010248067968,0.04611782328827141,-0.0738692395320274,0.08441684700402388,-0.7197210881268231,0.68911200196154,-0.021384903922802456,-0.692729890852628,-0.7208800067996884,,0.15515732685031536,0.648139823403016,-0.3913848415301646,0.9992182124796336,0.018703884688815453,-0.03482999492611955,0.03693973971078889,-0.7556136626705656,0.65397511299412,-0.014086144934125336,-0.6547504543588498,-0.7557138499708569,,0.0,0.0,0.045,1.0,0.0,0.0,0.0,1.0,0.0,0.0,0.0,1.0,,-0.02272741252427273,-0.20692986320293497,0.201818166158785,True,,0.15303784893315922,0.5154922828051641,-0.393819809076681,0.364096432395401,-0.5433154266720811,-0.7564668763779915,0.6989486824915819,0.6962033800552399,-0.16362027026912357,0.6155522131876571,-0.46915796992036035,0.6332347685495352
09:58:30.810966,,-0.13755731795568696,-0.923831920079107,0.09004678485,-3.7580324353192234,-0.8595785298418834,1.330475836780269,,0.1521986413996,0.5070793195035186,-0.39432521964047434,0.3635281620349092,-0.5362905582616956,-0.7617346733127487,0.6900870676101306,0.704307756867853,-0.1665245409332342,0.6258011781107254,-0.46512688670418995,0.6261228830989136,,0.0008696405195880623,0.2637051796481173,-0.09110141192976001,-0.7602727442908277,0.6018948063524097,0.24435216752608274,-0.4492484074878977,-0.7588682449713323,0.47148153786115915,0.46921339288034764,0.24867974236019114,0.8473471325741224,,-0.09313508770947523,0.6116067624507842,1.1857951693503068,0.9962010248067968,0.04611782328827141,-0.0738692395320274,0.08441684700402388,-0.7197210881268231,0.68911200196154,-0.021384903922802456,-0.692729890852628,-0.7208800067996884,,0.15515732685031536,0.648139823403016,-0.3913848415301646,0.9992182124796336,0.018703884688815453,-0.03482999492611955,0.03693973971078889,-0.7556136626705656,0.65397511299412,-0.014086144934125336,-0.6547504543588498,-0.7557138499708569,,0.0,0.0,0.045,1.0,0.0,0.0,0.0,1.0,0.0,0.0,0.0,1.0,,-0.02272741252427273,-0.20692986320293497,0.201818166158785,True,,0.15294156562956812,0.5157065440143509,-0.39364536798586,0.3613068543207866,-0.5434320073738238,-0.757719611982212,0.6999591112657547,0.6949452821257233,-0.1646459759825717,0.6160475627554034,-0.4708850265328629,0.6314686787246635
09:58:30.841431,,-0.13872345061969488,-0.9233531106409051,0.09001567389000001,-3.7534195516737947,-0.8601150957156923,1.3248239469767966,,0.15209465258425484,0.5072045234891853,-0.3942343277788659,0.3605769693824172,-0.5381036408115393,-0.7618587276499219,0.6911129016939005,0.70266250834523,-0.1691991621676279,0.6263762497598621,-0.4655210748305132,0.6252542863710856,,0.0008683764534226385,0.26370533011819147,-0.09110074679467817,-0.7602478028375916,0.6019463202053895,0.24430289700831753,-0.4493214949719107,-0.7588331006926798,0.47146847091209837,0.469183836093778,0.24866232625626178,0.8473686181727542,,-0.09313508770947523,0.6116067624507842,1.1857951693503068,0.9962010248067968,0.04611782328827141,-0.0738692395320274,0.08441684700402388,-0.7197210881268231,0.68911200196154,-0.021384903922802456,-0.692729890852628,-0.7208800067996884,,0.15515732685031536,0.648139823403016,-0.3913848415301646,0.9992182124796336,0.018703884688815453,-0.03482999492611955,0.03693973971078889,-0.7556136626705656,0.65397511299412,-0.014086144934125336,-0.6547504543588498,-0.7557138499708569,,0.0,0.0,0.045,1.0,0.0,0.0,0.0,1.0,0.0,0.0,0.0,1.0,,-0.02272741252427273,-0.20692986320293497,0.201818166158785,True,,0.1528391900094876,0.5157478993114313,-0.39357217717315757,0.35911495032776486,-0.5443536251543984,-0.7580999823455689,0.7002027239937437,0.6941916768219882,-0.1667754812399514,0.617051535743027,-0.4709321040366021,0.6304525006888553
09:58:30.913694,,-0.13931037831813592,-0.9233453879080308,0.09007141436,-3.7511131098510795,-0.8602492371841446,1.3226877172634013,,0.1495534205222553,0.5145582993176478,-0.39103457843184686,0.2714251516711129,-0.592518845677015,-0.7584522427667353,0.7094598013726857,0.6556868068414109,-0.2583439598100634,0.6503807940557153,-0.4679703290291936,0.5983381935592658,,0.0008690531162504128,0.26370554451450207,-0.09110078865558044,-0.7602462080142806,0.6019449501464196,0.24431123466557875,-0.4493217720322453,-0.7588375220602936,0.47146109010382203,0.4691861544934995,0.2486521491910048,0.8473703206538356,,-0.09313508770947523,0.6116067624507842,1.1857951693503068,0.9962010248067968,0.04611782328827141,-0.0738692395320274,0.08441684700402388,-0.7197210881268231,0.68911200196154,-0.021384903922802456,-0.692729890852628,-0.7208800067996884,,0.15509863607488023,0.6481489744952542,-0.39137355426934595,0.9992191428047348,0.018652740935329874,-0.03483073223707416,0.036901481096381514,-0.7556186122891488,0.6539715540106575,-0.014120387581957017,-0.6547462012244291,-0.7557168958258873,,0.0,0.0,0.045,1.0,0.0,0.0,0.0,1.0,0.0,0.0,0.0,1.0,,-0.02272741252427273,-0.20692986320293497,0.201818166158785,True,,0.1527393598488909,0.5156890729485257,-0.39355791591703293,0.3571930718779577,-0.5445483960074589,-0.7588676787214568,0.7003171854455392,0.6937375780256023,-0.16817851409977955,0.618036365574087,-0.4713758768126296,0.6291548566029657
09:58:30.988797,,-0.14073136116699325,-0.9233917243052762,0.09124455681000002,-3.74482281397095,-0.8594443883734312,1.318009157955018,,0.14931525815014748,0.513641444088533,-0.39117531293973323,0.2717358824662827,-0.5912238985009642,-0.7593509807866132,0.7094421437666643,0.656215242123591,-0.25704746770282816,0.6502702936687408,-0.4688665672086225,0.5977563779048882,,0.0008751999135447946,0.2637102229778707,-0.09109633643951305,-0.7602679827898493,0.6018962346864529,0.24436346462353625,-0.449251935844948,-0.758872228447218,0.47147176464663776,0.4692177301766363,0.24866412968041485,0.8473493129318402,,-0.09313508770947523,0.6116067624507842,1.1857951693503068,0.9962010248067968,0.04611782328827141,-0.0738692395320274,0.08441684700402388,-0.7197210881268231,0.68911200196154,-0.021384903922802456,-0.692729890852628,-0.7208800067996884,,0.15509863607488023,0.6481489744952542,-0.39137355426934595,0.9992191428047348,0.018652740935329874,-0.03483073223707416,0.036901481096381514,-0.7556186122891488,0.6539715540106575,-0.014120387581957017,-0.6547462012244291,-0.7557168958258873,,0.0,0.0,0.045,1.0,0.0,0.0,0.0,1.0,0.0,0.0,0.0,1.0,,-0.02272741252427273,-0.20692986320293497,0.201818166158785,True,,0.1524160721679891,0.5147129142515764,-0.39362649896562507,0.3545502364391053,-0.5437072652106137,-0.760707920031184,0.6994693551599521,0.6941224271542579,-0.17010784024730644,0.6205132964192593,-0.47178010330945264,0.6264078408578768
09:58:31.019273,,-0.14129512066681163,-0.9231523195861752,0.09236195879,-3.7368551058561175,-0.8582371151573611,1.3114046088567446,,0.15183259232929944,0.5078701639345267,-0.3941275777966339,0.3508309430902827,-0.5397965711067844,-0.7652040977358537,0.6931216642346412,0.6991501890938673,-0.17541770622890732,0.6296824659612054,-0.46883757839081996,0.6194282179152382,,0.0008822396136171171,0.2637153767575308,-0.09109199738399405,-0.7602873631685384,0.6018469627317007,0.244424501767483,-0.44918251362917,-0.7589106697704094,0.4714760258654024,0.46925278162567774,0.2486660551154497,0.847329332772865,,-0.09313508770947523,0.6116067624507842,1.1857951693503068,0.9962010248067968,0.04611782328827141,-0.0738692395320274,0.08441684700402388,-0.7197210881268231,0.68911200196154,-0.021384903922802456,-0.692729890852628,-0.7208800067996884,,0.15509863607488023,0.6481489744952542,-0.39137355426934595,0.9992191428047348,0.018652740935329874,-0.03483073223707416,0.036901481096381514,-0.7556186122891488,0.6539715540106575,-0.014120387581957017,-0.6547462012244291,-0.7557168958258873,,0.0,0.0,0.045,1.0,0.0,0.0,0.0,1.0,0.0,0.0,0.0,1.0,,-0.02272741252427273,-0.20692986320293497,0.201818166158785,True,,0.15222211424909454,0.513391992968427,-0.39366079245743096,0.34986225731987464,-0.5434245163880534,-0.7630767955399064,0.6985529721465163,0.6940783624789373,-0.17400853957155443,0.6241955991580764,-0.4721705430530024,0.6224426337139213
09:58:31.078695,,-0.14154997085166104,-0.922974696730068,0.09257714293000001,-3.730564809975987,-0.8571639834097433,1.3074855451285914,,0.14845139528288437,0.5120915600589283,-0.39186730601185865,0.31482407531825923,-0.5851041728406461,-0.7473546069467065,0.7020214291885516,0.6734681200235109,-0.2315310006717494,0.6387892567663195,-0.4517674160853804,0.622779645784504,,0.0008899644757421662,0.26371977316708267,-0.09108784825446387,-0.760305877381859,0.601794899069477,0.24449509508796052,-0.44911368216524905,-0.758955689019013,0.47146913138312474,0.46928866655831836,0.24865466174826586,0.8473128028539887,,-0.09313508770947523,0.6116067624507842,1.1857951693503068,0.9962010248067968,0.04611782328827141,-0.0738692395320274,0.08441684700402388,-0.7197210881268231,0.68911200196154,-0.021384903922802456,-0.692729890852628,-0.7208800067996884,,0.15509863607488023,0.6481489744952542,-0.39137355426934595,0.9992191428047348,0.018652740935329874,-0.03483073223707416,0.036901481096381514,-0.7556186122891488,0.6539715540106575,-0.014120387581957017,-0.6547462012244291,-0.7557168958258873,,0.0,0.0,0.045,1.0,0.0,0.0,0.0,1.0,0.0,0.0,0.0,1.0,,-0.02272741252427273,-0.20692986320293497,0.201818166158785,True,,0.15213846344863982,0.5131702197685585,-0.3936359477634923,0.34661212514157985,-0.5425794646535926,-0.7651585190279586,0.6978705710806574,0.6942249282241817,-0.17614884345827378,0.6267668631352452,-0.4729262876689678,0.6192770185524843
09:58:31.110710,,-0.14249986699519065,-0.9226657874150991,0.09275084579000001,-3.7230164549198306,-0.8562249931305776,1.298881630857184,,0.15174347890179163,0.5077828034601889,-0.393882094739021,0.34291850507467386,-0.5428597068883582,-0.7666226174033983,0.695638912245101,0.6951878500130013,-0.18110868826412999,0.6312633385900086,-0.4711870030374215,0.6160271142740468,,0.0008959227340387885,0.26372362148882417,-0.09108315238756223,-0.7603292370584015,0.6017415450391015,0.2445537789529525,-0.4490435658312421,-0.7589975558691126,0.47146852781739507,0.46931792402568384,0.24865600678586836,0.8472962073735218,,-0.09313508770947523,0.6116067624507842,1.1857951693503068,0.9962010248067968,0.04611782328827141,-0.0738692395320274,0.08441684700402388,-0.7197210881268231,0.68911200196154,-0.021384903922802456,-0.692729890852628,-0.7208800067996884,,0.15509863607488023,0.6481489744952542,-0.39137355426934595,0.9992191428047348,0.018652740935329874,-0.03483073223707416,0.036901481096381514,-0.7556186122891488,0.6539715540106575,-0.014120387581957017,-0.6547462012244291,-0.7557168958258873,,0.0,0.0,0.045,1.0,0.0,0.0,0.0,1.0,0.0,0.0,0.0,1.0,,-0.02272741252427273,-0.20692986320293497,0.201818166158785,True,,0.15198621336648357,0.5129920862256717,-0.39358848394532997,0.34256785134140344,-0.5441552502398083,-0.7658605165849629,0.6972113140633368,0.6936436881221038,-0.1809829203832266,0.629717119641359,-0.47196768699225367,0.6170112249106761
09:58:31.178860,,-0.14307134922788325,-0.9224958872918662,0.09283769722000002,-3.7200809835091033,-0.8554201443198644,1.2974405088191612,,0.1490287179848891,0.5119288145856373,-0.3912567039000839,0.27523051916544916,-0.5914880501752289,-0.7578852471316638,0.7088427976908438,0.65740764371652,-0.2556503044099706,0.6494536546064968,-0.4668587328978638,0.6002106913703439,,0.0009020738429682427,0.26372781369485027,-0.09107877403327885,-0.7603513655052062,0.6016921157197452,0.24460661993029065,-0.44897388200862204,-0.7590333360198505,0.47147730352938666,0.46934875509276985,0.24866642787061188,0.8472760786199464,,-0.09313508770947523,0.6116067624507842,1.1857951693503068,0.9962010248067968,0.04611782328827141,-0.0738692395320274,0.08441684700402388,-0.7197210881268231,0.68911200196154,-0.021384903922802456,-0.692729890852628,-0.7208800067996884,,0.15509863607488023,0.6481489744952542,-0.39137355426934595,0.9992191428047348,0.018652740935329874,-0.03483073223707416,0.036901481096381514,-0.7556186122891488,0.6539715540106575,-0.014120387581957017,-0.6547462012244291,-0.7557168958258873,,0.0,0.0,0.045,1.0,0.0,0.0,0.0,1.0,0.0,0.0,0.0,1.0,,-0.02272741252427273,-0.20692986320293497,0.201818166158785,True,,0.15190611708061985,0.5129006795070996,-0.39356874131940833,0.34112623523225555,-0.5430028886809395,-0.7673205031278801,0.6966243275050159,0.6941005425998827,-0.18149100002681262,0.6311477148532284,-0.47262278790458623,0.6150449271304044
09:58:31.210071,,-0.14495569604919406,-0.9222333143741425,0.09308528861000001,-3.7192422773917526,-0.8546152955091509,1.2952416886965858,,0.151607401501728,0.5076301303256762,-0.39364975086643395,0.3406163153843405,-0.543797751378096,-0.766984048915049,0.6979114863806694,0.6928564669710143,-0.18129940252071552,0.6300000657713619,-0.4735334431405772,0.6155209138246316,,0.0009010580138649176,0.26372717107519955,-0.0910780823975266,-0.7603268006368833,0.6017399193441682,0.24456535240910382,-0.449047131396139,-0.7590050665685655,0.47145303966161917,0.46931845895533864,0.24863701311139402,0.8473014845336131,,-0.09313508770947523,0.6116067624507842,1.1857951693503068,0.9962010248067968,0.04611782328827141,-0.0738692395320274,0.08441684700402388,-0.7197210881268231,0.68911200196154,-0.021384903922802456,-0.692729890852628,-0.7208800067996884,,0.15509863607488023,0.6481489744952542,-0.39137355426934595,0.9992191428047348,0.018652740935329874,-0.03483073223707416,0.036901481096381514,-0.7556186122891488,0.6539715540106575,-0.014120387581957017,-0.6547462012244291,-0.7557168958258873,,0.0,0.0,0.045,1.0,0.0,0.0,0.0,1.0,0.0,0.0,0.0,1.0,,-0.02272741252427273,-0.20692986320293497,0.201818166158785,True,,0.15171726348571757,0.5126515954415456,-0.39356198336835735,0.34087799223633813,-0.5424520086723581,-0.7678202997422293,0.6957676059267295,0.6948277173085877,-0.18199418068368123,0.6322259350516318,-0.47218668082344417,0.6142720126304215
09:58:31.241147,,-0.14517965530254656,-0.9222101461755198,0.09314880682000001,-3.7165164825103623,-0.8539445881668898,1.294281839419076,,0.15157866451477098,0.5075421449348584,-0.3936173957642799,0.3391815047846099,-0.5431911895666909,-0.7680489817642953,0.6979070238204994,0.6927481475166871,-0.18172999261049702,0.6307786401853352,-0.47438732665336003,0.6140643055874669,,0.0008989331099970507,0.2637257919252407,-0.0910772061501236,-0.7603054216148465,0.6017874643819922,0.2445148102534867,-0.44911982519870264,-0.7589737443117077,0.47143421271317265,0.4692835255302416,0.2486175416492058,0.8473265424308081,,-0.09313508770947523,0.6116067624507842,1.1857951693503068,0.9962010248067968,0.04611782328827141,-0.0738692395320274,0.08441684700402388,-0.7197210881268231,0.68911200196154,-0.021384903922802456,-0.692729890852628,-0.7208800067996884,,0.15509863607488023,0.6481489744952542,-0.39137355426934595,0.9992191428047348,0.018652740935329874,-0.03483073223707416,0.036901481096381514,-0.7556186122891488,0.6539715540106575,-0.014120387581957017,-0.6547462012244291,-0.7557168958258873,,0.0,0.0,0.045,1.0,0.0,0.0,0.0,1.0,0.0,0.0,0.0,1.0,,-0.02272741252427273,-0.20692986320293497,0.201818166158785,True,,0.15167222377513118,0.5125840806638935,-0.3935587473684641,0.3394963980616863,-0.5413736511971351,-0.7691922812227275,0.6952723619234614,0.6952085833591837,-0.18243181841194306,0.6335128557878776,-0.4728631888963229,0.6124229471029707
09:58:31.318058,,-0.14521054623404345,-0.9222024234426456,0.09320713987000001,-3.7112745692769202,-0.8531397393561764,1.2904987414833458,,0.14879401502869616,0.5115854571511227,-0.39129694169979123,0.28621976726213066,-0.5829740437166061,-0.7604074626022025,0.7071686615516637,0.6640146590473048,-0.24289301490475182,0.6465220251063691,-0.4682155453666609,0.6023150953855961,,0.0008967997338635032,0.2637253843241828,-0.09107618176198087,-0.7602833070875696,0.6018364300376443,0.24446305101869453,-0.4491922039919046,-0.758940263879218,0.47141915383835986,0.4692500780039576,0.24860121924947134,0.8473498551075541,,-0.09313508770947523,0.6116067624507842,1.1857951693503068,0.9962010248067968,0.04611782328827141,-0.0738692395320274,0.08441684700402388,-0.7197210881268231,0.68911200196154,-0.021384903922802456,-0.692729890852628,-0.7208800067996884,,0.15509863607488023,0.6481489744952542,-0.39137355426934595,0.9992191428047348,0.018652740935329874,-0.03483073223707416,0.036901481096381514,-0.7556186122891488,0.6539715540106575,-0.014120387581957017,-0.6547462012244291,-0.7557168958258873,,0.0,0.0,0.045,1.0,0.0,0.0,0.0,1.0,0.0,0.0,0.0,1.0,,-0.02272741252427273,-0.20692986320293497,0.201818166158785,True,,0.15162592546265977,0.5125206477343849,-0.39354799467266,0.3366820339489588,-0.5412779788518872,-0.7704955273238179,0.6947412731342882,0.6951269896186539,-0.18475126983990225,0.6355940303525047,-0.4730926102928728,0.6100849208647395
09:58:31.348373,,-0.14516420983679812,-0.9222410371070168,0.09361547122000001,-3.7066616856314916,-0.8539445881668898,1.28925347940341,,0.1515576545082105,0.5082026226478462,-0.3933544174178027,0.33340615650232663,-0.5428231985791855,-0.7708328676766505,0.6995765191931455,0.6905420803622364,-0.1836962956692311,0.6320071428393423,-0.47801109854610835,0.6099773447160101,,0.0008953195357144939,0.2637252739666645,-0.09107544541843691,-0.7602591636770264,0.6018871334466422,0.24441331497981278,-0.4492651538668482,-0.7589058035356415,0.47140512172000026,0.4692193639109905,0.24858367978255314,0.8473720130967622,,-0.09313508770947523,0.6116067624507842,1.1857951693503068,0.9962010248067968,0.04611782328827141,-0.0738692395320274,0.08441684700402388,-0.7197210881268231,0.68911200196154,-0.021384903922802456,-0.692729890852628,-0.7208800067996884,,0.15509863607488023,0.6481489744952542,-0.39137355426934595,0.9992191428047348,0.018652740935329874,-0.03483073223707416,0.036901481096381514,-0.7556186122891488,0.6539715540106575,-0.014120387581957017,-0.6547462012244291,-0.7557168958258873,,0.0,0.0,0.045,1.0,0.0,0.0,0.0,1.0,0.0,0.0,0.0,1.0,,-0.02272741252427273,-0.20692986320293497,0.201818166158785,True,,0.15158189659400612,0.5121425332855714,-0.3935577488606956,0.3338957646657439,-0.5401551877022717,-0.7724933601893301,0.6952605820060205,0.69451105294667,-0.18511380403297298,0.6364953585431147,-0.47527546805324583,0.6074429092678919
09:58:31.378694,,-0.14521054623404345,-0.9222333143741425,0.09366343395000001,-3.703726214220764,-0.8539445881668898,1.2882202547426567,,0.15153803591787332,0.5078878026226455,-0.39337930899734797,0.33167838844720604,-0.5421115826395689,-0.7720780262415751,0.6996677869572071,0.6903309628033488,-0.18414165658374437,0.6328146920951415,-0.47912231607703615,0.6082658725471192,,0.0008936230910085892,0.26372490246049873,-0.09107463767712326,-0.7602358145791367,0.601937020757981,0.244363109421125,-0.44933796382194197,-0.7588720272245157,0.47139011501967587,0.46918748968115714,0.24856602605931089,0.8473948490459063,,-0.09313508770947523,0.6116067624507842,1.1857951693503068,0.9962010248067968,0.04611782328827141,-0.0738692395320274,0.08441684700402388,-0.7197210881268231,0.68911200196154,-0.021384903922802456,-0.692729890852628,-0.7208800067996884,,0.15509863607488023,0.6481489744952542,-0.39137355426934595,0.9992191428047348,0.018652740935329874,-0.03483073223707416,0.036901481096381514,-0.7556186122891488,0.6539715540106575,-0.014120387581957017,-0.6547462012244291,-0.7557168958258873,,0.0,0.0,0.045,1.0,0.0,0.0,0.0,1.0,0.0,0.0,0.0,1.0,,-0.02272741252427273,-0.20692986320293497,0.201818166158785,True,,0.15157149752013668,0.5120894445094917,-0.3935576519473549,0.3333626374472377,-0.5400087142985373,-0.7728259444634754,0.6953599736857166,0.6943764908672326,-0.1852452318595756,0.6366662068541266,-0.47563838933852803,0.6069796237415469
09:58:31.411023,,-0.1452568826312888,-0.9222333143741425,0.09370361894000001,-3.6995326836340103,-0.8534080222930809,1.284022069446948,,0.15150421408829953,0.5075460895936161,-0.3933628644596151,0.32932942904660617,-0.5431237541505027,-0.7723721349461673,0.6997467548594207,0.6896018518606692,-0.1865576719785211,0.6339531577550083,-0.4790259633754727,0.6071552685966367,,0.0008936230910085909,0.2637249024604988,-0.09107463767712326,-0.7602358145791367,0.6019370207579811,0.24436310942112505,-0.44933796382194197,-0.7588720272245157,0.47139011501967587,0.4691874896811572,0.24856602605931089,0.8473948490459063,,-0.09313508770947523,0.6116067624507842,1.1857951693503068,0.9962010248067968,0.04611782328827141,-0.0738692395320274,0.08441684700402388,-0.7197210881268231,0.68911200196154,-0.021384903922802456,-0.692729890852628,-0.7208800067996884,,0.15509863607488023,0.6481489744952542,-0.39137355426934595,0.9992191428047348,0.018652740935329874,-0.03483073223707416,0.036901481096381514,-0.7556186122891488,0.6539715540106575,-0.014120387581957017,-0.6547462012244291,-0.7557168958258873,,0.0,0.0,0.045,1.0,0.0,0.0,0.0,1.0,0.0,0.0,0.0,1.0,,-0.02272741252427273,-0.20692986320293497,0.201818166158785,True,,0.1515243092040324,0.5120473703216306,-0.3935404136177404,0.33011936954014026,-0.5397060274406051,-0.7744279216290573,0.6954956692091914,0.6937649254563645,-0.18701872183763926,0.6382060607403219,-0.4768727630624401,0.6043884445317551
09:58:31.484373,,-0.14521826896691767,-0.9222101461755198,0.09374898909000001,-3.6957585061059324,-0.8489813538341573,1.2798499478385592,,0.1486721125520231,0.5110527496651085,-0.39135160318875867,0.2836016845823936,-0.5829918812716322,-0.7613741201757461,0.7075407752215902,0.6631319165593655,-0.24421734712983387,0.6472682101732327,-0.4694427841725393,0.6005558562594112,,0.0008936188261895938,0.26372538828564734,-0.09107456362463189,-0.7602354482504985,0.6019377308339108,0.24436250000270623,-0.44933780705272974,-0.7588709487859019,0.47139200059771447,0.46918823340115223,0.24856759900074288,0.8473939758758016,,-0.09313508770947523,0.6116067624507842,1.1857951693503068,0.9962010248067968,0.04611782328827141,-0.0738692395320274,0.08441684700402388,-0.7197210881268231,0.68911200196154,-0.021384903922802456,-0.692729890852628,-0.7208800067996884,,0.15509863607488023,0.6481489744952542,-0.39137355426934595,0.9992191428047348,0.018652740935329874,-0.03483073223707416,0.036901481096381514,-0.7556186122891488,0.6539715540106575,-0.014120387581957017,-0.6547462012244291,-0.7557168958258873,,0.0,0.0,0.045,1.0,0.0,0.0,0.0,1.0,0.0,0.0,0.0,1.0,,-0.02272741252427273,-0.20692986320293497,0.201818166158785,True,,0.15147093653974447,0.5119519207969415,-0.39355884271797664,0.32879291489567386,-0.5401159277459592,-0.7747063983920154,0.691896593643809,0.6960930531698608,-0.19166002460804182,0.6427863741699104,-0.47300025996164435,0.6025748345705426
09:58:31.559623,,-0.14470856859721887,-0.9221947007097714,0.09403028402000001,-3.6892585336964645,-0.8453595341859471,1.2771189482681935,,0.1486704685143173,0.5107554981280531,-0.39137150928825115,0.29273235554079224,-0.5792697291076248,-0.76075906104306,0.7060843430164787,0.6674561986083175,-0.23653144291261155,0.6447888558020579,-0.467919655367151,0.6043993113452064,,0.0008955315470459881,0.2637260208468113,-0.09107544270887938,-0.7602580003859346,0.6018886592763717,0.24441317597153434,-0.44926513548131974,-0.7589040395448894,0.47140797904598575,0.4692212663498446,0.24858537065113243,0.8473704636155944,,-0.09313508770947523,0.6116067624507842,1.1857951693503068,0.9962010248067968,0.04611782328827141,-0.0738692395320274,0.08441684700402388,-0.7197210881268231,0.68911200196154,-0.021384903922802456,-0.692729890852628,-0.7208800067996884,,0.15509863607488023,0.6481489744952542,-0.39137355426934595,0.9992191428047348,0.018652740935329874,-0.03483073223707416,0.036901481096381514,-0.7556186122891488,0.6539715540106575,-0.014120387581957017,-0.6547462012244291,-0.7557168958258873,,0.0,0.0,0.045,1.0,0.0,0.0,0.0,1.0,0.0,0.0,0.0,1.0,,-0.02272741252427273,-0.20692986320293497,0.201818166158785,True,,0.1514413624249202,0.5116445201501045,-0.39357558261537356,0.326005723082443,-0.5381398568079343,-0.7772552753325188,0.6894726395895425,0.6978537051437835,-0.1939785696269622,0.6467980734162111,-0.4726581224646725,0.598537009292866
09:58:31.621069,,-0.14486302325470335,-0.9221869779768972,0.09410676513,-3.686532738815074,-0.8448229683121382,1.2722319465319825,,0.14838273017964776,0.5104989175367619,-0.3918635046346688,0.3180489592061507,-0.5786326348319013,-0.7510187304291258,0.7013257089609117,0.6766283281793773,-0.22431307464268618,0.6379554134094007,-0.4553662036346926,0.6210108783982523,,0.0008972323060555598,0.26372590643286936,-0.09107632445344753,-0.7602817126171415,0.6018380618900696,0.24446399241490208,-0.44919248098766745,-0.7589388927345085,0.47142109730700915,0.46925239621249953,0.24860145458626187,0.847348502266632,,-0.09313508770947523,0.6116067624507842,1.1857951693503068,0.9962010248067968,0.04611782328827141,-0.0738692395320274,0.08441684700402388,-0.7197210881268231,0.68911200196154,-0.021384903922802456,-0.692729890852628,-0.7208800067996884,,0.15509863607488023,0.6481489744952542,-0.39137355426934595,0.9992191428047348,0.018652740935329874,-0.03483073223707416,0.036901481096381514,-0.7556186122891488,0.6539715540106575,-0.014120387581957017,-0.6547462012244291,-0.7557168958258873,,0.0,0.0,0.045,1.0,0.0,0.0,0.0,1.0,0.0,0.0,0.0,1.0,,-0.02272741252427273,-0.20692986320293497,0.201818166158785,True,,0.15140589550336994,0.5115688792385187,-0.3935756555744766,0.32440204749754636,-0.5400067453105375,-0.7766312037244705,0.6890888168904066,0.6973695062125854,-0.19705931655568765,0.6480122792169756,-0.47124143156553544,0.598340704916593
09:58:31.678814,,-0.14490163691907448,-0.9220865824495322,0.09412232061,-3.677726324582892,-0.8420059974746414,1.2647427210351199,,0.1484049930044201,0.5105059540397665,-0.39184131343894885,0.3162031997959884,-0.5764513715484804,-0.7534715340864937,0.7017995693293,0.6765448710656203,-0.2230793623892905,0.638351706293629,-0.4582475899278458,0.6184789773285213,,0.0008995777061818009,0.2637270609134556,-0.09107734615092444,-0.7603026636576998,0.601790622579743,0.24451561311195635,-0.44912008384833657,-0.7589706092660368,0.4714390134469442,0.46928774623304814,0.24861946764252035,0.8473236396974181,,-0.09313508770947523,0.6116067624507842,1.1857951693503068,0.9962010248067968,0.04611782328827141,-0.0738692395320274,0.08441684700402388,-0.7197210881268231,0.68911200196154,-0.021384903922802456,-0.692729890852628,-0.7208800067996884,,0.15509863607488023,0.6481489744952542,-0.39137355426934595,0.9992191428047348,0.018652740935329874,-0.03483073223707416,0.036901481096381514,-0.7556186122891488,0.6539715540106575,-0.014120387581957017,-0.6547462012244291,-0.7557168958258873,,0.0,0.0,0.045,1.0,0.0,0.0,0.0,1.0,0.0,0.0,0.0,1.0,,-0.02272741252427273,-0.20692986320293497,0.201818166158785,True,,0.15132316604974833,0.5115332705784424,-0.39355124543408615,0.31984709681232204,-0.5388586258427549,-0.7793132977279338,0.6873813233163782,0.6980570216726877,-0.20055750010728024,0.652077258472149,-0.4715376717170272,0.5936728671037034
09:58:31.732883,,-0.14534183269290527,-0.9219321277920477,0.09414306125,-3.679403736817594,-0.8422742804115458,1.264258752031091,,0.14838914797091446,0.5104905032782205,-0.3918314377258016,0.3164377954354971,-0.5767244913826304,-0.7531639812546593,0.7017973054493104,0.676515468707293,-0.22317563187731576,0.638237936575389,-0.45794724765981304,0.618818757534702,,0.000901490579491941,0.26372769319562467,-0.0910782251094982,-0.7603252060983222,0.6017415515225577,0.24456629371457722,-0.44904740833844053,-0.7590036953389272,0.4714549834341544,0.4693207772031723,0.2486372488417493,0.8473001312712823,,-0.09313508770947523,0.6116067624507842,1.1857951693503068,0.9962010248067968,0.04611782328827141,-0.0738692395320274,0.08441684700402388,-0.7197210881268231,0.68911200196154,-0.021384903922802456,-0.692729890852628,-0.7208800067996884,,0.15509863607488023,0.6481489744952542,-0.39137355426934595,0.9992191428047348,0.018652740935329874,-0.03483073223707416,0.036901481096381514,-0.7556186122891488,0.6539715540106575,-0.014120387581957017,-0.6547462012244291,-0.7557168958258873,,0.0,0.0,0.045,1.0,0.0,0.0,0.0,1.0,0.0,0.0,0.0,1.0,,-0.02272741252427273,-0.20692986320293497,0.201818166158785,True,,0.15130456700595074,0.5115115975623117,-0.3935409876613849,0.32098452097633845,-0.5416481405652105,-0.7769081214119471,0.6873761750733625,0.6975510409766379,-0.2023278012877195,0.6515235461862485,-0.46908404050304126,0.5962191138417456
09:58:31.745226,,-0.14619133330906997,-0.9217622276688148,0.09417417221,-3.680871472522957,-0.8422742804115458,1.264189870387041,,0.1512268742429619,0.5114824185401562,-0.3935269837079356,0.27437708165309277,-0.5947394004827413,-0.7556469166065337,0.709001607494879,0.6559804598000515,-0.2588558613015954,0.6496413915639996,-0.4647307627798517,0.6016571951641961,,0.0009023389183233227,0.26372787880525633,-0.0910786288338177,-0.7603368764532223,0.6017166092666557,0.24459139982825098,-0.44901100184544845,-0.7590205823248312,0.47146248234718324,0.4693367138409814,0.2486460821566673,0.8472887177940208,,-0.09313508770947523,0.6116067624507842,1.1857951693503068,0.9962010248067968,0.04611782328827141,-0.0738692395320274,0.08441684700402388,-0.7197210881268231,0.68911200196154,-0.021384903922802456,-0.692729890852628,-0.7208800067996884,,0.15509863607488023,0.6481489744952542,-0.39137355426934595,0.9992191428047348,0.018652740935329874,-0.03483073223707416,0.036901481096381514,-0.7556186122891488,0.6539715540106575,-0.014120387581957017,-0.6547462012244291,-0.7557168958258873,,0.0,0.0,0.045,1.0,0.0,0.0,0.0,1.0,0.0,0.0,0.0,1.0,,-0.02272741252427273,-0.20692986320293497,0.201818166158785,False,,0.1512268742429619,0.5114824185401562,-0.3935269837079356,0.32184753765259794,-0.5416731803428008,-0.7765335332130063,0.6872646670605551,0.6977864514892955,-0.20189439201751402,0.6512153560206515,-0.4687048472282881,0.5968536891631007
09:58:31.756725,,-0.1463921243637998,-0.9217158912715695,0.09417676479,-3.680871472522957,-0.8422742804115458,1.264189870387041,,0.15120848291186148,0.5114802569259137,-0.39352193866619456,0.27440627331282913,-0.5948351423092245,-0.7555609509765109,0.7089970461035304,0.6559580731238782,-0.25892507588118446,0.6496340398894083,-0.4646398172537233,0.601735369111201,,0.0009006465767996477,0.263727021797903,-0.0910778952968259,-0.7603139043598678,0.6017657861534732,0.2445417987494521,-0.44908397344071777,-0.7589878898981498,0.4714455999053573,0.46930409919286015,0.24862684385745196,0.8473124222373538,,-0.09313508770947523,0.6116067624507842,1.1857951693503068,0.9962010248067968,0.04611782328827141,-0.0738692395320274,0.08441684700402388,-0.7197210881268231,0.68911200196154,-0.021384903922802456,-0.692729890852628,-0.7208800067996884,,0.15509863607488023,0.6481489744952542,-0.39137355426934595,0.9992191428047348,0.018652740935329874,-0.03483073223707416,0.036901481096381514,-0.7556186122891488,0.6539715540106575,-0.014120387581957017,-0.6547462012244291,-0.7557168958258873,,0.0,0.0,0.045,1.0,0.0,0.0,0.0,1.0,0.0,0.0,0.0,1.0,,-0.02272741252427273,-0.20692986320293497,0.201818166158785,False,,0.15120848291186148,0.5114802569259137,-0.39352193866619456,0.3218439236101145,-0.5415084917924087,-0.7766498838936099,0.6872484833358301,0.6978402256809593,-0.20176357841332282,0.6512342212966454,-0.46881507307067105,0.5967465259839334
09:58:31.770167,,-0.14687865653487595,-0.9216154957442045,0.09418583882,-3.6815005021109704,-0.8422742804115458,1.264189870387041,,0.15118652552045714,0.5114768905672277,-0.3935161430971225,0.27445658799985023,-0.594941705719576,-0.7554587666437935,0.7089891824624089,0.6559395045693337,-0.25899363987677737,0.6496213669937013,-0.46452958263260063,0.601834151909325,,0.0008993825937387298,0.26372717262569023,-0.09107723036031393,-0.7602889685573313,0.601817305178297,0.24449253128300902,-0.4491570637938965,-0.7589527464666087,0.4714325434779068,0.4692745451324695,0.24860941694540756,0.8473339019961315,,-0.09313508770947523,0.6116067624507842,1.1857951693503068,0.9962010248067968,0.04611782328827141,-0.0738692395320274,0.08441684700402388,-0.7197210881268231,0.68911200196154,-0.021384903922802456,-0.692729890852628,-0.7208800067996884,,0.15509863607488023,0.6481489744952542,-0.39137355426934595,0.9992191428047348,0.018652740935329874,-0.03483073223707416,0.036901481096381514,-0.7556186122891488,0.6539715540106575,-0.014120387581957017,-0.6547462012244291,-0.7557168958258873,,0.0,0.0,0.045,1.0,0.0,0.0,0.0,1.0,0.0,0.0,0.0,1.0,,-0.02272741252427273,-0.20692986320293497,0.201818166158785,False,,0.15118652552045714,0.5114768905672277,-0.3935161430971225,0.32183949502485354,-0.5413121456517223,-0.7767885815407409,0.6872284532576929,0.6979048029080988,-0.20160838055707755,0.6512575469621729,-0.4689456760092122,0.5966184379291983
09:58:31.781554,,-0.14704083392523468,-0.9215846048127077,0.09419232027,-3.681710178640308,-0.8422742804115458,1.2640521070989403,,0.15116845983967803,0.5114721765032819,-0.3935136784910144,0.2743608470436635,-0.5949299150901848,-0.7555028270895279,0.7090041439591833,0.6559093750036254,-0.25902898608275315,0.6496454798258733,-0.46458722314882817,0.6017636268741007,,0.0008972535129145188,0.2637262791480537,-0.09107627998156517,-0.7602672186187704,0.6018655604220479,0.24444138229654586,-0.4492295988076823,-0.7589203435704343,0.4714155975119364,0.46924035392992436,0.24859152278446942,0.8473580889747445,,-0.09313508770947523,0.6116067624507842,1.1857951693503068,0.9962010248067968,0.04611782328827141,-0.0738692395320274,0.08441684700402388,-0.7197210881268231,0.68911200196154,-0.021384903922802456,-0.692729890852628,-0.7208800067996884,,0.15509863607488023,0.6481489744952542,-0.39137355426934595,0.9992191428047348,0.018652740935329874,-0.03483073223707416,0.036901481096381514,-0.7556186122891488,0.6539715540106575,-0.014120387581957017,-0.6547462012244291,-0.7557168958258873,,0.0,0.0,0.045,1.0,0.0,0.0,0.0,1.0,0.0,0.0,0.0,1.0,,-0.02272741252427273,-0.20692986320293497,0.201818166158785,False,,0.15116845983967803,0.5114721765032819,-0.3935136784910144,0.3222124698443378,-0.5414336669739706,-0.776549231242895,0.6871941606517706,0.6979676430770818,-0.20150770403022253,0.6511092917805121,-0.4687118021604991,0.5969639324720859
09:58:31.795530,,-0.14716439765122225,-0.9215537138812108,0.09419750543000001,-3.6806617959936196,-0.8422742804115458,1.2635699355905887,,0.1511358551189638,0.5114612992793633,-0.39350476268289486,0.27469471268900464,-0.5950123990988138,-0.755316529502287,0.7089519380578345,0.6560002651963475,-0.2589416953415617,0.6495613630325818,-0.4643532028327098,0.6020349978815672,,0.0008957733482045172,0.26372616873021787,-0.09107554360090454,-0.7602430735825131,0.6019162634691156,0.24439164733657684,-0.44930254807451,-0.758885882486713,0.47140156353454055,0.46920963951123196,0.24857398411828013,0.8473802482097389,,-0.09313508770947523,0.6116067624507842,1.1857951693503068,0.9962010248067968,0.04611782328827141,-0.0738692395320274,0.08441684700402388,-0.7197210881268231,0.68911200196154,-0.021384903922802456,-0.692729890852628,-0.7208800067996884,,0.15509863607488023,0.6481489744952542,-0.39137355426934595,0.9992191428047348,0.018652740935329874,-0.03483073223707416,0.036901481096381514,-0.7556186122891488,0.6539715540106575,-0.014120387581957017,-0.6547462012244291,-0.7557168958258873,,0.0,0.0,0.045,1.0,0.0,0.0,0.0,1.0,0.0,0.0,0.0,1.0,,-0.02272741252427273,-0.20692986320293497,0.201818166158785,False,,0.1511358551189638,0.5114612992793633,-0.39350476268289486,0.3217021553756975,-0.5412491629317225,-0.7768893530306232,0.6871789700391046,0.6979311119387255,-0.20168595916416615,0.6513776065867064,-0.46897921767780276,0.5964609853323937
09:58:31.807707,,-0.14725707044571296,-0.9215537138812108,0.09420398688,-3.677097294994879,-0.8422742804115458,1.2619167761333834,,0.15110161221025556,0.5114556212514001,-0.3934936142092453,0.27570153307019424,-0.59525077439856,-0.7547616711523307,0.7087939512866527,0.6562780060350542,-0.2586702793405294,0.6493071686668789,-0.46365471460189833,0.6028470007765099,,0.000895578251619419,0.2637262802577611,-0.09107542785749487,-0.7602293711851121,0.6019429432626291,0.24436856636464652,-0.4493395243304006,-0.7588680140318798,0.47139508815550935,0.4691964354567484,0.24856393607869665,0.8473905089266973,,-0.09313508770947523,0.6116067624507842,1.1857951693503068,0.9962010248067968,0.04611782328827141,-0.0738692395320274,0.08441684700402388,-0.7197210881268231,0.68911200196154,-0.021384903922802456,-0.692729890852628,-0.7208800067996884,,0.15509863607488023,0.6481489744952542,-0.39137355426934595,0.9992191428047348,0.018652740935329874,-0.03483073223707416,0.036901481096381514,-0.7556186122891488,0.6539715540106575,-0.014120387581957017,-0.6547462012244291,-0.7557168958258873,,0.0,0.0,0.045,1.0,0.0,0.0,0.0,1.0,0.0,0.0,0.0,1.0,,-0.02272741252427273,-0.20692986320293497,0.201818166158785,False,,0.15110161221025556,0.5114556212514001,-0.3934936142092453,0.3195506173588756,-0.5406220156940617,-0.7782128494778606,0.6872034940142405,0.6976736833553567,-0.20249145504931626,0.6524099637192717,-0.47008431977705795,0.5944593943572256
09:58:31.820599,,-0.14731885230870675,-0.921561436614085,0.09422602381,-3.6657747624106443,-0.8417377145377369,1.254136745347063,,0.1510542379733008,0.5114430315074548,-0.3934765131114702,0.2773440736357942,-0.5954091676880753,-0.7540346065348039,0.7085344274037031,0.6568103326612975,-0.2580293628505532,0.6488907689301874,-0.46269656357309297,0.6040303469651512,,0.0008955782516194156,0.2637262802577611,-0.09107542785749487,-0.7602293711851121,0.6019429432626291,0.24436856636464643,-0.4493395243304006,-0.7588680140318798,0.47139508815550935,0.4691964354567484,0.24856393607869673,0.8473905089266973,,-0.09313508770947523,0.6116067624507842,1.1857951693503068,0.9962010248067968,0.04611782328827141,-0.0738692395320274,0.08441684700402388,-0.7197210881268231,0.68911200196154,-0.021384903922802456,-0.692729890852628,-0.7208800067996884,,0.15509863607488023,0.6481489744952542,-0.39137355426934595,0.9992191428047348,0.018652740935329874,-0.03483073223707416,0.036901481096381514,-0.7556186122891488,0.6539715540106575,-0.014120387581957017,-0.6547462012244291,-0.7557168958258873,,0.0,0.0,0.045,1.0,0.0,0.0,0.0,1.0,0.0,0.0,0.0,1.0,,-0.02272741252427273,-0.20692986320293497,0.201818166158785,False,,0.1510542379733008,0.5114430315074548,-0.3934765131114702,0.31620447097575477,-0.5400391954888094,-0.7799823074087915,0.6870747908411071,0.6972892239509811,-0.20424487742043218,0.6541734971134125,-0.47132303730842384,0.591533287462988
09:58:31.832974,,-0.1472725159114614,-0.9215846048127077,0.09423509784,-3.663887673646605,-0.8417377145377369,1.2497972017718995,,0.15101122792411334,0.5114316749634111,-0.3934624639450222,0.2790139231289267,-0.595141144710814,-0.7536300475515206,0.708268320585938,0.6574981854316345,-0.2570060742637866,0.6484652779868637,-0.46206401507411277,0.6049707672433517,,0.0008953576927357796,0.2637265050335611,-0.0910752824658839,-0.7602298021898926,0.6019428374941556,0.2443674860334959,-0.44933922900894974,-0.7588676211444086,0.4713960021370548,0.4691960199260953,0.24856539169128145,0.8473903120271085,,-0.09313508770947523,0.6116067624507842,1.1857951693503068,0.9962010248067968,0.04611782328827141,-0.0738692395320274,0.08441684700402388,-0.7197210881268231,0.68911200196154,-0.021384903922802456,-0.692729890852628,-0.7208800067996884,,0.15509863607488023,0.6481489744952542,-0.39137355426934595,0.9992191428047348,0.018652740935329874,-0.03483073223707416,0.036901481096381514,-0.7556186122891488,0.6539715540106575,-0.014120387581957017,-0.6547462012244291,-0.7557168958258873,,0.0,0.0,0.045,1.0,0.0,0.0,0.0,1.0,0.0,0.0,0.0,1.0,,-0.02272741252427273,-0.20692986320293497,0.201818166158785,False,,0.15101122792411334,0.5114316749634111,-0.3934624639450222,0.31284690560109923,-0.5406248192845843,-0.7809299702465822,0.6869438051118456,0.696592401222736,-0.2070440416365599,0.6559230307545816,-0.47168191753792454,0.5893056476850285
09:58:31.845751,,-0.14722617951421604,-0.9216232184770787,0.09423769042,-3.6626296144705788,-0.8418718560061892,1.2454567594488968,,0.15099716364464175,0.5114214056118338,-0.393459878413653,0.2800349870400613,-0.5932136333815827,-0.7547701578650907,0.7081044759434721,0.6585163600369153,-0.2548416267263893,0.6482040243490419,-0.4630915554552393,0.6044648493367946,,0.0008951371339737894,0.2637267298093929,-0.09107513707436295,-0.760230233196836,0.601942731721094,0.24436640570621598,-0.4493389336833792,-0.7588672282587998,0.4713969161197748,0.4691956043974748,0.24856684730489959,0.8473901151247486,,-0.09313508770947523,0.6116067624507842,1.1857951693503068,0.9962010248067968,0.04611782328827141,-0.0738692395320274,0.08441684700402388,-0.7197210881268231,0.68911200196154,-0.021384903922802456,-0.692729890852628,-0.7208800067996884,,0.15509863607488023,0.6481489744952542,-0.39137355426934595,0.9992191428047348,0.018652740935329874,-0.03483073223707416,0.036901481096381514,-0.7556186122891488,0.6539715540106575,-0.014120387581957017,-0.6547462012244291,-0.7557168958258873,,0.0,0.0,0.045,1.0,0.0,0.0,0.0,1.0,0.0,0.0,0.0,1.0,,-0.02272741252427273,-0.20692986320293497,0.201818166158785,False,,0.15099716364464175,0.5114214056118338,-0.393459878413653,0.310899750827386,-0.5458856535864651,-0.7780425426311515,0.6870653102081803,0.6947127330931266,-0.21287432439544046,0.6567211009583949,-0.4683834664959428,0.5910451115348452
09:58:31.857879,,-0.14711806125397692,-0.9216772776071983,0.09424417187,-3.6590651134718386,-0.8425425633484503,1.2411816037785899,,0.15098330895647116,0.5114202668495812,-0.3934507313491707,0.280908120108314,-0.5926313161862712,-0.7549031402322689,0.7079636891584369,0.6590234614020942,-0.2539202476266484,0.6479799710565051,-0.4631157526978865,0.604686494567789,,0.0008947045525593096,0.2637262077088398,-0.09107499438526076,-0.7602318278870849,0.6019411000234552,0.244365463917675,-0.4493386565922822,-0.7588685993986807,0.4713949729517849,0.4691932859120972,0.24856661267137947,0.8473914676852556,,-0.09313508770947523,0.6116067624507842,1.1857951693503068,0.9962010248067968,0.04611782328827141,-0.0738692395320274,0.08441684700402388,-0.7197210881268231,0.68911200196154,-0.021384903922802456,-0.692729890852628,-0.7208800067996884,,0.15509863607488023,0.6481489744952542,-0.39137355426934595,0.9992191428047348,0.018652740935329874,-0.03483073223707416,0.036901481096381514,-0.7556186122891488,0.6539715540106575,-0.014120387581957017,-0.6547462012244291,-0.7557168958258873,,0.0,0.0,0.045,1.0,0.0,0.0,0.0,1.0,0.0,0.0,0.0,1.0,,-0.02272741252427273,-0.20692986320293497,0.201818166158785,False,,0.15098330895647116,0.5114202668495812,-0.3934507313491707,0.3085542005659575,-0.5476650746002903,-0.7777257044589444,0.6875903945002922,0.6933881552362471,-0.2154815898609594,0.6572775324807897,-0.4682689742457134,0.5905170726192699
09:58:31.870824,,-0.14687865653487595,-0.9218085640660602,0.09425583848,-3.6538232002383966,-0.8437498365645204,1.2339409424227692,,0.1509728843124391,0.511421352696692,-0.393442272211785,0.2816770901432361,-0.5922219519433412,-0.754937862691267,0.7078391785030631,0.6594345626321231,-0.25319904222229844,0.6477821503133194,-0.4630542271080132,0.6049455086971491,,0.0008940514100767624,0.26372591038516807,-0.09107470630917773,-0.760233853572211,0.6019393625405891,0.24436344179907515,-0.4493380841628592,-0.7588695776496475,0.47139394376637,0.4691905518917788,0.24856783364504284,0.8473926233295951,,-0.09313508770947523,0.6116067624507842,1.1857951693503068,0.9962010248067968,0.04611782328827141,-0.0738692395320274,0.08441684700402388,-0.7197210881268231,0.68911200196154,-0.021384903922802456,-0.692729890852628,-0.7208800067996884,,0.15509863607488023,0.6481489744952542,-0.39137355426934595,0.9992191428047348,0.018652740935329874,-0.03483073223707416,0.036901481096381514,-0.7556186122891488,0.6539715540106575,-0.014120387581957017,-0.6547462012244291,-0.7557168958258873,,0.0,0.0,0.045,1.0,0.0,0.0,0.0,1.0,0.0,0.0,0.0,1.0,,-0.02272741252427273,-0.20692986320293497,0.201818166158785,False,,0.1509728843124391,0.511421352696692,-0.393442272211785,0.30630030828319565,-0.54901275918639,-0.7776664525335821,0.6882082532344862,0.6921256989412721,-0.2175578475831036,0.657684971187237,-0.46855843511306294,0.5898334269595449
09:58:31.883152,,-0.14675509280888835,-0.9219089595934251,0.09425972735,-3.6525651410623707,-0.844152260969877,1.2306319272648432,,0.15097117522677367,0.5114179796126436,-0.39344261351306126,0.2821888352629754,-0.5914635075389953,-0.7553412344778975,0.7077560475880351,0.6598703645943184,-0.2522944292542431,0.6476502438473163,-0.463402655559752,0.604819923997781,,0.0008938351175194056,0.2637256493356077,-0.09107463496797784,-0.760234650908421,0.6019385466870716,0.2443629708989287,-0.4493379456096143,-0.7588702632142198,0.47139297217995874,0.46918939264397896,0.24856771632209235,0.8473932996011576,,-0.09313508770947523,0.6116067624507842,1.1857951693503068,0.9962010248067968,0.04611782328827141,-0.0738692395320274,0.08441684700402388,-0.7197210881268231,0.68911200196154,-0.021384903922802456,-0.692729890852628,-0.7208800067996884,,0.15509863607488023,0.6481489744952542,-0.39137355426934595,0.9992191428047348,0.018652740935329874,-0.03483073223707416,0.036901481096381514,-0.7556186122891488,0.6539715540106575,-0.014120387581957017,-0.6547462012244291,-0.7557168958258873,,0.0,0.0,0.045,1.0,0.0,0.0,0.0,1.0,0.0,0.0,0.0,1.0,,-0.02272741252427273,-0.20692986320293497,0.201818166158785,False,,0.15097117522677367,0.5114179796126436,-0.39344261351306126,0.30504442556829364,-0.551148428565612,-0.77664876753869,0.6885073088002148,0.6910601342194752,-0.21998540092753072,0.6579556095652618,-0.4676230325617178,0.5902737629773047
09:58:31.895803,,-0.1466160836171523,-0.9220016323879158,0.09426620880000001,-3.6498393461809804,-0.8445546853752337,1.2280117285474188,,0.15096972785102672,0.5114138656430289,-0.3934496997526323,0.28326552588803294,-0.590411625522569,-0.755761043115596,0.7075804390409891,0.6606029907340334,-0.25086572288738773,0.6473720446002725,-0.4637001197768319,0.6048897707756468,,0.0008936230922725174,0.26372490246008923,-0.09107463767496567,-0.7602358145853332,0.6019370207580228,0.24436310942615153,-0.44933796381944485,-0.7588720272314453,0.47139011502355305,0.4691874896862201,0.24856602606204853,0.8473948490493384,,-0.09313508770947523,0.6116067624507842,1.1857951693503068,0.9962010248067968,0.04611782328827141,-0.0738692395320274,0.08441684700402388,-0.7197210881268231,0.68911200196154,-0.021384903922802456,-0.692729890852628,-0.7208800067996884,,0.15509863607488023,0.6481489744952542,-0.39137355426934595,0.9992191428047348,0.018652740935329874,-0.03483073223707416,0.036901481096381514,-0.7556186122891488,0.6539715540106575,-0.014120387581957017,-0.6547462012244291,-0.7557168958258873,,0.0,0.0,0.045,1.0,0.0,0.0,0.0,1.0,0.0,0.0,0.0,1.0,,-0.02272741252427273,-0.20692986320293497,0.201818166158785,False,,0.15096972785102672,0.5114138656430289,-0.3934496997526323,0.3024009030538057,-0.5541564505825725,-0.7755413090931828,0.6890804850537391,0.6892568774089518,-0.22381474943033774,0.6585755681395616,-0.4667285991046469,0.5902902979276106
09:58:31.907777,,-0.1464925198911647,-0.9221020279152807,0.09427269025000001,-3.6469038747702536,-0.844688826843686,1.2253933273256719,,0.1509604803072217,0.5114087274593238,-0.3934528330388492,0.28411868225451486,-0.5901498151677573,-0.7556452673387296,0.7074406102312668,0.6609925353133613,-0.2502331937526032,0.6471509540977058,-0.4634782237791513,0.6052962734834506,,0.0008938436509955145,0.26372467768407587,-0.09107478306651409,-0.7602353835851172,0.6019371265339831,0.24436418975224983,-0.44933825914274805,-0.7588724201115153,0.47138920103533205,0.4691879052190354,0.24856457044835595,0.8473950459508659,,-0.09313508770947523,0.6116067624507842,1.1857951693503068,0.9962010248067968,0.04611782328827141,-0.0738692395320274,0.08441684700402388,-0.7197210881268231,0.68911200196154,-0.021384903922802456,-0.692729890852628,-0.7208800067996884,,0.15509863607488023,0.6481489744952542,-0.39137355426934595,0.9992191428047348,0.018652740935329874,-0.03483073223707416,0.036901481096381514,-0.7556186122891488,0.6539715540106575,-0.014120387581957017,-0.6547462012244291,-0.7557168958258873,,0.0,0.0,0.045,1.0,0.0,0.0,0.0,1.0,0.0,0.0,0.0,1.0,,-0.02272741252427273,-0.20692986320293497,0.201818166158785,False,,0.1509604803072217,0.5114087274593238,-0.3934528330388492,0.3005733018380116,-0.554824455241003,-0.7757741385794709,0.6891815426939468,0.6886168603459835,-0.22546756054304573,0.6593060680990183,-0.46687968847848227,0.5893546174028403
09:58:31.920364,,-0.14631489703505757,-0.9223414326343816,0.09428306057000001,-3.641871638066149,-0.844688826843686,1.2202960856659557,,0.150950548530322,0.5114039467289377,-0.39345977631001083,0.284968556713379,-0.5898606805111326,-0.7555509905172761,0.7073007221137264,0.6613896450799178,-0.24957849642639793,0.646930143201022,-0.4632797372732848,0.6056841378556164,,0.0008936230922725157,0.26372490246008923,-0.09107463767496568,-0.760235814585333,0.6019370207580228,0.24436310942615147,-0.44933796381944485,-0.7588720272314451,0.471390115023553,0.46918748968622004,0.24856602606204847,0.8473948490493382,,-0.09313508770947523,0.6116067624507842,1.1857951693503068,0.9962010248067968,0.04611782328827141,-0.0738692395320274,0.08441684700402388,-0.7197210881268231,0.68911200196154,-0.021384903922802456,-0.692729890852628,-0.7208800067996884,,0.15509863607488023,0.6481489744952542,-0.39137355426934595,0.9992191428047348,0.018652740935329874,-0.03483073223707416,0.036901481096381514,-0.7556186122891488,0.6539715540106575,-0.014120387581957017,-0.6547462012244291,-0.7557168958258873,,0.0,0.0,0.045,1.0,0.0,0.0,0.0,1.0,0.0,0.0,0.0,1.0,,-0.02272741252427273,-0.20692986320293497,0.201818166158785,False,,0.150950548530322,0.5114039467289377,-0.39345977631001083,0.2989038409422638,-0.5555433357658066,-0.775904695150224,0.6891679911277302,0.6880721138075894,-0.22716568007805332,0.6600787633873175,-0.4668279857576622,0.5885300823564701
09:58:31.931695,,-0.14622994697344108,-0.9224804418261177,0.09428824573000001,-3.639355519714097,-0.844688826843686,1.2174030566158462,,0.15094174403475208,0.5113991726893851,-0.3934692684053333,0.28572552380325245,-0.5895456182683798,-0.7555110118508603,0.7071756241606485,0.6617620180161868,-0.24894511062509547,0.6467329909942388,-0.46314899923426117,0.6059945898008894,,0.0008942762349777337,0.26372519978368114,-0.09107492575102101,-0.7602337889036439,0.6019387582383758,0.24436513155149897,-0.44933853625645914,-0.7588710489780662,0.47139114420655126,0.4691902237074447,0.24856480509497125,0.8473936934058375,,-0.09313508770947523,0.6116067624507842,1.1857951693503068,0.9962010248067968,0.04611782328827141,-0.0738692395320274,0.08441684700402388,-0.7197210881268231,0.68911200196154,-0.021384903922802456,-0.692729890852628,-0.7208800067996884,,0.15509863607488023,0.6481489744952542,-0.39137355426934595,0.9992191428047348,0.018652740935329874,-0.03483073223707416,0.036901481096381514,-0.7556186122891488,0.6539715540106575,-0.014120387581957017,-0.6547462012244291,-0.7557168958258873,,0.0,0.0,0.045,1.0,0.0,0.0,0.0,1.0,0.0,0.0,0.0,1.0,,-0.02272741252427273,-0.20692986320293497,0.201818166158785,False,,0.15094174403475208,0.5113991726893851,-0.3934692684053333,0.2974867425992642,-0.5563522300710037,-0.7758697275140332,0.6891388749851267,0.687560742965811,-0.22879649410892566,0.6607490060241581,-0.4666180674034417,0.5879441556906271
09:58:31.943316,,-0.14615271964469884,-0.922596282819231,0.09429213460000001,-3.637049077891382,-0.844688826843686,1.2149233174300385,,0.1509322619051902,0.5113944421477732,-0.39348020473448003,0.2865510046016843,-0.5891512224456115,-0.7555060283363775,0.7070386636798011,0.6621843835826369,-0.2482099317133874,0.6465174783589742,-0.4630471673923996,0.606302293370418,,0.0008942762349777337,0.2637251997836812,-0.09107492575102101,-0.7602337889036439,0.6019387582383758,0.24436513155149897,-0.44933853625645914,-0.7588710489780662,0.47139114420655126,0.4691902237074447,0.24856480509497125,0.8473936934058375,,-0.09313508770947523,0.6116067624507842,1.1857951693503068,0.9962010248067968,0.04611782328827141,-0.0738692395320274,0.08441684700402388,-0.7197210881268231,0.68911200196154,-0.021384903922802456,-0.692729890852628,-0.7208800067996884,,0.15509863607488023,0.6481489744952542,-0.39137355426934595,0.9992191428047348,0.018652740935329874,-0.03483073223707416,0.036901481096381514,-0.7556186122891488,0.6539715540106575,-0.014120387581957017,-0.6547462012244291,-0.7557168958258873,,0.0,0.0,0.045,1.0,0.0,0.0,0.0,1.0,0.0,0.0,0.0,1.0,,-0.02272741252427273,-0.20692986320293497,0.201818166158785,False,,0.1509322619051902,0.5113944421477732,-0.39348020473448003,0.2959389255443975,-0.5573813990157721,-0.7757229714136666,0.6891045661480539,0.6869567495719399,-0.23070613587734856,0.6614794397874586,-0.4662793156990517,0.5873913095115505
09:58:31.957840,,-0.14606776958308237,-0.9227275692780929,0.09429602347,-3.6343232830099925,-0.844688826843686,1.2121680516680295,,0.15091228385011093,0.5113875400906579,-0.3934978746460006,0.28814679007372457,-0.5885275723006091,-0.7553851494516954,0.7067722990336249,0.6629540625943788,-0.246910567226947,0.646099330357905,-0.4627388113521058,0.6069830704224848,,0.0008940556763552846,0.2637254245596709,-0.09107478035953256,-0.7602342199074446,0.6019386524596952,0.24436405122863203,-0.44933824092733116,-0.7588706560988172,0.4713920581942661,0.4691898081780923,0.24856626070989774,0.8473934965024502,,-0.09313508770947523,0.6116067624507842,1.1857951693503068,0.9962010248067968,0.04611782328827141,-0.0738692395320274,0.08441684700402388,-0.7197210881268231,0.68911200196154,-0.021384903922802456,-0.692729890852628,-0.7208800067996884,,0.15509863607488023,0.6481489744952542,-0.39137355426934595,0.9992191428047348,0.018652740935329874,-0.03483073223707416,0.036901481096381514,-0.7556186122891488,0.6539715540106575,-0.014120387581957017,-0.6547462012244291,-0.7557168958258873,,0.0,0.0,0.045,1.0,0.0,0.0,0.0,1.0,0.0,0.0,0.0,1.0,,-0.02272741252427273,-0.20692986320293497,0.201818166158785,False,,0.15091228385011093,0.5113875400906579,-0.3934978746460006,0.29284154895661996,-0.5590056604883321,-0.7757296557091853,0.689053700806351,0.6858527038841816,-0.23411763278281464,0.6629093637970123,-0.465960019869474,0.5860310872927136
09:58:31.971067,,-0.14599826498721435,-0.9228743012027031,0.09430250492000002,-3.6318071646579404,-0.844688826843686,1.208792851109569,,0.1509014175062995,0.5113815816470204,-0.3935101780474945,0.28899424488933684,-0.5880008729693295,-0.7554715744540945,0.7066299865593182,0.6634259220025368,-0.24604899534495517,0.645876449884976,-0.4627321248869485,0.6072253223323199,,0.0008938393837559736,0.2637251635100942,-0.09107470901834817,-0.7602350172442863,0.6019378366069067,0.24436358032721428,-0.44933810237261956,-0.7588713416627783,0.4713910866073589,0.4691886489308019,0.24856614338580013,0.8473941727735429,,-0.09313508770947523,0.6116067624507842,1.1857951693503068,0.9962010248067968,0.04611782328827141,-0.0738692395320274,0.08441684700402388,-0.7197210881268231,0.68911200196154,-0.021384903922802456,-0.692729890852628,-0.7208800067996884,,0.15509863607488023,0.6481489744952542,-0.39137355426934595,0.9992191428047348,0.018652740935329874,-0.03483073223707416,0.036901481096381514,-0.7556186122891488,0.6539715540106575,-0.014120387581957017,-0.6547462012244291,-0.7557168958258873,,0.0,0.0,0.045,1.0,0.0,0.0,0.0,1.0,0.0,0.0,0.0,1.0,,-0.02272741252427273,-0.20692986320293497,0.201818166158785,False,,0.1509014175062995,0.5113815816470204,-0.3935101780474945,0.29128755316430105,-0.5603973902339163,-0.7753104709666769,0.6890112639996431,0.6851294281431777,-0.23634962401877554,0.6636377320897062,-0.46535194392117696,0.5856897889118549
09:58:31.983290,,-0.14582064213110718,-0.9231677650519237,0.09431028266000001,-3.6290813697765505,-0.8462985244651128,1.2023760732388349,,0.15089769751028656,0.5113807577591353,-0.39352155109978176,0.28954239067217924,-0.5873589461296519,-0.7557609889411493,0.706537619765884,0.6638285129538603,-0.2452270320438303,0.6457319845411084,-0.46296994912297645,0.6071976863836607,,0.0008936230912319739,0.2637249024605553,-0.09107463767722751,-0.7602358145824613,0.6019370207508843,0.24436310942826311,-0.4493379638115879,-0.7588720272293226,0.47139011502180717,0.46918748968568624,0.2485660260618211,0.8473948490426622,,-0.09313508770947523,0.6116067624507842,1.1857951693503068,0.9962010248067968,0.04611782328827141,-0.0738692395320274,0.08441684700402388,-0.7197210881268231,0.68911200196154,-0.021384903922802456,-0.692729890852628,-0.7208800067996884,,0.15509863607488023,0.6481489744952542,-0.39137355426934595,0.9992191428047348,0.018652740935329874,-0.03483073223707416,0.036901481096381514,-0.7556186122891488,0.6539715540106575,-0.014120387581957017,-0.6547462012244291,-0.7557168958258873,,0.0,0.0,0.045,1.0,0.0,0.0,0.0,1.0,0.0,0.0,0.0,1.0,,-0.02272741252427273,-0.20692986320293497,0.201818166158785,False,,0.15089769751028656,0.5113807577591353,-0.39352155109978176,0.28998440850289986,-0.5623181133440451,-0.7744077622482984,0.6893450512942727,0.6840272138183195,-0.23855852743518424,0.6638617650394697,-0.4646559051181215,0.5859884356858415
09:58:31.996166,,-0.1457279693366165,-0.9232990515107855,0.09431287524000001,-3.6282426636592,-0.8472375147442783,1.1999589244622066,,0.15091177614663584,0.5113906877245596,-0.39353822642160746,0.2897639274214081,-0.5861402640114306,-0.7566217398871985,0.7065002184052018,0.664301053565967,-0.24405235426962882,0.6456735303221923,-0.46383585581082104,0.6065987068116122,,0.0008948826766477002,0.2637252376937242,-0.09107522867684767,-0.760260392292648,0.6018862115948811,0.24441176346457538,-0.44926471986774374,-0.7589060962181458,0.4714050641666515,0.46921778878262843,0.2485850183172129,0.8473724926353488,,-0.09313508770947523,0.6116067624507842,1.1857951693503068,0.9962010248067968,0.04611782328827141,-0.0738692395320274,0.08441684700402388,-0.7197210881268231,0.68911200196154,-0.021384903922802456,-0.692729890852628,-0.7208800067996884,,0.15509863607488023,0.6481489744952542,-0.39137355426934595,0.9992191428047348,0.018652740935329874,-0.03483073223707416,0.036901481096381514,-0.7556186122891488,0.6539715540106575,-0.014120387581957017,-0.6547462012244291,-0.7557168958258873,,0.0,0.0,0.045,1.0,0.0,0.0,0.0,1.0,0.0,0.0,0.0,1.0,,-0.02272741252427273,-0.20692986320293497,0.201818166158785,False,,0.15091177614663584,0.5113906877245596,-0.39353822642160746,0.28843824549700486,-0.5663347187974889,-0.7720546384934027,0.6906929804938932,0.6815006536999848,-0.24186786827306367,0.663133911989933,-0.4634887757983604,0.5877342677416939
09:58:32.008378,,-0.14565074200787426,-0.9234148925038989,0.09431546782000001,-3.6265652514244984,-0.8481765050234439,1.1979550655498798,,0.15091040200044606,0.5113953328576089,-0.3935419807345374,0.2900853228839115,-0.5858887928885151,-0.7566933512427445,0.7064458858223436,0.66449555661492,-0.24367984250592428,0.645588658397916,-0.4638749590209266,0.6066591353810742,,0.0008967954581037803,0.26372587016230864,-0.09107610771413363,-0.760282940990852,0.6018371402066599,0.24446244125643357,-0.44919204705924576,-0.7589391852820546,0.47142103981581135,0.4692508213907679,0.2486027928044367,0.847348981773631,,-0.09313508770947523,0.6116067624507842,1.1857951693503068,0.9962010248067968,0.04611782328827141,-0.0738692395320274,0.08441684700402388,-0.7197210881268231,0.68911200196154,-0.021384903922802456,-0.692729890852628,-0.7208800067996884,,0.15509863607488023,0.6481489744952542,-0.39137355426934595,0.9992191428047348,0.018652740935329874,-0.03483073223707416,0.036901481096381514,-0.7556186122891488,0.6539715540106575,-0.014120387581957017,-0.6547462012244291,-0.7557168958258873,,0.0,0.0,0.045,1.0,0.0,0.0,0.0,1.0,0.0,0.0,0.0,1.0,,-0.02272741252427273,-0.20692986320293497,0.201818166158785,False,,0.15091040200044606,0.5113953328576089,-0.3935419807345374,0.2871704869273135,-0.5673444501770746,-0.7717858422458934,0.6913377219361612,0.6804543424021854,-0.24296922054887743,0.6630122666030012,-0.46379107662748625,0.587633024577983
09:58:32.021058,,-0.14546539641889286,-0.9236697426887482,0.09432324556,-3.6234201034844333,-0.848847212365705,1.1965729389296824,,0.1509073304779933,0.5113967592203733,-0.393549501561463,0.29060065761025616,-0.5859579124364649,-0.7564420550508721,0.7063585884635267,0.6646552039913052,-0.24349744210379412,0.6454524012661976,-0.46355882545840554,0.6070456432916085,,0.0008989245721731523,0.26372676358294916,-0.0910770580516739,-0.7603046894509693,0.6017888847416484,0.244513591175394,-0.4491195113950357,-0.7589715874197814,0.47143798409016735,0.46928501206875234,0.24862068811770185,0.8473247959057559,,-0.09313508770947523,0.6116067624507842,1.1857951693503068,0.9962010248067968,0.04611782328827141,-0.0738692395320274,0.08441684700402388,-0.7197210881268231,0.68911200196154,-0.021384903922802456,-0.692729890852628,-0.7208800067996884,,0.15498630287378304,0.648144951017686,-0.391376003620892,0.9992210089941994,0.01851681064918901,-0.03484971890842085,0.03681130040172831,-0.7556151173058726,0.6539806745321807,-0.014223338122521809,-0.6547540929404064,-0.7557081278049335,,0.0,0.0,0.045,1.0,0.0,0.0,0.0,1.0,0.0,0.0,0.0,1.0,,-0.02272741252427273,-0.20692986320293497,0.201818166158785,False,,0.1509073304779933,0.5113967592203733,-0.393549501561463,0.28571200517273143,-0.5673399229641644,-0.772330280327784,0.691784204692005,0.679821483309398,-0.2434694333374529,0.6631766463309964,-0.46472374873899697,0.5867099565536164
09:58:32.033157,,-0.14541133728877328,-0.9237701382161132,0.09432713443000001,-3.6238394565431085,-0.848847212365705,1.1965040572856322,,0.15103951346509997,0.5114154164869495,-0.3935646326448812,0.29054155279409655,-0.5857101814758481,-0.7566565861839334,0.7063686119725298,0.6647140452263496,-0.24330766962597805,0.6454680395805797,-0.4637874743827732,0.6068543387713823,,0.0009050313782362632,0.2637261201286467,-0.09108042131929056,-0.7603248247359922,0.6017432827650928,0.24456322013534593,-0.44904945139801167,-0.7590018301020912,0.4714560405875804,0.4693194404614248,0.24863875332389965,0.8473004303410977,,-0.09313508770947523,0.6116067624507842,1.1857951693503068,0.9962010248067968,0.04611782328827141,-0.0738692395320274,0.08441684700402388,-0.7197210881268231,0.68911200196154,-0.021384903922802456,-0.692729890852628,-0.7208800067996884,,0.15498630287378304,0.648144951017686,-0.391376003620892,0.9992210089941994,0.01851681064918901,-0.03484971890842085,0.03681130040172831,-0.7556151173058726,0.6539806745321807,-0.014223338122521809,-0.6547540929404064,-0.7557081278049335,,0.0,0.0,0.045,1.0,0.0,0.0,0.0,1.0,0.0,0.0,0.0,1.0,,-0.02272741252427273,-0.20692986320293497,0.201818166158785,False,,0.15103951346509997,0.5114154164869495,-0.3935646326448812,0.2849479408095156,-0.5671792248144609,-0.7727304821005083,0.6917499686052206,0.6797272777356332,-0.24382946671143302,0.6635409949378359,-0.46505758228521843,0.5860330990617632
09:58:32.046865,,-0.14539589182302484,-0.9238473655448555,0.09433102330000001,-3.62635557489516,-0.8489813538341573,1.1965031585377937,,0.1510698038744008,0.5114082920157237,-0.3935969035109669,0.2899671201570856,-0.5851038938332507,-0.7573456956033845,0.706465878208067,0.6647061837385996,-0.24304660505214154,0.6456198820943412,-0.46456336782061836,0.6060988740491553,,0.0009109262211761185,0.2637247296904948,-0.09108378724129827,-0.7603461204369092,0.6016961546863144,0.24461298927542385,-0.4489794086081964,-0.759033835493521,0.47147123684467057,0.4693519657276297,0.24865513057588812,0.8472776158119089,,-0.09313508770947523,0.6116067624507842,1.1857951693503068,0.9962010248067968,0.04611782328827141,-0.0738692395320274,0.08441684700402388,-0.7197210881268231,0.68911200196154,-0.021384903922802456,-0.692729890852628,-0.7208800067996884,,0.15498630287378304,0.648144951017686,-0.391376003620892,0.9992210089941994,0.01851681064918901,-0.03484971890842085,0.03681130040172831,-0.7556151173058726,0.6539806745321807,-0.014223338122521809,-0.6547540929404064,-0.7557081278049335,,0.0,0.0,0.045,1.0,0.0,0.0,0.0,1.0,0.0,0.0,0.0,1.0,,-0.02272741252427273,-0.20692986320293497,0.201818166158785,False,,0.1510698038744008,0.5114082920157237,-0.3935969035109669,0.28669588480651426,-0.5688285938664341,-0.7708693147576609,0.6917070685654096,0.6796225764361008,-0.2442426762361654,0.6628324078767256,-0.46319238378700917,0.5883077550653659
09:58:32.061041,,-0.14548856461751553,-0.9239863747365915,0.09433750475000001,-3.6269846044831735,-0.8495179197079662,1.1969817350547907,,0.15107405009260352,0.5114077777444719,-0.3936066883324289,0.28982408036534635,-0.5850568311452176,-0.757436800512556,0.7064900559421969,0.6646708544040075,-0.24307294411480285,0.6456576517746636,-0.46467317507702444,0.6059744524884397,,0.0009149038591875413,0.2637231929007111,-0.09108620020859057,-0.7603445107009436,0.6016988078623553,0.24461146664461764,-0.44898188562857877,-0.7590316777127295,0.47147235184692715,0.4693522039731104,0.24865529713981024,0.8472774349526631,,-0.09313508770947523,0.6116067624507842,1.1857951693503068,0.9962010248067968,0.04611782328827141,-0.0738692395320274,0.08441684700402388,-0.7197210881268231,0.68911200196154,-0.021384903922802456,-0.692729890852628,-0.7208800067996884,,0.15498630287378304,0.648144951017686,-0.391376003620892,0.9992210089941994,0.01851681064918901,-0.03484971890842085,0.03681130040172831,-0.7556151173058726,0.6539806745321807,-0.014223338122521809,-0.6547540929404064,-0.7557081278049335,,0.0,0.0,0.045,1.0,0.0,0.0,0.0,1.0,0.0,0.0,0.0,1.0,,-0.02272741252427273,-0.20692986320293497,0.201818166158785,False,,0.15107405009260352,0.5114077777444719,-0.3936066883324289,0.2870055573353283,-0.5691000169870262,-0.7705536845178304,0.6918434369056976,0.6795098464203184,-0.24417007889654996,0.6625560118730714,-0.46302433983884894,0.5887512138821018
09:58:32.073074,,-0.14561985107637734,-0.9240481565995853,0.09434139362,-3.628032987129862,-0.8497862026448707,1.1973932274234147,,0.15106948366260964,0.5114062041181004,-0.3936149123095456,0.2898640128071041,-0.5852052442533026,-0.7573068573423825,0.7064833079483877,0.6646372915387276,-0.24318430518100512,0.6456471092397663,-0.4645342751557705,0.606092169175478,,0.0009188815006640257,0.2637216561141044,-0.09108861317567998,-0.7603429009593996,0.6017014610372722,0.24460994401983283,-0.4489843626415378,-0.759029519927438,0.47147346685600877,0.46935244223413364,0.24865546370724292,0.8472772540936757,,-0.09313508770947523,0.6116067624507842,1.1857951693503068,0.9962010248067968,0.04611782328827141,-0.0738692395320274,0.08441684700402388,-0.7197210881268231,0.68911200196154,-0.021384903922802456,-0.692729890852628,-0.7208800067996884,,0.15498630287378304,0.648144951017686,-0.391376003620892,0.9992210089941994,0.01851681064918901,-0.03484971890842085,0.03681130040172831,-0.7556151173058726,0.6539806745321807,-0.014223338122521809,-0.6547540929404064,-0.7557081278049335,,0.0,0.0,0.045,1.0,0.0,0.0,0.0,1.0,0.0,0.0,0.0,1.0,,-0.02272741252427273,-0.20692986320293497,0.201818166158785,False,,0.15106948366260964,0.5114062041181004,-0.3936149123095456,0.2869284152316933,-0.5688550336003243,-0.7707632809625812,0.6919792793183451,0.6794753642487177,-0.2438809266284191,0.662447553793274,-0.46337585190280084,0.5885966856402276
09:58:32.085137,,-0.14577430573386185,-0.9241022157297049,0.09434528249000002,-3.6303394289525763,-0.8500544855817751,1.197873601436089,,0.15106718323152174,0.5114046057281518,-0.3936256265121632,0.28964898093058555,-0.5852097665230706,-0.7573856329584596,0.7065196295457705,0.6645600119421317,-0.2432899578568358,0.6457038647184794,-0.4646391284572223,0.605951317676703,,0.000922642852904867,0.26371985827136873,-0.09109095478949669,-0.7603420884406864,0.601703298143575,0.2446079506674182,-0.44898670116896944,-0.7590280476082572,0.47147361018228645,0.4693515214633662,0.24865551256317647,0.847277749827577,,-0.09313508770947523,0.6116067624507842,1.1857951693503068,0.9962010248067968,0.04611782328827141,-0.0738692395320274,0.08441684700402388,-0.7197210881268231,0.68911200196154,-0.021384903922802456,-0.692729890852628,-0.7208800067996884,,0.15498630287378304,0.648144951017686,-0.391376003620892,0.9992210089941994,0.01851681064918901,-0.03484971890842085,0.03681130040172831,-0.7556151173058726,0.6539806745321807,-0.014223338122521809,-0.6547540929404064,-0.7557081278049335,,0.0,0.0,0.045,1.0,0.0,0.0,0.0,1.0,0.0,0.0,0.0,1.0,,-0.02272741252427273,-0.20692986320293497,0.201818166158785,False,,0.15106718323152174,0.5114046057281518,-0.3936256265121632,0.287489411802637,-0.5690418541022433,-0.7704162552680565,0.6920930052886549,0.6794608452879864,-0.24359850523156512,0.6620854251015436,-0.4631677104466765,0.5891676856954156
09:58:32.098546,,-0.1459210376584721,-0.9241485521269501,0.09434917136000001,-3.631387811599265,-0.8503227685186796,1.1984917387368637,,0.15106823667673558,0.5114012620383885,-0.39364800962633173,0.28892157769229915,-0.585041773295226,-0.7577931415916683,0.7066422128400647,0.6643575130073652,-0.24348691534282788,0.6458955836482315,-0.4651399987210798,0.605362434095034,,0.0009224222944548451,0.26372008304161637,-0.09109080939033848,-0.7603425197159692,0.601703192304214,0.24460687043459,-0.4489864057254358,-0.7590276546918286,0.4714745240919088,0.4693511054281651,0.24865696806012827,0.8472775531367623,,-0.09313508770947523,0.6116067624507842,1.1857951693503068,0.9962010248067968,0.04611782328827141,-0.0738692395320274,0.08441684700402388,-0.7197210881268231,0.68911200196154,-0.021384903922802456,-0.692729890852628,-0.7208800067996884,,0.15498630287378304,0.648144951017686,-0.391376003620892,0.9992210089941994,0.01851681064918901,-0.03484971890842085,0.03681130040172831,-0.7556151173058726,0.6539806745321807,-0.014223338122521809,-0.6547540929404064,-0.7557081278049335,,0.0,0.0,0.045,1.0,0.0,0.0,0.0,1.0,0.0,0.0,0.0,1.0,,-0.02272741252427273,-0.20692986320293497,0.201818166158785,False,,0.15106823667673558,0.5114012620383885,-0.39364800962633173,0.28937716573654443,-0.5698125335927007,-0.7691388252526015,0.692309831342605,0.6794828719058399,-0.2429199954984474,0.6610355159722194,-0.46218687059160307,0.5911136466671045
09:58:32.144163,,-0.1461990560419442,-0.9241717203255728,0.09435306023000001,-3.6324361942459533,-0.8505910514555841,1.1995231659019396,,0.1489689132143499,0.510075185570467,-0.39111214408214207,0.2901290199286626,-0.5590623824487587,-0.7767074123026967,0.7064649030863541,0.6726074760231852,-0.22024196672048793,0.6455482108273726,-0.48481794080710117,0.5901008996511867,,0.0009228548585136784,0.26372060515376294,-0.09109095209609099,-0.7603409252707819,0.6017048244125538,0.24460781185954694,-0.4489866826749158,-0.7590262837429754,0.47147646744412297,0.46935342347172904,0.24865720349845585,0.847276199954526,,-0.09313508770947523,0.6116067624507842,1.1857951693503068,0.9962010248067968,0.04611782328827141,-0.0738692395320274,0.08441684700402388,-0.7197210881268231,0.68911200196154,-0.021384903922802456,-0.692729890852628,-0.7208800067996884,,0.15498630287378304,0.648144951017686,-0.391376003620892,0.9992210089941994,0.01851681064918901,-0.03484971890842085,0.03681130040172831,-0.7556151173058726,0.6539806745321807,-0.014223338122521809,-0.6547540929404064,-0.7557081278049335,,0.0,0.0,0.045,1.0,0.0,0.0,0.0,1.0,0.0,0.0,0.0,1.0,,-0.02272741252427273,-0.20692986320293497,0.201818166158785,True,,0.1510589842914493,0.5113987491924068,-0.39365260290059617,0.28958980956217945,-0.569523180408446,-0.7692730914149989,0.6923566049070382,0.6795883838328143,-0.24249115489250905,0.6608933906760907,-0.46238833845259564,0.5911150062582644
09:58:32.198167,,-0.14639984709667403,-0.9241794430584471,0.09435954168,-3.633484576892642,-0.851127617329393,1.2002772689951378,,0.1489828597598718,0.5103174792732474,-0.3912638174196205,0.29116559682865145,-0.5616581527525929,-0.7744434870731107,0.706310633204512,0.6722044901464937,-0.22196038576541877,0.6452502496285115,-0.4823704415420131,0.5924279470795636,,0.0009235079784829688,0.26372090249665125,-0.09109124020539959,-0.760338899534422,0.6017065623562305,0.24460983350710896,-0.4489872550644732,-0.7590253057029792,0.47147749688432894,0.4693561575398767,0.24865598343110587,0.8472750434536921,,-0.09313508770947523,0.6116067624507842,1.1857951693503068,0.9962010248067968,0.04611782328827141,-0.0738692395320274,0.08441684700402388,-0.7197210881268231,0.68911200196154,-0.021384903922802456,-0.692729890852628,-0.7208800067996884,,0.15498630287378304,0.648144951017686,-0.391376003620892,0.9992210089941994,0.01851681064918901,-0.03484971890842085,0.03681130040172831,-0.7556151173058726,0.6539806745321807,-0.014223338122521809,-0.6547540929404064,-0.7557081278049335,,0.0,0.0,0.045,1.0,0.0,0.0,0.0,1.0,0.0,0.0,0.0,1.0,,-0.02272741252427273,-0.20692986320293497,0.201818166158785,True,,0.15104412328265954,0.5113978898289796,-0.39365641073858093,0.2904262970722421,-0.5693443663388502,-0.7690900847671351,0.6927450430348026,0.67955690663409,-0.24146783636049057,0.660118831211181,-0.46265473429342546,0.5917716836046353
09:58:32.255887,,-0.14639984709667403,-0.9241562748598244,0.09436991200000001,-3.6339039299513165,-0.8512617587978452,1.2010340683318512,,0.14831431473189247,0.5104400950616413,-0.39165770240964837,0.29572917653928554,-0.5743963682846143,-0.763290944689403,0.7054885058389456,0.6700535836090519,-0.2308985994366339,0.6440731497838798,-0.47020953541385385,0.6033844301383314,,0.0009232874201224013,0.2637211272668234,-0.09109109480630918,-0.76033933081521,0.6017064565149757,0.24460875327717602,-0.44898695961446783,-0.7590249127857869,0.47147841079187175,0.46935574150933623,0.24865743892927167,0.8472748467607785,,-0.09313508770947523,0.6116067624507842,1.1857951693503068,0.9962010248067968,0.04611782328827141,-0.0738692395320274,0.08441684700402388,-0.7197210881268231,0.68911200196154,-0.021384903922802456,-0.692729890852628,-0.7208800067996884,,0.15498630287378304,0.648144951017686,-0.391376003620892,0.9992210089941994,0.01851681064918901,-0.03484971890842085,0.03681130040172831,-0.7556151173058726,0.6539806745321807,-0.014223338122521809,-0.6547540929404064,-0.7557081278049335,,0.0,0.0,0.045,1.0,0.0,0.0,0.0,1.0,0.0,0.0,0.0,1.0,,-0.02272741252427273,-0.20692986320293497,0.201818166158785,True,,0.15104680596706235,0.511388439903388,-0.3936543415195406,0.2906499876805061,-0.5690112427410166,-0.7692520980118583,0.6928504843612844,0.6796366224672873,-0.2409403820898271,0.6599096839580819,-0.4629473696173056,0.5917760910874675
09:58:32.311541,,-0.146639251815775,-0.9241485521269501,0.09438676377,-3.6347426360686677,-0.8515300417347497,1.2022721404290782,,0.14829826409045574,0.5104414765622056,-0.3916650794873389,0.2962839239362119,-0.5740502183345803,-0.7633362190063965,0.705387621296491,0.670354195917097,-0.2303335749256296,0.6439286762822721,-0.470203784381158,0.6035430896091823,,0.0009213745007161274,0.26372049506141493,-0.09109021589685441,-0.7603167902029173,0.6017555269430922,0.2445580712619334,-0.44905963609679744,-0.7589918271897121,0.4714624432319253,0.46932271163297357,0.2486396548080093,0.8472983537649588,,-0.09313508770947523,0.6116067624507842,1.1857951693503068,0.9962010248067968,0.04611782328827141,-0.0738692395320274,0.08441684700402388,-0.7197210881268231,0.68911200196154,-0.021384903922802456,-0.692729890852628,-0.7208800067996884,,0.15498630287378304,0.648144951017686,-0.391376003620892,0.9992210089941994,0.01851681064918901,-0.03484971890842085,0.03681130040172831,-0.7556151173058726,0.6539806745321807,-0.014223338122521809,-0.6547540929404064,-0.7557081278049335,,0.0,0.0,0.045,1.0,0.0,0.0,0.0,1.0,0.0,0.0,0.0,1.0,,-0.02272741252427273,-0.20692986320293497,0.201818166158785,True,,0.1510318574189246,0.511374133773949,-0.39365653403083856,0.29108223872812394,-0.5683682027220971,-0.7695639781275347,0.6929885395853983,0.67983550755782,-0.2399803464179895,0.6595741158507664,-0.4634450008340306,0.5917606922579643
09:58:32.340182,,-0.14697905206224088,-0.9240944929968306,0.09440231925,-3.6364200483033695,-0.8515300417347497,1.2029609568695803,,0.15102415413955755,0.5094287013169314,-0.39152948185348957,0.29170489865510624,-0.5770223908294198,-0.7628587107598065,0.7136865814624502,0.662299824346173,-0.22805790078721172,0.6368357052969434,-0.47791641858438827,0.6050092406785336,,0.0009196821983906839,0.2637196379791127,-0.09108948233294797,-0.7602938152641654,0.6018047032302444,0.24450847121492147,-0.44913260669428234,-0.7589591331435538,0.47144555855032283,0.469290096773733,0.24862041799253792,0.8473220590083546,,-0.09313508770947523,0.6116067624507842,1.1857951693503068,0.9962010248067968,0.04611782328827141,-0.0738692395320274,0.08441684700402388,-0.7197210881268231,0.68911200196154,-0.021384903922802456,-0.692729890852628,-0.7208800067996884,,0.15498630287378304,0.648144951017686,-0.391376003620892,0.9992210089941994,0.01851681064918901,-0.03484971890842085,0.03681130040172831,-0.7556151173058726,0.6539806745321807,-0.014223338122521809,-0.6547540929404064,-0.7557081278049335,,0.0,0.0,0.045,1.0,0.0,0.0,0.0,1.0,0.0,0.0,0.0,1.0,,-0.02272741252427273,-0.20692986320293497,0.201818166158785,True,,0.15101567755343473,0.5113616819613134,-0.3936573529853153,0.2919660385734332,-0.5684041419841508,-0.7692025504995404,0.6929375920814982,0.6800535811917677,-0.2395091233931333,0.6592369269087041,-0.46308083320680976,0.5924211475938844
09:58:32.369797,,-0.14713350671972536,-0.9240558793324595,0.09440750441000001,-3.6362103717740317,-0.8516641832032019,1.2031667030538922,,0.15100950755454845,0.509340846826329,-0.3915320674216265,0.2915681596761177,-0.5767519987875381,-0.7631154173240509,0.7137535607786647,0.6622996563230851,-0.2278486772182369,0.6368232586352818,-0.4782429268989787,0.6047642847690646,,0.0009179856740711327,0.26371926662323963,-0.0910886746740378,-0.7602704710802736,0.6018545897084346,0.24445826331972945,-0.44920541907405237,-0.7589253591800339,0.47143055641630727,0.46925822436363485,0.24860275721595648,0.8473448924887317,,-0.09313508770947523,0.6116067624507842,1.1857951693503068,0.9962010248067968,0.04611782328827141,-0.0738692395320274,0.08441684700402388,-0.7197210881268231,0.68911200196154,-0.021384903922802456,-0.692729890852628,-0.7208800067996884,,0.15498630287378304,0.648144951017686,-0.391376003620892,0.9992210089941994,0.01851681064918901,-0.03484971890842085,0.03681130040172831,-0.7556151173058726,0.6539806745321807,-0.014223338122521809,-0.6547540929404064,-0.7557081278049335,,0.0,0.0,0.045,1.0,0.0,0.0,0.0,1.0,0.0,0.0,0.0,1.0,,-0.02272741252427273,-0.20692986320293497,0.201818166158785,True,,0.15100504975778942,0.5113555041743091,-0.39365605031595574,0.29209005461368553,-0.5683526963146722,-0.7691934818936106,0.6929224746525989,0.6801073354468958,-0.23940020132122275,0.659197879332976,-0.46306503308192637,0.5924769455596917
09:58:32.381847,,-0.14723390224709026,-0.9240018202023399,0.09441917102000001,-3.6374684309500576,-0.8517983246716542,1.2035102125263049,,0.1509970268367397,0.5113447217410444,-0.39364878441838563,0.2877573736660611,-0.5857183149580514,-0.7577135008850718,0.7068374939281009,0.6637290231481983,-0.24463143912461516,0.646201556078483,-0.4651858116424439,0.6050005864198049,,0.0009154197839763402,0.2637183367821132,-0.09108750753761372,-0.7602499466731519,0.6019019228131522,0.24440556418058457,-0.44927751924359394,-0.7588932474151684,0.4714135505425275,0.46922245810587737,0.24858620284846883,0.847369559559221,,-0.09313508770947523,0.6116067624507842,1.1857951693503068,0.9962010248067968,0.04611782328827141,-0.0738692395320274,0.08441684700402388,-0.7197210881268231,0.68911200196154,-0.021384903922802456,-0.692729890852628,-0.7208800067996884,,0.15498630287378304,0.648144951017686,-0.391376003620892,0.9992210089941994,0.01851681064918901,-0.03484971890842085,0.03681130040172831,-0.7556151173058726,0.6539806745321807,-0.014223338122521809,-0.6547540929404064,-0.7557081278049335,,0.0,0.0,0.045,1.0,0.0,0.0,0.0,1.0,0.0,0.0,0.0,1.0,,-0.02272741252427273,-0.20692986320293497,0.201818166158785,False,,0.1509970268367397,0.5113447217410444,-0.39364878441838563,0.2926592918594535,-0.5683994882370004,-0.7689424950282299,0.6931149209899096,0.6800819417284101,-0.23891475223616207,0.6587429279995912,-0.4630448944830635,0.5929984658527323
09:58:32.394762,,-0.14736518870595208,-0.923970929270843,0.09443602279,-3.6378877840087327,-0.8522007490770108,1.2040585694351904,,0.15099486559720587,0.5113377414015907,-0.39364709007588117,0.2876454318642631,-0.585734077121287,-0.7577438197877273,0.7068562116410942,0.6636844381659921,-0.24469830935397197,0.6462309197121585,-0.4652295749790266,0.604935567620893,,0.0009137276285681173,0.2637174794235294,-0.09108677384559066,-0.7602269623802351,0.6019510995481387,0.2443559686127315,-0.4493504857330573,-0.7588605486293934,0.4713966574755492,0.4691898406992045,0.24856697580419168,0.8473932687353449,,-0.09313508770947523,0.6116067624507842,1.1857951693503068,0.9962010248067968,0.04611782328827141,-0.0738692395320274,0.08441684700402388,-0.7197210881268231,0.68911200196154,-0.021384903922802456,-0.692729890852628,-0.7208800067996884,,0.15498630287378304,0.648144951017686,-0.391376003620892,0.9992210089941994,0.01851681064918901,-0.03484971890842085,0.03681130040172831,-0.7556151173058726,0.6539806745321807,-0.014223338122521809,-0.6547540929404064,-0.7557081278049335,,0.0,0.0,0.045,1.0,0.0,0.0,0.0,1.0,0.0,0.0,0.0,1.0,,-0.02272741252427273,-0.20692986320293497,0.201818166158785,False,,0.15099486559720587,0.5113377414015907,-0.39364709007588117,0.29284447604408914,-0.5683732769361939,-0.7688913648333395,0.6932994026513556,0.6800007914020427,-0.23861027215078026,0.6584664388818435,-0.463196223816007,0.5931873288505538
09:58:32.406406,,-0.14740380237032322,-0.9239554838050945,0.09444380053000001,-3.6378877840087327,-0.8526031734823675,1.2046069263440766,,0.1509885607854319,0.5113311505588963,-0.3936449852486442,0.2876749801714496,-0.5857952352446238,-0.7576853226426206,0.7068512718965476,0.6636751117891503,-0.24473787081261472,0.6462231698117835,-0.4651658718740607,0.604992831727828,,0.0009139439165021229,0.26371774047670005,-0.09108684518727427,-0.7602261650386118,0.6019519153927076,0.24435643949337527,-0.44935062427732697,-0.75885986304875,0.4713976290684466,0.4691909999439521,0.24856709312543113,0.847392592464031,,-0.09313508770947523,0.6116067624507842,1.1857951693503068,0.9962010248067968,0.04611782328827141,-0.0738692395320274,0.08441684700402388,-0.7197210881268231,0.68911200196154,-0.021384903922802456,-0.692729890852628,-0.7208800067996884,,0.15498630287378304,0.648144951017686,-0.391376003620892,0.9992210089941994,0.01851681064918901,-0.03484971890842085,0.03681130040172831,-0.7556151173058726,0.6539806745321807,-0.014223338122521809,-0.6547540929404064,-0.7557081278049335,,0.0,0.0,0.045,1.0,0.0,0.0,0.0,1.0,0.0,0.0,0.0,1.0,,-0.02272741252427273,-0.20692986320293497,0.201818166158785,False,,0.1509885607854319,0.5113311505588963,-0.3936449852486442,0.2928089331232153,-0.568195861358538,-0.7690360146431854,0.6933915094965516,0.6799832479348802,-0.2383925273284065,0.658385254422772,-0.46343958145907277,0.593087355366561
