AlexandreBanks6/RCL_Autocam_Public/dataCollection/ParticipantData/P02/optimizationData/Data_40.csv
System Time,q_des,q0,q1,q2,q3,q4,q5,T_des,Tx,Ty,Tz,R00,R01,R02,R10,R11,R12,R20,R21,R22,T_target,Tx,Ty,Tz,R00,R01,R02,R10,R11,R12,R20,R21,R22,worldFrame,Tx,Ty,Tz,R00,R01,R02,R10,R11,R12,R20,R21,R22,ECM_T_PSM_RCM,Tx,Ty,Tz,R00,R01,R02,R10,R11,R12,R20,R21,R22,psm3_T_cam,Tx,Ty,Tz,R00,R01,R02,R10,R11,R12,R20,R21,R22,offset,x,y,z,IK Trigered,ECM_T_PSM3,Tx,Ty,Tz,R00,R01,R02,R10,R11,R12,R20,R21,R22,solverSuccess,q_solverOutput,q0,q1,q2,q3,q4,q5
08:48:09.638697,,-0.24525855061962198,-0.8813646120037464,0.15762627142000002,2.3936672589189447,-0.7883494100937498,1.1322984104417484,,0.07265815237995775,0.4355050032817428,-0.47026475769175324,0.5264142838549317,-0.47650494367921276,-0.704152710995825,0.7223681799252409,0.6874478106346714,0.07483127878829735,0.4484107652420873,-0.5480497662647685,0.7060943558138234,,-0.030630905356359258,0.2605154978109006,-0.09445926861473436,-0.9172549574531852,0.20643816521059905,0.34062681481650436,-0.007285401857045404,-0.8637531929283935,0.5038624262889495,0.39823393369643567,0.4596887051587053,0.7937858832217767,,0.09743898479018476,0.7671521447401868,1.1300580787669483,0.9839432571957165,-0.09444030876536642,-0.15144865367307245,0.015272332831812035,-0.8008775000578685,0.5986334318687297,-0.177826945283774,-0.591334303064993,-0.7865756921934981,,0.0966878306724888,0.6343886657445266,-0.47853500164048035,0.9735255542314887,-0.13991518671892594,-0.18075324556887118,0.00830570128027848,-0.7685967560216991,0.6396796401005458,-0.2284272544695911,-0.6242457586226189,-0.7470864891410871,,0.0,0.0,0.045,1.0,0.0,0.0,0.0,1.0,0.0,0.0,0.0,1.0,,0.015666449378224347,-0.17545704850908886,0.23875541232997038,True,,0.07265815237995775,0.4355050032817428,-0.47026475769175324,0.5995843959281948,-0.6531647767793046,-0.4624654868574118,0.6352532739232918,0.739892612572614,-0.22138699110428997,0.4867769819220717,-0.1610425292750736,0.8585531280215142,False,,0.0,0.0,0.0,0.0,0.0,0.0
08:48:12.806271,,-0.24525855061962198,-0.8813646120037464,0.15762627142000002,2.3936672589189447,-0.7880811271568453,1.1321624446493253,,0.060853285362673266,0.4411463724960072,-0.4639708695535021,0.47366513685576844,-0.6314428908868868,-0.6139390960639478,0.7423356292391654,0.6613513049707821,-0.10748146340432833,0.4738978283232566,-0.40483864311828566,0.7820016121138411,,-0.030651715765434726,0.2605108207249334,-0.09444998764381711,-0.9172546002673331,0.20645815894570568,0.34061565384908143,-0.007275638902403944,-0.8637129504586782,0.5039315440041428,0.39823493081452477,0.45975533120192,0.7937467934199395,,0.09743898479018476,0.7671521447401868,1.1300580787669483,0.9839432571957165,-0.09444030876536642,-0.15144865367307245,0.015272332831812035,-0.8008775000578685,0.5986334318687297,-0.177826945283774,-0.591334303064993,-0.7865756921934981,,0.09675025247127801,0.6343813609024196,-0.4785744668065528,0.9735407278833508,-0.13977704901566929,-0.18077839395466172,0.008438018268525166,-0.7685771585199339,0.6397014547811537,-0.22835772594781134,-0.6243008313064269,-0.7470617250468992,,0.0,0.0,0.045,1.0,0.0,0.0,0.0,1.0,0.0,0.0,0.0,1.0,,0.015666449378224347,-0.17545704850908886,0.23875541232997038,True,,0.07271007579239165,0.43549233852106367,-0.47029240778273274,0.5996205176254912,-0.6531250595715269,-0.4624747467724347,0.6350826663351682,0.7399737488732441,-0.22160518472971377,0.4869550716063563,-0.16083067971679602,0.8584918466116507,True,,-0.33770650029524396,-0.8591804474424607,0.1553560208700085,2.55633005523186,-0.9368275969859661,1.1165070881324222
08:48:12.872040,,-0.24525855061962198,-0.8813646120037464,0.15762627142000002,2.3936672589189447,-0.7880811271568453,1.1321624446493253,,0.06085521520503647,0.44113107310437166,-0.4639563169298195,0.4736471534697006,-0.631360992534711,-0.614037190335923,0.7423429967768715,0.661356652639729,-0.1073976403162875,0.4739042615828474,-0.4049576213812469,0.7819361071972944,,-0.030657911265609364,0.2605099842544333,-0.09444726362516943,-0.9172529782662426,0.2064688996362658,0.3406135115831966,-0.007273991456126394,-0.8636979282510588,0.5039573143744062,0.39823869706288334,0.45977872846202605,0.7937313512416141,,0.09743898479018476,0.7671521447401868,1.1300580787669483,0.9839432571957165,-0.09444030876536642,-0.15144865367307245,0.015272332831812035,-0.8008775000578685,0.5986334318687297,-0.177826945283774,-0.591334303064993,-0.7865756921934981,,0.09675025247127801,0.6343813609024196,-0.4785744668065528,0.9735407278833508,-0.13977704901566929,-0.18077839395466172,0.008438018268525166,-0.7685771585199339,0.6397014547811537,-0.22835772594781134,-0.6243008313064269,-0.7470617250468992,,0.0,0.0,0.045,1.0,0.0,0.0,0.0,1.0,0.0,0.0,0.0,1.0,,0.015666449378224347,-0.17545704850908886,0.23875541232997038,True,,0.07271007579239165,0.43549233852106367,-0.47029240778273274,0.5996205176254912,-0.6531250595715269,-0.4624747467724347,0.6350826663351682,0.7399737488732441,-0.22160518472971377,0.4869550716063563,-0.16083067971679602,0.8584918466116507,True,,-0.3376591225292399,-0.859109531411214,0.15537117435916314,2.5564174012401133,-0.9367569265870624,1.1166015931584632
08:48:12.977779,,-0.24525855061962198,-0.8813646120037464,0.15762627142000002,2.3936672589189447,-0.7880811271568453,1.1321624446493253,,0.0675826574674763,0.4354302568934554,-0.46455183985157955,0.511684096494586,-0.5622697305302041,-0.6496400045594574,0.7283918918787479,0.68489528080662,-0.019071082143392756,0.455658465563648,-0.4634341425254655,0.7600027357199901,,-0.030661009017832582,0.26050956601638425,-0.09444590162022037,-0.9172521674227071,0.20647426999234852,0.34061244038552974,-0.0072731676883484725,-0.863690417006639,0.5039701994747194,0.3982405802351594,0.4597904269968418,0.7937236300198821,,0.09743898479018476,0.7671521447401868,1.1300580787669483,0.9839432571957165,-0.09444030876536642,-0.15144865367307245,0.015272332831812035,-0.8008775000578685,0.5986334318687297,-0.177826945283774,-0.591334303064993,-0.7865756921934981,,0.09675025247127801,0.6343813609024196,-0.4785744668065528,0.9735407278833508,-0.13977704901566929,-0.18077839395466172,0.008438018268525166,-0.7685771585199339,0.6397014547811537,-0.22835772594781134,-0.6243008313064269,-0.7470617250468992,,0.0,0.0,0.045,1.0,0.0,0.0,0.0,1.0,0.0,0.0,0.0,1.0,,0.015666449378224347,-0.17545704850908886,0.23875541232997038,True,,0.07271007579239165,0.43549233852106367,-0.47029240778273274,0.5996205176254912,-0.6531250595715269,-0.4624747467724347,0.6350826663351682,0.7399737488732441,-0.22160518472971377,0.4869550716063563,-0.16083067971679602,0.8584918466116507,False,,-0.28367972228673427,-0.859802273347933,0.15959850774643625,2.4871233432528186,-0.9071220608494008,1.3123814556888311
08:48:13.079222,,-0.24525855061962198,-0.8813646120037464,0.15762627142000002,2.3936672589189447,-0.7880811271568453,1.1321624446493253,,0.0675846075124988,0.4354320198312118,-0.4645520265476847,0.5119098295668876,-0.5622630025183853,-0.6494679687188667,0.7282983639729446,0.6849973219610914,-0.018977932987174647,0.4555544088548949,-0.4632914686297861,0.7601520871955322,,-0.03066331245266694,0.26050888153083446,-0.09444486264739728,-0.9172525831437316,0.2064750464990931,0.3406108507787302,-0.0072717093132017435,-0.8636868746883226,0.5039762916186071,0.39823964988267724,0.4597967327452168,0.7937204442352532,,0.09743898479018476,0.7671521447401868,1.1300580787669483,0.9839432571957165,-0.09444030876536642,-0.15144865367307245,0.015272332831812035,-0.8008775000578685,0.5986334318687297,-0.177826945283774,-0.591334303064993,-0.7865756921934981,,0.09675025247127801,0.6343813609024196,-0.4785744668065528,0.9735407278833508,-0.13977704901566929,-0.18077839395466172,0.008438018268525166,-0.7685771585199339,0.6397014547811537,-0.22835772594781134,-0.6243008313064269,-0.7470617250468992,,0.0,0.0,0.045,1.0,0.0,0.0,0.0,1.0,0.0,0.0,0.0,1.0,,0.015666449378224347,-0.17545704850908886,0.23875541232997038,True,,0.07271007579239165,0.43549233852106367,-0.47029240778273274,0.5996205176254912,-0.6531250595715269,-0.4624747467724347,0.6350826663351682,0.7399737488732441,-0.22160518472971377,0.4869550716063563,-0.16083067971679602,0.8584918466116507,False,,-0.28368492864972894,-0.8597903101023444,0.15959575129255343,2.4867215136848606,-0.907033813501768,1.312586592581467
08:48:13.181822,,-0.24525855061962198,-0.8813646120037464,0.15762627142000002,2.3936672589189447,-0.7880811271568453,1.1321624446493253,,0.06759123103297841,0.4354373750308135,-0.46455299338073897,0.5126235839804484,-0.5622258139885398,-0.6489369732354326,0.7279980984172705,0.6853247757975014,-0.01867405630662813,0.4552316221967436,-0.46285212083669763,0.7606129662246712,,-0.03066983364774046,0.2605077585993704,-0.09444215843037515,-0.917246097886411,0.20643189686010144,0.3406544492239663,-0.0071870562257036336,-0.8636640387267016,0.5040166270454595,0.39825610860368726,0.4598589849880218,0.793676112649754,,0.09743898479018476,0.7671521447401868,1.1300580787669483,0.9839432571957165,-0.09444030876536642,-0.15144865367307245,0.015272332831812035,-0.8008775000578685,0.5986334318687297,-0.177826945283774,-0.591334303064993,-0.7865756921934981,,0.09675025247127801,0.6343813609024196,-0.4785744668065528,0.9735407278833508,-0.13977704901566929,-0.18077839395466172,0.008438018268525166,-0.7685771585199339,0.6397014547811537,-0.22835772594781134,-0.6243008313064269,-0.7470617250468992,,0.0,0.0,0.045,1.0,0.0,0.0,0.0,1.0,0.0,0.0,0.0,1.0,,0.015666449378224347,-0.17545704850908886,0.23875541232997038,True,,0.07271007579239165,0.43549233852106367,-0.47029240778273274,0.5996205176254912,-0.6531250595715269,-0.4624747467724347,0.6350826663351682,0.7399737488732441,-0.22160518472971377,0.4869550716063563,-0.16083067971679602,0.8584918466116507,False,,-0.28369726237884774,-0.8597541620558214,0.15958709620176476,2.485455721425357,-0.9067469569256337,1.3132548852473138
08:48:13.255689,,-0.24525855061962198,-0.8813646120037464,0.15762627142000002,2.3936672589189447,-0.7880811271568453,1.1321624446493253,,0.0677290677392346,0.4355417645695756,-0.46458236453573204,0.5070352812625951,-0.5431651691065764,-0.669243470363653,0.7301121572488941,0.6833258034899631,-0.0014436489056142109,0.4580954719186029,-0.48789081294304043,0.743041784325385,,-0.03066230158252639,0.2605119193575728,-0.09444169386827843,-0.9172426845226539,0.20637950518142,0.3406953736026842,-0.007110045803958159,-0.8636584497633677,0.5040272903965889,0.3982653449672291,0.4598929897888573,0.7936517706177724,,0.09743898479018476,0.7671521447401868,1.1300580787669483,0.9839432571957165,-0.09444030876536642,-0.15144865367307245,0.015272332831812035,-0.8008775000578685,0.5986334318687297,-0.177826945283774,-0.591334303064993,-0.7865756921934981,,0.09676540415446128,0.6343880529323506,-0.47855743692471586,0.9735429926542991,-0.1397718323180331,-0.1807702308018961,0.00843285660729276,-0.7685878199474827,0.6396887133268938,-0.22834826117829757,-0.6242888737746619,-0.7470746105296393,,0.0,0.0,0.045,1.0,0.0,0.0,0.0,1.0,0.0,0.0,0.0,1.0,,0.015666449378224347,-0.17545704850908886,0.23875541232997038,True,,0.07264768510507066,0.4354912628592698,-0.4702890595756589,0.5996754356151505,-0.6530963484071801,-0.4624440848545768,0.635051148982517,0.7400066055345064,-0.22158578912304533,0.4869285472179309,-0.16079609280857848,0.8585133699842599,True,,-0.2824734284967809,-0.8602482250816768,0.15948238629484776,2.495603320704063,-0.9083125054745953,1.3379211760029714
08:48:13.338452,,-0.24525855061962198,-0.8813646120037464,0.15762627142000002,2.3936672589189447,-0.7882152686252976,1.1322304275455368,,0.06081164912909615,0.4411667942833596,-0.46396086618446225,0.4738129731896286,-0.6315503991251705,-0.6137143959546993,0.7423141166743705,0.6613729667271521,-0.10749674910654104,0.47378372557861614,-0.40463550542106785,0.7821758684141843,,-0.030655214249345298,0.2605156465084997,-0.0944410074708926,-0.9172401707981346,0.20632466890820217,0.3407353526528225,-0.007032071252480468,-0.8636538228656113,0.5040363128752026,0.3982725191642308,0.4599262829224372,0.7936288775170932,,0.09743898479018476,0.7671521447401868,1.1300580787669483,0.9839432571957165,-0.09444030876536642,-0.15144865367307245,0.015272332831812035,-0.8008775000578685,0.5986334318687297,-0.177826945283774,-0.591334303064993,-0.7865756921934981,,0.09676540415446128,0.6343880529323506,-0.47855743692471586,0.9735429926542991,-0.1397718323180331,-0.1807702308018961,0.00843285660729276,-0.7685878199474827,0.6396887133268938,-0.22834826117829757,-0.6242888737746619,-0.7470746105296393,,0.0,0.0,0.045,1.0,0.0,0.0,0.0,1.0,0.0,0.0,0.0,1.0,,0.015666449378224347,-0.17545704850908886,0.23875541232997038,True,,0.0726485457894311,0.43549217443044347,-0.47028836072955493,0.5996224623817096,-0.6531377337690051,-0.46245432567377276,0.6351536353893202,0.7399445370186696,-0.22149930380919358,0.4868601052243098,-0.16091358818731039,0.8585301713263541,True,,-0.33816600586519147,-0.8592270462129653,0.15535418663692555,2.5559717428307236,-0.9370432502974754,1.1161438580675138
08:48:13.409064,,-0.24525855061962198,-0.8813646120037464,0.15762627142000002,2.3934575823896074,-0.7883494100937498,1.1322984104417484,,0.06082877134648221,0.4411479451592073,-0.4639821166399191,0.47388587550702066,-0.6315357912834424,-0.6136731388312024,0.742289549689823,0.6614074102208569,-0.10745446536193519,0.4737493022857392,-0.4046020044845741,0.7822140477841343,,-0.03064790448257767,0.26051959037178496,-0.09444043189751654,-0.9172372037888379,0.20627105682731678,0.34077580642122945,-0.006954578578902915,-0.8636487114209573,0.5040461528855997,0.3982807213053216,0.459959934687061,0.7936052624953107,,0.09743898479018476,0.7671521447401868,1.1300580787669483,0.9839432571957165,-0.09444030876536642,-0.15144865367307245,0.015272332831812035,-0.8008775000578685,0.5986334318687297,-0.177826945283774,-0.591334303064993,-0.7865756921934981,,0.09676540415446128,0.6343880529323506,-0.47855743692471586,0.9735429926542991,-0.1397718323180331,-0.1807702308018961,0.00843285660729276,-0.7685878199474827,0.6396887133268938,-0.22834826117829757,-0.6242888737746619,-0.7470746105296393,,0.0,0.0,0.045,1.0,0.0,0.0,0.0,1.0,0.0,0.0,0.0,1.0,,0.015666449378224347,-0.17545704850908886,0.23875541232997038,True,,0.07265051375015888,0.435492905292591,-0.4702887901077587,0.599672359423641,-0.6532102355425041,-0.4622871937722153,0.6352393075229766,0.7398893922047207,-0.22143782305798157,0.48668684338187385,-0.16087285502978757,0.8586360352288696,True,,-0.33802983668642705,-0.8593339572803311,0.1553682082723848,2.555753035648348,-0.937070037335412,1.1164685370452332
08:48:13.495913,,-0.24525855061962198,-0.8813646120037464,0.15762627142000002,2.3932479058602696,-0.7883494100937498,1.1322984104417484,,0.06769901006168658,0.43556223598292343,-0.4645454283435297,0.5138923847978796,-0.5390027363902061,-0.6673759562724884,0.7274418051669261,0.6861432865923757,0.005984175774255192,0.4546900449121712,-0.488552392715544,0.7446969334096153,,-0.030640149883417105,0.26052396769835684,-0.09444007805689421,-0.9172333325401106,0.20621989207834746,0.34081720855942715,-0.006878049739072495,-0.8636426335770269,0.5040576294052166,0.3982909815333912,0.45999430153102394,0.793580201649358,,0.09743898479018476,0.7671521447401868,1.1300580787669483,0.9839432571957165,-0.09444030876536642,-0.15144865367307245,0.015272332831812035,-0.8008775000578685,0.5986334318687297,-0.177826945283774,-0.591334303064993,-0.7865756921934981,,0.09676540415446128,0.6343880529323506,-0.47855743692471586,0.9735429926542991,-0.1397718323180331,-0.1807702308018961,0.00843285660729276,-0.7685878199474827,0.6396887133268938,-0.22834826117829757,-0.6242888737746619,-0.7470746105296393,,0.0,0.0,0.045,1.0,0.0,0.0,0.0,1.0,0.0,0.0,0.0,1.0,,0.015666449378224347,-0.17545704850908886,0.23875541232997038,True,,0.07265162086803424,0.43549272446780096,-0.4702899184690117,0.5997752186987714,-0.6532413239277389,-0.4621097918763203,0.6352225075893488,0.7398963319190935,-0.22146282727485084,0.48658201044298877,-0.16071462511484635,0.8587250761375574,True,,-0.2832575771428746,-0.8597057033431673,0.15945035019894332,2.4832690429203526,-0.9060166640430241,1.3499838476554082
08:48:13.585474,,-0.24525855061962198,-0.8813646120037464,0.15762627142000002,2.3932479058602696,-0.7883494100937498,1.1322984104417484,,0.06768396138632107,0.4355171947418029,-0.46456939843157746,0.5215814758632946,-0.5459812434735883,-0.6556349943461697,0.7243848328423239,0.6893923803742367,0.002181703449751169,0.450798600246569,-0.47606998189024535,0.7550748269931636,,-0.030634198469518557,0.2605275974280149,-0.09443871629498614,-0.9172358153467868,0.20621986804796455,0.34081054129859084,-0.006882269498136029,-0.8636433018923355,0.5040564268570558,0.3982851910434449,0.45999305767764304,0.7935838288906234,,0.09743898479018476,0.7671521447401868,1.1300580787669483,0.9839432571957165,-0.09444030876536642,-0.15144865367307245,0.015272332831812035,-0.8008775000578685,0.5986334318687297,-0.177826945283774,-0.591334303064993,-0.7865756921934981,,0.09676540415446128,0.6343880529323506,-0.47855743692471586,0.9735429926542991,-0.1397718323180331,-0.1807702308018961,0.00843285660729276,-0.7685878199474827,0.6396887133268938,-0.22834826117829757,-0.6242888737746619,-0.7470746105296393,,0.0,0.0,0.045,1.0,0.0,0.0,0.0,1.0,0.0,0.0,0.0,1.0,,0.015666449378224347,-0.17545704850908886,0.23875541232997038,True,,0.07265162086803424,0.43549272446780096,-0.4702899184690117,0.5997752186987714,-0.6532413239277389,-0.4621097918763203,0.6352225075893488,0.7398963319190935,-0.22146282727485084,0.48658201044298877,-0.16071462511484635,0.8587250761375574,True,,-0.28391667799699805,-0.8594194545720613,0.15947519216192046,2.469198318556507,-0.9035387063128745,1.3463459311175163
08:48:13.681993,,-0.24525855061962198,-0.8813646120037464,0.15762627142000002,2.3932479058602696,-0.7883494100937498,1.1322984104417484,,0.06766820590912684,0.43553312585417947,-0.4645476491371678,0.5124421477205023,-0.5558290856224679,-0.6545663242297837,0.728015659716395,0.6854534725889674,-0.01211346867862986,0.4554077782024605,-0.4703270824562596,0.7559075281149684,,-0.03063397608532458,0.26052781420714416,-0.0944388271803534,-0.9172353645478094,0.20622109106453249,0.34081101452011525,-0.006882751464133641,-0.863642819727498,0.5040572464121993,0.3982862208893993,0.4599934146577747,0.7935831051102024,,0.09743898479018476,0.7671521447401868,1.1300580787669483,0.9839432571957165,-0.09444030876536642,-0.15144865367307245,0.015272332831812035,-0.8008775000578685,0.5986334318687297,-0.177826945283774,-0.591334303064993,-0.7865756921934981,,0.09676540415446128,0.6343880529323506,-0.47855743692471586,0.9735429926542991,-0.1397718323180331,-0.1807702308018961,0.00843285660729276,-0.7685878199474827,0.6396887133268938,-0.22834826117829757,-0.6242888737746619,-0.7470746105296393,,0.0,0.0,0.045,1.0,0.0,0.0,0.0,1.0,0.0,0.0,0.0,1.0,,0.015666449378224347,-0.17545704850908886,0.23875541232997038,True,,0.07265162086803424,0.43549272446780096,-0.4702899184690117,0.5997752186987714,-0.6532413239277389,-0.4621097918763203,0.6352225075893488,0.7398963319190935,-0.22146282727485084,0.48658201044298877,-0.16071462511484635,0.8587250761375574,True,,-0.28333410194264513,-0.8598070839113263,0.15948816384843098,2.4858587984098213,-0.9066006856080219,1.3231123626933365
08:48:13.783169,,-0.24525855061962198,-0.8813646120037464,0.15762627142000002,2.3932479058602696,-0.7883494100937498,1.1322984104417484,,0.06766745252760775,0.4355337014955396,-0.4645475996836734,0.5121338454158939,-0.5559612869131983,-0.6546953274870304,0.7281376660355832,0.6853190549625814,-0.01238273820479808,0.45555950618967805,-0.47036670838720646,0.7557914368138886,,-0.030633531318375047,0.26052824776590533,-0.09443904895305877,-0.917234462943026,0.20622353709718597,0.34081196095790584,-0.0068837153929008355,-0.8636418553920218,0.5040588855209721,0.3982882805798296,0.4599941286118558,0.7935816575442071,,0.09743898479018476,0.7671521447401868,1.1300580787669483,0.9839432571957165,-0.09444030876536642,-0.15144865367307245,0.015272332831812035,-0.8008775000578685,0.5986334318687297,-0.177826945283774,-0.591334303064993,-0.7865756921934981,,0.09676540415446128,0.6343880529323506,-0.47855743692471586,0.9735429926542991,-0.1397718323180331,-0.1807702308018961,0.00843285660729276,-0.7685878199474827,0.6396887133268938,-0.22834826117829757,-0.6242888737746619,-0.7470746105296393,,0.0,0.0,0.045,1.0,0.0,0.0,0.0,1.0,0.0,0.0,0.0,1.0,,0.015666449378224347,-0.17545704850908886,0.23875541232997038,True,,0.07265162086803424,0.43549272446780096,-0.4702899184690117,0.5997752186987714,-0.6532413239277389,-0.4621097918763203,0.6352225075893488,0.7398963319190935,-0.22146282727485084,0.48658201044298877,-0.16071462511484635,0.8587250761375574,True,,-0.2833161062550722,-0.8598234468954224,0.1594885757522797,2.4864163489337776,-0.9067072243933085,1.3226377072182558
08:48:13.882285,,-0.24525855061962198,-0.8813646120037464,0.15762627142000002,2.3932479058602696,-0.7883494100937498,1.1322984104417484,,0.06766783079954444,0.4355334137050577,-0.464547620406584,0.5122879792063535,-0.5558959370450294,-0.6546302265687858,0.7280766749074318,0.68538625582294,-0.012248909533090975,0.4554836789791802,-0.4703460295419114,0.7558500054096386,,-0.03063375370249806,0.2605280309867433,-0.09443893806768228,-0.9172349137429086,0.2062223140801197,0.34081148773853176,-0.006883233429027899,-0.8636423375572926,0.5040580659648339,0.3982872507332772,0.45999377163401667,0.793582381324908,,0.09743898479018476,0.7671521447401868,1.1300580787669483,0.9839432571957165,-0.09444030876536642,-0.15144865367307245,0.015272332831812035,-0.8008775000578685,0.5986334318687297,-0.177826945283774,-0.591334303064993,-0.7865756921934981,,0.09676540415446128,0.6343880529323506,-0.47855743692471586,0.9735429926542991,-0.1397718323180331,-0.1807702308018961,0.00843285660729276,-0.7685878199474827,0.6396887133268938,-0.22834826117829757,-0.6242888737746619,-0.7470746105296393,,0.0,0.0,0.045,1.0,0.0,0.0,0.0,1.0,0.0,0.0,0.0,1.0,,0.015666449378224347,-0.17545704850908886,0.23875541232997038,True,,0.07265162086803424,0.43549272446780096,-0.4702899184690117,0.5997752186987714,-0.6532413239277389,-0.4621097918763203,0.6352225075893488,0.7398963319190935,-0.22146282727485084,0.48658201044298877,-0.16071462511484635,0.8587250761375574,True,,-0.28332509190394456,-0.8598152473585324,0.15948836971879324,2.486137632438398,-0.9066539437283033,1.3228738591543925
08:48:13.968444,,-0.24525855061962198,-0.8813646120037464,0.15762627142000002,2.3932479058602696,-0.7883494100937498,1.1322984104417484,,0.06768488192884932,0.4355160277695199,-0.46457047787358735,0.5216736580818341,-0.5456722757293787,-0.6558188484359373,0.7243385505862621,0.6894398132353161,0.002531414751856501,0.450766301533412,-0.4763554465169616,0.7549140546946491,,-0.030634044484839567,0.2605282608471395,-0.0944392005224605,-0.9172202370324265,0.20631759390104998,0.3407932911698871,-0.006974435947819685,-0.8636317808877387,0.5040748797204889,0.3983194372645299,0.45997084425960855,0.7935795035216786,,0.09743898479018476,0.7671521447401868,1.1300580787669483,0.9839432571957165,-0.09444030876536642,-0.15144865367307245,0.015272332831812035,-0.8008775000578685,0.5986334318687297,-0.177826945283774,-0.591334303064993,-0.7865756921934981,,0.09676540415446128,0.6343880529323506,-0.47855743692471586,0.9735429926542991,-0.1397718323180331,-0.1807702308018961,0.00843285660729276,-0.7685878199474827,0.6396887133268938,-0.22834826117829757,-0.6242888737746619,-0.7470746105296393,,0.0,0.0,0.045,1.0,0.0,0.0,0.0,1.0,0.0,0.0,0.0,1.0,,0.015666449378224347,-0.17545704850908886,0.23875541232997038,True,,0.07265162086803424,0.43549272446780096,-0.4702899184690117,0.5997752186987714,-0.6532413239277389,-0.4621097918763203,0.6352225075893488,0.7398963319190935,-0.22146282727485084,0.48658201044298877,-0.16071462511484635,0.8587250761375574,True,,-0.283914668083974,-0.8594195901462904,0.15947575505368466,2.469040598887746,-0.9034917081476292,1.3468897153753383
08:48:14.055382,,-0.24525855061962198,-0.8813646120037464,0.15762627142000002,2.3932479058602696,-0.7883494100937498,1.1322984104417484,,0.0676858983808297,0.4355146949318897,-0.46457163125085665,0.5217668334524845,-0.5452910098154519,-0.6560618005366661,0.7242899222775128,0.6894892172760284,0.0029542761084206805,0.4507365971342931,-0.47672039381018194,0.7547013887156054,,-0.03063411288088352,0.26052870751008084,-0.09443957370654968,-0.91720510418881,0.20641409588569798,0.34077556791278657,-0.007066119618614322,-0.8636207370129942,0.504092513702858,0.39835265358740585,0.45994827256705784,0.7935759067405271,,0.09743898479018476,0.7671521447401868,1.1300580787669483,0.9839432571957165,-0.09444030876536642,-0.15144865367307245,0.015272332831812035,-0.8008775000578685,0.5986334318687297,-0.177826945283774,-0.591334303064993,-0.7865756921934981,,0.09676540415446128,0.6343880529323506,-0.47855743692471586,0.9735429926542991,-0.1397718323180331,-0.1807702308018961,0.00843285660729276,-0.7685878199474827,0.6396887133268938,-0.22834826117829757,-0.6242888737746619,-0.7470746105296393,,0.0,0.0,0.045,1.0,0.0,0.0,0.0,1.0,0.0,0.0,0.0,1.0,,0.015666449378224347,-0.17545704850908886,0.23875541232997038,True,,0.07265162086803424,0.43549272446780096,-0.4702899184690117,0.5997752186987714,-0.6532413239277389,-0.4621097918763203,0.6352225075893488,0.7398963319190935,-0.22146282727485084,0.48658201044298877,-0.16071462511484635,0.8587250761375574,True,,-0.28391159923721626,-0.8594200133374564,0.1594764318181346,2.468883619350421,-0.9034408923738122,1.3475413953761923
08:48:14.148465,,-0.24525855061962198,-0.8813646120037464,0.15762627142000002,2.3932479058602696,-0.7883494100937498,1.1322984104417484,,0.06768669090559315,0.4355137839440524,-0.4645724916090871,0.5218249611087074,-0.54499873573573,-0.6562584003350758,0.7242581701529228,0.6895211318803859,0.0032728668063315737,0.45072032673337026,-0.4770083717680942,0.7545291249067303,,-0.030633958896162133,0.2605293709805788,-0.09444005761755533,-0.9171895150589804,0.20651181996636764,0.3407583178379166,-0.007158284354387104,-0.8636092058074861,0.5041109680470566,0.39838689979296477,0.4599260563986534,0.7935715911085833,,0.09743898479018476,0.7671521447401868,1.1300580787669483,0.9839432571957165,-0.09444030876536642,-0.15144865367307245,0.015272332831812035,-0.8008775000578685,0.5986334318687297,-0.177826945283774,-0.591334303064993,-0.7865756921934981,,0.09676540415446128,0.6343880529323506,-0.47855743692471586,0.9735429926542991,-0.1397718323180331,-0.1807702308018961,0.00843285660729276,-0.7685878199474827,0.6396887133268938,-0.22834826117829757,-0.6242888737746619,-0.7470746105296393,,0.0,0.0,0.045,1.0,0.0,0.0,0.0,1.0,0.0,0.0,0.0,1.0,,0.015666449378224347,-0.17545704850908886,0.23875541232997038,True,,0.07265162086803424,0.43549272446780096,-0.4702899184690117,0.5997752186987714,-0.6532413239277389,-0.4621097918763203,0.6352225075893488,0.7398963319190935,-0.22146282727485084,0.48658201044298877,-0.16071462511484635,0.8587250761375574,True,,-0.2839082786977928,-0.85942092799677,0.1594768800015127,2.468787284605791,-0.9034067419632604,1.3480294310802579
08:48:14.245677,,-0.24525855061962198,-0.8813646120037464,0.15762627142000002,2.3934575823896074,-0.7883494100937498,1.1322984104417484,,0.06765716356198198,0.43554039258669053,-0.4645415289212752,0.5071578936862842,-0.5567511864406636,-0.6578897987266601,0.7301403162309072,0.6831269576050845,-0.01525379977095032,0.45791482776376946,-0.47261578072482413,0.752959716269033,,-0.03063447205439411,0.2605293841483949,-0.09444020870181184,-0.9171752744439181,0.20660587454983792,0.34073964826103964,-0.007249002761727616,-0.8635991168242377,0.5041269648870152,0.398418055884169,0.4599027694727768,0.7935694517328562,,0.09743898479018476,0.7671521447401868,1.1300580787669483,0.9839432571957165,-0.09444030876536642,-0.15144865367307245,0.015272332831812035,-0.8008775000578685,0.5986334318687297,-0.177826945283774,-0.591334303064993,-0.7865756921934981,,0.09676540415446128,0.6343880529323506,-0.47855743692471586,0.9735429926542991,-0.1397718323180331,-0.1807702308018961,0.00843285660729276,-0.7685878199474827,0.6396887133268938,-0.22834826117829757,-0.6242888737746619,-0.7470746105296393,,0.0,0.0,0.045,1.0,0.0,0.0,0.0,1.0,0.0,0.0,0.0,1.0,,0.015666449378224347,-0.17545704850908886,0.23875541232997038,True,,0.07265051375015888,0.435492905292591,-0.4702887901077587,0.599672359423641,-0.6532102355425041,-0.4622871937722153,0.6352393075229766,0.7398893922047207,-0.22143782305798157,0.48668684338187385,-0.16087285502978757,0.8586360352288696,True,,-0.28301011566918066,-0.8600601273374394,0.15949819349656935,2.4953732061306417,-0.9084627428991355,1.3170962622446227
08:48:14.347514,,-0.24525855061962198,-0.8813646120037464,0.15762627142000002,2.3936672589189447,-0.7883494100937498,1.1322984104417484,,0.06765504688882933,0.43553570521923024,-0.46454976261933173,0.5087872516594173,-0.5563972189009402,-0.6569304889774539,0.7294566989602598,0.6838782753067241,-0.014262850539142403,0.45719630017188245,-0.4719455894092034,0.7538162267730392,,-0.030634095695768047,0.2605302644722282,-0.09444080316058086,-0.9171592241842497,0.20670481992942907,0.3407228710958976,-0.0073416477239668515,-0.8635870933699118,0.504146241035028,0.39845333187035414,0.4598809080174928,0.7935644225509129,,0.09743898479018476,0.7671521447401868,1.1300580787669483,0.9839432571957165,-0.09444030876536642,-0.15144865367307245,0.015272332831812035,-0.8008775000578685,0.5986334318687297,-0.177826945283774,-0.591334303064993,-0.7865756921934981,,0.0967124241397132,0.6343858233296935,-0.47855446283094927,0.9735323432960252,-0.1398399905096806,-0.18077486996483452,0.008385742765162393,-0.7685784391036001,0.6397006036134015,-0.22839539372506382,-0.6242851592015674,-0.7470633066386323,,0.0,0.0,0.045,1.0,0.0,0.0,0.0,1.0,0.0,0.0,0.0,1.0,,0.015666449378224347,-0.17545704850908886,0.23875541232997038,True,,0.07264940639775058,0.4354930861487091,-0.470287661981693,0.5995694783587013,-0.6531791143222264,-0.4624645772747429,0.6352561103672115,0.739882447717914,-0.22141282212209276,0.4867916544701604,-0.16103107828049876,0.8585469567624266,True,,-0.2831459447893168,-0.8600155183726428,0.15949779765495575,2.492452729980869,-0.9078794500905604,1.3189963944710044
08:48:14.413230,,-0.24525855061962198,-0.8813646120037464,0.15762627142000002,2.3936672589189447,-0.7883494100937498,1.1322984104417484,,0.06112692314679927,0.44101089550280925,-0.46439218459620313,0.47361130464564083,-0.6315956458867014,-0.6138234861984466,0.7421361353788094,0.6614866878093087,-0.10802461949053926,0.4742639441037657,-0.40437890888129996,0.7820175249795299,,-0.030641405458136216,0.260525792930486,-0.09444425093407897,-0.9171586478065507,0.20670032066106994,0.34072715189797353,-0.007337447869910391,-0.8635898873986513,0.5041415159355312,0.3984547357739022,0.4598776833785589,0.7935655862737208,,0.09743898479018476,0.7671521447401868,1.1300580787669483,0.9839432571957165,-0.09444030876536642,-0.15144865367307245,0.015272332831812035,-0.8008775000578685,0.5986334318687297,-0.177826945283774,-0.591334303064993,-0.7865756921934981,,0.0967124241397132,0.6343858233296935,-0.47855446283094927,0.9735323432960252,-0.1398399905096806,-0.18077486996483452,0.008385742765162393,-0.7685784391036001,0.6397006036134015,-0.22839539372506382,-0.6242851592015674,-0.7470633066386323,,0.0,0.0,0.045,1.0,0.0,0.0,0.0,1.0,0.0,0.0,0.0,1.0,,0.015666449378224347,-0.17545704850908886,0.23875541232997038,True,,0.07276146693236915,0.4354825786967183,-0.47032025749962625,0.5994658263613731,-0.6532409553387434,-0.46251159692812255,0.6353072308305342,0.7398195073853272,-0.2214764523523222,0.4868525911190312,-0.16106939734244366,0.8585052147543587,True,,-0.33533345082013927,-0.8614516931742427,0.15541025530798933,2.555109193875943,-0.9375020689938955,1.1200073586596726
08:48:14.533625,,-0.24525855061962198,-0.8813646120037464,0.15762627142000002,2.3936672589189447,-0.7883494100937498,1.1322984104417484,,0.0677461864665022,0.43552572477747586,-0.4645621319285507,0.5081286264948258,-0.5564072734813805,-0.6574315515348341,0.7297138566671967,0.6835976753008741,-0.01455698152527348,0.45751829069925537,-0.4723400939368348,0.7533736452354667,,-0.030648937601579884,0.2605211046105463,-0.09444758782102569,-0.9171585227875133,0.20669459852965155,0.3407309595467501,-0.007332766229680515,-0.863593163885671,0.5041359713471296,0.39845510963520564,0.45987410234254245,0.7935674737393119,,0.09743898479018476,0.7671521447401868,1.1300580787669483,0.9839432571957165,-0.09444030876536642,-0.15144865367307245,0.015272332831812035,-0.8008775000578685,0.5986334318687297,-0.177826945283774,-0.591334303064993,-0.7865756921934981,,0.0967124241397132,0.6343858233296935,-0.47855446283094927,0.9735323432960252,-0.1398399905096806,-0.18077486996483452,0.008385742765162393,-0.7685784391036001,0.6397006036134015,-0.22839539372506382,-0.6242851592015674,-0.7470633066386323,,0.0,0.0,0.045,1.0,0.0,0.0,0.0,1.0,0.0,0.0,0.0,1.0,,0.015666449378224347,-0.17545704850908886,0.23875541232997038,True,,0.07276146693236915,0.4354825786967183,-0.47032025749962625,0.5994658263613731,-0.6532409553387434,-0.46251159692812255,0.6353072308305342,0.7398195073853272,-0.2214764523523222,0.4868525911190312,-0.16106939734244366,0.8585052147543587,True,,-0.2819537611405905,-0.8600905327644875,0.15948218028526065,2.493821072984148,-0.9077059241710187,1.3193409345997509
08:48:14.649924,,-0.24525855061962198,-0.8813646120037464,0.15762627142000002,2.3936672589189447,-0.7883494100937498,1.1322984104417484,,0.06774864509458586,0.43552300014963513,-0.4645636277164053,0.5095646972480575,-0.5553294933191488,-0.65723129350967,0.7291597944633766,0.6842236766657535,-0.012804469068464603,0.45680391138498616,-0.4727019294861159,0.753580169858179,,-0.030656247355076056,0.2605166330577704,-0.09445103559016382,-0.9171579464240528,0.20669009925694853,0.3407352403115059,-0.007328566428315017,-0.8635959579141232,0.5041312462030758,0.3984565136060555,0.45987087769646084,0.7935686374985889,,0.09743898479018476,0.7671521447401868,1.1300580787669483,0.9839432571957165,-0.09444030876536642,-0.15144865367307245,0.015272332831812035,-0.8008775000578685,0.5986334318687297,-0.177826945283774,-0.591334303064993,-0.7865756921934981,,0.0967124241397132,0.6343858233296935,-0.47855446283094927,0.9735323432960252,-0.1398399905096806,-0.18077486996483452,0.008385742765162393,-0.7685784391036001,0.6397006036134015,-0.22839539372506382,-0.6242851592015674,-0.7470633066386323,,0.0,0.0,0.045,1.0,0.0,0.0,0.0,1.0,0.0,0.0,0.0,1.0,,0.015666449378224347,-0.17545704850908886,0.23875541232997038,True,,0.07276146693236915,0.4354825786967183,-0.47032025749962625,0.5994658263613731,-0.6532409553387434,-0.46251159692812255,0.6353072308305342,0.7398195073853272,-0.2214764523523222,0.4868525911190312,-0.16106939734244366,0.8585052147543587,True,,-0.28204753921447123,-0.860021668402967,0.1594806093577447,2.491207785488673,-0.9072393259148952,1.3222780914151333
08:48:14.748807,,-0.24525855061962198,-0.8813646120037464,0.15762627142000002,2.3936672589189447,-0.7883494100937498,1.1322984104417484,,0.06775096373579827,0.435519827230489,-0.46456523036221364,0.5109440344661399,-0.5543588939005285,-0.6569797640695243,0.7286272005803519,0.6848191828324499,-0.011184337223800408,0.4561124819799436,-0.4729787559479591,0.7538252451357792,,-0.030662544293718744,0.26051264351815995,-0.09445504295748863,-0.9171539741535546,0.20666064122727357,0.34076379391893075,-0.007284232057562248,-0.8635951504428978,0.5041332683715595,0.3984664651408233,0.45988562891570267,0.7935550898703481,,0.09743898479018476,0.7671521447401868,1.1300580787669483,0.9839432571957165,-0.09444030876536642,-0.15144865367307245,0.015272332831812035,-0.8008775000578685,0.5986334318687297,-0.177826945283774,-0.591334303064993,-0.7865756921934981,,0.0967124241397132,0.6343858233296935,-0.47855446283094927,0.9735323432960252,-0.1398399905096806,-0.18077486996483452,0.008385742765162393,-0.7685784391036001,0.6397006036134015,-0.22839539372506382,-0.6242851592015674,-0.7470633066386323,,0.0,0.0,0.045,1.0,0.0,0.0,0.0,1.0,0.0,0.0,0.0,1.0,,0.015666449378224347,-0.17545704850908886,0.23875541232997038,True,,0.07276146693236915,0.4354825786967183,-0.47032025749962625,0.5994658263613731,-0.6532409553387434,-0.46251159692812255,0.6353072308305342,0.7398195073853272,-0.2214764523523222,0.4868525911190312,-0.16106939734244366,0.8585052147543587,True,,-0.2821370473650687,-0.8599562068309623,0.1594796511440352,2.4886946893035793,-0.9067918130764501,1.3250046562547544
08:48:14.854221,,-0.24525855061962198,-0.8813646120037464,0.15762627142000002,2.3936672589189447,-0.7883494100937498,1.1322984104417484,,0.06777620059029368,0.435503436768107,-0.46457973034773165,0.5211405681510103,-0.544976162215668,-0.6568207448337217,0.7245339156624427,0.689232632349892,0.002997258562004537,0.45106885647547307,-0.4774508991725971,0.7540407983638475,,-0.03066871793445102,0.26050826872723704,-0.09445916644457583,-0.9171484048243872,0.2066013332678915,0.3408147275470914,-0.007197835801327213,-0.8635926658172566,0.504138755303942,0.3984808409206717,0.4599169300336316,0.7935297239427018,,0.09743898479018476,0.7671521447401868,1.1300580787669483,0.9839432571957165,-0.09444030876536642,-0.15144865367307245,0.015272332831812035,-0.8008775000578685,0.5986334318687297,-0.177826945283774,-0.591334303064993,-0.7865756921934981,,0.0967124241397132,0.6343858233296935,-0.47855446283094927,0.9735323432960252,-0.1398399905096806,-0.18077486996483452,0.008385742765162393,-0.7685784391036001,0.6397006036134015,-0.22839539372506382,-0.6242851592015674,-0.7470633066386323,,0.0,0.0,0.045,1.0,0.0,0.0,0.0,1.0,0.0,0.0,0.0,1.0,,0.015666449378224347,-0.17545704850908886,0.23875541232997038,True,,0.07276146693236915,0.4354825786967183,-0.47032025749962625,0.5994658263613731,-0.6532409553387434,-0.46251159692812255,0.6353072308305342,0.7398195073853272,-0.2214764523523222,0.4868525911190312,-0.16106939734244366,0.8585052147543587,False,,-0.2827246978575938,-0.8594735467834514,0.15946216361286797,2.470240576785661,-0.9032229467337338,1.3483511881785588
08:48:14.957243,,-0.24525855061962198,-0.8813646120037464,0.15762627142000002,2.3936672589189447,-0.7883494100937498,1.1322984104417484,,0.0677765394401516,0.4355034555312166,-0.4645801165104094,0.5211483075222569,-0.544951724981529,-0.6568348795598054,0.724531113177354,0.6892354492047337,0.0030268130985806117,0.4510644162474712,-0.47747472498469046,0.7540283677661757,,-0.030666830897596278,0.2605086655685395,-0.09445998827170513,-0.9171420560619735,0.20654600614538074,0.34086533827649756,-0.0071170842304040804,-0.8635921322046538,0.5041408124689174,0.39849689911593555,0.4599427779954319,0.7935066759992456,,0.09743898479018476,0.7671521447401868,1.1300580787669483,0.9839432571957165,-0.09444030876536642,-0.15144865367307245,0.015272332831812035,-0.8008775000578685,0.5986334318687297,-0.177826945283774,-0.591334303064993,-0.7865756921934981,,0.0967124241397132,0.6343858233296935,-0.47855446283094927,0.9735323432960252,-0.1398399905096806,-0.18077486996483452,0.008385742765162393,-0.7685784391036001,0.6397006036134015,-0.22839539372506382,-0.6242851592015674,-0.7470633066386323,,0.0,0.0,0.045,1.0,0.0,0.0,0.0,1.0,0.0,0.0,0.0,1.0,,0.015666449378224347,-0.17545704850908886,0.23875541232997038,True,,0.07276146693236915,0.4354825786967183,-0.47032025749962625,0.5994658263613731,-0.6532409553387434,-0.46251159692812255,0.6353072308305342,0.7398195073853272,-0.2214764523523222,0.4868525911190312,-0.16106939734244366,0.8585052147543587,False,,-0.28272294644758583,-0.8594749477291017,0.15946205587968995,2.4702249294989738,-0.9032212642338954,1.3483996200726815
08:48:15.040480,,-0.24525855061962198,-0.8813646120037464,0.15762627142000002,2.3932479058602696,-0.7883494100937498,1.1322984104417484,,0.06777466515642103,0.4355455551530525,-0.464557950117597,0.513095728269298,-0.5407480515066384,-0.6665765660624244,0.7277622391271154,0.6858187907693833,0.003835300289269189,0.4550768033337743,-0.48707713046230744,0.7454267046786816,,-0.03066508250832324,0.26050849537624554,-0.09446051264818686,-0.9171361554219237,0.20648526794583924,0.34091801337133437,-0.007035850731793275,-0.8635982730049716,0.504131436204032,0.3985119251969786,0.45995852235391294,0.7934900052877996,,0.09743898479018476,0.7671521447401868,1.1300580787669483,0.9839432571957165,-0.09444030876536642,-0.15144865367307245,0.015272332831812035,-0.8008775000578685,0.5986334318687297,-0.177826945283774,-0.591334303064993,-0.7865756921934981,,0.0967124241397132,0.6343858233296935,-0.47855446283094927,0.9735323432960252,-0.1398399905096806,-0.18077486996483452,0.008385742765162393,-0.7685784391036001,0.6397006036134015,-0.22839539372506382,-0.6242851592015674,-0.7470633066386323,,0.0,0.0,0.045,1.0,0.0,0.0,0.0,1.0,0.0,0.0,0.0,1.0,,0.015666449378224347,-0.17545704850908886,0.23875541232997038,True,,0.07276368162170846,0.4354822172841385,-0.47032251381494405,0.5996715870533003,-0.6533031919393505,-0.46215682087667215,0.6352736529823134,0.7398333790861624,-0.22152642509745477,0.48664296307198723,-0.16075294893658146,0.8586833618399214,True,,-0.28216080531218746,-0.8597946326819715,0.15944442621462832,2.484872045366876,-0.9059447494740035,1.3475125016872747
08:48:15.121185,,-0.24525855061962198,-0.8813646120037464,0.15762627142000002,2.3932479058602696,-0.7883494100937498,1.1322984104417484,,0.0677725040140284,0.43553733913303005,-0.46455932301356145,0.5128376805685702,-0.5408144419593879,-0.6667212706650403,0.7278732141729537,0.6857019428735307,0.0036646458217749495,0.4551901772650449,-0.48716792269978304,0.7452981400847556,,-0.03066377888637691,0.26050789155309273,-0.09446081516745294,-0.9171311538181368,0.2064220842216551,0.34096974227057075,-0.006953653812800303,-0.8636053761533973,0.5041204184318062,0.39852489093797294,0.4599735565516735,0.793474784651875,,0.09743898479018476,0.7671521447401868,1.1300580787669483,0.9839432571957165,-0.09444030876536642,-0.15144865367307245,0.015272332831812035,-0.8008775000578685,0.5986334318687297,-0.177826945283774,-0.591334303064993,-0.7865756921934981,,0.0967124241397132,0.6343858233296935,-0.47855446283094927,0.9735323432960252,-0.1398399905096806,-0.18077486996483452,0.008385742765162393,-0.7685784391036001,0.6397006036134015,-0.22839539372506382,-0.6242851592015674,-0.7470633066386323,,0.0,0.0,0.045,1.0,0.0,0.0,0.0,1.0,0.0,0.0,0.0,1.0,,0.015666449378224347,-0.17545704850908886,0.23875541232997038,True,,0.07276368162170846,0.4354822172841385,-0.47032251381494405,0.5996715870533003,-0.6533031919393505,-0.46215682087667215,0.6352736529823134,0.7398333790861624,-0.22152642509745477,0.48664296307198723,-0.16075294893658146,0.8586833618399214,True,,-0.28214747719237504,-0.8598171182747021,0.15945367159234805,2.4853196293159696,-0.9060567519074744,1.3472047509672838
08:48:15.205393,,-0.24525855061962198,-0.8813646120037464,0.15762627142000002,2.3932479058602696,-0.7883494100937498,1.1322984104417484,,0.0677717034480338,0.4355252081451395,-0.4645617088904452,0.512741287400062,-0.5408017630254889,-0.6668056878160614,0.7278897976702929,0.6856846880897557,0.0035987451639378784,0.4552722423372938,-0.48720628241821556,0.745222935590012,,-0.030663043404790258,0.260507239404109,-0.0944607799520594,-0.9171286497180522,0.20638630228877675,0.3409981420157891,-0.00691255540546569,-0.8636151190305676,0.504104296275976,0.39853137292868296,0.4599713242950002,0.7934728252323421,,0.09743898479018476,0.7671521447401868,1.1300580787669483,0.9839432571957165,-0.09444030876536642,-0.15144865367307245,0.015272332831812035,-0.8008775000578685,0.5986334318687297,-0.177826945283774,-0.591334303064993,-0.7865756921934981,,0.0967124241397132,0.6343858233296935,-0.47855446283094927,0.9735323432960252,-0.1398399905096806,-0.18077486996483452,0.008385742765162393,-0.7685784391036001,0.6397006036134015,-0.22839539372506382,-0.6242851592015674,-0.7470633066386323,,0.0,0.0,0.045,1.0,0.0,0.0,0.0,1.0,0.0,0.0,0.0,1.0,,0.015666449378224347,-0.17545704850908886,0.23875541232997038,True,,0.07276368162170846,0.4354822172841385,-0.47032251381494405,0.5996715870533003,-0.6533031919393505,-0.46215682087667215,0.6352736529823134,0.7398333790861624,-0.22152642509745477,0.48664296307198723,-0.16075294893658146,0.8586833618399214,True,,-0.28212850575456017,-0.8598357470772552,0.15946562563704392,2.4855138151626646,-0.9060590624524864,1.3471133919818628
08:48:15.283402,,-0.24525855061962198,-0.8813646120037464,0.15762627142000002,2.3932479058602696,-0.7883494100937498,1.1322984104417484,,0.06777573997028445,0.43553607607965494,-0.4645622060808178,0.5165428901569694,-0.5410053260143699,-0.663699239002405,0.726386012223865,0.6872679331587261,0.005113638356815816,0.45337269864185326,-0.48474325707101795,0.7479820658614652,,-0.030662431272229874,0.2605069726281926,-0.09446062873161927,-0.9171277479194416,0.20638036867730114,0.34100415991104455,-0.006913518904779939,-0.8636265423789542,0.5040847133277586,0.3985334326105769,0.4599525392679082,0.7934826805724476,,0.09743898479018476,0.7671521447401868,1.1300580787669483,0.9839432571957165,-0.09444030876536642,-0.15144865367307245,0.015272332831812035,-0.8008775000578685,0.5986334318687297,-0.177826945283774,-0.591334303064993,-0.7865756921934981,,0.0967124241397132,0.6343858233296935,-0.47855446283094927,0.9735323432960252,-0.1398399905096806,-0.18077486996483452,0.008385742765162393,-0.7685784391036001,0.6397006036134015,-0.22839539372506382,-0.6242851592015674,-0.7470633066386323,,0.0,0.0,0.045,1.0,0.0,0.0,0.0,1.0,0.0,0.0,0.0,1.0,,0.015666449378224347,-0.17545704850908886,0.23875541232997038,True,,0.07276368162170846,0.4354822172841385,-0.47032251381494405,0.5996715870533003,-0.6533031919393505,-0.46215682087667215,0.6352736529823134,0.7398333790861624,-0.22152642509745477,0.48664296307198723,-0.16075294893658146,0.8586833618399214,True,,-0.2824105606426184,-0.8596314973703569,0.15944377163365372,2.478625177864852,-0.904769206552533,1.3502161383409572
08:48:15.366515,,-0.24525855061962198,-0.8813646120037464,0.15762627142000002,2.3932479058602696,-0.7883494100937498,1.1322984104417484,,0.06778031341317067,0.43561535350020264,-0.46449427696644896,0.5103863867820043,-0.5409781631286199,-0.6684671743665471,0.7288275861993908,0.6846931908850387,0.0023630383903176194,0.4564165704511398,-0.4884033797729591,0.7437378925696683,,-0.030662125208083035,0.2605068392362451,-0.09446055312971202,-0.917127296955851,0.20637740178575556,0.34100716881319026,-0.006914000638568535,-0.8636322538297744,0.5040749217243867,0.3985344624307874,0.4599431466479716,0.793487608017881,,0.09743898479018476,0.7671521447401868,1.1300580787669483,0.9839432571957165,-0.09444030876536642,-0.15144865367307245,0.015272332831812035,-0.8008775000578685,0.5986334318687297,-0.177826945283774,-0.591334303064993,-0.7865756921934981,,0.0967124241397132,0.6343858233296935,-0.47855446283094927,0.9735323432960252,-0.1398399905096806,-0.18077486996483452,0.008385742765162393,-0.7685784391036001,0.6397006036134015,-0.22839539372506382,-0.6242851592015674,-0.7470633066386323,,0.0,0.0,0.045,1.0,0.0,0.0,0.0,1.0,0.0,0.0,0.0,1.0,,0.015666449378224347,-0.17545704850908886,0.23875541232997038,True,,0.07276368162170846,0.4354822172841385,-0.47032251381494405,0.5996715870533003,-0.6533031919393505,-0.46215682087667215,0.6352736529823134,0.7398333790861624,-0.22152642509745477,0.48664296307198723,-0.16075294893658146,0.8586833618399214,True,,-0.2819789054305443,-0.8596110546404696,0.15938445763544754,2.4900306952014573,-0.9066036004601032,1.3443866413677974
08:48:15.447170,,-0.24525855061962198,-0.8813646120037464,0.15762627142000002,2.3932479058602696,-0.7883494100937498,1.1322984104417484,,0.06778031341317065,0.4356153535002023,-0.4644942769664488,0.5103863867820162,-0.5409781631286189,-0.6684671743665388,0.7288275861993863,0.6846931908850435,0.002363038390324024,0.45641657045113393,-0.4884033797729535,0.7437378925696756,,-0.030662125208083042,0.2605068392362451,-0.09446055312971202,-0.917127296955851,0.20637740178575553,0.34100716881319026,-0.006914000638568521,-0.8636322538297744,0.5040749217243867,0.3985344624307874,0.4599431466479716,0.793487608017881,,0.09743898479018476,0.7671521447401868,1.1300580787669483,0.9839432571957165,-0.09444030876536642,-0.15144865367307245,0.015272332831812035,-0.8008775000578685,0.5986334318687297,-0.177826945283774,-0.591334303064993,-0.7865756921934981,,0.09680502705051679,0.6343779118224222,-0.4785812138689409,0.9735499562680874,-0.13971173278475346,-0.18077918677958246,0.008488731456442633,-0.7685803434755145,0.6396969572081149,-0.22831649981695565,-0.6243115306842747,-0.7470653843981745,,0.0,0.0,0.045,1.0,0.0,0.0,0.0,1.0,0.0,0.0,0.0,1.0,,0.015666449378224347,-0.17545704850908886,0.23875541232997038,True,,0.07276368162170846,0.4354822172841385,-0.47032251381494405,0.5996715870533003,-0.6533031919393505,-0.46215682087667215,0.6352736529823134,0.7398333790861624,-0.22152642509745477,0.48664296307198723,-0.16075294893658146,0.8586833618399214,True,,-0.28197890543054555,-0.859611054640468,0.1593844576354478,2.4900306952014364,-0.9066036004600988,1.3443866413678087
08:48:15.543957,,-0.24525855061962198,-0.8813646120037464,0.15762627142000002,2.3932479058602696,-0.7883494100937498,1.1322984104417484,,0.06771708016373719,0.43551872671574,-0.4645575010981395,0.5236958194215284,-0.5443775849724072,-0.6552829417129862,0.7234653709178093,0.6903447999441893,0.00468126828695717,0.449822793779029,-0.4765260771139687,0.7553690171215668,,-0.030659369985082355,0.2605092872489373,-0.09446326589343873,-0.9171273825896538,0.20640734649285836,0.34098880901553275,-0.006955534946624972,-0.8636357711331379,0.504068320576368,0.39853353822942006,0.45992310073408027,0.7934996892080626,,0.09743898479018476,0.7671521447401868,1.1300580787669483,0.9839432571957165,-0.09444030876536642,-0.15144865367307245,0.015272332831812035,-0.8008775000578685,0.5986334318687297,-0.177826945283774,-0.591334303064993,-0.7865756921934981,,0.09680502705051679,0.6343779118224222,-0.4785812138689409,0.9735499562680874,-0.13971173278475346,-0.18077918677958246,0.008488731456442633,-0.7685803434755145,0.6396969572081149,-0.22831649981695565,-0.6243115306842747,-0.7470653843981745,,0.0,0.0,0.045,1.0,0.0,0.0,0.0,1.0,0.0,0.0,0.0,1.0,,0.015666449378224347,-0.17545704850908886,0.23875541232997038,True,,0.07268360932333792,0.4354986248432168,-0.4702733228424021,0.5997645603902426,-0.6532376098293079,-0.46212887510346284,0.6352359357212894,0.7398919888440005,-0.22143881957047928,0.48657761772218505,-0.1607497121271524,0.8587209977535433,True,,-0.28420353700676837,-0.8590977979103811,0.15945924373942733,2.4654985740401987,-0.9025740564638164,1.3502700394553064
08:48:15.656426,,-0.24525855061962198,-0.8813646120037464,0.15762627142000002,2.3932479058602696,-0.7883494100937498,1.1322984104417484,,0.0677170787139251,0.4355184450037404,-0.4645574826769911,0.5227909290124411,-0.5447230729296549,-0.6557182461700936,0.7238418290843525,0.6899546947547733,0.003940260609037223,0.45026953151432353,-0.4766962271760939,0.7549954013011935,,-0.030657015276694198,0.2605109865452928,-0.09446526811089012,-0.9171299632347667,0.20645631880765944,0.34095219971853713,-0.007038168100063996,-0.8636543129447014,0.5040353910722288,0.39852613246600826,0.45986628457403733,0.7935363290897776,,0.09743898479018476,0.7671521447401868,1.1300580787669483,0.9839432571957165,-0.09444030876536642,-0.15144865367307245,0.015272332831812035,-0.8008775000578685,0.5986334318687297,-0.177826945283774,-0.591334303064993,-0.7865756921934981,,0.09680502705051679,0.6343779118224222,-0.4785812138689409,0.9735499562680874,-0.13971173278475346,-0.18077918677958246,0.008488731456442633,-0.7685803434755145,0.6396969572081149,-0.22831649981695565,-0.6243115306842747,-0.7470653843981745,,0.0,0.0,0.045,1.0,0.0,0.0,0.0,1.0,0.0,0.0,0.0,1.0,,0.015666449378224347,-0.17545704850908886,0.23875541232997038,True,,0.07268360932333792,0.4354986248432168,-0.4702733228424021,0.5997645603902426,-0.6532376098293079,-0.46212887510346284,0.6352359357212894,0.7398919888440005,-0.22143881957047928,0.48657761772218505,-0.1607497121271524,0.8587209977535433,True,,-0.2841350877634614,-0.8591474133475542,0.15946222692630863,2.4671261116421555,-0.9029068542768647,1.3489776053215958
08:48:15.750468,,-0.24525855061962198,-0.8813646120037464,0.15762627142000002,2.3932479058602696,-0.7883494100937498,1.1322984104417484,,0.06771943076175833,0.4355187094263707,-0.4645604906635449,0.5234268785567203,-0.544768349917123,-0.65517306700821,0.7235768103012455,0.6902313535820082,0.004156696600048686,0.44995655612363744,-0.4762437647475556,0.7554673878735148,,-0.030654882843462072,0.26051246896871805,-0.09446715941764094,-0.9171329937501728,0.2065040706449625,0.3409151207150832,-0.007120319089465629,-0.8636733339931157,0.5040016390405432,0.3985176931846108,0.4598091124657602,0.7935736936558193,,0.09743898479018476,0.7671521447401868,1.1300580787669483,0.9839432571957165,-0.09444030876536642,-0.15144865367307245,0.015272332831812035,-0.8008775000578685,0.5986334318687297,-0.177826945283774,-0.591334303064993,-0.7865756921934981,,0.09680502705051679,0.6343779118224222,-0.4785812138689409,0.9735499562680874,-0.13971173278475346,-0.18077918677958246,0.008488731456442633,-0.7685803434755145,0.6396969572081149,-0.22831649981695565,-0.6243115306842747,-0.7470653843981745,,0.0,0.0,0.045,1.0,0.0,0.0,0.0,1.0,0.0,0.0,0.0,1.0,,0.015666449378224347,-0.17545704850908886,0.23875541232997038,True,,0.07268360932333792,0.4354986248432168,-0.4702733228424021,0.5997645603902426,-0.6532376098293079,-0.46212887510346284,0.6352359357212894,0.7398919888440005,-0.22143881957047928,0.48657761772218505,-0.1607497121271524,0.8587209977535433,True,,-0.2841666237891148,-0.8591267582037707,0.15945954485193922,2.465973637425469,-0.9026764840575314,1.3494731517806997
08:48:15.834636,,-0.24525855061962198,-0.8813646120037464,0.15762627142000002,2.3936672589189447,-0.7880811271568453,1.1321624446493253,,0.0677299601847975,0.4355002685644017,-0.46457851745398,0.5187937152433526,-0.5390301239962981,-0.6635507564975988,0.7254869462624978,0.6881873761988179,0.008174719769096589,0.4522408338780516,-0.48563840526169594,0.7480866042833288,,-0.030653195086856037,0.26051351775125453,-0.09446882891697231,-0.9171369257491739,0.20654937933368725,0.34087709804456756,-0.007201506156244347,-0.8636933162849876,0.503966245259328,0.39850718987679346,0.45975122832742066,0.7936125064003163,,0.09743898479018476,0.7671521447401868,1.1300580787669483,0.9839432571957165,-0.09444030876536642,-0.15144865367307245,0.015272332831812035,-0.8008775000578685,0.5986334318687297,-0.177826945283774,-0.591334303064993,-0.7865756921934981,,0.09680502705051679,0.6343779118224222,-0.4785812138689409,0.9735499562680874,-0.13971173278475346,-0.18077918677958246,0.008488731456442633,-0.7685803434755145,0.6396969572081149,-0.22831649981695565,-0.6243115306842747,-0.7470653843981745,,0.0,0.0,0.045,1.0,0.0,0.0,0.0,1.0,0.0,0.0,0.0,1.0,,0.015666449378224347,-0.17545704850908886,0.23875541232997038,True,,0.07267967354103541,0.43549716325940446,-0.4702724639956042,0.5996647695888875,-0.6530926324801394,-0.4624631634131178,0.6350645867851274,0.7400022601611989,-0.2215617872462501,0.48692415705666314,-0.16083117967756985,0.8585092876132321,True,,-0.28371832907657524,-0.8594689850059047,0.1594888920191154,2.4742556952050907,-0.9043870737841309,1.354366866091141
08:48:15.918263,,-0.24525855061962198,-0.8813646120037464,0.15762627142000002,2.3936672589189447,-0.7880811271568453,1.1321624446493253,,0.067730691725604,0.4355004524375903,-0.46457910209261255,0.5187772668439008,-0.5390305975012646,-0.6635632316240877,0.7254931797151277,0.6881809057358383,0.008166221123331282,0.4522497027006275,-0.48564704872780995,0.7480756315167357,,-0.030650840069042288,0.26051521678512785,-0.09447083106343818,-0.9171395027788128,0.20659835905125906,0.3408404981241053,-0.007284138266796886,-0.8637118485350279,0.5039333078011855,0.39849977221307337,0.4596944152576375,0.7936491484331074,,0.09743898479018476,0.7671521447401868,1.1300580787669483,0.9839432571957165,-0.09444030876536642,-0.15144865367307245,0.015272332831812035,-0.8008775000578685,0.5986334318687297,-0.177826945283774,-0.591334303064993,-0.7865756921934981,,0.09680502705051679,0.6343779118224222,-0.4785812138689409,0.9735499562680874,-0.13971173278475346,-0.18077918677958246,0.008488731456442633,-0.7685803434755145,0.6396969572081149,-0.22831649981695565,-0.6243115306842747,-0.7470653843981745,,0.0,0.0,0.045,1.0,0.0,0.0,0.0,1.0,0.0,0.0,0.0,1.0,,0.015666449378224347,-0.17545704850908886,0.23875541232997038,True,,0.07267967354103541,0.43549716325940446,-0.4702724639956042,0.5996647695888875,-0.6530926324801394,-0.4624631634131178,0.6350645867851274,0.7400022601611989,-0.2215617872462501,0.48692415705666314,-0.16083117967756985,0.8585092876132321,True,,-0.283711994197578,-0.8594725472479028,0.15948860553339725,2.474284440917497,-0.9043921752216495,1.3543576181526318
08:48:16.000619,,-0.24525855061962198,-0.8813646120037464,0.15762627142000002,2.3936672589189447,-0.7880811271568453,1.1321624446493253,,0.06773097800973481,0.43550073404413736,-0.46457876587436014,0.5187147789935069,-0.539032900871402,-0.6636102092583263,0.7255140809764585,0.6881593134279697,0.008128815856614183,0.4522878467951607,-0.4856750880171923,0.748034365868902,,-0.03065146278532642,0.26051425112610915,-0.09447000965704512,-0.917142449290953,0.20661616907019933,0.3408217809510525,-0.007324754232700237,-0.8637273499520577,0.5039061548577541,0.39849225295772434,0.4596572893002472,0.7936744299201824,,0.09743898479018476,0.7671521447401868,1.1300580787669483,0.9839432571957165,-0.09444030876536642,-0.15144865367307245,0.015272332831812035,-0.8008775000578685,0.5986334318687297,-0.177826945283774,-0.591334303064993,-0.7865756921934981,,0.09680502705051679,0.6343779118224222,-0.4785812138689409,0.9735499562680874,-0.13971173278475346,-0.18077918677958246,0.008488731456442633,-0.7685803434755145,0.6396969572081149,-0.22831649981695565,-0.6243115306842747,-0.7470653843981745,,0.0,0.0,0.045,1.0,0.0,0.0,0.0,1.0,0.0,0.0,0.0,1.0,,0.015666449378224347,-0.17545704850908886,0.23875541232997038,True,,0.07267967354103541,0.43549716325940446,-0.4702724639956042,0.5996647695888875,-0.6530926324801394,-0.4624631634131178,0.6350645867851274,0.7400022601611989,-0.2215617872462501,0.48692415705666314,-0.16083117967756985,0.8585092876132321,True,,-0.28370482361639215,-0.8594740983310366,0.1594884078009187,2.4744051062806123,-0.9044042771748263,1.3542895271744093
08:48:16.084767,,-0.24525855061962198,-0.8813646120037464,0.15762627142000002,2.3936672589189447,-0.7880811271568453,1.1321624446493253,,0.0677307704156222,0.4355006080157575,-0.4645787658993327,0.518734983918382,-0.5390337284991745,-0.6635937431889148,0.725507437678298,0.6881661913439485,0.008139469554908107,0.45227533022780164,-0.4856644238890095,0.7480488573855923,,-0.03065168517664168,0.26051403434827985,-0.09446989876852444,-0.9171429006836074,0.2066149463125384,0.34082130753056017,-0.007324272406462315,-0.8637278321931685,0.5039053352659809,0.39849122291499683,0.4596569327618932,0.7936751535764198,,0.09743898479018476,0.7671521447401868,1.1300580787669483,0.9839432571957165,-0.09444030876536642,-0.15144865367307245,0.015272332831812035,-0.8008775000578685,0.5986334318687297,-0.177826945283774,-0.591334303064993,-0.7865756921934981,,0.09680502705051679,0.6343779118224222,-0.4785812138689409,0.9735499562680874,-0.13971173278475346,-0.18077918677958246,0.008488731456442633,-0.7685803434755145,0.6396969572081149,-0.22831649981695565,-0.6243115306842747,-0.7470653843981745,,0.0,0.0,0.045,1.0,0.0,0.0,0.0,1.0,0.0,0.0,0.0,1.0,,0.015666449378224347,-0.17545704850908886,0.23875541232997038,True,,0.07267967354103541,0.43549716325940446,-0.4702724639956042,0.5996647695888875,-0.6530926324801394,-0.4624631634131178,0.6350645867851274,0.7400022601611989,-0.2215617872462501,0.48692415705666314,-0.16083117967756985,0.8585092876132321,True,,-0.28370793326171867,-0.8594730952132573,0.1594885314332229,2.474366244666342,-0.9044004835964731,1.3543082711023955
08:48:16.168982,,-0.24525855061962198,-0.8813646120037464,0.15762627142000002,2.3936672589189447,-0.7880811271568453,1.1321624446493253,,0.06773077041563391,0.43550060801576584,-0.46457876589932917,0.518734983916973,-0.5390337284991823,-0.6635937431900095,0.7255074376787626,0.6881661913434681,0.008139469554099466,0.4522753302286721,-0.4856644238896812,0.7480488573846299,,-0.03065168517664168,0.2605140343482799,-0.09446989876852444,-0.9171429006836074,0.2066149463125384,0.34082130753056017,-0.007324272406462315,-0.8637278321931685,0.5039053352659809,0.39849122291499683,0.4596569327618932,0.7936751535764198,,0.09743898479018476,0.7671521447401868,1.1300580787669483,0.9839432571957165,-0.09444030876536642,-0.15144865367307245,0.015272332831812035,-0.8008775000578685,0.5986334318687297,-0.177826945283774,-0.591334303064993,-0.7865756921934981,,0.09680502705051679,0.6343779118224222,-0.4785812138689409,0.9735499562680874,-0.13971173278475346,-0.18077918677958246,0.008488731456442633,-0.7685803434755145,0.6396969572081149,-0.22831649981695565,-0.6243115306842747,-0.7470653843981745,,0.0,0.0,0.045,1.0,0.0,0.0,0.0,1.0,0.0,0.0,0.0,1.0,,0.015666449378224347,-0.17545704850908886,0.23875541232997038,True,,0.07267967354103541,0.43549716325940446,-0.4702724639956042,0.5996647695888875,-0.6530926324801394,-0.4624631634131178,0.6350645867851274,0.7400022601611989,-0.2215617872462501,0.48692415705666314,-0.16083117967756985,0.8585092876132321,True,,-0.2837079332615212,-0.8594730952133106,0.15948853143321537,2.4743662446690613,-0.9044004835967345,1.35430827110096
08:48:16.252179,,-0.24525855061962198,-0.8813646120037464,0.15762627142000002,2.3936672589189447,-0.7880811271568453,1.1321624446493253,,0.06773118631264186,0.43550086434678215,-0.4645787611818112,0.5186951621158818,-0.5390311758227222,-0.6636269436127147,0.7255202740127449,0.6881529000030994,0.008119003251407146,0.45230040989816794,-0.4856860896798451,0.7480196264119352,,-0.030651240395378684,0.26051446790440846,-0.09447012054752738,-0.9171419978923763,0.20661739182687716,0.340822254368437,-0.007325236057832155,-0.8637268677055798,0.5039069744470197,0.39849328299837367,0.45965764583471364,0.793673706259072,,0.09743898479018476,0.7671521447401868,1.1300580787669483,0.9839432571957165,-0.09444030876536642,-0.15144865367307245,0.015272332831812035,-0.8008775000578685,0.5986334318687297,-0.177826945283774,-0.591334303064993,-0.7865756921934981,,0.09680502705051679,0.6343779118224222,-0.4785812138689409,0.9735499562680874,-0.13971173278475346,-0.18077918677958246,0.008488731456442633,-0.7685803434755145,0.6396969572081149,-0.22831649981695565,-0.6243115306842747,-0.7470653843981745,,0.0,0.0,0.045,1.0,0.0,0.0,0.0,1.0,0.0,0.0,0.0,1.0,,0.015666449378224347,-0.17545704850908886,0.23875541232997038,True,,0.07267967354103541,0.43549716325940446,-0.4702724639956042,0.5996647695888875,-0.6530926324801394,-0.4624631634131178,0.6350645867851274,0.7400022601611989,-0.2215617872462501,0.48692415705666314,-0.16083117967756985,0.8585092876132321,True,,-0.283701732867136,-0.8594750430722744,0.15948827532091972,2.474443219121894,-0.9044074748326447,1.3542721762257552
08:48:16.331522,,-0.24525855061962198,-0.8813646120037464,0.15762627142000002,2.3936672589189447,-0.7880811271568453,1.1321624446493253,,0.0677340196442613,0.43550606569795614,-0.464575187323618,0.5191018765882806,-0.5394783405717244,-0.6629452177793463,0.7252947145975635,0.6883950557121383,0.007734613624589352,0.4521955536041514,-0.48484571497029993,0.7486279543108008,,-0.03064966000097148,0.26051499832608743,-0.09447101783901561,-0.9171361035435277,0.20656501771321195,0.34086983870581256,-0.007244003349630171,-0.8637206285556398,0.5039188289081006,0.39850831597051617,0.45969289223326204,0.7936457350970597,,0.09743898479018476,0.7671521447401868,1.1300580787669483,0.9839432571957165,-0.09444030876536642,-0.15144865367307245,0.015272332831812035,-0.8008775000578685,0.5986334318687297,-0.177826945283774,-0.591334303064993,-0.7865756921934981,,0.09680502705051679,0.6343779118224222,-0.4785812138689409,0.9735499562680874,-0.13971173278475346,-0.18077918677958246,0.008488731456442633,-0.7685803434755145,0.6396969572081149,-0.22831649981695565,-0.6243115306842747,-0.7470653843981745,,0.0,0.0,0.045,1.0,0.0,0.0,0.0,1.0,0.0,0.0,0.0,1.0,,0.015666449378224347,-0.17545704850908886,0.23875541232997038,True,,0.07267967354103541,0.43549716325940446,-0.4702724639956042,0.5996647695888875,-0.6530926324801394,-0.4624631634131178,0.6350645867851274,0.7400022601611989,-0.2215617872462501,0.48692415705666314,-0.16083117967756985,0.8585092876132321,True,,-0.2837106022245992,-0.8594329941733541,0.1594807777479861,2.473809881998758,-0.9041371968145773,1.3538183891441398
08:48:16.416737,,-0.24525855061962198,-0.8813646120037464,0.15762627142000002,2.3936672589189447,-0.7880811271568453,1.1321624446493253,,0.06770905187379173,0.4355312865452001,-0.46454374107826785,0.523266151315981,-0.5447143155952837,-0.6553463582507523,0.7236732482411246,0.6901300029215468,0.004196289747647988,0.44998840503628673,-0.47645240418437185,0.7553168486667243,,-0.03064807954745252,0.26051552864892896,-0.09447191507964264,-0.9171302064586145,0.20651264533081856,0.34091742482149934,-0.007162770404184171,-0.8637143873533416,0.5039306803780205,0.39852334680491686,0.45972814056199046,0.7936177654602363,,0.09743898479018476,0.7671521447401868,1.1300580787669483,0.9839432571957165,-0.09444030876536642,-0.15144865367307245,0.015272332831812035,-0.8008775000578685,0.5986334318687297,-0.177826945283774,-0.591334303064993,-0.7865756921934981,,0.09680502705051679,0.6343779118224222,-0.4785812138689409,0.9735499562680874,-0.13971173278475346,-0.18077918677958246,0.008488731456442633,-0.7685803434755145,0.6396969572081149,-0.22831649981695565,-0.6243115306842747,-0.7470653843981745,,0.0,0.0,0.045,1.0,0.0,0.0,0.0,1.0,0.0,0.0,0.0,1.0,,0.015666449378224347,-0.17545704850908886,0.23875541232997038,True,,0.07267967354103541,0.43549716325940446,-0.4702724639956042,0.5996647695888875,-0.6530926324801394,-0.4624631634131178,0.6350645867851274,0.7400022601611989,-0.2215617872462501,0.48692415705666314,-0.16083117967756985,0.8585092876132321,True,,-0.2842465247454023,-0.8590538282838507,0.1594504593665073,2.4662761634363553,-0.9027592515314877,1.3493281245207727
08:48:16.499335,,-0.24525855061962198,-0.8813646120037464,0.15762627142000002,2.3936672589189447,-0.7880811271568453,1.1321624446493253,,0.06772858476590063,0.43552414902261205,-0.4645611345547854,0.5172087418042968,-0.5389192347823513,-0.6648768124869616,0.7261219184433577,0.6875242367000178,0.007575190175573235,0.45303650731188794,-0.4866995811911735,0.7469146140697628,,-0.03064649904211232,0.2605160588804351,-0.09447281227079016,-0.9171243067397754,0.20646027467206907,0.34096501250752653,-0.00708153722090403,-0.8637081439929095,0.5039425290802018,0.3985383753197588,0.4597633910692486,0.7935897973227918,,0.09743898479018476,0.7671521447401868,1.1300580787669483,0.9839432571957165,-0.09444030876536642,-0.15144865367307245,0.015272332831812035,-0.8008775000578685,0.5986334318687297,-0.177826945283774,-0.591334303064993,-0.7865756921934981,,0.09680502705051679,0.6343779118224222,-0.4785812138689409,0.9735499562680874,-0.13971173278475346,-0.18077918677958246,0.008488731456442633,-0.7685803434755145,0.6396969572081149,-0.22831649981695565,-0.6243115306842747,-0.7470653843981745,,0.0,0.0,0.045,1.0,0.0,0.0,0.0,1.0,0.0,0.0,0.0,1.0,,0.015666449378224347,-0.17545704850908886,0.23875541232997038,True,,0.07267967354103541,0.43549716325940446,-0.4702724639956042,0.5996647695888875,-0.6530926324801394,-0.4624631634131178,0.6350645867851274,0.7400022601611989,-0.2215617872462501,0.48692415705666314,-0.16083117967756985,0.8585092876132321,True,,-0.28363163176860834,-0.8594654796858587,0.15947068887235752,2.47719400150234,-0.9048763577911774,1.3530066818472182
08:48:16.600873,,-0.24525855061962198,-0.8813646120037464,0.15762627142000002,2.3932479058602696,-0.7880811271568453,1.1321624446493253,,0.06771743194173288,0.43551537783125216,-0.4645598992764079,0.521998369927885,-0.5448489153220527,-0.6562448942772924,0.724183178048562,0.6895987901587314,0.0034976053378484983,0.45064001866691356,-0.4770672574008801,0.754539863421335,,-0.030645363266371933,0.2605161554709847,-0.0944734876186489,-0.9171193069426359,0.20640545993624615,0.34101165492122737,-0.006999340267979867,-0.8637028626405214,0.5039527360308008,0.3985513416354543,0.4597979306452169,0.7935632784507509,,0.09743898479018476,0.7671521447401868,1.1300580787669483,0.9839432571957165,-0.09444030876536642,-0.15144865367307245,0.015272332831812035,-0.8008775000578685,0.5986334318687297,-0.177826945283774,-0.591334303064993,-0.7865756921934981,,0.09674463636598872,0.6343914885872117,-0.4785428725182239,0.9735374083600673,-0.1398263065825594,-0.18075817688570509,0.008379184551020755,-0.7685957954131545,0.6396798359644302,-0.2283740435991439,-0.6242668558082356,-0.747085128315024,,0.0,0.0,0.045,1.0,0.0,0.0,0.0,1.0,0.0,0.0,0.0,1.0,,0.015666449378224347,-0.17545704850908886,0.23875541232997038,True,,0.0726818874705749,0.4354968016116989,-0.47027471982187863,0.5998705700875672,-0.6531547508808612,-0.46210839696393474,0.6350309690584487,0.7400161382249831,-0.2216117855694287,0.4867144619584515,-0.16051475498639686,0.8586873971080234,True,,-0.28407086951560373,-0.8592033013488961,0.15946763371975858,2.468525049645235,-0.903226349899268,1.3481580064896757
08:48:16.703212,,-0.24525855061962198,-0.8813646120037464,0.15762627142000002,2.3932479058602696,-0.7880811271568453,1.1321624446493253,,0.06768998898622816,0.4355285493214452,-0.46456423841467714,0.522162913572801,-0.5451302567204757,-0.655880244325923,0.7241130533200426,0.6896735530195219,0.00326745726125419,0.45056206864392034,-0.47663759133465083,0.7548578865097813,,-0.030643621283322736,0.26051400030660143,-0.09447012492733967,-0.9171166377567032,0.2063516590485702,0.3410514115544886,-0.006917973440338926,-0.8636930627856314,0.5039706684967098,0.39855892181568997,0.4598405004666775,0.793534813185431,,0.09743898479018476,0.7671521447401868,1.1300580787669483,0.9839432571957165,-0.09444030876536642,-0.15144865367307245,0.015272332831812035,-0.8008775000578685,0.5986334318687297,-0.177826945283774,-0.591334303064993,-0.7865756921934981,,0.09674463636598872,0.6343914885872117,-0.4785428725182239,0.9735374083600673,-0.1398263065825594,-0.18075817688570509,0.008379184551020755,-0.7685957954131545,0.6396798359644302,-0.2283740435991439,-0.6242668558082356,-0.747085128315024,,0.0,0.0,0.045,1.0,0.0,0.0,0.0,1.0,0.0,0.0,0.0,1.0,,0.015666449378224347,-0.17545704850908886,0.23875541232997038,True,,0.07264987899273294,0.43551066357240803,-0.47027585441819925,0.5998834598108325,-0.6531526934949727,-0.4620945721663994,0.6350188083761177,0.7400231736552987,-0.22162313837168537,0.4867144415917416,-0.16049068955363735,0.8586919068633623,True,,-0.2836966921282698,-0.859452887956931,0.15946030758208113,2.4682664478432503,-0.9032264077785996,1.3482611941280105
08:48:16.779428,,-0.24525855061962198,-0.8813646120037464,0.15762627142000002,2.3932479058602696,-0.7880811271568453,1.1321624446493253,,0.06766529191000785,0.43559408260184773,-0.4645166962421345,0.5124491597214826,-0.5498903815410998,-0.6595577510645532,0.7285002616525924,0.6850264667225167,-0.005109663567148277,0.45462427065968525,-0.4778695514240779,0.7516365240918647,,-0.0306430151285114,0.2605117486403858,-0.09446608694886999,-0.9171189711305844,0.20635267123522405,0.3410445242294924,-0.0069188037616977754,-0.863688546575818,0.5039783966686601,0.3985535379184839,0.45984852857032577,0.793532864993518,,0.09743898479018476,0.7671521447401868,1.1300580787669483,0.9839432571957165,-0.09444030876536642,-0.15144865367307245,0.015272332831812035,-0.8008775000578685,0.5986334318687297,-0.177826945283774,-0.591334303064993,-0.7865756921934981,,0.09674463636598872,0.6343914885872117,-0.4785428725182239,0.9735374083600673,-0.1398263065825594,-0.18075817688570509,0.008379184551020755,-0.7685957954131545,0.6396798359644302,-0.2283740435991439,-0.6242668558082356,-0.747085128315024,,0.0,0.0,0.045,1.0,0.0,0.0,0.0,1.0,0.0,0.0,0.0,1.0,,0.015666449378224347,-0.17545704850908886,0.23875541232997038,True,,0.07264987899273294,0.43551066357240803,-0.47027585441819925,0.5998834598108325,-0.6531526934949727,-0.4620945721663994,0.6350188083761177,0.7400231736552987,-0.22162313837168537,0.4867144415917416,-0.16049068955363735,0.8586919068633623,True,,-0.28325495077366947,-0.8597459346985752,0.15943602242927188,2.48533738435877,-0.9073520063109335,1.3331407668979094
08:48:16.869601,,-0.24525855061962198,-0.8813646120037464,0.15762627142000002,2.3932479058602696,-0.7880811271568453,1.1321624446493253,,0.06765858789093784,0.43556909989706105,-0.4645219722765701,0.5101943575502315,-0.5555501646312994,-0.6565559626582057,0.7289342418873888,0.6844653870268126,-0.012728117154303983,0.4564609386661301,-0.4720923093425399,0.7541699164854453,,-0.03064218658992053,0.26050971375440707,-0.09446215987135603,-0.9171208533969821,0.20635490629751702,0.3410381101095879,-0.006920115882306538,-0.8636835481842138,0.50398694450143,0.39854918378583076,0.45985691348359115,0.7935301927846088,,0.09743898479018476,0.7671521447401868,1.1300580787669483,0.9839432571957165,-0.09444030876536642,-0.15144865367307245,0.015272332831812035,-0.8008775000578685,0.5986334318687297,-0.177826945283774,-0.591334303064993,-0.7865756921934981,,0.09674463636598872,0.6343914885872117,-0.4785428725182239,0.9735374083600673,-0.1398263065825594,-0.18075817688570509,0.008379184551020755,-0.7685957954131545,0.6396798359644302,-0.2283740435991439,-0.6242668558082356,-0.747085128315024,,0.0,0.0,0.045,1.0,0.0,0.0,0.0,1.0,0.0,0.0,0.0,1.0,,0.015666449378224347,-0.17545704850908886,0.23875541232997038,True,,0.07264987899273294,0.43551066357240803,-0.47027585441819925,0.5998834598108325,-0.6531526934949727,-0.4620945721663994,0.6350188083761177,0.7400231736552987,-0.22162313837168537,0.4867144415917416,-0.16049068955363735,0.8586919068633623,True,,-0.2830418601793449,-0.859891931734169,0.15946124448141538,2.490018218818992,-0.907344599781071,1.3216234624602217
08:48:16.958017,,-0.24525855061962198,-0.8813646120037464,0.15762627142000002,2.3932479058602696,-0.7880811271568453,1.1321624446493253,,0.067675058353162,0.43546529408009904,-0.4645731936231155,0.5184059780363899,-0.5498497059739655,-0.654920256807253,0.7256302114269519,0.688076913959708,-0.0033100966997813195,0.4524555648907539,-0.4735139504977955,0.7556907439444792,,-0.03064135805166626,0.26050767886760573,-0.09445823279566531,-0.9171227356920391,0.20635714130640195,0.34103169597948335,-0.006921428050299272,-0.8636785497624219,0.5039954923092738,0.3985448296798463,0.45986529839309725,0.7935275205204498,,0.09743898479018476,0.7671521447401868,1.1300580787669483,0.9839432571957165,-0.09444030876536642,-0.15144865367307245,0.015272332831812035,-0.8008775000578685,0.5986334318687297,-0.177826945283774,-0.591334303064993,-0.7865756921934981,,0.09674463636598872,0.6343914885872117,-0.4785428725182239,0.9735374083600673,-0.1398263065825594,-0.18075817688570509,0.008379184551020755,-0.7685957954131545,0.6396798359644302,-0.2283740435991439,-0.6242668558082356,-0.747085128315024,,0.0,0.0,0.045,1.0,0.0,0.0,0.0,1.0,0.0,0.0,0.0,1.0,,0.015666449378224347,-0.17545704850908886,0.23875541232997038,True,,0.07264987899273294,0.43551066357240803,-0.47027585441819925,0.5998834598108325,-0.6531526934949727,-0.4620945721663994,0.6350188083761177,0.7400231736552987,-0.22162313837168537,0.4867144415917416,-0.16049068955363735,0.8586919068633623,True,,-0.283439422615582,-0.8597148276656643,0.1595354575627942,2.4750218408752738,-0.9045942218646528,1.3378358736467117
08:48:17.042116,,-0.24525855061962198,-0.8813646120037464,0.15762627142000002,2.3932479058602696,-0.7880811271568453,1.1321624446493253,,0.06768845120452513,0.43554421656684494,-0.4645499797783246,0.5218830312645186,-0.5429027537125309,-0.6579473396021213,0.7242471547389264,0.6895183864278258,0.005518480817874992,0.45067078952460077,-0.4793964901720903,0.753043720297802,,-0.030640390808574645,0.2605062109487442,-0.09445460309485221,-0.917124166727362,0.20636478927774124,0.34102321941355673,-0.0069232219984451115,-0.8636668762527381,0.5040154714779986,0.39854150527892784,0.45988378992782786,0.7935184736096667,,0.09743898479018476,0.7671521447401868,1.1300580787669483,0.9839432571957165,-0.09444030876536642,-0.15144865367307245,0.015272332831812035,-0.8008775000578685,0.5986334318687297,-0.177826945283774,-0.591334303064993,-0.7865756921934981,,0.09674463636598872,0.6343914885872117,-0.4785428725182239,0.9735374083600673,-0.1398263065825594,-0.18075817688570509,0.008379184551020755,-0.7685957954131545,0.6396798359644302,-0.2283740435991439,-0.6242668558082356,-0.747085128315024,,0.0,0.0,0.045,1.0,0.0,0.0,0.0,1.0,0.0,0.0,0.0,1.0,,0.015666449378224347,-0.17545704850908886,0.23875541232997038,True,,0.07264987899273294,0.43551066357240803,-0.47027585441819925,0.5998834598108325,-0.6531526934949727,-0.4620945721663994,0.6350188083761177,0.7400231736552987,-0.22162313837168537,0.4867144415917416,-0.16049068955363735,0.8586919068633623,True,,-0.283705542727871,-0.8593958216643026,0.15944676216668596,2.468798766484867,-0.903315070226272,1.3513570912244146
08:48:17.133014,,-0.24525855061962198,-0.8813646120037464,0.15762627142000002,2.3932479058602696,-0.7880811271568453,1.1321624446493253,,0.06768420963148158,0.4355044932517441,-0.4645843015522794,0.5215156251301383,-0.5487652068495268,-0.6533591665359247,0.7243720972256783,0.6894086963520899,-0.0008450769107069163,0.45089524005692705,-0.4728344288918786,0.7570476110182884,,-0.030641264820354862,0.26050629616332965,-0.0944543409526048,-0.9171271208275393,0.20639516275301506,0.34099688754868407,-0.006963839050268719,-0.8636638097613438,0.5040201632249929,0.39853399537732714,0.4598759145506785,0.7935268073782429,,0.09743898479018476,0.7671521447401868,1.1300580787669483,0.9839432571957165,-0.09444030876536642,-0.15144865367307245,0.015272332831812035,-0.8008775000578685,0.5986334318687297,-0.177826945283774,-0.591334303064993,-0.7865756921934981,,0.09674463636598872,0.6343914885872117,-0.4785428725182239,0.9735374083600673,-0.1398263065825594,-0.18075817688570509,0.008379184551020755,-0.7685957954131545,0.6396798359644302,-0.2283740435991439,-0.6242668558082356,-0.747085128315024,,0.0,0.0,0.045,1.0,0.0,0.0,0.0,1.0,0.0,0.0,0.0,1.0,,0.015666449378224347,-0.17545704850908886,0.23875541232997038,True,,0.07264987899273294,0.43551066357240803,-0.47027585441819925,0.5998834598108325,-0.6531526934949727,-0.4620945721663994,0.6350188083761177,0.7400231736552987,-0.22162313837168537,0.4867144415917416,-0.16049068955363735,0.8586919068633623,True,,-0.2836635067109525,-0.8595928502040701,0.15948603428786218,2.469359067839362,-0.9035362126860947,1.3422330152183293
08:48:17.223516,,-0.24525855061962198,-0.8813646120037464,0.15762627142000002,2.3932479058602696,-0.7880811271568453,1.1321624446493253,,0.06768451926551917,0.43550438469119845,-0.4645800469287101,0.5220608347630674,-0.5481509902104329,-0.6534393443448381,0.7241512384738014,0.6896411983953066,3.595477108697083e-05,0.4506189838692428,-0.4732076810526306,0.7569788781527813,,-0.030642706791552392,0.26050633303290566,-0.09445374117260043,-0.9171325713185103,0.2064529424768476,0.34094723211389955,-0.007045554897924161,-0.8636633821806287,0.5040197499635088,0.39852000288524814,0.45985077007628145,0.7935483995808781,,0.09743898479018476,0.7671521447401868,1.1300580787669483,0.9839432571957165,-0.09444030876536642,-0.15144865367307245,0.015272332831812035,-0.8008775000578685,0.5986334318687297,-0.177826945283774,-0.591334303064993,-0.7865756921934981,,0.09674463636598872,0.6343914885872117,-0.4785428725182239,0.9735374083600673,-0.1398263065825594,-0.18075817688570509,0.008379184551020755,-0.7685957954131545,0.6396798359644302,-0.2283740435991439,-0.6242668558082356,-0.747085128315024,,0.0,0.0,0.045,1.0,0.0,0.0,0.0,1.0,0.0,0.0,0.0,1.0,,0.015666449378224347,-0.17545704850908886,0.23875541232997038,True,,0.07264987899273294,0.43551066357240803,-0.47027585441819925,0.5998834598108325,-0.6531526934949727,-0.4620945721663994,0.6350188083761177,0.7400231736552987,-0.22162313837168537,0.4867144415917416,-0.16049068955363735,0.8586919068633623,True,,-0.28370191055747623,-0.8595418553649308,0.1594846938572687,2.4683884268087413,-0.9033272968591791,1.3436247372192194
08:48:17.308026,,-0.24525855061962198,-0.8813646120037464,0.15762627142000002,2.3936672589189447,-0.7880811271568453,1.1321624446493253,,0.06769110474923681,0.4355283400984953,-0.46456227018949275,0.5200301976611077,-0.5416532529245688,-0.6604395105660953,0.724944363059743,0.6887819576205197,0.005923286617125855,0.4516904515134816,-0.4818621882371338,0.7508558900074426,,-0.030644593507532666,0.2605059362626135,-0.09445291953377855,-0.9171389212590986,0.2065082775537616,0.34089663085414773,-0.00712630723498793,-0.8636639168907033,0.5040176950469442,0.3985039490031725,0.4598249150242083,0.7935714414380661,,0.09743898479018476,0.7671521447401868,1.1300580787669483,0.9839432571957165,-0.09444030876536642,-0.15144865367307245,0.015272332831812035,-0.8008775000578685,0.5986334318687297,-0.177826945283774,-0.591334303064993,-0.7865756921934981,,0.09674463636598872,0.6343914885872117,-0.4785428725182239,0.9735374083600673,-0.1398263065825594,-0.18075817688570509,0.008379184551020755,-0.7685957954131545,0.6396798359644302,-0.2283740435991439,-0.6242668558082356,-0.747085128315024,,0.0,0.0,0.045,1.0,0.0,0.0,0.0,1.0,0.0,0.0,0.0,1.0,,0.015666449378224347,-0.17545704850908886,0.23875541232997038,True,,0.07264766510578322,0.43551102519693236,-0.4702735985464107,0.599677663271175,-0.6530905808234345,-0.462449341456264,0.6350524239479355,0.7400093004936646,-0.22157313469987516,0.4869241409208163,-0.16080711558443644,0.8585138045284647,True,,-0.28352006226279297,-0.8595587935426742,0.159466008674963,2.472182409112617,-0.9039053227181679,1.3516127398001287
08:48:17.398195,,-0.24525855061962198,-0.8813646120037464,0.15762627142000002,2.3936672589189447,-0.7880811271568453,1.1321624446493253,,0.06767917507000717,0.4355321521769336,-0.46456033702817684,0.522210999834634,-0.5445964875134625,-0.6562852561498786,0.7240993470657603,0.6896848866299872,0.0038591104055315574,0.45052836451288136,-0.47723099537035735,0.7545029952406862,,-0.030646035419791513,0.2605059729535053,-0.09445231962662196,-0.917144365472911,0.20656605945835058,0.3408469772053841,-0.007208023018326848,-0.8636634850639732,0.5040172763707871,0.39848995369314605,0.45979977550658757,0.7935930374937982,,0.09743898479018476,0.7671521447401868,1.1300580787669483,0.9839432571957165,-0.09444030876536642,-0.15144865367307245,0.015272332831812035,-0.8008775000578685,0.5986334318687297,-0.177826945283774,-0.591334303064993,-0.7865756921934981,,0.09674463636598872,0.6343914885872117,-0.4785428725182239,0.9735374083600673,-0.1398263065825594,-0.18075817688570509,0.008379184551020755,-0.7685957954131545,0.6396798359644302,-0.2283740435991439,-0.6242668558082356,-0.747085128315024,,0.0,0.0,0.045,1.0,0.0,0.0,0.0,1.0,0.0,0.0,0.0,1.0,,0.015666449378224347,-0.17545704850908886,0.23875541232997038,True,,0.07264766510578322,0.43551102519693236,-0.4702735985464107,0.599677663271175,-0.6530905808234345,-0.462449341456264,0.6350524239479355,0.7400093004936646,-0.22157313469987516,0.4869241409208163,-0.16080711558443644,0.8585138045284647,True,,-0.2837844304716166,-0.8594334895465856,0.15945869429065518,2.468175306578395,-0.9032404333904456,1.3490433541719136
08:48:17.488016,,-0.24525855061962198,-0.8813646120037464,0.15762627142000002,2.3936672589189447,-0.7880811271568453,1.1321624446493253,,0.06767819555604412,0.4355317505786287,-0.4645606058934979,0.5222548635717419,-0.544573315356842,-0.6562695800331746,0.7240817506672459,0.6897031146235557,0.0039028232375045656,0.45050579999187346,-0.47723109483752685,0.7545164055829786,,-0.03064806072758598,0.2605050090303088,-0.09445120052495236,-0.9171511615256087,0.20661598537193587,0.3407984418063987,-0.007288293047114355,-0.8636706909711216,0.5040037844883543,0.3984728649900075,0.4597638182620594,0.7936224566633721,,0.09743898479018476,0.7671521447401868,1.1300580787669483,0.9839432571957165,-0.09444030876536642,-0.15144865367307245,0.015272332831812035,-0.8008775000578685,0.5986334318687297,-0.177826945283774,-0.591334303064993,-0.7865756921934981,,0.09674463636598872,0.6343914885872117,-0.4785428725182239,0.9735374083600673,-0.1398263065825594,-0.18075817688570509,0.008379184551020755,-0.7685957954131545,0.6396798359644302,-0.2283740435991439,-0.6242668558082356,-0.747085128315024,,0.0,0.0,0.045,1.0,0.0,0.0,0.0,1.0,0.0,0.0,0.0,1.0,,0.015666449378224347,-0.17545704850908886,0.23875541232997038,True,,0.07264766510578322,0.43551102519693236,-0.4702735985464107,0.599677663271175,-0.6530905808234345,-0.462449341456264,0.6350524239479355,0.7400093004936646,-0.22157313469987516,0.4869241409208163,-0.16080711558443644,0.8585138045284647,True,,-0.28379458998968715,-0.8594327607279861,0.15945912458859465,2.4680934966098897,-0.9032294529151371,1.349113279294287
08:48:17.578162,,-0.24525855061962198,-0.8813646120037464,0.15762627142000002,2.3936672589189447,-0.7880811271568453,1.1321624446493253,,0.0676776783154594,0.43553158941105563,-0.46456055098120336,0.5222708099696017,-0.5445629651485653,-0.6562654783258824,0.7240752859131632,0.6897098005799583,0.003920626700576495,0.4504977040823482,-0.47723324273625084,0.7545198808805346,,-0.03064938479241435,0.2605044716500706,-0.09445022770529832,-0.9171641735559416,0.20662132868582622,0.34076018435600863,-0.007324166404391277,-0.8636819779378251,0.5039839238871391,0.39844225842236913,0.45974021521104785,0.7936514973121211,,0.09743898479018476,0.7671521447401868,1.1300580787669483,0.9839432571957165,-0.09444030876536642,-0.15144865367307245,0.015272332831812035,-0.8008775000578685,0.5986334318687297,-0.177826945283774,-0.591334303064993,-0.7865756921934981,,0.09674463636598872,0.6343914885872117,-0.4785428725182239,0.9735374083600673,-0.1398263065825594,-0.18075817688570509,0.008379184551020755,-0.7685957954131545,0.6396798359644302,-0.2283740435991439,-0.6242668558082356,-0.747085128315024,,0.0,0.0,0.045,1.0,0.0,0.0,0.0,1.0,0.0,0.0,0.0,1.0,,0.015666449378224347,-0.17545704850908886,0.23875541232997038,True,,0.07264766510578322,0.43551102519693236,-0.4702735985464107,0.599677663271175,-0.6530905808234345,-0.462449341456264,0.6350524239479355,0.7400093004936646,-0.22157313469987516,0.4869241409208163,-0.16080711558443644,0.8585138045284647,True,,-0.2837994075480227,-0.8594317840695409,0.15945932815794378,2.4680642872603697,-0.9032252487213236,1.349139840344094
08:48:17.666665,,-0.24525855061962198,-0.8813646120037464,0.15762627142000002,2.3936672589189447,-0.7880811271568453,1.1321624446493253,,0.06767673971839411,0.435531181123556,-0.46456069604900824,0.5223186708497507,-0.5445279659098307,-0.6562564288628744,0.7240555459312675,0.6897301971199334,0.003977635864732878,0.45047394207426034,-0.47724370034920405,0.7545274534363051,,-0.030651509526051314,0.26050376067710684,-0.09444910864633813,-0.9171861130583213,0.20658312535922668,0.34072428713475067,-0.007312751103440748,-0.8636878598488782,0.503974005217199,0.3983919567435682,0.4597463285119091,0.7936732046223762,,0.09743898479018476,0.7671521447401868,1.1300580787669483,0.9839432571957165,-0.09444030876536642,-0.15144865367307245,0.015272332831812035,-0.8008775000578685,0.5986334318687297,-0.177826945283774,-0.591334303064993,-0.7865756921934981,,0.09671380207333191,0.6344053295232193,-0.4785410950551834,0.9735333954749433,-0.1398425342460599,-0.1807672357222605,0.008376552430381004,-0.768584380757592,0.6396935852616077,-0.2283912460327865,-0.6242772743509957,-0.7470711635878357,,0.0,0.0,0.045,1.0,0.0,0.0,0.0,1.0,0.0,0.0,0.0,1.0,,0.015666449378224347,-0.17545704850908886,0.23875541232997038,True,,0.07264766510578322,0.43551102519693236,-0.4702735985464107,0.599677663271175,-0.6530905808234345,-0.462449341456264,0.6350524239479355,0.7400093004936646,-0.22157313469987516,0.4869241409208163,-0.16080711558443644,0.8585138045284647,True,,-0.2838094706495052,-0.8594302050665813,0.15945974388722822,2.46797649793248,-0.9032113301884295,1.3492297870395735
08:48:17.766362,,-0.24525855061962198,-0.8813646120037464,0.15762627142000002,2.3936672589189447,-0.7880811271568453,1.1321624446493253,,0.06758543706627539,0.435437480568606,-0.46453754592398366,0.5125497813571191,-0.5622091065351129,-0.6490097396493831,0.7280364856945782,0.6852840649856196,-0.018671523083922482,0.4552533329128494,-0.4629326849616212,0.7605509398232095,,-0.03064746009770508,0.2605047787803214,-0.09444711316651522,-0.9172107439259863,0.20654278313525487,0.3406824332661752,-0.007305123055087806,-0.8636966782213287,0.5039589999010561,0.39833538228303156,0.4597478843223378,0.793700697024543,,0.09743898479018476,0.7671521447401868,1.1300580787669483,0.9839432571957165,-0.09444030876536642,-0.15144865367307245,0.015272332831812035,-0.8008775000578685,0.5986334318687297,-0.177826945283774,-0.591334303064993,-0.7865756921934981,,0.09671380207333191,0.6344053295232193,-0.4785410950551834,0.9735333954749433,-0.1398425342460599,-0.1807672357222605,0.008376552430381004,-0.768584380757592,0.6396935852616077,-0.2283912460327865,-0.6242772743509957,-0.7470711635878357,,0.0,0.0,0.045,1.0,0.0,0.0,0.0,1.0,0.0,0.0,0.0,1.0,,0.015666449378224347,-0.17545704850908886,0.23875541232997038,True,,0.07269753285609624,0.4354932448106025,-0.4702693327570525,0.5996224615225194,-0.6531172914953007,-0.4624831966542324,0.635087989554989,0.7399760202661154,-0.22158234350715753,0.4869457353347261,-0.16085177332241082,0.8584931903389559,False,,-0.28335430919811533,-0.859871285023713,0.15960504602703496,2.485633274327258,-0.9067541640830147,1.3135306518520469
08:48:17.830965,,-0.24525855061962198,-0.8813646120037464,0.15762627142000002,2.3936672589189447,-0.7880811271568453,1.1321624446493253,,0.060833830939054916,0.4411395964539458,-0.4639376230674967,0.47368803863227354,-0.6314240692098738,-0.6139407845054391,0.7423282399113884,0.6613643369708134,-0.10745230576035063,0.4738865120329651,-0.40484671000960376,0.782004293535291,,-0.030643410696707122,0.2605057969354589,-0.0944451176694348,-0.9172353735387256,0.2065024413317726,0.340640578223485,-0.007297494147468664,-0.8637054982441612,0.5039439960562194,0.3982788073543206,0.4597494386140793,0.7937281887306239,,0.09743898479018476,0.7671521447401868,1.1300580787669483,0.9839432571957165,-0.09444030876536642,-0.15144865367307245,0.015272332831812035,-0.8008775000578685,0.5986334318687297,-0.177826945283774,-0.591334303064993,-0.7865756921934981,,0.09671380207333191,0.6344053295232193,-0.4785410950551834,0.9735333954749433,-0.1398425342460599,-0.1807672357222605,0.008376552430381004,-0.768584380757592,0.6396935852616077,-0.2283912460327865,-0.6242772743509957,-0.7470711635878357,,0.0,0.0,0.045,1.0,0.0,0.0,0.0,1.0,0.0,0.0,0.0,1.0,,0.015666449378224347,-0.17545704850908886,0.23875541232997038,True,,0.07269753285609624,0.4354932448106025,-0.4702693327570525,0.5996224615225194,-0.6531172914953007,-0.4624831966542324,0.635087989554989,0.7399760202661154,-0.22158234350715753,0.4869457353347261,-0.16085177332241082,0.8584931903389559,True,,-0.3374517499015132,-0.8592166594848254,0.15538257022274812,2.5563805313076737,-0.9367655957891325,1.1167217469600665
08:48:17.895720,,-0.24525855061962198,-0.8813646120037464,0.15762627142000002,2.3936672589189447,-0.7880811271568453,1.1321624446493253,,0.06079480984053869,0.44120726936503696,-0.4639482031963879,0.4737932397893079,-0.6317171910596348,-0.6135579487299277,0.7423187258430564,0.6613368326223209,-0.1076870608746349,0.4737962380524911,-0.40443415327689747,0.7822724208806712,,-0.030639361347197813,0.26050681512276924,-0.09444312226373942,-0.9172600010354782,0.20646209952835254,0.34059872196591184,-0.007289863980782851,-0.8637143191197685,0.5039289932884292,0.39822223171190424,0.45975099113747725,0.7937556788865017,,0.09743898479018476,0.7671521447401868,1.1300580787669483,0.9839432571957165,-0.09444030876536642,-0.15144865367307245,0.015272332831812035,-0.8008775000578685,0.5986334318687297,-0.177826945283774,-0.591334303064993,-0.7865756921934981,,0.09671380207333191,0.6344053295232193,-0.4785410950551834,0.9735333954749433,-0.1398425342460599,-0.1807672357222605,0.008376552430381004,-0.768584380757592,0.6396935852616077,-0.2283912460327865,-0.6242772743509957,-0.7470711635878357,,0.0,0.0,0.045,1.0,0.0,0.0,0.0,1.0,0.0,0.0,0.0,1.0,,0.015666449378224347,-0.17545704850908886,0.23875541232997038,True,,0.07269753285609624,0.4354932448106025,-0.4702693327570525,0.5996224615225194,-0.6531172914953007,-0.4624831966542324,0.635087989554989,0.7399760202661154,-0.22158234350715753,0.4869457353347261,-0.16085177332241082,0.8584931903389559,True,,-0.33786200689534096,-0.8592575775121067,0.15532422474394292,2.5561124959184953,-0.9369740663150087,1.116062953096158
08:48:17.985373,,-0.24525855061962198,-0.8813646120037464,0.15762627142000002,2.3934575823896074,-0.7880811271568453,1.1321624446493253,,0.06772745750162612,0.4355146265855871,-0.46454963604781696,0.5214879351133033,-0.54574521921133,-0.6559058539449403,0.724410655440695,0.6893646271824238,0.0023691926094084035,0.4508653189315473,-0.47638069492540885,0.7548389879220196,,-0.03063275281170772,0.2605090701715151,-0.09444276981978171,-0.9172677684208715,0.20639267028157393,0.34061986563429114,-0.007206714201222916,-0.8637077530243322,0.5039414319447921,0.39820583933576736,0.45979448584578214,0.7937387016513662,,0.09743898479018476,0.7671521447401868,1.1300580787669483,0.9839432571957165,-0.09444030876536642,-0.15144865367307245,0.015272332831812035,-0.8008775000578685,0.5986334318687297,-0.177826945283774,-0.591334303064993,-0.7865756921934981,,0.09671380207333191,0.6344053295232193,-0.4785410950551834,0.9735333954749433,-0.1398425342460599,-0.1807672357222605,0.008376552430381004,-0.768584380757592,0.6396935852616077,-0.2283912460327865,-0.6242772743509957,-0.7470711635878357,,0.0,0.0,0.045,1.0,0.0,0.0,0.0,1.0,0.0,0.0,0.0,1.0,,0.015666449378224347,-0.17545704850908886,0.23875541232997038,True,,0.07269863998361051,0.43549306401841836,-0.4702704605155344,0.5997253769001194,-0.6531483727468097,-0.4623058246228402,0.6350711836354748,0.7399829600984149,-0.22160733399376603,0.4868409021619351,-0.16069356534155937,0.8585822698145886,True,,-0.2830974634111161,-0.8593971925395827,0.15947875189824087,2.469604376845865,-0.9032227387879024,1.3471571704563865
08:48:18.078305,,-0.24525855061962198,-0.8813646120037464,0.15762627142000002,2.3932479058602696,-0.7880811271568453,1.1321624446493253,,0.06767850286415353,0.43553949480805676,-0.4645149301913144,0.5070096913623466,-0.5608208395896453,-0.6545388901712594,0.7301943076864129,0.6829595198229027,-0.019559327841988126,0.4579928447989317,-0.4680238029900143,0.7557752800586602,,-0.030624998055933612,0.260511330365782,-0.09444279033464863,-0.9172645674062289,0.20633815847948772,0.34066149865989,-0.007129272202569967,-0.8637044345915098,0.5039482136863536,0.3982145976628307,0.45982517651287735,0.7937165238206747,,0.09743898479018476,0.7671521447401868,1.1300580787669483,0.9839432571957165,-0.09444030876536642,-0.15144865367307245,0.015272332831812035,-0.8008775000578685,0.5986334318687297,-0.177826945283774,-0.591334303064993,-0.7865756921934981,,0.09671380207333191,0.6344053295232193,-0.4785410950551834,0.9735333954749433,-0.1398425342460599,-0.1807672357222605,0.008376552430381004,-0.768584380757592,0.6396935852616077,-0.2283912460327865,-0.6242772743509957,-0.7470711635878357,,0.0,0.0,0.045,1.0,0.0,0.0,0.0,1.0,0.0,0.0,0.0,1.0,,0.015666449378224347,-0.17545704850908886,0.23875541232997038,True,,0.07269974687666629,0.43549288325753843,-0.4702715885091547,0.5998282704831364,-0.653179421166248,-0.4621284341978261,0.6350543806259068,0.7399898951600421,-0.22163232776126296,0.48673604713135366,-0.16053535070493063,0.8586713117351654,True,,-0.2823520754140188,-0.8600124428006267,0.15950442069358672,2.4958585278551,-0.9082290073251896,1.3111653333090574
08:48:18.162449,,-0.24525855061962198,-0.8813646120037464,0.15762627142000002,2.3932479058602696,-0.7880811271568453,1.1321624446493253,,0.06772376095574505,0.43552484136175096,-0.4645391152401531,0.519934548553271,-0.5487903887288368,-0.6545969557365503,0.7251274340395928,0.6886133705541636,-0.0013528847660618391,0.45150666620091257,-0.4739627993132866,0.7559768483513574,,-0.030623195019536132,0.2605120781796718,-0.09444379815223242,-0.9172582198230896,0.20628700978443187,0.3407095635135741,-0.007048524435090783,-0.8636976955427249,0.5039608992034108,0.3982306560006404,0.45986078242966116,0.793687838077991,,0.09743898479018476,0.7671521447401868,1.1300580787669483,0.9839432571957165,-0.09444030876536642,-0.15144865367307245,0.015272332831812035,-0.8008775000578685,0.5986334318687297,-0.177826945283774,-0.591334303064993,-0.7865756921934981,,0.09671380207333191,0.6344053295232193,-0.4785410950551834,0.9735333954749433,-0.1398425342460599,-0.1807672357222605,0.008376552430381004,-0.768584380757592,0.6396935852616077,-0.2283912460327865,-0.6242772743509957,-0.7470711635878357,,0.0,0.0,0.045,1.0,0.0,0.0,0.0,1.0,0.0,0.0,0.0,1.0,,0.015666449378224347,-0.17545704850908886,0.23875541232997038,True,,0.07269974687666629,0.43549288325753843,-0.4702715885091547,0.5998282704831364,-0.653179421166248,-0.4621284341978261,0.6350543806259068,0.7399898951600421,-0.22163232776126296,0.48673604713135366,-0.16053535070493063,0.8586713117351654,True,,-0.2830264826780496,-0.8594301550168396,0.1594753867894707,2.472329595149658,-0.9038948441516702,1.3412723158126738
08:48:18.227614,,-0.24525855061962198,-0.8813646120037464,0.15762627142000002,2.3932479058602696,-0.7883494100937498,1.1322984104417484,,0.060829965774431595,0.44116815423078565,-0.46399080077458216,0.47393569908208705,-0.6316897221871017,-0.6134762000426388,0.7422709954910364,0.6614037306500777,-0.10760517801158591,0.4737285323772672,-0.4043676544499342,0.782347798390421,,-0.0306218367281411,0.2605123923516195,-0.09444458418350073,-0.9172527714626949,0.20623341697990777,0.34075668288101246,-0.006966812385774734,-0.8636919184823798,0.5039719431046552,0.3982446518566958,0.45989567690106836,0.7936606010118693,,0.09743898479018476,0.7671521447401868,1.1300580787669483,0.9839432571957165,-0.09444030876536642,-0.15144865367307245,0.015272332831812035,-0.8008775000578685,0.5986334318687297,-0.177826945283774,-0.591334303064993,-0.7865756921934981,,0.09671380207333191,0.6344053295232193,-0.4785410950551834,0.9735333954749433,-0.1398425342460599,-0.1807672357222605,0.008376552430381004,-0.768584380757592,0.6396935852616077,-0.2283912460327865,-0.6242772743509957,-0.7470711635878357,,0.0,0.0,0.045,1.0,0.0,0.0,0.0,1.0,0.0,0.0,0.0,1.0,,0.015666449378224347,-0.17545704850908886,0.23875541232997038,True,,0.07270146860799759,0.43549470655625633,-0.4702701914677197,0.5997222570783665,-0.6532622671150479,-0.46214892050997775,0.6352593432544686,0.7398657428861486,-0.22145936266373714,0.4865991997247128,-0.16077031090109714,0.858704912039074,True,,-0.33758039739698975,-0.8594721829383951,0.155353482759645,2.5556809212293237,-0.9370259988490747,1.1167156067287012
