AlexandreBanks6/RCL_Autocam_Public/dataCollection/ParticipantData/P02/optimizationData/Data_46.csv
System Time,q_des,q0,q1,q2,q3,q4,q5,T_des,Tx,Ty,Tz,R00,R01,R02,R10,R11,R12,R20,R21,R22,T_target,Tx,Ty,Tz,R00,R01,R02,R10,R11,R12,R20,R21,R22,worldFrame,Tx,Ty,Tz,R00,R01,R02,R10,R11,R12,R20,R21,R22,ECM_T_PSM_RCM,Tx,Ty,Tz,R00,R01,R02,R10,R11,R12,R20,R21,R22,psm3_T_cam,Tx,Ty,Tz,R00,R01,R02,R10,R11,R12,R20,R21,R22,offset,x,y,z,IK Trigered,ECM_T_PSM3,Tx,Ty,Tz,R00,R01,R02,R10,R11,R12,R20,R21,R22,solverSuccess,q_solverOutput,q0,q1,q2,q3,q4,q5
10:19:49.864927,,-0.10563154025364284,-0.8889251674876122,0.13446545799,2.4513283044868066,-0.8006904251913549,1.2543428805416337,,0.09171165870039572,0.45880531751062126,-0.47171226415928846,0.5285051701452143,-0.49697435797467004,-0.6882577806646596,0.7198218081198138,0.6921350082850799,0.052968810269200646,0.4500431642463868,-0.5234172502142789,0.7235299112636759,,-0.003080469714711827,0.281507068958554,-0.10106322775066762,-0.21190131421256403,0.8234494113350311,0.5263353493800119,-0.6151825721620098,-0.530865379807244,0.5828656375445755,0.7593735812780967,-0.20028233944634613,0.6190627985614842,,0.09835464904834255,0.7627261962343077,1.1327389192527453,0.9838879202306108,-0.0952246480071065,-0.15131697471270666,0.01520733033439213,-0.798715397448571,0.6015167919374088,-0.17813842238097854,-0.5941262326227431,-0.7843983185736201,,0.09680264268566545,0.6359867163027845,-0.47586649657866587,0.9734075983647756,-0.14036968675974038,-0.18103590385526333,0.009163778932644848,-0.7657812775067816,0.6430358156244141,-0.22889664174337157,-0.6275949219512967,-0.7441309974322752,,0.0,0.0,0.045,1.0,0.0,0.0,0.0,1.0,0.0,0.0,0.0,1.0,,0.015666449378224347,-0.17545704850908886,0.23875541232997038,True,,0.09171165870039572,0.45880531751062126,-0.47171226415928846,0.5606638649073996,-0.6744304693022513,-0.4804160412224414,0.6826314609867766,0.7048560576818284,-0.19285286210033264,0.4686900031557705,-0.21982147307753241,0.8555747780970799,False,,0.0,0.0,0.0,0.0,0.0,0.0
10:19:51.170448,,-0.10638064534244263,-0.8898673408982676,0.13478823420000002,2.4626508370710414,-0.8484447879603484,1.3964701662069356,,0.08740424437229294,0.4599673125230901,-0.46761946119265335,0.515961730247014,-0.5892069793731112,-0.6217866421679722,0.7249194320240211,0.6870520325886322,-0.04951082295619885,0.45637189877826473,-0.4251995296020955,0.7816201443359032,,-0.003065543806398535,0.28151740271775716,-0.10107439199704835,-0.21175881499337296,0.8235190465256672,0.526283732062486,-0.6151496720481946,-0.5307552903231587,0.5830005875850713,0.7594399697166072,-0.20028775338246663,0.6189795881880139,,0.09835464904834255,0.7627261962343077,1.1327389192527453,0.9838879202306108,-0.0952246480071065,-0.15131697471270666,0.01520733033439213,-0.798715397448571,0.6015167919374088,-0.17813842238097854,-0.5941262326227431,-0.7843983185736201,,0.0967624596808149,0.6360049049210096,-0.4758483276954226,0.9734011130756548,-0.14041901815769386,-0.1810325175284975,0.009122639735938867,-0.7657819956772853,0.6430355453167133,-0.22892586246932603,-0.6275830099964018,-0.7441320548508388,,0.0,0.0,0.045,1.0,0.0,0.0,0.0,1.0,0.0,0.0,0.0,1.0,,0.015666449378224347,-0.17545704850908886,0.23875541232997038,True,,0.0918089066065706,0.4588860906409198,-0.47155314968264145,0.5316882885894724,-0.6205796269756122,-0.5763579533238075,0.7162652978615839,0.6926295115599795,-0.08501989646806915,0.45196414333003765,-0.36762111786320795,0.812762650990405,True,,-0.14848798278208036,-0.8731760778698492,0.13413583182709932,2.4883806723190203,-0.8632304045649888,1.3963
10:19:51.225659,,-0.10638064534244263,-0.8898827863640161,0.13478823420000002,2.4626508370710414,-0.8484447879603484,1.3964701662069356,,0.08740529247972997,0.45996352786441985,-0.4676222161562575,0.5159433230719839,-0.5892197922986759,-0.6217897745548276,0.7249302279845582,0.6870395878721794,-0.04952544043905706,0.4563755601822861,-0.4252018827097674,0.7816167264128717,,-0.003060568626646533,0.2815208472682732,-0.1010781133943813,-0.21171131629619944,0.8235422576255549,0.526266522562126,-0.615138701581246,-0.5307185936201624,0.5830455698444794,0.7594620995688773,-0.2002895618931228,0.6189518519461684,,0.09835464904834255,0.7627261962343077,1.1327389192527453,0.9838879202306108,-0.0952246480071065,-0.15131697471270666,0.01520733033439213,-0.798715397448571,0.6015167919374088,-0.17813842238097854,-0.5941262326227431,-0.7843983185736201,,0.0967624596808149,0.6360049049210096,-0.4758483276954226,0.9734011130756548,-0.14041901815769386,-0.1810325175284975,0.009122639735938867,-0.7657819956772853,0.6430355453167133,-0.22892586246932603,-0.6275830099964018,-0.7441320548508388,,0.0,0.0,0.045,1.0,0.0,0.0,0.0,1.0,0.0,0.0,0.0,1.0,,0.015666449378224347,-0.17545704850908886,0.23875541232997038,True,,0.09180781756618298,0.45888609198943764,-0.47155433887724135,0.5316897025330328,-0.6205731325008237,-0.5763636416694331,0.7162591555589721,0.6926356352431443,-0.08502175527048628,0.4519722140776838,-0.367620543508441,0.8127584227138315,True,,-0.14847358059190746,-0.8731917885515293,0.13413959021097116,2.4883972859084453,-0.8632513198718125,1.3963
10:19:51.272851,,-0.10708341403399706,-0.889674272576412,0.13478175275,2.4657959850111064,-0.848847212365705,1.39660523325152,,0.08757949828716559,0.4600466787931914,-0.4675546843259907,0.5173059440274858,-0.5899552969147089,-0.6199575049276437,0.7242764603850657,0.6876901824313362,-0.05005818534102441,0.45587078125924285,-0.4231252304340092,0.783036953255882,,-0.0030585719132528062,0.28152198277842316,-0.10107958598467982,-0.21169095379382413,0.8235533250239744,0.5262573970835025,-0.6151340675304029,-0.5307016064601512,0.5830659233100512,0.7594715308072113,-0.20028907310149718,0.6189404399057961,,0.09835464904834255,0.7627261962343077,1.1327389192527453,0.9838879202306108,-0.0952246480071065,-0.15131697471270666,0.01520733033439213,-0.798715397448571,0.6015167919374088,-0.17813842238097854,-0.5941262326227431,-0.7843983185736201,,0.0967624596808149,0.6360049049210096,-0.4758483276954226,0.9734011130756548,-0.14041901815769386,-0.1810325175284975,0.009122639735938867,-0.7657819956772853,0.6430355453167133,-0.22892586246932603,-0.6275830099964018,-0.7441320548508388,,0.0,0.0,0.045,1.0,0.0,0.0,0.0,1.0,0.0,0.0,0.0,1.0,,0.015666449378224347,-0.17545704850908886,0.23875541232997038,True,,0.09171919271782582,0.45889985212031953,-0.47148393877594463,0.530133369350003,-0.6190595207895088,-0.5794168796483902,0.7165340603390927,0.6924473354406191,-0.08423555077970515,0.4533624941209703,-0.37051585304957,0.8106666710574468,True,,-0.1471554609321773,-0.8725674697151783,0.13403632557447093,2.4869597226380105,-0.8614274368226464,1.3963
10:19:51.323524,,-0.1126746726349356,-0.8888324946931215,0.1347363826,2.469360486009847,-0.8500544855817751,1.3970104343852738,,0.08743008487363109,0.45952356946703876,-0.4674108996081711,0.5165765337416196,-0.5890461385694278,-0.6214284604231932,0.7247408173867473,0.6872766445927108,-0.04900572834857984,0.45595990218557964,-0.42505936107070025,0.7819367667305875,,-0.0030569812089774676,0.28152313348906927,-0.10108078002186902,-0.2116760270325247,0.8235603958524396,0.5262523376231221,-0.615130605391258,-0.5306903251571029,0.5830798452925074,0.7594784965892134,-0.20028989504895883,0.6189316279287775,,0.09835464904834255,0.7627261962343077,1.1327389192527453,0.9838879202306108,-0.0952246480071065,-0.15131697471270666,0.01520733033439213,-0.798715397448571,0.6015167919374088,-0.17813842238097854,-0.5941262326227431,-0.7843983185736201,,0.0967624596808149,0.6360049049210096,-0.4758483276954226,0.9734011130756548,-0.14041901815769386,-0.1810325175284975,0.009122639735938867,-0.7657819956772853,0.6430355453167133,-0.22892586246932603,-0.6275830099964018,-0.7441320548508388,,0.0,0.0,0.045,1.0,0.0,0.0,0.0,1.0,0.0,0.0,0.0,1.0,,0.015666449378224347,-0.17545704850908886,0.23875541232997038,True,,0.09109084049242619,0.45898066891689393,-0.4711929570757861,0.5284232095420689,-0.6141809306864084,-0.5861319783107177,0.7164091091715884,0.6930402746039561,-0.08033160071132694,0.4555512044910317,-0.3774612061630308,0.8062233796713665,True,,-0.14811890730959817,-0.871941495139739,0.13457718827861428,2.4881839882469197,-0.8619214981248795,1.3963
10:19:51.355715,,-0.12371045791220242,-0.8873651754470189,0.13463397569000002,2.4737636931259384,-0.8512617587978452,1.397277872230927,,0.08793849029986288,0.398043145296208,-0.44309805844642114,0.47019293004875856,-0.6629015517351146,-0.5826492437473341,0.8262312605996344,0.5627050158104078,0.026551255897756722,0.31025878317962674,-0.49388723195582396,0.8122899048805862,,-0.0030514038085739485,0.28152679750217824,-0.10108493519514966,-0.21162173908688425,0.8235878180314123,0.5262312661819637,-0.6151181182936939,-0.5306473777761695,0.5831321127990408,0.7595037459183731,-0.20029095441608216,0.6189003098128382,,0.09835464904834255,0.7627261962343077,1.1327389192527453,0.9838879202306108,-0.0952246480071065,-0.15131697471270666,0.01520733033439213,-0.798715397448571,0.6015167919374088,-0.17813842238097854,-0.5941262326227431,-0.7843983185736201,,0.0967624596808149,0.6360049049210096,-0.4758483276954226,0.9734011130756548,-0.14041901815769386,-0.1810325175284975,0.009122639735938867,-0.7657819956772853,0.6430355453167133,-0.22892586246932603,-0.6275830099964018,-0.7441320548508388,,0.0,0.0,0.045,1.0,0.0,0.0,0.0,1.0,0.0,0.0,0.0,1.0,,0.015666449378224347,-0.17545704850908886,0.23875541232997038,True,,0.0898501767730674,0.4591501546122627,-0.4706821196860228,0.5268137905031673,-0.6050941128452938,-0.5969324457052503,0.7152052172084233,0.6950534910677251,-0.07336308221728416,0.45929154946889333,-0.38828051606349595,0.7989302306409041,True,,-0.1342496966100848,-0.7733080608962486,0.19880141715290414,2.4681156075048056,-0.9519051487782872,1.3963
10:19:51.403892,,-0.13257615525181216,-0.8856121150845698,0.13454712426,2.4783765767713675,-0.8522007490770108,1.3972715809960565,,0.0862741550511129,0.45966464046225364,-0.4669834406607374,0.5149337604995682,-0.5824455490155349,-0.6289677294820183,0.7253363026774182,0.6870855705758107,-0.04243426357044487,0.4568702992272824,-0.43436229249153874,0.7762724576754406,,-0.0030514038085739485,0.2815267975021782,-0.10108493519514966,-0.21162173908688425,0.8235878180314123,0.5262312661819637,-0.6151181182936939,-0.5306473777761695,0.5831321127990408,0.7595037459183731,-0.20029095441608216,0.6189003098128382,,0.09835464904834255,0.7627261962343077,1.1327389192527453,0.9838879202306108,-0.0952246480071065,-0.15131697471270666,0.01520733033439213,-0.798715397448571,0.6015167919374088,-0.17813842238097854,-0.5941262326227431,-0.7843983185736201,,0.0967624596808149,0.6360049049210096,-0.4758483276954226,0.9734011130756548,-0.14041901815769386,-0.1810325175284975,0.009122639735938867,-0.7657819956772853,0.6430355453167133,-0.22892586246932603,-0.6275830099964018,-0.7441320548508388,,0.0,0.0,0.045,1.0,0.0,0.0,0.0,1.0,0.0,0.0,0.0,1.0,,0.015666449378224347,-0.17545704850908886,0.23875541232997038,True,,0.08908857912341106,0.45927025928242476,-0.47030288495433914,0.5253613693188233,-0.5992650768876447,-0.6040503284084006,0.7147490058395313,0.6959855856129753,-0.06883257419540231,0.46165927942461293,-0.39558239627391056,0.7939680582235902,True,,-0.1582824411238126,-0.8706656037121474,0.13455045898374424,2.490252540031823,-0.8655487674340828,1.3963
10:19:51.448453,,-0.13865394602382686,-0.8836119272701457,0.13453416136000002,2.4787959298300426,-0.8532738808246286,1.3973332726573977,,0.08580163604429354,0.4597013319154076,-0.4666168341384576,0.5166089453634579,-0.5801170436804216,-0.62974551463424,0.7247363393104432,0.6879122724848158,-0.03916559520389116,0.45593029736282537,-0.4361661621403759,0.7758135361995053,,-0.0030514038085739485,0.2815267975021782,-0.10108493519514966,-0.21162173908688425,0.8235878180314123,0.5262312661819637,-0.6151181182936939,-0.5306473777761695,0.5831321127990408,0.7595037459183731,-0.20029095441608216,0.6189003098128382,,0.09835464904834255,0.7627261962343077,1.1327389192527453,0.9838879202306108,-0.0952246480071065,-0.15131697471270666,0.01520733033439213,-0.798715397448571,0.6015167919374088,-0.17813842238097854,-0.5941262326227431,-0.7843983185736201,,0.0967624596808149,0.6360049049210096,-0.4758483276954226,0.9734011130756548,-0.14041901815769386,-0.1810325175284975,0.009122639735938867,-0.7657819956772853,0.6430355453167133,-0.22892586246932603,-0.6275830099964018,-0.7441320548508388,,0.0,0.0,0.045,1.0,0.0,0.0,0.0,1.0,0.0,0.0,0.0,1.0,,0.015666449378224347,-0.17545704850908886,0.23875541232997038,True,,0.08820627135273164,0.4593681399740347,-0.4697017745225231,0.5247373770140975,-0.5935128184224188,-0.6102402965493527,0.7147863112107604,0.6965183718860906,-0.06279081884211868,0.46231073367387765,-0.4032427209428916,0.7897240616420993,True,,-0.16269370935939376,-0.8689080554846256,0.1345587495665119,2.4878553901418208,-0.8652231448998989,1.3963
10:19:51.486068,,-0.13987413781795432,-0.881109761818897,0.13475323437,2.4796346359473933,-0.8546152955091509,1.397530930111162,,0.08574476275419743,0.4595209819323097,-0.4663021502656565,0.5173830812526106,-0.578991681693532,-0.6301455226876175,0.7242999959252558,0.6884442330201923,-0.03786890444565217,0.4557458317266648,-0.4368216690492072,0.7755530712419595,,-0.0030513767778579427,0.28152777771893894,-0.10108495865366551,-0.21161988114436425,0.8235892844673822,0.5262297182569423,-0.6151161869544075,-0.530645719135451,0.5831356594067292,0.7595058277675991,-0.20028931882543252,0.6188982843031063,,0.09835464904834255,0.7627261962343077,1.1327389192527453,0.9838879202306108,-0.0952246480071065,-0.15131697471270666,0.01520733033439213,-0.798715397448571,0.6015167919374088,-0.17813842238097854,-0.5941262326227431,-0.7843983185736201,,0.0967624596808149,0.6360049049210096,-0.4758483276954226,0.9734011130756548,-0.14041901815769386,-0.1810325175284975,0.009122639735938867,-0.7657819956772853,0.6430355453167133,-0.22892586246932603,-0.6275830099964018,-0.7441320548508388,,0.0,0.0,0.045,1.0,0.0,0.0,0.0,1.0,0.0,0.0,0.0,1.0,,0.015666449378224347,-0.17545704850908886,0.23875541232997038,True,,0.0880818830349484,0.45927145316034296,-0.4693306036795303,0.5240294024205767,-0.5929086845726658,-0.6114347693393336,0.7161038919394037,0.6953618348500938,-0.060556870651888695,0.46107309761899135,-0.406117237250799,0.7889742633697288,True,,-0.16323435981970197,-0.8671414391441473,0.13474531560674133,2.48791665553292,-0.8634815699909972,1.3963
10:19:51.523582,,-0.13931037831813592,-0.8796733335042912,0.1351511954,2.4796346359473933,-0.8552860028514121,1.3973886730838685,,0.08579888730216599,0.4590659337813674,-0.46606100692196134,0.5181582603107416,-0.5787630569412384,-0.6297184618476569,0.7239320661676538,0.6888549308312465,-0.03743324516670769,0.45544964688314116,-0.4364770419959242,0.7759210081989729,,-0.003051952279039479,0.2815275637177157,-0.10108450465726823,-0.21162301614165452,0.8235893720404583,0.5262283204592857,-0.6151162437488238,-0.5306465232352158,0.5831348677681719,0.75950490825783,-0.20028682830548064,0.6189002186878626,,0.09835464904834255,0.7627261962343077,1.1327389192527453,0.9838879202306108,-0.0952246480071065,-0.15131697471270666,0.01520733033439213,-0.798715397448571,0.6015167919374088,-0.17813842238097854,-0.5941262326227431,-0.7843983185736201,,0.0967624596808149,0.6360049049210096,-0.4758483276954226,0.9734011130756548,-0.14041901815769386,-0.1810325175284975,0.009122639735938867,-0.7657819956772853,0.6430355453167133,-0.22892586246932603,-0.6275830099964018,-0.7441320548508388,,0.0,0.0,0.045,1.0,0.0,0.0,0.0,1.0,0.0,0.0,0.0,1.0,,0.015666449378224347,-0.17545704850908886,0.23875541232997038,True,,0.08817540013462691,0.4587941551588135,-0.4689803514921932,0.5232446696282085,-0.594157535011982,-0.6108942946976608,0.7180939675648071,0.6934108837759843,-0.05934981051395419,0.45886388989841076,-0.40762503584727705,0.7894844904732488,True,,-0.1625762347946559,-0.8657101867572295,0.13519474608322718,2.487820420620228,-0.8616444113573268,1.3963
10:19:51.574478,,-0.13960384216735647,-0.8773719591077723,0.13629452318000002,2.480683018594082,-0.8563591345990299,1.3975881280333102,,0.08574285858235302,0.45846411312845897,-0.46579513246367177,0.5173788915533677,-0.5777197229591724,-0.6313152970418077,0.7243658290341094,0.688455629321394,-0.036372959508557574,0.4556459462156295,-0.43848462705055097,0.7746728364526558,,-0.003051559600538028,0.2815280331241861,-0.10108481514063222,-0.21162030683432548,0.8235898024695184,0.5262287363546354,-0.6151155621015051,-0.5306454342935085,0.5831365777292948,0.7595062152199454,-0.20028794345517678,0.618898253924343,,0.09835464904834255,0.7627261962343077,1.1327389192527453,0.9838879202306108,-0.0952246480071065,-0.15131697471270666,0.01520733033439213,-0.798715397448571,0.6015167919374088,-0.17813842238097854,-0.5941262326227431,-0.7843983185736201,,0.0967624596808149,0.6360049049210096,-0.4758483276954226,0.9734011130756548,-0.14041901815769386,-0.1810325175284975,0.009122639735938867,-0.7657819956772853,0.6430355453167133,-0.22892586246932603,-0.6275830099964018,-0.7441320548508388,,0.0,0.0,0.045,1.0,0.0,0.0,0.0,1.0,0.0,0.0,0.0,1.0,,0.015666449378224347,-0.17545704850908886,0.23875541232997038,True,,0.08813368938591443,0.45795301959880425,-0.4686343594888397,0.5222252059953346,-0.5942292888410797,-0.6116963188597386,0.7197155161292027,0.6918698533085702,-0.057668725715531166,0.457482688269191,-0.4101312696761884,0.7889879159833767,True,,-0.16266529446006056,-0.8643427517346084,0.13580946167283886,2.4898991934831227,-0.8611376352911904,1.3963
10:19:51.622616,,-0.14038383818765313,-0.8756034532795749,0.13754155416000002,2.482150754299446,-0.8571639834097433,1.397789380478429,,0.08530575998542987,0.45718890018538505,-0.4652665887123848,0.5168083751312043,-0.5746574090854691,-0.6345691180457965,0.7245926631553614,0.688374488401455,-0.03325712283792255,0.45593264403381556,-0.442616567585547,0.7721502432837298,,-0.0030523044121802366,0.2815285646367473,-0.10108422936467143,-0.21162293855355613,0.8235911412509771,0.5262255826841095,-0.615114028374776,-0.5306451242120637,0.5831384777108077,0.7595067240748251,-0.2002832597678503,0.6188991451619972,,0.09835464904834255,0.7627261962343077,1.1327389192527453,0.9838879202306108,-0.0952246480071065,-0.15131697471270666,0.01520733033439213,-0.798715397448571,0.6015167919374088,-0.17813842238097854,-0.5941262326227431,-0.7843983185736201,,0.0967624596808149,0.6360049049210096,-0.4758483276954226,0.9734011130756548,-0.14041901815769386,-0.1810325175284975,0.009122639735938867,-0.7657819956772853,0.6430355453167133,-0.22892586246932603,-0.6275830099964018,-0.7441320548508388,,0.0,0.0,0.045,1.0,0.0,0.0,0.0,1.0,0.0,0.0,0.0,1.0,,0.015666449378224347,-0.17545704850908886,0.23875541232997038,True,,0.08794531925365084,0.45645905284693056,-0.46819577347193714,0.5210799369875895,-0.59354074740617,-0.6133392865596782,0.7213166454967157,0.6903947469792092,-0.0552936729913934,0.4562652695509216,-0.4135994130944083,0.787881672137121,True,,-0.16554290813130612,-0.861869412689017,0.1371348183759311,2.4921518013323265,-0.8605557117088782,1.396117882561156
10:19:51.670117,,-0.14148818898866725,-0.8733947516775467,0.13901284331000002,2.482360430828783,-0.8575664078151,1.3977866842349131,,0.08519530050274511,0.45599508045500137,-0.4649370238808348,0.517891474755414,-0.5739603456845696,-0.6343169097204584,0.7241596327580626,0.6888852640087529,-0.03209235602599489,0.45539131157650653,-0.44272634280471806,0.772406718463394,,-0.0030521080754241023,0.28152879934027913,-0.10108438460918029,-0.2116215838993421,0.823591356460428,0.5262257906260747,-0.615113687543176,-0.5306445797354726,0.5831393326837345,0.7595073775503444,-0.20028381734295775,0.6188981627744284,,0.09835464904834255,0.7627261962343077,1.1327389192527453,0.9838879202306108,-0.0952246480071065,-0.15131697471270666,0.01520733033439213,-0.798715397448571,0.6015167919374088,-0.17813842238097854,-0.5941262326227431,-0.7843983185736201,,0.0967624596808149,0.6360049049210096,-0.4758483276954226,0.9734011130756548,-0.14041901815769386,-0.1810325175284975,0.009122639735938867,-0.7657819956772853,0.6430355453167133,-0.22892586246932603,-0.6275830099964018,-0.7441320548508388,,0.0,0.0,0.045,1.0,0.0,0.0,0.0,1.0,0.0,0.0,0.0,1.0,,0.015666449378224347,-0.17545704850908886,0.23875541232997038,True,,0.08778231094645512,0.4552658113800383,-0.46783764483449314,0.5206931517331861,-0.5931257207606752,-0.6140688244083807,0.7223080287662788,0.6894982806317644,-0.05350918225513246,0.4551370709115372,-0.4156849773301533,0.7874365030299879,True,,-0.1657414557563887,-0.8601559980962917,0.13833825776289624,2.4914966926471593,-0.8587889983362385,1.3963
10:19:51.707903,,-0.14275471718004007,-0.871479513924739,0.14002394951000002,2.4834088134754717,-0.8579688322204566,1.3979217512794975,,0.0850389618809852,0.4554042518166922,-0.46470547439886783,0.5175244122547132,-0.5726980782802731,-0.6357557658837992,0.7243138411067773,0.68877990646326,-0.030849635874826458,0.45556332414008066,-0.4445212611186841,0.7712735611389092,,-0.0030522909015740472,0.28152905474559337,-0.10108424109999323,-0.21162200958689936,0.8235918744555064,0.526224808711434,-0.6151130626929715,-0.5306442948741679,0.583140250999781,0.759507764987951,-0.20028244197253098,0.6188981323890427,,0.09835464904834255,0.7627261962343077,1.1327389192527453,0.9838879202306108,-0.0952246480071065,-0.15131697471270666,0.01520733033439213,-0.798715397448571,0.6015167919374088,-0.17813842238097854,-0.5941262326227431,-0.7843983185736201,,0.0967624596808149,0.6360049049210096,-0.4758483276954226,0.9734011130756548,-0.14041901815769386,-0.1810325175284975,0.009122639735938867,-0.7657819956772853,0.6430355453167133,-0.22892586246932603,-0.6275830099964018,-0.7441320548508388,,0.0,0.0,0.045,1.0,0.0,0.0,0.0,1.0,0.0,0.0,0.0,1.0,,0.015666449378224347,-0.17545704850908886,0.23875541232997038,True,,0.08759051313173907,0.4541882732907848,-0.4674398781661788,0.5202033646685622,-0.592213465232039,-0.6153630399897019,0.723225038093249,0.6886968053704954,-0.05140286516812659,0.45424002868805563,-0.4183060146236658,0.786566001341998,True,,-0.16665031130065694,-0.8590748981128177,0.13894898488934393,2.4927206630473413,-0.8584608259153497,1.3963
10:19:51.752572,,-0.14404441357003556,-0.8702515993977373,0.14050616939000002,2.4838281665341473,-0.8581029736889089,1.3978519708876087,,0.0848549622466971,0.4548514023710779,-0.4643796204946642,0.5186758554179596,-0.5715422262502733,-0.6358575631533603,0.7237969096897683,0.6893926801804864,-0.029253479059893485,0.4550751482227851,-0.4450586659379272,0.7712518352286514,,-0.003052839378604323,0.2815298209623316,-0.10108381057365429,-0.2116232866675572,0.8235934284215063,0.5262218629878664,-0.6151111881230713,-0.5306434403108774,0.5831430059482412,0.7595089273151009,-0.20027831585430372,0.6188980412093088,,0.09835464904834255,0.7627261962343077,1.1327389192527453,0.9838879202306108,-0.0952246480071065,-0.15131697471270666,0.01520733033439213,-0.798715397448571,0.6015167919374088,-0.17813842238097854,-0.5941262326227431,-0.7843983185736201,,0.0967624596808149,0.6360049049210096,-0.4758483276954226,0.9734011130756548,-0.14041901815769386,-0.1810325175284975,0.009122639735938867,-0.7657819956772853,0.6430355453167133,-0.22892586246932603,-0.6275830099964018,-0.7441320548508388,,0.0,0.0,0.045,1.0,0.0,0.0,0.0,1.0,0.0,0.0,0.0,1.0,,0.015666449378224347,-0.17545704850908886,0.23875541232997038,True,,0.08742960031948398,0.45366953673641536,-0.46717586615266243,0.520141628442798,-0.5915416275573255,-0.616061027194307,0.7237447814513212,0.6882673670474511,-0.04981488512029825,0.4534822793482163,-0.41996015802025727,0.7861216750559337,True,,-0.1679536036502132,-0.8574140366938218,0.13952150175433806,2.4918229956391453,-0.8570571943125352,1.3963
10:19:51.800651,,-0.1453495554257795,-0.8694870488431891,0.14064357613,2.4846668726514975,-0.8582371151573611,1.3978510721397701,,0.0847593678132442,0.4546703570510789,-0.46423407323186744,0.5187014341746531,-0.5707892278238658,-0.6365127489574683,0.7237933884717865,0.6894313919215488,-0.028416309360042084,0.4550515937667813,-0.44596413895441317,0.770742521064565,,-0.003054742738535121,0.28153058598723624,-0.10108231257807053,-0.2115898951742018,0.8236313228504359,0.526175964950882,-0.615162502790435,-0.5305781430209306,0.583148278846169,0.7594766600975692,-0.20029544173615751,0.6189320839954406,,0.09835464904834255,0.7627261962343077,1.1327389192527453,0.9838879202306108,-0.0952246480071065,-0.15131697471270666,0.01520733033439213,-0.798715397448571,0.6015167919374088,-0.17813842238097854,-0.5941262326227431,-0.7843983185736201,,0.0967624596808149,0.6360049049210096,-0.4758483276954226,0.9734011130756548,-0.14041901815769386,-0.1810325175284975,0.009122639735938867,-0.7657819956772853,0.6430355453167133,-0.22892586246932603,-0.6275830099964018,-0.7441320548508388,,0.0,0.0,0.045,1.0,0.0,0.0,0.0,1.0,0.0,0.0,0.0,1.0,,0.015666449378224347,-0.17545704850908886,0.23875541232997038,True,,0.08726642928845837,0.45346248245187853,-0.46697928347416423,0.5195906376685703,-0.5902595745955107,-0.617753351950028,0.7240055223808989,0.6880867653671087,-0.048503679124280746,0.453697666744199,-0.4220547807156746,0.7848746328337498,True,,-0.16866507777644346,-0.8567080857632421,0.13971530907822347,2.492152871237998,-0.8567762797533587,1.3963
10:19:51.842359,,-0.1474346933018201,-0.8687688346858862,0.14048931762000003,2.4861346083568616,-0.8582371151573611,1.39778219049572,,0.08462772057584564,0.45473296127850876,-0.4641228917857115,0.5179221345841102,-0.569548334068163,-0.6382564983359114,0.724097672141232,0.6891534716670034,-0.027387108079644014,0.45545496342392416,-0.44797565519735244,0.769336459972498,,-0.003057194574518241,0.2815321171807398,-0.10108038407876115,-0.21155777609306153,0.8236707700374482,0.5261271221433379,-0.6152119407359578,-0.5305119890653678,0.5831563050573656,0.7594455569985317,-0.2003084390088941,0.6189660361533302,,0.09835464904834255,0.7627261962343077,1.1327389192527453,0.9838879202306108,-0.0952246480071065,-0.15131697471270666,0.01520733033439213,-0.798715397448571,0.6015167919374088,-0.17813842238097854,-0.5941262326227431,-0.7843983185736201,,0.0967624596808149,0.6360049049210096,-0.4758483276954226,0.9734011130756548,-0.14041901815769386,-0.1810325175284975,0.009122639735938867,-0.7657819956772853,0.6430355453167133,-0.22892586246932603,-0.6275830099964018,-0.7441320548508388,,0.0,0.0,0.045,1.0,0.0,0.0,0.0,1.0,0.0,0.0,0.0,1.0,,0.015666449378224347,-0.17545704850908886,0.23875541232997038,True,,0.08704231983224858,0.453555527241875,-0.4668031900495303,0.5190828241016321,-0.58830364411848,-0.6200418082997234,0.7239345336340178,0.6882673029556889,-0.046977768084479704,0.4543916952748712,-0.4244843247977701,0.7831610595951575,True,,-0.16979276822702458,-0.8562423260906097,0.13967191195094733,2.4936325608081873,-0.8571793467645912,1.3963
10:19:51.884827,,-0.1496047812394772,-0.868073788727206,0.14016913399000003,2.4869733144742123,-0.8583712566258134,1.3977812917478813,,0.08461536054014118,0.4549459365628273,-0.46409510719853203,0.5180471749030942,-0.5694110107917666,-0.6382775457150455,0.724085568416445,0.6891764979895251,-0.027126448900075956,0.4553319823886273,-0.4481147792786945,0.76932823320482,,-0.0030598426948254195,0.2815334135451342,-0.10107830022236333,-0.21152700925922652,0.8237100005047314,0.5260780722875834,-0.6152617185747896,-0.5304463785734762,0.5831634726508154,0.7594138007237693,-0.20032087571258575,0.6190009731361489,,0.09835464904834255,0.7627261962343077,1.1327389192527453,0.9838879202306108,-0.0952246480071065,-0.15131697471270666,0.01520733033439213,-0.798715397448571,0.6015167919374088,-0.17813842238097854,-0.5941262326227431,-0.7843983185736201,,0.0967624596808149,0.6360049049210096,-0.4758483276954226,0.9734011130756548,-0.14041901815769386,-0.1810325175284975,0.009122639735938867,-0.7657819956772853,0.6430355453167133,-0.22892586246932603,-0.6275830099964018,-0.7441320548508388,,0.0,0.0,0.045,1.0,0.0,0.0,0.0,1.0,0.0,0.0,0.0,1.0,,0.015666449378224347,-0.17545704850908886,0.23875541232997038,True,,0.08683319472759628,0.453897397890236,-0.4666508173323425,0.5191111010197389,-0.5867580691289405,-0.6214809997981857,0.7238314634444896,0.6884807642025186,-0.04541200117727512,0.45452357180445924,-0.42627362765622023,0.7821119594015444,True,,-0.1700950018585231,-0.8560720960283594,0.13946218831092627,2.4934369230658593,-0.8571693382343542,1.3963
10:19:51.925504,,-0.15223051041671354,-0.867247456309664,0.13999024597,2.487812020591563,-0.8582371151573611,1.3977133088516698,,0.08447469405284616,0.45513353883061186,-0.4639986022612883,0.5183718226306637,-0.5685572626973064,-0.6387748371192387,0.7239240314665356,0.6893845725772809,-0.0261325038539823,0.4552193429192156,-0.4488781016340472,0.7689498031117583,,-0.0030621251364242805,0.2815341990248956,-0.10107650334493612,-0.2114953877907002,0.8237481939356373,0.5260309873637976,-0.6153127441991277,-0.5303813361892287,0.5831688012781222,0.7593812701833611,-0.20033606002364807,0.6190359725289001,,0.09835464904834255,0.7627261962343077,1.1327389192527453,0.9838879202306108,-0.0952246480071065,-0.15131697471270666,0.01520733033439213,-0.798715397448571,0.6015167919374088,-0.17813842238097854,-0.5941262326227431,-0.7843983185736201,,0.0967624596808149,0.6360049049210096,-0.4758483276954226,0.9734011130756548,-0.14041901815769386,-0.1810325175284975,0.009122639735938867,-0.7657819956772853,0.6430355453167133,-0.22892586246932603,-0.6275830099964018,-0.7441320548508388,,0.0,0.0,0.045,1.0,0.0,0.0,0.0,1.0,0.0,0.0,0.0,1.0,,0.015666449378224347,-0.17545704850908886,0.23875541232997038,True,,0.08647757414573742,0.4541765256560645,-0.46640603138194237,0.518784192350751,-0.5838460588053798,-0.6244891843614301,0.7234901056399152,0.6889868389745706,-0.043118473546424924,0.4554393799487736,-0.4294425634904563,0.7798423275602717,True,,-0.17146791749620166,-0.8556163449077587,0.13929087084409453,2.493045738974733,-0.8571580553872008,1.3963
10:19:51.960191,,-0.15401446171065938,-0.866282114700386,0.13993709808000002,2.488441050179576,-0.8581029736889089,1.3976453259554582,,0.08846788001046303,0.5090652399243311,-0.4662487580657277,0.5223149437251237,-0.5490282513255411,-0.6524991025341259,0.7100034513342028,0.7037944335673689,-0.023843120037181663,0.4723157827713804,-0.45082299689124744,0.7574143032839116,,-0.003064956085506585,0.28153575065858644,-0.101074275965792,-0.21146503929088084,0.8237879399108533,0.5259809568414783,-0.615361893517797,-0.5303154374947441,0.5831768826914251,0.7593499041342114,-0.20034711516996961,0.6190708814660671,,0.09835464904834255,0.7627261962343077,1.1327389192527453,0.9838879202306108,-0.0952246480071065,-0.15131697471270666,0.01520733033439213,-0.798715397448571,0.6015167919374088,-0.17813842238097854,-0.5941262326227431,-0.7843983185736201,,0.0967624596808149,0.6360049049210096,-0.4758483276954226,0.9734011130756548,-0.14041901815769386,-0.1810325175284975,0.009122639735938867,-0.7657819956772853,0.6430355453167133,-0.22892586246932603,-0.6275830099964018,-0.7441320548508388,,0.0,0.0,0.045,1.0,0.0,0.0,0.0,1.0,0.0,0.0,0.0,1.0,,0.015666449378224347,-0.17545704850908886,0.23875541232997038,True,,0.0862818978148948,0.4542507252061633,-0.4661981922778471,0.5187002728130875,-0.5823118768805019,-0.6259895406694395,0.7234548063158214,0.6891187290662432,-0.041575479175390034,0.45559101198571306,-0.4313099295101296,0.7787223988712543,True,,-0.1847781522638948,-0.8604383634410463,0.08501934927545005,2.4986473874887083,-0.8450671077116095,1.3963
10:19:51.994067,,-0.15447010295023864,-0.8656642960704479,0.13991376486,2.488441050179576,-0.8579688322204566,1.3975773430592466,,0.08900345399173647,0.5143873362896924,-0.46608914859022965,0.5219932445354746,-0.5491883582856563,-0.6526217892338827,0.7117116369206443,0.7021395043913204,-0.021602366649239133,0.4700953079228355,-0.45320223244884505,0.7573758234670009,,-0.003066066608246581,0.2815367929956024,-0.10107340325738257,-0.2114685209070572,0.8237903144317885,0.525975838225351,-0.6153591104825434,-0.5303145575812452,0.5831806195739406,0.759351189960626,-0.2003396809144092,0.61907171025625,,0.09835464904834255,0.7627261962343077,1.1327389192527453,0.9838879202306108,-0.0952246480071065,-0.15131697471270666,0.01520733033439213,-0.798715397448571,0.6015167919374088,-0.17813842238097854,-0.5941262326227431,-0.7843983185736201,,0.0967624596808149,0.6360049049210096,-0.4758483276954226,0.9734011130756548,-0.14041901815769386,-0.1810325175284975,0.009122639735938867,-0.7657819956772853,0.6430355453167133,-0.22892586246932603,-0.6275830099964018,-0.7441320548508388,,0.0,0.0,0.045,1.0,0.0,0.0,0.0,1.0,0.0,0.0,0.0,1.0,,0.015666449378224347,-0.17545704850908886,0.23875541232997038,True,,0.08624096426093203,0.4542817301228487,-0.4660796423844696,0.5187859329599849,-0.5820098842179567,-0.6261993695584807,0.723557980600977,0.6890462267714397,-0.0409773849907219,0.4553295558949302,-0.431833060388667,0.7785853861227319,True,,-0.18560001493464964,-0.8579775186312135,0.07969853933990687,2.498554531445793,-0.8460267289431846,1.3963
10:19:52.035492,,-0.15460138940910045,-0.8652241002966171,0.13985672810000002,2.4886507267089137,-0.8578346907520045,1.3974404785189847,,0.08439196171121983,0.4551980283242295,-0.46375091570114757,0.5187078449697765,-0.5675192372609288,-0.6394248094229562,0.723802594751811,0.6895591294935307,-0.024859822257412064,0.4550296423282292,-0.44992235137954406,0.7684516265398532,,-0.0030658837679023686,0.28153653758770825,-0.10107354674602663,-0.21146809552103507,0.8237897965713272,0.525976820334845,-0.6153597352722024,-0.5303148424917612,0.5831797012298521,0.7593508021134286,-0.20034105616619344,0.6190717409410502,,0.09835464904834255,0.7627261962343077,1.1327389192527453,0.9838879202306108,-0.0952246480071065,-0.15131697471270666,0.01520733033439213,-0.798715397448571,0.6015167919374088,-0.17813842238097854,-0.5941262326227431,-0.7843983185736201,,0.0967624596808149,0.6360049049210096,-0.4758483276954226,0.9734011130756548,-0.14041901815769386,-0.1810325175284975,0.009122639735938867,-0.7657819956772853,0.6430355453167133,-0.22892586246932603,-0.6275830099964018,-0.7441320548508388,,0.0,0.0,0.045,1.0,0.0,0.0,0.0,1.0,0.0,0.0,0.0,1.0,,0.015666449378224347,-0.17545704850908886,0.23875541232997038,True,,0.08623900524143817,0.45431827413069353,-0.46601085968424416,0.5188438577863465,-0.5819942617574413,-0.6261658969624525,0.7236321484699874,0.6889804687906774,-0.040772874876426723,0.45514565244336,-0.43195901762365096,0.7786230423995418,True,,-0.17233862847108394,-0.8542941327867767,0.13924209315488312,2.4932479907630136,-0.8563249098201822,1.3963
10:19:52.072312,,-0.15472495313508805,-0.8651777638993718,0.13960524784,2.488860403238251,-0.8578346907520045,1.3974404785189847,,0.08866870147287868,0.5093848557610625,-0.46558907150986995,0.5210791264156865,-0.5524461429582378,-0.6505995720444577,0.7152490541541764,0.6985740480009546,-0.020324615398982088,0.4657202320550626,-0.4547499957010739,0.7591489358910096,,-0.0030672041582240663,0.28153685512244453,-0.10107250709209573,-0.21147386112297478,0.8237912233578387,0.5259722676028629,-0.6153582586518708,-0.5303153366766453,0.5831808099564275,0.759350393084536,-0.2003338810862834,0.6190745645867134,,0.09835464904834255,0.7627261962343077,1.1327389192527453,0.9838879202306108,-0.0952246480071065,-0.15131697471270666,0.01520733033439213,-0.798715397448571,0.6015167919374088,-0.17813842238097854,-0.5941262326227431,-0.7843983185736201,,0.0967624596808149,0.6360049049210096,-0.4758483276954226,0.9734011130756548,-0.14041901815769386,-0.1810325175284975,0.009122639735938867,-0.7657819956772853,0.6430355453167133,-0.22892586246932603,-0.6275830099964018,-0.7441320548508388,,0.0,0.0,0.045,1.0,0.0,0.0,0.0,1.0,0.0,0.0,0.0,1.0,,0.015666449378224347,-0.17545704850908886,0.23875541232997038,True,,0.08623907575941031,0.4545013053735723,-0.4659892610754266,0.5186563487496356,-0.5817333226812449,-0.6265635906944601,0.723678304698127,0.6889420364302541,-0.04060273080199439,0.4552859576254699,-0.4323716129923112,0.7783119458594259,True,,-0.18379749713737226,-0.8551702074271073,0.08476490584384228,2.4978970674332026,-0.8484495183671331,1.3963
10:19:52.105748,,-0.1549334669226921,-0.8652241002966171,0.13907117636000002,2.488860403238251,-0.8577005492835522,1.397372495622773,,0.08738873470924238,0.4939107771441963,-0.4651734632497887,0.5208192798921261,-0.5565969275717417,-0.6472612593924841,0.7168580547307566,0.6968583690716498,-0.022426386745000765,0.4635318835423115,-0.4523143527155621,0.7619382647348925,,-0.0030675833412527748,0.281536875831383,-0.10107220836962633,-0.21147564119377849,0.823791526332053,0.5259710773926817,-0.6153579747143219,-0.530315596374679,0.5831808734223786,0.7593501274547861,-0.20033194781089383,0.6190755160310614,,0.09835464904834255,0.7627261962343077,1.1327389192527453,0.9838879202306108,-0.0952246480071065,-0.15131697471270666,0.01520733033439213,-0.798715397448571,0.6015167919374088,-0.17813842238097854,-0.5941262326227431,-0.7843983185736201,,0.0967624596808149,0.6360049049210096,-0.4758483276954226,0.9734011130756548,-0.14041901815769386,-0.1810325175284975,0.009122639735938867,-0.7657819956772853,0.6430355453167133,-0.22892586246932603,-0.6275830099964018,-0.7441320548508388,,0.0,0.0,0.045,1.0,0.0,0.0,0.0,1.0,0.0,0.0,0.0,1.0,,0.015666449378224347,-0.17545704850908886,0.23875541232997038,True,,0.08625830698783343,0.45495943194362076,-0.4660055462998247,0.5187376308236784,-0.5815781973880445,-0.626640304074283,0.7235203467673557,0.6891070641155672,-0.04061726233596624,0.45544437440930396,-0.4323173076675235,0.7782494248697016,True,,-0.18013168479107164,-0.85561689074168,0.1003131399853934,2.4964874611846786,-0.8498527566531208,1.3963
10:19:52.138489,,-0.15525009897053532,-0.8652549912281141,0.13844766087000002,2.4892797562969267,-0.8577005492835522,1.397372495622773,,0.08631891670486846,0.47987629814140126,-0.4647711940849478,0.5202763353033493,-0.5606535464119875,-0.6441895185572167,0.7187896635212117,0.6948069726845809,-0.0241803706330566,0.4611441797728569,-0.4504562926683897,0.7644835994689942,,-0.00306683847129733,0.28153634430481744,-0.10107279405829814,-0.21147301034314125,0.8237901876847665,0.5259742318164672,-0.6153595082653719,-0.5303159064890233,0.5831789732803654,0.7593496174016453,-0.20033663160600126,0.6190746259966985,,0.09835464904834255,0.7627261962343077,1.1327389192527453,0.9838879202306108,-0.0952246480071065,-0.15131697471270666,0.01520733033439213,-0.798715397448571,0.6015167919374088,-0.17813842238097854,-0.5941262326227431,-0.7843983185736201,,0.0967624596808149,0.6360049049210096,-0.4758483276954226,0.9734011130756548,-0.14041901815769386,-0.1810325175284975,0.009122639735938867,-0.7657819956772853,0.6430355453167133,-0.22892586246932603,-0.6275830099964018,-0.7441320548508388,,0.0,0.0,0.045,1.0,0.0,0.0,0.0,1.0,0.0,0.0,0.0,1.0,,0.015666449378224347,-0.17545704850908886,0.23875541232997038,True,,0.08627331901809492,0.4555230576413465,-0.46601655541960507,0.5185695434887424,-0.5811998148765748,-0.62713029248579,0.7234576434241716,0.6891807451986881,-0.04048380686799413,0.45573530336920526,-0.43270853427545897,0.7778615928480866,True,,-0.17659100194934052,-0.8557376449199285,0.11441268535392791,2.495416590226999,-0.8514993524710094,1.3963
10:19:52.182528,,-0.15570574021011457,-0.8652395457623656,0.13732637002,2.4892797562969267,-0.8575664078151,1.3973045127265615,,0.08456260069583017,0.45688619178617484,-0.4638037120314688,0.5185529623805806,-0.5680082039064632,-0.6391161909240588,0.7240282665865236,0.6893108783164618,-0.025171059141440227,0.45484711100548725,-0.4496856605780774,0.7686981932334824,,-0.0030672041534485148,0.2815368551209439,-0.10107250708319951,-0.21147386111614247,0.823791223393073,0.5259722675957814,-0.6153582586894365,-0.5303153366625082,0.5831808099705518,0.759350393087413,-0.20033388109790268,0.6190745646179597,,0.09835464904834255,0.7627261962343077,1.1327389192527453,0.9838879202306108,-0.0952246480071065,-0.15131697471270666,0.01520733033439213,-0.798715397448571,0.6015167919374088,-0.17813842238097854,-0.5941262326227431,-0.7843983185736201,,0.09669464780788252,0.636011576867811,-0.4758276500107925,0.9733898529367273,-0.14050660869840598,-0.1810251007785646,0.009049993374851212,-0.7657796290714121,0.6430393901769669,-0.2289766185000809,-0.6275662933996085,-0.7441305366459201,,0.0,0.0,0.045,1.0,0.0,0.0,0.0,1.0,0.0,0.0,0.0,1.0,,0.015666449378224347,-0.17545704850908886,0.23875541232997038,True,,0.08638176550342323,0.4565466241905145,-0.46607637781614525,0.5185957739964373,-0.5808650703104916,-0.6274186746393703,0.7232674834273256,0.6893844602622965,-0.040413034599813324,0.45600720455902854,-0.4328334969038903,0.7776326853651476,True,,-0.17163677239579272,-0.8543463997602305,0.13754645088469505,2.493458742408552,-0.8564519069216572,1.3963
10:19:52.224613,,-0.15621544057981337,-0.8651545957007492,0.13592119166000002,2.4894894328262644,-0.8574322663466477,1.39723652983035,,0.08473872346309318,0.4579363904416185,-0.4639378876533275,0.5187265290818647,-0.5685165047686047,-0.6385231176961179,0.7238251484951184,0.6894979949112301,-0.025877971702067,0.4549724633785008,-0.44875550004326664,0.7691674451952687,,-0.003071183280641085,0.2815364215221937,-0.10107247693671151,-0.2114735490122543,0.8237945227257811,0.5259672254735084,-0.6153560832623274,-0.5303121610003262,0.5831859931139876,0.7593522428605486,-0.20032872010598718,0.6190739657266229,,0.09835464904834255,0.7627261962343077,1.1327389192527453,0.9838879202306108,-0.0952246480071065,-0.15131697471270666,0.01520733033439213,-0.798715397448571,0.6015167919374088,-0.17813842238097854,-0.5941262326227431,-0.7843983185736201,,0.09669464780788252,0.636011576867811,-0.4758276500107925,0.9733898529367273,-0.14050660869840598,-0.1810251007785646,0.009049993374851212,-0.7657796290714121,0.6430393901769669,-0.2289766185000809,-0.6275662933996085,-0.7441305366459201,,0.0,0.0,0.045,1.0,0.0,0.0,0.0,1.0,0.0,0.0,0.0,1.0,,0.015666449378224347,-0.17545704850908886,0.23875541232997038,True,,0.08644185662925366,0.457888940912502,-0.46608179327102045,0.518607792237319,-0.5803840459991991,-0.6278537385254098,0.7231003515958496,0.6895747246041678,-0.04015695094308544,0.4562585224986958,-0.43317555140691644,0.7772947332322672,True,,-0.17098005083541093,-0.8548249013093507,0.13647780832962444,2.4931325137617146,-0.856284102848107,1.3963
10:19:52.262622,,-0.15677147734675756,-0.8651391502350007,0.13433582899000002,2.490328138943615,-0.8566274175359344,1.3968286324530805,,0.08485486381557057,0.4595250622820412,-0.4638965720533721,0.5189064886159571,-0.56803849246159,-0.6388022598224131,0.7237051974513696,0.6896426639089761,-0.025372885102109166,0.4549580675778061,-0.44913836086276904,0.7689524624756549,,-0.0030742346846305384,0.28153520099020835,-0.10107317596054133,-0.21147018065904633,0.823795965579352,0.5259663199041957,-0.615356066167743,-0.5303095803956168,0.5831883577863454,0.7593531947710102,-0.2003296181850234,0.6190725075104306,,0.09835464904834255,0.7627261962343077,1.1327389192527453,0.9838879202306108,-0.0952246480071065,-0.15131697471270666,0.01520733033439213,-0.798715397448571,0.6015167919374088,-0.17813842238097854,-0.5941262326227431,-0.7843983185736201,,0.09669464780788252,0.636011576867811,-0.4758276500107925,0.9733898529367273,-0.14050660869840598,-0.1810251007785646,0.009049993374851212,-0.7657796290714121,0.6430393901769669,-0.2289766185000809,-0.6275662933996085,-0.7441305366459201,,0.0,0.0,0.045,1.0,0.0,0.0,0.0,1.0,0.0,0.0,0.0,1.0,,0.015666449378224347,-0.17545704850908886,0.23875541232997038,True,,0.08651047802105064,0.45947897704234697,-0.4660995806886443,0.5186179734115068,-0.5795863751070245,-0.6285817619409912,0.7226351796189916,0.6900677017241579,-0.040062004619921404,0.4569833638455227,-0.4334584187986643,0.7767110172651037,True,,-0.17136467663213975,-0.8543131372641912,0.13488643748204154,2.4931985007763267,-0.8558742511964303,1.3963
10:19:52.299270,,-0.15728117771645636,-0.865146872967875,0.13296565046,2.4907474920022907,-0.8560908516621254,1.396556700868234,,0.08489260206008023,0.4608305484677475,-0.46399095132556584,0.5178825348513681,-0.5674392629097708,-0.6401643250012746,0.724118551590239,0.689217895591878,-0.025120024656782387,0.45546679718589356,-0.4505456417548827,0.7678272080077033,,-0.003078410151282962,0.2815345326885637,-0.1010729905828433,-0.21147122325684442,0.8237990500166762,0.5259610696757747,-0.6153542316100574,-0.5303069493167144,0.5831926860263297,0.7593543910865724,-0.20032389918986465,0.6190728907321975,,0.09835464904834255,0.7627261962343077,1.1327389192527453,0.9838879202306108,-0.0952246480071065,-0.15131697471270666,0.01520733033439213,-0.798715397448571,0.6015167919374088,-0.17813842238097854,-0.5941262326227431,-0.7843983185736201,,0.09669464780788252,0.636011576867811,-0.4758276500107925,0.9733898529367273,-0.14050660869840598,-0.1810251007785646,0.009049993374851212,-0.7657796290714121,0.6430393901769669,-0.2289766185000809,-0.6275662933996085,-0.7441305366459201,,0.0,0.0,0.045,1.0,0.0,0.0,0.0,1.0,0.0,0.0,0.0,1.0,,0.015666449378224347,-0.17545704850908886,0.23875541232997038,True,,0.08656976897545156,0.4608886957730446,-0.46612719080020726,0.5187841377265912,-0.5788842905063009,-0.6290914056385559,0.7220494436291743,0.6906776120329716,-0.04011280582597124,0.4577200229376876,-0.4334252120509938,0.7762956692913299,True,,-0.1720354852830823,-0.8547318026826483,0.13358472751428857,2.4945313554727604,-0.8569219231717297,1.3963
10:19:52.328504,,-0.15763642342867068,-0.8651005365706296,0.13212695083,2.491795874648979,-0.8555542857883165,1.3962847692833877,,0.08520730464968677,0.4619012236460537,-0.4640949706367944,0.518060845798801,-0.568259972658262,-0.6392914542872151,0.7238262914307505,0.6894805417765092,-0.026307457976347173,0.4557284936053889,-0.4491070985700434,0.7685143812123235,,-0.003082389275898021,0.2815340990869875,-0.10107296043692167,-0.21147091120081846,0.8238023493295447,0.5259560275354116,-0.6153520562039215,-0.5303037736062575,0.5831978691408102,0.759356240895743,-0.2003187382246065,0.6190722918000774,,0.09835464904834255,0.7627261962343077,1.1327389192527453,0.9838879202306108,-0.0952246480071065,-0.15131697471270666,0.01520733033439213,-0.798715397448571,0.6015167919374088,-0.17813842238097854,-0.5941262326227431,-0.7843983185736201,,0.09669464780788252,0.636011576867811,-0.4758276500107925,0.9733898529367273,-0.14050660869840598,-0.1810251007785646,0.009049993374851212,-0.7657796290714121,0.6430393901769669,-0.2289766185000809,-0.6275662933996085,-0.7441305366459201,,0.0,0.0,0.045,1.0,0.0,0.0,0.0,1.0,0.0,0.0,0.0,1.0,,0.015666449378224347,-0.17545704850908886,0.23875541232997038,True,,0.08660928559469784,0.46202530877561293,-0.4661341592095709,0.5186435020490514,-0.5779696281587378,-0.630047638443591,0.7215462134060823,0.6912036409031486,-0.04010721533060441,0.45867197396575266,-0.43380714116791735,0.7755200736087227,True,,-0.170205076981037,-0.8549309820324558,0.13248207057287925,2.49469902787728,-0.8559262267982193,1.3963
10:19:52.361573,,-0.15796850094226234,-0.8650155865090131,0.13147880583000002,2.491586198119641,-0.8550177199145076,1.3960128376985412,,0.08501914031618754,0.4625725834713311,-0.4639525550659152,0.5177835030878308,-0.5670930294994528,-0.6405511219436176,0.7242566539044146,0.6890908130762646,-0.0246201260978351,0.45535979533252086,-0.45117551709620196,0.7675207551380611,,-0.003085819874204015,0.2815328992647764,-0.10107336074846351,-0.21146932294971144,0.8238040951023465,0.5259539317354804,-0.6153517551354631,-0.5303014526806492,0.5832002972399053,0.7593569271871505,-0.20031770301601623,0.6190717849777128,,0.09835464904834255,0.7627261962343077,1.1327389192527453,0.9838879202306108,-0.0952246480071065,-0.15131697471270666,0.01520733033439213,-0.798715397448571,0.6015167919374088,-0.17813842238097854,-0.5941262326227431,-0.7843983185736201,,0.09669464780788252,0.636011576867811,-0.4758276500107925,0.9733898529367273,-0.14050660869840598,-0.1810251007785646,0.009049993374851212,-0.7657796290714121,0.6430393901769669,-0.2289766185000809,-0.6275662933996085,-0.7441305366459201,,0.0,0.0,0.045,1.0,0.0,0.0,0.0,1.0,0.0,0.0,0.0,1.0,,0.015666449378224347,-0.17545704850908886,0.23875541232997038,True,,0.08662839128517363,0.46268541758516735,-0.4661299075431543,0.5189211193460892,-0.5776172330038915,-0.6301422093730353,0.7211357159795092,0.6916307934769448,-0.040126358583511296,0.4590034324875172,-0.4335956384136954,0.7754422424096441,True,,-0.1724767215049339,-0.8542199605950382,0.1318426168717545,2.4948411353896187,-0.8568885287376679,1.3961630500966014
10:19:52.404211,,-0.15835463758597357,-0.864946081913145,0.13100436369000001,2.4926345807663295,-0.8546152955091509,1.3958088890099065,,0.08505341301640446,0.4629580399675217,-0.4638920301596652,0.5177882223246401,-0.5669301549346236,-0.6406914672817898,0.7241378734382689,0.6892149221477466,-0.0246400353323058,0.4555432987918831,-0.4511906365547487,0.7674029661208835,,-0.0030858333673673063,0.28153240915776995,-0.1010733489976486,-0.21147025221705368,0.8238033623844261,0.5259547057710794,-0.6153527207930083,-0.5303022822349023,0.5831985240383148,0.7593558858738572,-0.20031852024199123,0.6190727978260403,,0.09835464904834255,0.7627261962343077,1.1327389192527453,0.9838879202306108,-0.0952246480071065,-0.15131697471270666,0.01520733033439213,-0.798715397448571,0.6015167919374088,-0.17813842238097854,-0.5941262326227431,-0.7843983185736201,,0.09669464780788252,0.636011576867811,-0.4758276500107925,0.9733898529367273,-0.14050660869840598,-0.1810251007785646,0.009049993374851212,-0.7657796290714121,0.6430393901769669,-0.2289766185000809,-0.6275662933996085,-0.7441305366459201,,0.0,0.0,0.045,1.0,0.0,0.0,0.0,1.0,0.0,0.0,0.0,1.0,,0.015666449378224347,-0.17545704850908886,0.23875541232997038,True,,0.08661945974342508,0.4631589565008315,-0.46611831725519465,0.5186456572180778,-0.5768156545525981,-0.6311025137898644,0.7208491531667335,0.6919358527763702,-0.0400159220990928,0.4597642663666147,-0.43417562841054913,0.7746666012335071,True,,-0.1725274163909898,-0.8537974035009661,0.13145643273163882,2.4952944089410947,-0.856382056113396,1.3957265166655712
10:19:52.416955,,-0.15908057447615068,-0.8648843000501513,0.13061677298000002,2.4928442572956673,-0.8538104466984375,1.395332109988587,,0.0865807387002012,0.4635110649097506,-0.4661119378730823,0.5044286836967995,-0.5759666340573506,-0.6432838716434293,0.7294244826522661,0.6829210926784204,-0.03948044177040061,0.4620515416827304,-0.4493119379980438,0.7646091519208059,,-0.0030860162132344514,0.281532664564146,-0.10107320551361929,-0.21147067762370775,0.8238038802201001,0.5259537236493266,-0.6153520960093634,-0.5303019972994677,0.5831994423676979,0.7593562737102844,-0.20031714498618855,0.6190727671141166,,0.09835464904834255,0.7627261962343077,1.1327389192527453,0.9838879202306108,-0.0952246480071065,-0.15131697471270666,0.01520733033439213,-0.798715397448571,0.6015167919374088,-0.17813842238097854,-0.5941262326227431,-0.7843983185736201,,0.09669464780788252,0.636011576867811,-0.4758276500107925,0.9733898529367273,-0.14050660869840598,-0.1810251007785646,0.009049993374851212,-0.7657796290714121,0.6430393901769669,-0.2289766185000809,-0.6275662933996085,-0.7441305366459201,,0.0,0.0,0.045,1.0,0.0,0.0,0.0,1.0,0.0,0.0,0.0,1.0,,0.015666449378224347,-0.17545704850908886,0.23875541232997038,False,,0.0865807387002012,0.4635110649097506,-0.4661119378730823,0.5190096624821026,-0.5762428140656627,-0.6313265315887653,0.7202577897663675,0.6925519305136523,-0.04000674721444919,0.46028000883275544,-0.4339539638942127,0.774484519334905,False,,0.0,0.0,0.0,0.0,0.0,0.0
10:19:52.428628,,-0.15924275186650938,-0.8648456863857802,0.1306012175,2.4932636103543424,-0.8536763052299853,1.3952641270923754,,0.08656605170784773,0.4635449349231884,-0.46610726170692396,0.5043325103734695,-0.5761926034787312,-0.6431569036221223,0.7294613305756893,0.6828655930920873,-0.03975863385148845,0.46209835119283776,-0.4491065190657929,0.7647015420132663,,-0.003085819871052886,0.2815328992643684,-0.10107336074457504,-0.21146932295223436,0.8238040951121731,0.5259539317417542,-0.6153517551428033,-0.530301452686975,0.5832002972468617,0.7593569271962083,-0.20031770301840557,0.6190717849850975,,0.09835464904834255,0.7627261962343077,1.1327389192527453,0.9838879202306108,-0.0952246480071065,-0.15131697471270666,0.01520733033439213,-0.798715397448571,0.6015167919374088,-0.17813842238097854,-0.5941262326227431,-0.7843983185736201,,0.09669464780788252,0.636011576867811,-0.4758276500107925,0.9733898529367273,-0.14050660869840598,-0.1810251007785646,0.009049993374851212,-0.7657796290714121,0.6430393901769669,-0.2289766185000809,-0.6275662933996085,-0.7441305366459201,,0.0,0.0,0.045,1.0,0.0,0.0,0.0,1.0,0.0,0.0,0.0,1.0,,0.015666449378224347,-0.17545704850908886,0.23875541232997038,False,,0.08656605170784773,0.4635449349231884,-0.46610726170692396,0.5189847577217344,-0.5760685142330643,-0.6315060476051061,0.7201482063214976,0.6926647884408255,-0.040025639109901395,0.46047951331676246,-0.43400525084788566,0.7743371746545697,False,,0.0,0.0,0.0,0.0,0.0,0.0
10:19:52.442350,,-0.15942809745549077,-0.8648302409200317,0.13059732863,2.49347328688368,-0.8535421637615331,1.3951961441961638,,0.08652351138835063,0.4635658062167703,-0.4660905642280738,0.5045001984997126,-0.5764732706373096,-0.642773768875546,0.7293970747579401,0.6829207139682225,-0.0399900708638193,0.46201672810441674,-0.4486623080601452,0.7650115530355296,,-0.0030856235305509426,0.2815331339648485,-0.10107351597741195,-0.21146796827930547,0.8238043099992435,0.5259541398298716,-0.6153514142717441,-0.5303009080721537,0.5832011521227479,0.759357580676768,-0.20031826105027606,0.6190708028523122,,0.09835464904834255,0.7627261962343077,1.1327389192527453,0.9838879202306108,-0.0952246480071065,-0.15131697471270666,0.01520733033439213,-0.798715397448571,0.6015167919374088,-0.17813842238097854,-0.5941262326227431,-0.7843983185736201,,0.09669464780788252,0.636011576867811,-0.4758276500107925,0.9733898529367273,-0.14050660869840598,-0.1810251007785646,0.009049993374851212,-0.7657796290714121,0.6430393901769669,-0.2289766185000809,-0.6275662933996085,-0.7441305366459201,,0.0,0.0,0.045,1.0,0.0,0.0,0.0,1.0,0.0,0.0,0.0,1.0,,0.015666449378224347,-0.17545704850908886,0.23875541232997038,False,,0.08652351138835063,0.4635658062167703,-0.4660905642280738,0.5188410447307568,-0.5754948346458504,-0.6321468702751304,0.7199340622978192,0.6928943239598806,-0.03990490906567712,0.4609760473669503,-0.4343997595765053,0.7738203490693547,False,,0.0,0.0,0.0,0.0,0.0,0.0
10:19:52.455912,,-0.15979106590057934,-0.8647607363241637,0.13061288411000002,2.4938926399423553,-0.8532738808246286,1.3950601784037406,,0.0865005543225652,0.4635602217606695,-0.4660847596087985,0.5046331196323918,-0.5764783426273083,-0.6426648699374752,0.7293461156680429,0.6829779093001829,-0.03994269605183067,0.4619520084705964,-0.44856871925004177,0.7651055129721386,,-0.003086002718663515,0.281533154670747,-0.10107321726243242,-0.21146974835714677,0.8238046129457014,0.5259529496135757,-0.6153511303592288,-0.5303011677424178,0.5832012155720527,0.7593573150259745,-0.2003163277630749,0.6190717542709665,,0.09835464904834255,0.7627261962343077,1.1327389192527453,0.9838879202306108,-0.0952246480071065,-0.15131697471270666,0.01520733033439213,-0.798715397448571,0.6015167919374088,-0.17813842238097854,-0.5941262326227431,-0.7843983185736201,,0.09669464780788252,0.636011576867811,-0.4758276500107925,0.9733898529367273,-0.14050660869840598,-0.1810251007785646,0.009049993374851212,-0.7657796290714121,0.6430393901769669,-0.2289766185000809,-0.6275662933996085,-0.7441305366459201,,0.0,0.0,0.045,1.0,0.0,0.0,0.0,1.0,0.0,0.0,0.0,1.0,,0.015666449378224347,-0.17545704850908886,0.23875541232997038,False,,0.0865005543225652,0.4635602217606695,-0.4660847596087985,0.518980886556317,-0.5753041244784945,-0.6322056657032205,0.7197126366497465,0.6931232726698513,-0.03992304510060499,0.46116435252075716,-0.4342871092278332,0.7737713788469067,False,,0.0,0.0,0.0,0.0,0.0,0.0
10:19:52.467624,,-0.15999185695530918,-0.864737568125541,0.13063880991000001,2.4945216695303687,-0.8531397393561764,1.3949921955075288,,0.08647751017699858,0.4635519601229414,-0.4660713477388353,0.5048331736389744,-0.5765438066782598,-0.6424489907958004,0.7292693767373453,0.6830604190319862,-0.0399329451076559,0.461854569043898,-0.4483588996917409,0.7652873016851166,,-0.00308598922554466,0.281533644777683,-0.1010732290133356,-0.211468819093089,0.8238053456646517,0.5259521755766302,-0.6153501647000319,-0.5303003381855399,0.5832029887715063,0.7593583563398049,-0.20031551053954366,0.6190707414199641,,0.09835464904834255,0.7627261962343077,1.1327389192527453,0.9838879202306108,-0.0952246480071065,-0.15131697471270666,0.01520733033439213,-0.798715397448571,0.6015167919374088,-0.17813842238097854,-0.5941262326227431,-0.7843983185736201,,0.09669464780788252,0.636011576867811,-0.4758276500107925,0.9733898529367273,-0.14050660869840598,-0.1810251007785646,0.009049993374851212,-0.7657796290714121,0.6430393901769669,-0.2289766185000809,-0.6275662933996085,-0.7441305366459201,,0.0,0.0,0.045,1.0,0.0,0.0,0.0,1.0,0.0,0.0,0.0,1.0,,0.015666449378224347,-0.17545704850908886,0.23875541232997038,False,,0.08647751017699858,0.4635519601229414,-0.4660713477388353,0.5187973598354413,-0.5749982919436125,-0.6326343838977643,0.7197126367227205,0.6931316508790265,-0.039777318805377826,0.46137080528508195,-0.434678592538951,0.7734284073002179,False,,0.0,0.0,0.0,0.0,0.0,0.0
10:19:52.480219,,-0.16016947981141633,-0.8647298453926668,0.13068418006000002,2.4951506991183816,-0.8531397393561764,1.3949921955075288,,0.08644793671486205,0.46352730481535875,-0.4660606889404155,0.5052363840002152,-0.5765386265640412,-0.6421365963422706,0.7291145533969696,0.6832353120053295,-0.039767781604178716,0.46165805993952347,-0.4480990074845393,0.7655580416821747,,-0.0030857928848579096,0.28153387947824404,-0.10107338424634478,-0.21146746442290498,0.8238055605505918,0.5259523836665683,-0.6153498238229802,-0.5302997935750798,0.5832038436458793,0.7593590098231844,-0.20031606857220746,0.6190697592842022,,0.09835464904834255,0.7627261962343077,1.1327389192527453,0.9838879202306108,-0.0952246480071065,-0.15131697471270666,0.01520733033439213,-0.798715397448571,0.6015167919374088,-0.17813842238097854,-0.5941262326227431,-0.7843983185736201,,0.09669464780788252,0.636011576867811,-0.4758276500107925,0.9733898529367273,-0.14050660869840598,-0.1810251007785646,0.009049993374851212,-0.7657796290714121,0.6430393901769669,-0.2289766185000809,-0.6275662933996085,-0.7441305366459201,,0.0,0.0,0.045,1.0,0.0,0.0,0.0,1.0,0.0,0.0,0.0,1.0,,0.015666449378224347,-0.17545704850908886,0.23875541232997038,False,,0.08644793671486205,0.46352730481535875,-0.4660606889404155,0.5185780151001712,-0.5745588311981352,-0.6332132277100656,0.719613636640447,0.6932395410372224,-0.03968819350401556,0.46177164942845667,-0.4350874489510518,0.7729591551624112,False,,0.0,0.0,0.0,0.0,0.0,0.0
10:19:52.492756,,-0.1603471026675235,-0.8647298453926668,0.13074380940000002,2.4957797287063945,-0.8531397393561764,1.3949921955075288,,0.08638998743320259,0.4634264682590333,-0.46604423802310946,0.5063570033215775,-0.5762669390066492,-0.6414974670215765,0.7286831692151093,0.6837375426335988,-0.039036030740737554,0.4611110756529452,-0.4476822397652986,0.7661313125756638,,-0.0030855965444425773,0.2815341141786819,-0.1010735394791917,-0.21146610975054692,0.8238057754390393,0.5259525917520611,-0.6153494829489137,-0.5302992489609887,0.5832046985204883,0.7593596633031885,-0.20031662660685948,0.6190687771511125,,0.09835464904834255,0.7627261962343077,1.1327389192527453,0.9838879202306108,-0.0952246480071065,-0.15131697471270666,0.01520733033439213,-0.798715397448571,0.6015167919374088,-0.17813842238097854,-0.5941262326227431,-0.7843983185736201,,0.09669464780788252,0.636011576867811,-0.4758276500107925,0.9733898529367273,-0.14050660869840598,-0.1810251007785646,0.009049993374851212,-0.7657796290714121,0.6430393901769669,-0.2289766185000809,-0.6275662933996085,-0.7441305366459201,,0.0,0.0,0.045,1.0,0.0,0.0,0.0,1.0,0.0,0.0,0.0,1.0,,0.015666449378224347,-0.17545704850908886,0.23875541232997038,False,,0.08638998743320259,0.4634264682590333,-0.46604423802310946,0.5180131219935556,-0.5737609636337448,-0.6343979524340904,0.7195931831077103,0.693275385755929,-0.03943209771089504,0.46243708357721847,-0.4360820979070851,0.772000225140869,False,,0.0,0.0,0.0,0.0,0.0,0.0
10:19:52.508684,,-0.16060967558524714,-0.864737568125541,0.13086436437,2.4972474644117586,-0.8531397393561764,1.3949921955075288,,0.08636243773692132,0.46336480515052597,-0.4660381362289867,0.5069848930340057,-0.5760664346880278,-0.6411815507803714,0.7284407585651899,0.6840219477922144,-0.038575072255487695,0.46080405759527415,-0.4475057963472311,0.7664190647024393,,-0.0030847497621547676,0.28153336950405444,-0.10107420502532442,-0.21148395602070685,0.8237863595445342,0.5259758232334029,-0.6153244838998205,-0.5303325894938152,0.5832007548743955,0.7593749484352983,-0.20030819953513782,0.6190527516615527,,0.09835464904834255,0.7627261962343077,1.1327389192527453,0.9838879202306108,-0.0952246480071065,-0.15131697471270666,0.01520733033439213,-0.798715397448571,0.6015167919374088,-0.17813842238097854,-0.5941262326227431,-0.7843983185736201,,0.09669464780788252,0.636011576867811,-0.4758276500107925,0.9733898529367273,-0.14050660869840598,-0.1810251007785646,0.009049993374851212,-0.7657796290714121,0.6430393901769669,-0.2289766185000809,-0.6275662933996085,-0.7441305366459201,,0.0,0.0,0.045,1.0,0.0,0.0,0.0,1.0,0.0,0.0,0.0,1.0,,0.015666449378224347,-0.17545704850908886,0.23875541232997038,False,,0.08636243773692132,0.46336480515052597,-0.4660381362289867,0.5177284255104265,-0.5733779661185567,-0.6349763660076191,0.7195831718651378,0.6932919306644413,-0.039323754196150196,0.4627713649168477,-0.4365592821660293,0.7715300752191575,False,,0.0,0.0,0.0,0.0,0.0,0.0
10:19:52.523034,,-0.16071779384548626,-0.8647298453926668,0.13091751226,2.498295847058447,-0.8531397393561764,1.3949921955075288,,0.08631635251879498,0.4632581507627058,-0.466020396305638,0.5082243483030914,-0.5757841600999029,-0.64045344309321,0.7279607533287091,0.6845766995341547,-0.03778735328151557,0.46019686374963087,-0.44702051791050174,0.7670668179252903,,-0.003082846445717321,0.28153260477639047,-0.10107570312308675,-0.2115173614020721,0.8237484707506784,0.5260217187796483,-0.6152731753144283,-0.5303978929145458,0.5831954910634876,0.7594072105468037,-0.20029108316198269,0.619018704436137,,0.09835464904834255,0.7627261962343077,1.1327389192527453,0.9838879202306108,-0.0952246480071065,-0.15131697471270666,0.01520733033439213,-0.798715397448571,0.6015167919374088,-0.17813842238097854,-0.5941262326227431,-0.7843983185736201,,0.09669464780788252,0.636011576867811,-0.4758276500107925,0.9733898529367273,-0.14050660869840598,-0.1810251007785646,0.009049993374851212,-0.7657796290714121,0.6430393901769669,-0.2289766185000809,-0.6275662933996085,-0.7441305366459201,,0.0,0.0,0.045,1.0,0.0,0.0,0.0,1.0,0.0,0.0,0.0,1.0,,0.015666449378224347,-0.17545704850908886,0.23875541232997038,False,,0.08631635251879498,0.4632581507627058,-0.466020396305638,0.516847958954256,-0.5724208212586457,-0.6365552534653984,0.7196335663937443,0.6932521435213975,-0.03910237361603855,0.4636763067531491,-0.43787654526426223,0.7702391925000923,False,,0.0,0.0,0.0,0.0,0.0,0.0
10:19:52.535223,,-0.16077185297560584,-0.8647452908584152,0.13095380838,2.4993442297051356,-0.8531397393561764,1.3949921955075288,,0.08630030005748962,0.4632230133659267,-0.46601558815394983,0.5087456477378408,-0.5757352854701222,-0.6400833906394086,0.7277582787045663,0.6848060253564303,-0.03753125913815014,0.45994103283439663,-0.44673212185846356,0.7673882052879516,,-0.003081125940902204,0.2815320953690526,-0.10107705766351481,-0.21155118952471247,0.8237110986292562,0.5260666332089936,-0.6152212401781172,-0.5304629098829596,0.5831911429731983,0.7594398608280721,-0.20027258824829164,0.6189846286879438,,0.09835464904834255,0.7627261962343077,1.1327389192527453,0.9838879202306108,-0.0952246480071065,-0.15131697471270666,0.01520733033439213,-0.798715397448571,0.6015167919374088,-0.17813842238097854,-0.5941262326227431,-0.7843983185736201,,0.09669464780788252,0.636011576867811,-0.4758276500107925,0.9733898529367273,-0.14050660869840598,-0.1810251007785646,0.009049993374851212,-0.7657796290714121,0.6430393901769669,-0.2289766185000809,-0.6275662933996085,-0.7441305366459201,,0.0,0.0,0.045,1.0,0.0,0.0,0.0,1.0,0.0,0.0,0.0,1.0,,0.015666449378224347,-0.17545704850908886,0.23875541232997038,False,,0.08630030005748962,0.4632230133659267,-0.46601558815394983,0.5163523064083407,-0.5719365924609144,-0.6373922103940279,0.7196686915363567,0.6932199485035097,-0.039026624490719364,0.46417374989235993,-0.4385597304826211,0.7695505783961673,False,,0.0,0.0,0.0,0.0,0.0,0.0
10:19:52.547896,,-0.16081046663997697,-0.8647916272556606,0.1309771416,2.502070024586525,-0.8531397393561764,1.3949921955075288,,0.08628536302041967,0.46320623030067604,-0.4660113044284623,0.5092641820618679,-0.5758057205866947,-0.6396075085616914,0.7275565306788875,0.6850273008811955,-0.03740443441525647,0.459686292524976,-0.4463018812273386,0.7677910804884235,,-0.003079588237311519,0.281531841283998,-0.10107826865619567,-0.21158544004594443,0.8236742431625913,0.5261105669158027,-0.6151686784302107,-0.5305276403008907,0.5831877106597562,0.7594728991533292,-0.2002527151792752,0.6189505242136369,,0.09835464904834255,0.7627261962343077,1.1327389192527453,0.9838879202306108,-0.0952246480071065,-0.15131697471270666,0.01520733033439213,-0.798715397448571,0.6015167919374088,-0.17813842238097854,-0.5941262326227431,-0.7843983185736201,,0.09669464780788252,0.636011576867811,-0.4758276500107925,0.9733898529367273,-0.14050660869840598,-0.1810251007785646,0.009049993374851212,-0.7657796290714121,0.6430393901769669,-0.2289766185000809,-0.6275662933996085,-0.7441305366459201,,0.0,0.0,0.045,1.0,0.0,0.0,0.0,1.0,0.0,0.0,0.0,1.0,,0.015666449378224347,-0.17545704850908886,0.23875541232997038,False,,0.08628536302041967,0.46320623030067604,-0.4660113044284623,0.5157137325229829,-0.571267098554385,-0.6385086124685148,0.719636278128171,0.6932546188270673,-0.03900846929541843,0.46493329982810117,-0.43937675812927623,0.7686254556848612,False,,0.0,0.0,0.0,0.0,0.0,0.0
10:19:52.563457,,-0.16081046663997697,-0.8648225181871575,0.13098232676000002,2.502279701115863,-0.8536763052299853,1.3952641270923754,,0.08627741526437302,0.4632003584255311,-0.4660088366403721,0.509640213132864,-0.5760366518025892,-0.639099858346058,0.7274100099713123,0.6851773503416124,-0.03750567920172283,0.45950139341619434,-0.4457732319901115,0.7682087574934733,,-0.003077881144748617,0.28153084159516073,-0.10107961132021726,-0.21162019100800777,0.8236361353780922,0.5261562579080943,-0.6151177055137788,-0.5305934836011929,0.5831815840731671,0.7595045092689523,-0.20023503224477315,0.618917465209002,,0.09835464904834255,0.7627261962343077,1.1327389192527453,0.9838879202306108,-0.0952246480071065,-0.15131697471270666,0.01520733033439213,-0.798715397448571,0.6015167919374088,-0.17813842238097854,-0.5941262326227431,-0.7843983185736201,,0.09669464780788252,0.636011576867811,-0.4758276500107925,0.9733898529367273,-0.14050660869840598,-0.1810251007785646,0.009049993374851212,-0.7657796290714121,0.6430393901769669,-0.2289766185000809,-0.6275662933996085,-0.7441305366459201,,0.0,0.0,0.045,1.0,0.0,0.0,0.0,1.0,0.0,0.0,0.0,1.0,,0.015666449378224347,-0.17545704850908886,0.23875541232997038,False,,0.08627741526437302,0.4632003584255311,-0.4660088366403721,0.5147105289444767,-0.5707579552165234,-0.6397721687841307,0.7201486269658595,0.692743053329143,-0.03863958001070464,0.46525157331586153,-0.44084285025535963,0.7675927011806758,False,,0.0,0.0,0.0,0.0,0.0,0.0
10:19:52.575852,,-0.1608181893728512,-0.8648843000501513,0.13098880821,2.5024893776452,-0.8542128711037943,1.3955360586772216,,0.086276445182581,0.4631977101816556,-0.46601537404482296,0.5097163798345467,-0.5761212195683834,-0.6389628725453482,0.7273803093477195,0.6852055321608783,-0.03756679743261998,0.4594639242656382,-0.44562059990441,0.768319714207083,,-0.0030770073922990054,0.2815310768199037,-0.10108030028805635,-0.21163617133418833,0.8236181788735117,0.5261779417628343,-0.6150907685310412,-0.530625159301671,0.5831811783396783,0.7595218742317995,-0.20022496280644608,0.6188994157520736,,0.09835464904834255,0.7627261962343077,1.1327389192527453,0.9838879202306108,-0.0952246480071065,-0.15131697471270666,0.01520733033439213,-0.798715397448571,0.6015167919374088,-0.17813842238097854,-0.5941262326227431,-0.7843983185736201,,0.09669464780788252,0.636011576867811,-0.4758276500107925,0.9733898529367273,-0.14050660869840598,-0.1810251007785646,0.009049993374851212,-0.7657796290714121,0.6430393901769669,-0.2289766185000809,-0.6275662933996085,-0.7441305366459201,,0.0,0.0,0.045,1.0,0.0,0.0,0.0,1.0,0.0,0.0,0.0,1.0,,0.015666449378224347,-0.17545704850908886,0.23875541232997038,False,,0.086276445182581,0.4631977101816556,-0.46601537404482296,0.5143711684451979,-0.5707539136582968,-0.6400486474605345,0.7204957320639575,0.6923947641390809,-0.03841081449811745,0.4650894549975777,-0.44139490327429515,0.7673736627051595,False,,0.0,0.0,0.0,0.0,0.0,0.0
10:19:52.589608,,-0.16080274390710275,-0.864976972844642,0.13100047482000002,2.5031184072332135,-0.8546152955091509,1.3957400073658563,,0.0862739647628036,0.4631920449451665,-0.4660216894911768,0.5098919888603841,-0.5761519289508797,-0.638795048871062,0.7273118034027638,0.6852801733086613,-0.037531649325212135,0.45937751395450505,-0.4454660916795258,0.7684609689741874,,-0.0030769938962101756,0.28153156692766756,-0.10108031203541429,-0.21163524242431164,0.8236189120601595,0.5261771677403915,-0.6150898028358301,-0.5306243298553732,0.5831829515712661,0.7595229151262262,-0.2002241450295977,0.6188984029190769,,0.09835464904834255,0.7627261962343077,1.1327389192527453,0.9838879202306108,-0.0952246480071065,-0.15131697471270666,0.01520733033439213,-0.798715397448571,0.6015167919374088,-0.17813842238097854,-0.5941262326227431,-0.7843983185736201,,0.09669464780788252,0.636011576867811,-0.4758276500107925,0.9733898529367273,-0.14050660869840598,-0.1810251007785646,0.009049993374851212,-0.7657796290714121,0.6430393901769669,-0.2289766185000809,-0.6275662933996085,-0.7441305366459201,,0.0,0.0,0.045,1.0,0.0,0.0,0.0,1.0,0.0,0.0,0.0,1.0,,0.015666449378224347,-0.17545704850908886,0.23875541232997038,False,,0.0862739647628036,0.4631920449451665,-0.4660216894911768,0.5141107924422391,-0.5706002711375776,-0.6403947405094268,0.7205850398828492,0.6923043794788627,-0.03836465106604953,0.46523896375029244,-0.4417351884694154,0.7670871722799465,False,,0.0,0.0,0.0,0.0,0.0,0.0
10:19:52.603720,,-0.16078729844135428,-0.8650387547076358,0.1310030674,2.5035377602918887,-0.8547494369776032,1.395807990262068,,0.08627249515047815,0.46318677702737937,-0.46603371645207026,0.5101198157269161,-0.5762436165442538,-0.6385303970796818,0.7272228676576,0.6853739945526219,-0.03754182130423877,0.45926536376978605,-0.44520307948506116,0.7686803910979026,,-0.0030771902311823307,0.28153133222472054,-0.10108015679470964,-0.2116365970640598,0.8236186968000649,0.5261769598268056,-0.6150901436810043,-0.5306248743778705,0.5831820966267934,0.7595222616340473,-0.20022358742391969,0.6188993852876813,,0.09835464904834255,0.7627261962343077,1.1327389192527453,0.9838879202306108,-0.0952246480071065,-0.15131697471270666,0.01520733033439213,-0.798715397448571,0.6015167919374088,-0.17813842238097854,-0.5941262326227431,-0.7843983185736201,,0.09669464780788252,0.636011576867811,-0.4758276500107925,0.9733898529367273,-0.14050660869840598,-0.1810251007785646,0.009049993374851212,-0.7657796290714121,0.6430393901769669,-0.2289766185000809,-0.6275662933996085,-0.7441305366459201,,0.0,0.0,0.045,1.0,0.0,0.0,0.0,1.0,0.0,0.0,0.0,1.0,,0.015666449378224347,-0.17545704850908886,0.23875541232997038,False,,0.08627249515047815,0.46318677702737937,-0.46603371645207026,0.5136291563691867,-0.5704125482330393,-0.6409482151826059,0.7208504437317333,0.692036098342326,-0.03821879593725577,0.4653597828554169,-0.4423975174087451,0.7666320558725276,False,,0.0,0.0,0.0,0.0,0.0,0.0
10:19:52.616221,,-0.16077185297560584,-0.8650773683720069,0.13100825256,2.5037474368212265,-0.8548835784460553,1.3959448548023297,,0.08627256129422703,0.4631823348984908,-0.4660386788302743,0.5102143784422145,-0.576273102306466,-0.6384282258710888,0.7271859339406068,0.6854134508647596,-0.03753689987984102,0.4592187991684924,-0.44510415964327166,0.7687654919144751,,-0.0030771902311823307,0.28153133222472054,-0.10108015679470961,-0.2116365970640598,0.8236186968000649,0.5261769598268056,-0.6150901436810043,-0.5306248743778705,0.5831820966267934,0.7595222616340473,-0.20022358742391969,0.6188993852876813,,0.09835464904834255,0.7627261962343077,1.1327389192527453,0.9838879202306108,-0.0952246480071065,-0.15131697471270666,0.01520733033439213,-0.798715397448571,0.6015167919374088,-0.17813842238097854,-0.5941262326227431,-0.7843983185736201,,0.09669464780788252,0.636011576867811,-0.4758276500107925,0.9733898529367273,-0.14050660869840598,-0.1810251007785646,0.009049993374851212,-0.7657796290714121,0.6430393901769669,-0.2289766185000809,-0.6275662933996085,-0.7441305366459201,,0.0,0.0,0.045,1.0,0.0,0.0,0.0,1.0,0.0,0.0,0.0,1.0,,0.015666449378224347,-0.17545704850908886,0.23875541232997038,False,,0.08627256129422703,0.4631823348984908,-0.4660386788302743,0.5134680453340017,-0.5703110192109806,-0.6411676128653196,0.7209382062323666,0.6919495679744618,-0.0381300167114238,0.4654016214145986,-0.4426636835640444,0.7664529953220709,False,,0.0,0.0,0.0,0.0,0.0,0.0
10:19:52.630606,,-0.16077957570848006,-0.8651314275021265,0.13101473401000002,2.5050054959972528,-0.8548835784460553,1.3957382098701792,,0.08626819264400318,0.4631787512871314,-0.466037808301969,0.5104081739093606,-0.5763060452137665,-0.6382435571602586,0.7271102063942457,0.6854959472679198,-0.03749738706329776,0.45912334264751703,-0.4449344317192429,0.7689207421489195,,-0.003076993895977525,0.28153156692779724,-0.10108031203557899,-0.21163524242628995,0.8236189120575611,0.5261771677436625,-0.6150898028320143,-0.5306243298598365,0.583182951571229,0.7595229151287647,-0.20022414502845615,0.6188984029163305,,0.09835464904834255,0.7627261962343077,1.1327389192527453,0.9838879202306108,-0.0952246480071065,-0.15131697471270666,0.01520733033439213,-0.798715397448571,0.6015167919374088,-0.17813842238097854,-0.5941262326227431,-0.7843983185736201,,0.09669464780788252,0.636011576867811,-0.4758276500107925,0.9733898529367273,-0.14050660869840598,-0.1810251007785646,0.009049993374851212,-0.7657796290714121,0.6430393901769669,-0.2289766185000809,-0.6275662933996085,-0.7441305366459201,,0.0,0.0,0.045,1.0,0.0,0.0,0.0,1.0,0.0,0.0,0.0,1.0,,0.015666449378224347,-0.17545704850908886,0.23875541232997038,False,,0.08626819264400318,0.4631787512871314,-0.466037808301969,0.5131668530298168,-0.5700858843462672,-0.6416088102735255,0.7209644393120317,0.6919209659895953,-0.03815303489256075,0.4656930944291121,-0.44299826330715986,0.7660825546296417,False,,0.0,0.0,0.0,0.0,0.0,0.0
10:19:52.643399,,-0.16077957570848006,-0.8651545957007492,0.13101732659,2.505424849055928,-0.8548835784460553,1.3952560383618275,,0.0862594313850094,0.4631738207760373,-0.46604246749518885,0.5107588981837664,-0.5762544419560605,-0.6380095344522794,0.7269730338332273,0.6856518255835387,-0.03730659664555114,0.45895049406817084,-0.4447610506776306,0.7691242109014069,,-0.0030770073920663513,0.2815310768200334,-0.10108030028822107,-0.21163617133616658,0.8236181788709134,0.5261779417661054,-0.6150907685272256,-0.5306251593061346,0.5831811783396414,0.7595218742343384,-0.2002249628053046,0.6188994157493272,,0.09835464904834255,0.7627261962343077,1.1327389192527453,0.9838879202306108,-0.0952246480071065,-0.15131697471270666,0.01520733033439213,-0.798715397448571,0.6015167919374088,-0.17813842238097854,-0.5941262326227431,-0.7843983185736201,,0.09669464780788252,0.636011576867811,-0.4758276500107925,0.9733898529367273,-0.14050660869840598,-0.1810251007785646,0.009049993374851212,-0.7657796290714121,0.6430393901769669,-0.2289766185000809,-0.6275662933996085,-0.7441305366459201,,0.0,0.0,0.045,1.0,0.0,0.0,0.0,1.0,0.0,0.0,0.0,1.0,,0.015666449378224347,-0.17545704850908886,0.23875541232997038,False,,0.0862594313850094,0.4631738207760373,-0.46604246749518885,0.5126664105754131,-0.5700245018997333,-0.6420632513247301,0.7209875862989673,0.6918741846600911,-0.03856180757853084,0.46620816366781004,-0.44315029034729914,0.7656812445754391,False,,0.0,0.0,0.0,0.0,0.0,0.0
10:19:52.657156,,-0.16078729844135428,-0.8652163775637429,0.13102380804000002,2.506053878643941,-0.8548835784460553,1.3939472871248735,,0.08625420513238272,0.4631700873974802,-0.46604515513729655,0.5109233349706023,-0.5761565081318374,-0.6379663187973529,0.7269086657869426,0.6857292214262624,-0.03713793863395029,0.45886941212763876,-0.4447686061531996,0.7691682193084782,,-0.0030768245529463577,0.2815308214153492,-0.10108044378177154,-0.2116357456092927,0.8236176609411544,0.526178923705527,-0.615091393374048,-0.5306254442333724,0.58318026005258,0.7595214868344788,-0.2002263381866734,0.6188994462097901,,0.09835464904834255,0.7627261962343077,1.1327389192527453,0.9838879202306108,-0.0952246480071065,-0.15131697471270666,0.01520733033439213,-0.798715397448571,0.6015167919374088,-0.17813842238097854,-0.5941262326227431,-0.7843983185736201,,0.09669464780788252,0.636011576867811,-0.4758276500107925,0.9733898529367273,-0.14050660869840598,-0.1810251007785646,0.009049993374851212,-0.7657796290714121,0.6430393901769669,-0.2289766185000809,-0.6275662933996085,-0.7441305366459201,,0.0,0.0,0.045,1.0,0.0,0.0,0.0,1.0,0.0,0.0,0.0,1.0,,0.015666449378224347,-0.17545704850908886,0.23875541232997038,False,,0.08625420513238272,0.4631700873974802,-0.46604515513729655,0.5124674773894918,-0.5701843247173898,-0.6420801511218246,0.7209904855981174,0.691850378453947,-0.03893293605831977,0.46642234540708016,-0.4429818164210634,0.7656482913356849,False,,0.0,0.0,0.0,0.0,0.0,0.0
10:19:52.701104,,-0.16077185297560584,-0.8652472684952398,0.13102380804000002,2.5064732317026164,-0.8550177199145076,1.3935330985127332,,0.08542811040108995,0.4628588351995613,-0.46404731072787964,0.5110164099578051,-0.5671441780344977,-0.6459177270174666,0.7268005306436998,0.6862942428096703,-0.027589870284896793,0.4589370516856019,-0.4553544702842778,0.7629083096822659,,-0.003076628217965071,0.2815310561183515,-0.10108059902247103,-0.21163439096858422,0.8236178761996934,0.5261791316193896,-0.6150910525302223,-0.5306248997118131,0.5831811149987314,0.7595221403255417,-0.20022689579126654,0.6188984638413426,,0.09835464904834255,0.7627261962343077,1.1327389192527453,0.9838879202306108,-0.0952246480071065,-0.15131697471270666,0.01520733033439213,-0.798715397448571,0.6015167919374088,-0.17813842238097854,-0.5941262326227431,-0.7843983185736201,,0.09669464780788252,0.636011576867811,-0.4758276500107925,0.9733898529367273,-0.14050660869840598,-0.1810251007785646,0.009049993374851212,-0.7657796290714121,0.6430393901769669,-0.2289766185000809,-0.6275662933996085,-0.7441305366459201,,0.0,0.0,0.045,1.0,0.0,0.0,0.0,1.0,0.0,0.0,0.0,1.0,,0.015666449378224347,-0.17545704850908886,0.23875541232997038,True,,0.0862530240092609,0.46316731976146586,-0.46604939328507605,0.5123670212857128,-0.5705839508529529,-0.6418052590372263,0.7209879118520037,0.6918225946471754,-0.03947060297154681,0.46653667215138994,-0.4425103982560016,0.7658512133392632,True,,-0.16865256465988945,-0.8547831146226549,0.13153655690605615,2.5066404316029804,-0.8585157477791326,1.3940491662965002
10:19:52.743871,,-0.16074096204410895,-0.865355386755479,0.13103028949,2.507311937819967,-0.8551518613829598,1.3933944364767943,,0.0854609507189247,0.4629910472965896,-0.46405903675479254,0.5105716557670187,-0.5672462930950796,-0.6461797174913618,0.7270064067821089,0.6860666570821299,-0.027824926557276926,0.45910594509883196,-0.4555701757249288,0.7626778783764913,,-0.003076641714055018,0.2815305660105383,-0.10108058727519637,-0.21163531988145978,0.823617143013386,0.5261799056417985,-0.6150920182252869,-0.5306257291551205,0.583179341765646,0.75952109943193,-0.20022771356916733,0.6188994766718162,,0.09835464904834255,0.7627261962343077,1.1327389192527453,0.9838879202306108,-0.0952246480071065,-0.15131697471270666,0.01520733033439213,-0.798715397448571,0.6015167919374088,-0.17813842238097854,-0.5941262326227431,-0.7843983185736201,,0.09669464780788252,0.636011576867811,-0.4758276500107925,0.9733898529367273,-0.14050660869840598,-0.1810251007785646,0.009049993374851212,-0.7657796290714121,0.6430393901769669,-0.2289766185000809,-0.6275662933996085,-0.7441305366459201,,0.0,0.0,0.045,1.0,0.0,0.0,0.0,1.0,0.0,0.0,0.0,1.0,,0.015666449378224347,-0.17545704850908886,0.23875541232997038,True,,0.08624913433555563,0.4631622165618237,-0.46606571757545645,0.5116421194841867,-0.5705588405137377,-0.6424055970190083,0.721180859442402,0.6915986798698104,-0.03986770593167008,0.46703373490963984,-0.4428926230069258,0.7653271293652131,True,,-0.16844798645439063,-0.8548345108495334,0.1314034247892021,2.507337777801649,-0.8587169807490387,1.393820984049744
10:19:52.795722,,-0.16074096204410895,-0.8653940004198502,0.13103417836,2.508150643937318,-0.8551518613829598,1.3931189099005936,,0.08496234909162752,0.4629892346114369,-0.4638070151295052,0.5101127948843777,-0.5648078846155627,-0.6486732536272338,0.7273477463453316,0.685807743140239,-0.025159398547237942,0.45907536677719457,-0.4589768980297208,0.7606510465998184,,-0.003076641714055018,0.2815305660105383,-0.10108058727519637,-0.21163531988145978,0.823617143013386,0.5261799056417985,-0.6150920182252869,-0.5306257291551205,0.583179341765646,0.75952109943193,-0.20022771356916733,0.6188994766718162,,0.09835464904834255,0.7627261962343077,1.1327389192527453,0.9838879202306108,-0.0952246480071065,-0.15131697471270666,0.01520733033439213,-0.798715397448571,0.6015167919374088,-0.17813842238097854,-0.5941262326227431,-0.7843983185736201,,0.09669464780788252,0.636011576867811,-0.4758276500107925,0.9733898529367273,-0.14050660869840598,-0.1810251007785646,0.009049993374851212,-0.7657796290714121,0.6430393901769669,-0.2289766185000809,-0.6275662933996085,-0.7441305366459201,,0.0,0.0,0.045,1.0,0.0,0.0,0.0,1.0,0.0,0.0,0.0,1.0,,0.015666449378224347,-0.17545704850908886,0.23875541232997038,True,,0.08624306121840448,0.46315857500856683,-0.4660677053397315,0.5112398865196621,-0.57037438792631,-0.6428894430841512,0.7212064625200497,0.6915621582712839,-0.04003772803843503,0.4674345054129818,-0.443187137499331,0.7649118539442765,True,,-0.17282031198322528,-0.8538363450801283,0.131465973201757,2.507946631176311,-0.8600667747879481,1.393132412065175
10:19:52.837250,,-0.16076413024273162,-0.8653940004198502,0.13104065981000002,2.508150643937318,-0.8551518613829598,1.3930500282565432,,0.08496999957945983,0.46298351034596164,-0.46381087716845315,0.5101040838271506,-0.5649038985800479,-0.6485964916894991,0.7273498798882913,0.6858015396865157,-0.0252665864353034,0.4590816658170435,-0.45886799140130446,0.7607129488696646,,-0.003076824552946361,0.2815308214153492,-0.10108044378177153,-0.2116357456092927,0.8236176609411545,0.5261789237055269,-0.6150913933740478,-0.5306254442333724,0.5831802600525801,0.759521486834479,-0.20022633818667335,0.6188994462097901,,0.09835464904834255,0.7627261962343077,1.1327389192527453,0.9838879202306108,-0.0952246480071065,-0.15131697471270666,0.01520733033439213,-0.798715397448571,0.6015167919374088,-0.17813842238097854,-0.5941262326227431,-0.7843983185736201,,0.09669464780788252,0.636011576867811,-0.4758276500107925,0.9733898529367273,-0.14050660869840598,-0.1810251007785646,0.009049993374851212,-0.7657796290714121,0.6430393901769669,-0.2289766185000809,-0.6275662933996085,-0.7441305366459201,,0.0,0.0,0.045,1.0,0.0,0.0,0.0,1.0,0.0,0.0,0.0,1.0,,0.015666449378224347,-0.17545704850908886,0.23875541232997038,True,,0.08623977752334513,0.46315230736375734,-0.4660671860174151,0.5112420802065478,-0.5704007522487852,-0.6428643070353974,0.721200549416296,0.6915662512545833,-0.040073528011838805,0.4674412294050607,-0.4431468176120672,0.7649311048013296,True,,-0.17274734116935503,-0.8538533122320355,0.13147079080649132,2.507961697242723,-0.8600536605302276,1.3930491669886624
10:19:52.875783,,-0.16077957570848006,-0.8653862776869758,0.13104454868,2.507521614349305,-0.8551518613829598,1.3930500282565432,,0.08495469328339883,0.46298161683745237,-0.46381444664075644,0.5103835194614452,-0.5649016116961357,-0.6483786179118316,0.7272387525577448,0.6859235561245505,-0.025152970633815875,0.45894712096319285,-0.4586883955983179,0.7609024220641157,,-0.003077203727081805,0.2815308421170653,-0.10108014504752141,-0.21163752597620078,0.8236179636115079,0.5261777338512076,-0.6150911093708963,-0.5306257038289967,0.5831803233945299,0.7595212207418826,-0.20022440520101745,0.6189003981177793,,0.09835464904834255,0.7627261962343077,1.1327389192527453,0.9838879202306108,-0.0952246480071065,-0.15131697471270666,0.01520733033439213,-0.798715397448571,0.6015167919374088,-0.17813842238097854,-0.5941262326227431,-0.7843983185736201,,0.09669464780788252,0.636011576867811,-0.4758276500107925,0.9733898529367273,-0.14050660869840598,-0.1810251007785646,0.009049993374851212,-0.7657796290714121,0.6430393901769669,-0.2289766185000809,-0.6275662933996085,-0.7441305366459201,,0.0,0.0,0.045,1.0,0.0,0.0,0.0,1.0,0.0,0.0,0.0,1.0,,0.015666449378224347,-0.17545704850908886,0.23875541232997038,True,,0.08624251804860517,0.46314943347359533,-0.4660691017269277,0.5115452272614082,-0.5706634173861018,-0.642389869567765,0.7211683882033566,0.691598276754911,-0.04009961902325698,0.4671591124255709,-0.4427584981080017,0.7653282145791435,True,,-0.17289602761911307,-0.853870519992625,0.13147308893141624,2.5074589427794627,-0.8600053852857871,1.39316845468767
10:19:52.905946,,-0.16083363483859964,-0.8653708322212275,0.13104843755,2.507521614349305,-0.8552860028514121,1.3930491295087046,,0.08536139757658441,0.4628811958009137,-0.4640190917808735,0.510546793084714,-0.5666623212855053,-0.646711516602447,0.7268103510276278,0.6862851740810416,-0.02755673194794012,0.45944388744438697,-0.45596762327151813,0.762236735416309,,-0.0030770208879663807,0.2815305867123534,-0.10108028854107448,-0.21163710024980703,0.8236174456825265,0.5261787157904907,-0.6150917342170441,-0.5306259887557655,0.583179405106629,0.7595208333425809,-0.20022578058292856,0.6189004285781636,,0.09835464904834255,0.7627261962343077,1.1327389192527453,0.9838879202306108,-0.0952246480071065,-0.15131697471270666,0.01520733033439213,-0.798715397448571,0.6015167919374088,-0.17813842238097854,-0.5941262326227431,-0.7843983185736201,,0.09669464780788252,0.636011576867811,-0.4758276500107925,0.9733898529367273,-0.14050660869840598,-0.1810251007785646,0.009049993374851212,-0.7657796290714121,0.6430393901769669,-0.2289766185000809,-0.6275662933996085,-0.7441305366459201,,0.0,0.0,0.045,1.0,0.0,0.0,0.0,1.0,0.0,0.0,0.0,1.0,,0.015666449378224347,-0.17545704850908886,0.23875541232997038,True,,0.08623590834218059,0.4631459317956401,-0.46606465625030713,0.511490471520973,-0.5706855486347931,-0.6424138091002229,0.721252847240187,0.6915135956516781,-0.04004094625269142,0.4670886724072594,-0.4428622264410147,0.7653111919347132,True,,-0.16919605439947827,-0.854700179362616,0.13152102810342903,2.507670366717902,-0.8585803154520479,1.393518126770169
10:19:52.937144,,-0.1609417530988388,-0.8653631094883532,0.13105232642,2.506892584761292,-0.8554201443198644,1.3931171124049162,,0.08541533986742914,0.4629657086403269,-0.4640630122403684,0.5107282036320977,-0.5672695387336885,-0.6460355814036863,0.7269208696323045,0.6861572117031989,-0.027826787825862835,0.4590672622914258,-0.4554048212882247,0.7627999065545928,,-0.0030771902324599545,0.28153133222500726,-0.10108015679688406,-0.21163659706477578,0.8236186967925545,0.5261769598269386,-0.6150901436735203,-0.5306248743791693,0.5831820966232784,0.7595222616320563,-0.20022358742158408,0.6188993852812437,,0.09835464904834255,0.7627261962343077,1.1327389192527453,0.9838879202306108,-0.0952246480071065,-0.15131697471270666,0.01520733033439213,-0.798715397448571,0.6015167919374088,-0.17813842238097854,-0.5941262326227431,-0.7843983185736201,,0.09669464780788252,0.636011576867811,-0.4758276500107925,0.9733898529367273,-0.14050660869840598,-0.1810251007785646,0.009049993374851212,-0.7657796290714121,0.6430393901769669,-0.2289766185000809,-0.6275662933996085,-0.7441305366459201,,0.0,0.0,0.045,1.0,0.0,0.0,0.0,1.0,0.0,0.0,0.0,1.0,,0.015666449378224347,-0.17545704850908886,0.23875541232997038,True,,0.0862276172010937,0.4631436034509362,-0.46606424758803755,0.5117428177566957,-0.5708943535751078,-0.642027199992724,0.7212872600043786,0.6914828624919517,-0.039951713796940846,0.46675901387098373,-0.4426410373383795,0.7656402125242575,True,,-0.1688238901155877,-0.854889657635102,0.1314320312242364,2.5070182608092164,-0.8588023818861394,1.3936010685180713
10:19:52.973498,,-0.16111165322207172,-0.865355386755479,0.13105621529,2.506682908231954,-0.8555542857883165,1.3932539769451782,,0.0853427392032656,0.46267480435659175,-0.464040054836283,0.5108432627374354,-0.5670693116064943,-0.6461203887433891,0.7268907167278142,0.6862006050170795,-0.027542977491882437,0.45898697895549906,-0.45558876797867925,0.76273837430732,,-0.0030775694065782525,0.28153135292678483,-0.10107985806270683,-0.21163837743276193,0.8236189994601373,0.5261757699731389,-0.6150898596729197,-0.5306251339736789,0.5831821599670882,0.759521995538043,-0.20022165443481113,0.6189003371870235,,0.09835464904834255,0.7627261962343077,1.1327389192527453,0.9838879202306108,-0.0952246480071065,-0.15131697471270666,0.01520733033439213,-0.798715397448571,0.6015167919374088,-0.17813842238097854,-0.5941262326227431,-0.7843983185736201,,0.09669464780788252,0.636011576867811,-0.4758276500107925,0.9733898529367273,-0.14050660869840598,-0.1810251007785646,0.009049993374851212,-0.7657796290714121,0.6430393901769669,-0.2289766185000809,-0.6275662933996085,-0.7441305366459201,,0.0,0.0,0.045,1.0,0.0,0.0,0.0,1.0,0.0,0.0,0.0,1.0,,0.015666449378224347,-0.17545704850908886,0.23875541232997038,True,,0.08621517073940956,0.463142970316894,-0.46606133234759584,0.5117949526704287,-0.5709128422570869,-0.6419691993912235,0.7213404938309568,0.691434292712969,-0.039831028360160975,0.46661956493570367,-0.442693060038726,0.7656951326819074,True,,-0.16922126192313613,-0.8548449183805212,0.13172897753197008,2.506776230360142,-0.858896132844972,1.3936736630006346
10:19:53.006740,,-0.1612274942151851,-0.8653322185568563,0.13106010416000002,2.5062635551732786,-0.8555542857883165,1.3933228585892283,,0.08536994793884241,0.46282894091462545,-0.46406487390927254,0.5110484803648907,-0.567172632764173,-0.6458673666938844,0.7267858279686485,0.6863089737255667,-0.027610737905484822,0.4589246245089294,-0.4552968232121943,0.7629501895879063,,-0.0030773865677035037,0.2815310975219372,-0.10108000155601712,-0.21163795170235156,0.8236184815349694,0.5261767519089077,-0.6150904845216811,-0.5306254188980368,0.5831812416790431,0.7595216081365036,-0.200223029817896,0.6189003676525207,,0.09835464904834255,0.7627261962343077,1.1327389192527453,0.9838879202306108,-0.0952246480071065,-0.15131697471270666,0.01520733033439213,-0.798715397448571,0.6015167919374088,-0.17813842238097854,-0.5941262326227431,-0.7843983185736201,,0.09669464780788252,0.636011576867811,-0.4758276500107925,0.9733898529367273,-0.14050660869840598,-0.1810251007785646,0.009049993374851212,-0.7657796290714121,0.6430393901769669,-0.2289766185000809,-0.6275662933996085,-0.7441305366459201,,0.0,0.0,0.045,1.0,0.0,0.0,0.0,1.0,0.0,0.0,0.0,1.0,,0.015666449378224347,-0.17545704850908886,0.23875541232997038,True,,0.08619880998299875,0.4631390227303037,-0.46605689148255935,0.5120111503060149,-0.5708800826350904,-0.6418259212690492,0.7212881508905511,0.6914986868732885,-0.03966067873104698,0.46646327331013004,-0.44263472220677635,0.7658240772852006,True,,-0.16911899922219525,-0.8549351330068885,0.13157117377699443,2.5064185690465486,-0.8588027078357041,1.393786656030275
10:19:53.047320,,-0.16142828526991493,-0.8653090503582337,0.13106658561,2.506053878643941,-0.8556884272567687,1.3935974864175904,,0.08462185071362721,0.4629858930440063,-0.4639817206950069,0.511247900057504,-0.5649305433741523,-0.6476720357169804,0.7267921206787988,0.6864019927404753,-0.025010351479309766,0.4586924874096008,-0.45793644266960204,0.7615086450389804,,-0.003077373073314866,0.2815315876297248,-0.10108001330525669,-0.21163702279044766,0.8236192147187846,0.5261759778813505,-0.6150895188280476,-0.5306245894422505,0.5831830149070798,0.759522649024546,-0.2002222120401304,0.61889935481747,,0.09835464904834255,0.7627261962343077,1.1327389192527453,0.9838879202306108,-0.0952246480071065,-0.15131697471270666,0.01520733033439213,-0.798715397448571,0.6015167919374088,-0.17813842238097854,-0.5941262326227431,-0.7843983185736201,,0.09669464780788252,0.636011576867811,-0.4758276500107925,0.9733898529367273,-0.14050660869840598,-0.1810251007785646,0.009049993374851212,-0.7657796290714121,0.6430393901769669,-0.2289766185000809,-0.6275662933996085,-0.7441305366459201,,0.0,0.0,0.045,1.0,0.0,0.0,0.0,1.0,0.0,0.0,0.0,1.0,,0.015666449378224347,-0.17545704850908886,0.23875541232997038,True,,0.08618373290601007,0.46313612912487506,-0.46605088886451385,0.5120649450617637,-0.5707498514532054,-0.6418988231061319,0.7213433770999322,0.6914574220247786,-0.03937468528016902,0.4663188012003784,-0.44286706876103515,0.765777732148207,True,,-0.17572558419352502,-0.8550571503837794,0.13149201092051008,2.5049394963587033,-0.8615273043871141,1.3923658559223795
10:19:53.085095,,-0.16167541272189012,-0.8652936048924852,0.13107177077,2.5056345255852657,-0.855822568725221,1.3938721142459527,,0.08487449528746989,0.4628498970802658,-0.4638578068817635,0.5114716096049142,-0.5648498598412987,-0.6475657714899882,0.7266126911955378,0.686592816475111,-0.024986023260061687,0.45872735863662634,-0.4577498664140056,0.7615998097664048,,-0.0030777522474245943,0.28153160833153307,-0.10107971457111592,-0.211638803158973,0.8236195173849816,0.5261747880278105,-0.6150892348287222,-0.530624849036203,0.5831830782518193,0.7595223829298241,-0.20022027905279863,0.6189003067221449,,0.09835464904834255,0.7627261962343077,1.1327389192527453,0.9838879202306108,-0.0952246480071065,-0.15131697471270666,0.01520733033439213,-0.798715397448571,0.6015167919374088,-0.17813842238097854,-0.5941262326227431,-0.7843983185736201,,0.09669464780788252,0.636011576867811,-0.4758276500107925,0.9733898529367273,-0.14050660869840598,-0.1810251007785646,0.009049993374851212,-0.7657796290714121,0.6430393901769669,-0.2289766185000809,-0.6275662933996085,-0.7441305366459201,,0.0,0.0,0.045,1.0,0.0,0.0,0.0,1.0,0.0,0.0,0.0,1.0,,0.015666449378224347,-0.17545704850908886,0.23875541232997038,True,,0.08615736333928975,0.46313280002048124,-0.46604640841952205,0.5122894581420644,-0.5706063488309419,-0.6418472604524631,0.7212652116984142,0.6915534831815334,-0.039118720494550785,0.4661930989087594,-0.44290199206292863,0.7658340681613333,True,,-0.17350285386977607,-0.8541353760782219,0.13160422908527122,2.5056442366637977,-0.85967760687858,1.3934258122224292
10:19:53.097250,,-0.16179125371500347,-0.865285882159611,0.13107695593000002,2.5056345255852657,-0.855822568725221,1.3940098775340533,,0.08613793592647724,0.46312881468736333,-0.4660415210701664,0.511631477786898,-0.5761313920087754,-0.6374212501004541,0.7266310663347032,0.686039522021716,-0.03683839927992969,0.4585199280019212,-0.4443223980019983,0.7696343821964211,,-0.0030773865677035037,0.2815310975219373,-0.10108000155601712,-0.2116379517023516,0.8236184815349693,0.5261767519089077,-0.615090484521681,-0.5306254188980369,0.583181241679043,0.7595216081365036,-0.20022302981789594,0.6189003676525207,,0.09835464904834255,0.7627261962343077,1.1327389192527453,0.9838879202306108,-0.0952246480071065,-0.15131697471270666,0.01520733033439213,-0.798715397448571,0.6015167919374088,-0.17813842238097854,-0.5941262326227431,-0.7843983185736201,,0.09669464780788252,0.636011576867811,-0.4758276500107925,0.9733898529367273,-0.14050660869840598,-0.1810251007785646,0.009049993374851212,-0.7657796290714121,0.6430393901769669,-0.2289766185000809,-0.6275662933996085,-0.7441305366459201,,0.0,0.0,0.045,1.0,0.0,0.0,0.0,1.0,0.0,0.0,0.0,1.0,,0.015666449378224347,-0.17545704850908886,0.23875541232997038,False,,0.08613793592647724,0.46312881468736333,-0.4660415210701664,0.512245286310798,-0.5704114219458174,-0.6420557424134756,0.7213179290813545,0.6915126701270067,-0.03886736728418477,0.4661600710465823,-0.4432166927898456,0.7656720912990607,False,,0.0,0.0,0.0,0.0,0.0,0.0
10:19:53.110213,,-0.16185303557799727,-0.8652704366938625,0.13107695593000002,2.505424849055928,-0.855822568725221,1.3941476408221536,,0.08613435199760486,0.46312906310007046,-0.4660410223549365,0.5116437905260909,-0.5761627711808435,-0.6373830031631724,0.7266262338634794,0.6860430802035016,-0.03686744317508409,0.45851384698552966,-0.44427621274394485,0.7696646665349964,,-0.0030772037288247338,0.2815308421170926,-0.10108014504936644,-0.21163752597296032,0.8236179636091938,0.5261777338447983,-0.6150911093710434,-0.5306257038213684,0.5831803233910886,0.759521220734814,-0.20022440520096477,0.6189003981168345,,0.09835464904834255,0.7627261962343077,1.1327389192527453,0.9838879202306108,-0.0952246480071065,-0.15131697471270666,0.01520733033439213,-0.798715397448571,0.6015167919374088,-0.17813842238097854,-0.5941262326227431,-0.7843983185736201,,0.09669464780788252,0.636011576867811,-0.4758276500107925,0.9733898529367273,-0.14050660869840598,-0.1810251007785646,0.009049993374851212,-0.7657796290714121,0.6430393901769669,-0.2289766185000809,-0.6275662933996085,-0.7441305366459201,,0.0,0.0,0.045,1.0,0.0,0.0,0.0,1.0,0.0,0.0,0.0,1.0,,0.015666449378224347,-0.17545704850908886,0.23875541232997038,False,,0.08613435199760486,0.46312906310007046,-0.4660410223549365,0.5122482434885027,-0.570343302186117,-0.6421138954222835,0.7213100199207155,0.6915244807356162,-0.03880396507205541,0.4661690596821292,-0.443285923749866,0.7656265392476331,False,,0.0,0.0,0.0,0.0,0.0,0.0
10:19:53.122471,,-0.16188392650949418,-0.8652627139609883,0.13107825222000002,2.5052151725265905,-0.855822568725221,1.3942165224662038,,0.08613230618038462,0.463129303091643,-0.46603901009588317,0.5115938399889152,-0.5761653442966491,-0.637420770697755,0.7266458370991338,0.686021136375893,-0.03688940053765363,0.4585385156253456,-0.44430675943209785,0.7696323363860517,,-0.0030775694080885235,0.28153135292694187,-0.10107985806471656,-0.21163837743149982,0.8236189994552252,0.5261757699700007,-0.6150898596692513,-0.5306251339705144,0.5831821599636099,0.7595219955335131,-0.20022165443361692,0.6189003371833324,,0.09835464904834255,0.7627261962343077,1.1327389192527453,0.9838879202306108,-0.0952246480071065,-0.15131697471270666,0.01520733033439213,-0.798715397448571,0.6015167919374088,-0.17813842238097854,-0.5941262326227431,-0.7843983185736201,,0.09669464780788252,0.636011576867811,-0.4758276500107925,0.9733898529367273,-0.14050660869840598,-0.1810251007785646,0.009049993374851212,-0.7657796290714121,0.6430393901769669,-0.2289766185000809,-0.6275662933996085,-0.7441305366459201,,0.0,0.0,0.045,1.0,0.0,0.0,0.0,1.0,0.0,0.0,0.0,1.0,,0.015666449378224347,-0.17545704850908886,0.23875541232997038,False,,0.08613230618038462,0.463129303091643,-0.46603901009588317,0.5123513674988818,-0.5703662431204529,-0.6420112342714002,0.7212986132920421,0.6915398645536115,-0.03874178875775061,0.4660733704954653,-0.443232404548487,0.7657157755154087,False,,0.0,0.0,0.0,0.0,0.0,0.0
