AlexandreBanks6/RCL_Autocam_Public/dataCollection/ParticipantData/Pilot02/optimizationData/Data_14.csv
System Time,q_des,q0,q1,q2,q3,q4,q5,T_des,Tx,Ty,Tz,R00,R01,R02,R10,R11,R12,R20,R21,R22,T_target,Tx,Ty,Tz,R00,R01,R02,R10,R11,R12,R20,R21,R22,worldFrame,Tx,Ty,Tz,R00,R01,R02,R10,R11,R12,R20,R21,R22,ECM_T_PSM_RCM,Tx,Ty,Tz,R00,R01,R02,R10,R11,R12,R20,R21,R22,psm3_T_cam,Tx,Ty,Tz,R00,R01,R02,R10,R11,R12,R20,R21,R22,offset,x,y,z,IK Trigered,ECM_T_PSM3,Tx,Ty,Tz,R00,R01,R02,R10,R11,R12,R20,R21,R22
13:02:51.266791,,-0.40629297651295143,-0.4109652299018573,0.07247816648000001,0.10861244219691778,0.014084854187484045,0.012079774587794351,,0.11738597765587827,0.5328827041466615,-0.370368779466267,-0.31494915466116186,-0.3997643422364566,-0.8608109552360917,0.7260835367677055,0.4826127675515368,-0.48978323188033523,0.6112362289762604,-0.7792774777141319,0.13826382431562154,,0.008473682020481287,0.2797009584667781,-0.07438239826943173,0.7561602751643813,-0.48202148968366143,0.4425798478765963,0.5494134602257073,0.8350390971175444,-0.02923278994436887,-0.35548064361669884,0.26526400013620444,0.8962524879996695,,0.010969302380675422,0.723062172756356,1.199261890577288,0.997809055471196,-0.06405524229169728,-0.016553391031193625,-0.0386668677048926,-0.7676425820589852,0.639710668624267,-0.0536839097083286,-0.6376690302537565,-0.768437535323244,,0.0,0.0,0.0,1.0,0.0,0.0,0.0,1.0,0.0,0.0,0.0,1.0,,0.0,0.0,0.045,1.0,0.0,0.0,0.0,1.0,0.0,0.0,0.0,1.0,,-0.007070943727902147,-0.1730894113711754,0.25860119218090627,True,,0.11738597765587827,0.5328827041466615,-0.370368779466267,-0.23370654465849228,0.8761044899162261,-0.4216896651951735,-0.48234615008573056,-0.4810375497458609,-0.7320826915260137,-0.8442294963345348,0.03230787029699905,0.535007251386007
13:02:53.219854,,-0.40386031565757075,-0.41461808255136545,0.07248335164000001,-2.378570548806632,-0.0804848810713374,0.6148493592414839,,0.1171960870731324,0.5330712782685949,-0.3703415957208188,-0.36256013524161723,-0.622278490028607,-0.6937720296908034,0.7123962797091259,0.2949039855769552,-0.6368070193923931,0.6008674471047479,-0.7251214519916949,0.3363884523453193,,0.008460745474856127,0.279689065086169,-0.07439807781619473,0.75611226989856,-0.4820312899531965,0.44265117277311944,0.5494012090954458,0.8350512367303847,-0.02911586203481549,-0.3556016545178367,0.2652079513959293,0.8962210641148002,,0.010969302380675422,0.723062172756356,1.199261890577288,0.997809055471196,-0.06405524229169728,-0.016553391031193625,-0.0386668677048926,-0.7676425820589852,0.639710668624267,-0.0536839097083286,-0.6376690302537565,-0.768437535323244,,0.16890331743080414,0.6195749168025336,-0.43236543922396775,0.8798173175282344,-0.46794132939454475,-0.08338105313492078,-0.2944844188123627,-0.6743457661377952,0.6771533908715035,-0.37309571808607944,-0.5712168589393143,-0.7311025134749138,,0.0,0.0,0.045,1.0,0.0,0.0,0.0,1.0,0.0,0.0,0.0,1.0,,-0.007070943727902147,-0.1730894113711754,0.25860119218090627,False,,0.1171960870731324,0.5330712782685949,-0.3703415957208188,-0.3145137772595107,-0.41133697942489644,-0.8555015916242104,0.7265131947488996,0.4757381894971287,-0.4958344006921478,0.6109498029868756,-0.7774799447005667,0.14921552807500116
13:02:53.232116,,-0.40386803839044494,-0.41461035981849126,0.07248335164000001,-2.378570548806632,-0.0804848810713374,0.6148493592414839,,0.11719567690791777,0.5330721117552318,-0.37034077587368275,-0.3626404019587236,-0.6222167323627257,-0.6937854688843428,0.7123714207507783,0.2949017567640555,-0.6368358601358683,0.6008484815365126,-0.725175352466785,0.3363061260368909,,0.008456065440650883,0.27968478571891603,-0.07440313870907017,0.7560975291357999,-0.4820342582608824,0.4426731204570757,0.5493968203878344,0.8350554280635087,-0.029078464316284594,-0.3556397776684455,0.2651893610274303,0.8962114385653575,,0.010969302380675422,0.723062172756356,1.199261890577288,0.997809055471196,-0.06405524229169728,-0.016553391031193625,-0.0386668677048926,-0.7676425820589852,0.639710668624267,-0.0536839097083286,-0.6376690302537565,-0.768437535323244,,0.16890331743080414,0.6195749168025336,-0.43236543922396775,0.8798173175282344,-0.46794132939454475,-0.08338105313492078,-0.2944844188123627,-0.6743457661377952,0.6771533908715035,-0.37309571808607944,-0.5712168589393143,-0.7311025134749138,,0.0,0.0,0.045,1.0,0.0,0.0,0.0,1.0,0.0,0.0,0.0,1.0,,-0.007070943727902147,-0.1730894113711754,0.25860119218090627,False,,0.11719567690791777,0.5330721117552318,-0.37034077587368275,-0.31451153376194263,-0.4113342600747268,-0.8555037239074345,0.7265206263002033,0.4757319630012906,-0.4958294857501917,0.6109421205736852,-0.7774851933430733,0.14921963490510545
13:02:53.243579,,-0.40386031565757075,-0.41461808255136545,0.07248335164000001,-2.378570548806632,-0.0804848810713374,0.6148493592414839,,0.1171960870731324,0.5330712782685949,-0.3703415957208188,-0.36264930051353833,-0.6221949799951071,-0.6938003255302855,0.7123686644520554,0.2949151917555689,-0.6368327218183525,0.6008463786558396,-0.725188552405969,0.33628141892691465,,0.008453725421009603,0.2796826460336619,-0.07440566916762098,0.7560901587139954,-0.4820357427828742,0.4426840942221248,0.549394625662489,0.8350575237811735,-0.029059765506340818,-0.3556588391853545,0.26518006591347076,0.896206625423573,,0.010969302380675422,0.723062172756356,1.199261890577288,0.997809055471196,-0.06405524229169728,-0.016553391031193625,-0.0386668677048926,-0.7676425820589852,0.639710668624267,-0.0536839097083286,-0.6376690302537565,-0.768437535323244,,0.16890331743080414,0.6195749168025336,-0.43236543922396775,0.8798173175282344,-0.46794132939454475,-0.08338105313492078,-0.2944844188123627,-0.6743457661377952,0.6771533908715035,-0.37309571808607944,-0.5712168589393143,-0.7311025134749138,,0.0,0.0,0.045,1.0,0.0,0.0,0.0,1.0,0.0,0.0,0.0,1.0,,-0.007070943727902147,-0.1730894113711754,0.25860119218090627,False,,0.1171960870731324,0.5330712782685949,-0.3703415957208188,-0.3145137772595107,-0.41133697942489644,-0.8555015916242104,0.7265131947488996,0.4757381894971287,-0.4958344006921478,0.6109498029868756,-0.7774799447005667,0.14921552807500116
13:02:53.255214,,-0.40386031565757075,-0.41461808255136545,0.07248335164000001,-2.377941519218619,-0.0804848810713374,0.6148493592414839,,0.11719563825366197,0.5330713336765339,-0.3703418929369802,-0.3624481289367083,-0.622258637846625,-0.6938483562389856,0.7124309583316446,0.2950044070084748,-0.6367217048728846,0.6008939036476688,-0.7250976399567448,0.33639252234291,,0.008452321408412468,0.27968136222198864,-0.07440718744662764,0.7560857364479772,-0.482036633613877,0.44269067845653703,0.5493933087083892,0.8350587812281256,-0.02904854623615745,-0.3556702760768135,0.2651744888675879,0.8962037374210425,,0.010969302380675422,0.723062172756356,1.199261890577288,0.997809055471196,-0.06405524229169728,-0.016553391031193625,-0.0386668677048926,-0.7676425820589852,0.639710668624267,-0.0536839097083286,-0.6376690302537565,-0.768437535323244,,0.16890331743080414,0.6195749168025336,-0.43236543922396775,0.8798173175282344,-0.46794132939454475,-0.08338105313492078,-0.2944844188123627,-0.6743457661377952,0.6771533908715035,-0.37309571808607944,-0.5712168589393143,-0.7311025134749138,,0.0,0.0,0.045,1.0,0.0,0.0,0.0,1.0,0.0,0.0,0.0,1.0,,-0.007070943727902147,-0.1730894113711754,0.25860119218090627,False,,0.11719563825366197,0.5330713336765339,-0.3703418929369802,-0.31503379064015613,-0.4111324979549501,-0.8554085455969079,0.7265773917625516,0.475391159724747,-0.49607311863785536,0.6106054409636569,-0.7778003049503666,0.14895529894802337
13:02:53.266874,,-0.4038757611233192,-0.41461035981849126,0.07248335164000001,-2.375425400866567,-0.0795458907921718,0.6128580827988979,,0.11719347671404935,0.5330727480459251,-0.3703417244931293,-0.36203342690642826,-0.6222189664420071,-0.6941003930284352,0.7125592518239363,0.29534496566855584,-0.636420194442596,0.6009917723584077,-0.7249930406935503,0.3364431311580309,,0.008447146752609668,0.27967660484904555,-0.07441345942838311,0.7560665336545854,-0.48204055865481316,0.4427192072771846,0.5493884032561582,0.8350636379143584,-0.029001775699589546,-0.3557186796445079,0.26515207040080985,0.896191162926178,,0.010969302380675422,0.723062172756356,1.199261890577288,0.997809055471196,-0.06405524229169728,-0.016553391031193625,-0.0386668677048926,-0.7676425820589852,0.639710668624267,-0.0536839097083286,-0.6376690302537565,-0.768437535323244,,0.16890331743080414,0.6195749168025336,-0.43236543922396775,0.8798173175282344,-0.46794132939454475,-0.08338105313492078,-0.2944844188123627,-0.6743457661377952,0.6771533908715035,-0.37309571808607944,-0.5712168589393143,-0.7311025134749138,,0.0,0.0,0.045,1.0,0.0,0.0,0.0,1.0,0.0,0.0,0.0,1.0,,-0.007070943727902147,-0.1730894113711754,0.25860119218090627,False,,0.11719347671404935,0.5330727480459251,-0.3703417244931293,-0.316244340526628,-0.4110577965924511,-0.8549976637075902,0.7267371831618714,0.4743345896987576,-0.49684984011797795,0.6097889665243437,-0.7784845437617056,0.1487253557040712
13:02:53.279298,,-0.4038989293219419,-0.414602637085617,0.07248335164000001,-2.374796371278554,-0.07780205170229282,0.6102522640468917,,0.11719591766323513,0.5330655394750964,-0.37034834479567796,-0.3610449724771952,-0.6220217076298292,-0.6947917120160637,0.7128643850599251,0.296249415146854,-0.6356576535669825,0.601224497473345,-0.7247932665680735,0.3364577601653816,,0.008446977835543842,0.27967684849632074,-0.07441337169899356,0.756066598934149,-0.4820412248275061,0.44271837044674195,0.5493883827089991,0.8350636936785972,-0.0290005591725445,-0.3557185726225314,0.2651506836776547,0.8961916156853585,,0.010969302380675422,0.723062172756356,1.199261890577288,0.997809055471196,-0.06405524229169728,-0.016553391031193625,-0.0386668677048926,-0.7676425820589852,0.639710668624267,-0.0536839097083286,-0.6376690302537565,-0.768437535323244,,0.16890331743080414,0.6195749168025336,-0.43236543922396775,0.8798173175282344,-0.46794132939454475,-0.08338105313492078,-0.2944844188123627,-0.6743457661377952,0.6771533908715035,-0.37309571808607944,-0.5712168589393143,-0.7311025134749138,,0.0,0.0,0.045,1.0,0.0,0.0,0.0,1.0,0.0,0.0,0.0,1.0,,-0.007070943727902147,-0.1730894113711754,0.25860119218090627,False,,0.11719591766323513,0.5330655394750964,-0.37034834479567796,-0.3175436379860578,-0.41217629180954185,-0.8539770151735437,0.7262042815304434,0.4733973447571258,-0.4985201053756565,0.6097486198930113,-0.7784636526177946,0.148999872790313
13:02:53.291149,,-0.4039066520548161,-0.4145949143527428,0.07248335164000001,-2.3735383121025277,-0.0763264955493183,0.6077135294432585,,0.11719959752460563,0.5330537907819921,-0.37035911361883983,-0.35971326545618043,-0.6215487043748296,-0.6959048604118399,0.7132740151353397,0.2976535570111707,-0.634541203808948,0.6015368201428426,-0.7246237424267635,0.3362646070044675,,0.008447029618762735,0.2796772810824314,-0.07441338338801415,0.7560659073984773,-0.4820420714186598,0.44271862964846065,0.5493885437876344,0.8350636628295122,-0.028998395858174292,-0.35571979367235906,0.2651492417297333,0.8961915576401777,,0.010969302380675422,0.723062172756356,1.199261890577288,0.997809055471196,-0.06405524229169728,-0.016553391031193625,-0.0386668677048926,-0.7676425820589852,0.639710668624267,-0.0536839097083286,-0.6376690302537565,-0.768437535323244,,0.16890331743080414,0.6195749168025336,-0.43236543922396775,0.8798173175282344,-0.46794132939454475,-0.08338105313492078,-0.2944844188123627,-0.6743457661377952,0.6771533908715035,-0.37309571808607944,-0.5712168589393143,-0.7311025134749138,,0.0,0.0,0.045,1.0,0.0,0.0,0.0,1.0,0.0,0.0,0.0,1.0,,-0.007070943727902147,-0.1730894113711754,0.25860119218090627,False,,0.11719959752460563,0.5330537907819921,-0.37035911361883983,-0.31886504235720553,-0.41449754064549726,-0.8523595916990506,0.7250947596391358,0.47246550370058665,-0.5010129113673769,0.6103791234195365,-0.7777969764738004,0.1498972617555538
13:02:53.302711,,-0.40393754298631296,-0.41458719161986857,0.07248335164000001,-2.372070576397164,-0.07444851499098709,0.6041442664223879,,0.11720633708476152,0.5330310514224803,-0.3703804781593955,-0.3566178468032477,-0.6204414041526415,-0.6984813350079685,0.7142196789000886,0.30090492939497704,-0.6319386629552414,0.6022573881765748,-0.724229720101918,0.3358233924368998,,0.00844725031904259,0.27967747002127286,-0.07441348280642064,0.7560651505816264,-0.4820422518384247,0.4427197256804745,0.5493887254118139,0.8350635762179116,-0.02899744907067059,-0.3557211217434754,0.2651491865059448,0.8961910468359248,,0.010969302380675422,0.723062172756356,1.199261890577288,0.997809055471196,-0.06405524229169728,-0.016553391031193625,-0.0386668677048926,-0.7676425820589852,0.639710668624267,-0.0536839097083286,-0.6376690302537565,-0.768437535323244,,0.16890331743080414,0.6195749168025336,-0.43236543922396775,0.8798173175282344,-0.46794132939454475,-0.08338105313492078,-0.2944844188123627,-0.6743457661377952,0.6771533908715035,-0.37309571808607944,-0.5712168589393143,-0.7311025134749138,,0.0,0.0,0.045,1.0,0.0,0.0,0.0,1.0,0.0,0.0,0.0,1.0,,-0.007070943727902147,-0.1730894113711754,0.25860119218090627,False,,0.11720633708476152,0.5330310514224803,-0.3703804781593955,-0.3226544500581418,-0.4193897728949101,-0.8485318640150373,0.7231011440023865,0.46924578171838516,-0.506885718759112,0.610752684316752,-0.7771232944202981,0.1518569849207621
13:02:53.314895,,-0.4039684339178099,-0.4145794688869944,0.07248335164000001,-2.3710221937504756,-0.07243639296420366,0.5997493224207533,,0.11721009820425482,0.5330177671505305,-0.37039313903428006,-0.3549644989677874,-0.619453248668272,-0.7001984555730408,0.7147210804441941,0.3029877507726333,-0.6303746505455501,0.6026391803071149,-0.724207218685415,0.33518640002646877,,0.0084474710193009,0.279677658960122,-0.07441358222485919,0.7560643937639707,-0.48204243225877935,0.4427208217118355,0.5493889070351855,0.8350634896071575,-0.028996502282934475,-0.35572244981424356,0.2651491312827558,0.8961905360307015,,0.010969302380675422,0.723062172756356,1.199261890577288,0.997809055471196,-0.06405524229169728,-0.016553391031193625,-0.0386668677048926,-0.7676425820589852,0.639710668624267,-0.0536839097083286,-0.6376690302537565,-0.768437535323244,,0.16890331743080414,0.6195749168025336,-0.43236543922396775,0.8798173175282344,-0.46794132939454475,-0.08338105313492078,-0.2944844188123627,-0.6743457661377952,0.6771533908715035,-0.37309571808607944,-0.5712168589393143,-0.7311025134749138,,0.0,0.0,0.045,1.0,0.0,0.0,0.0,1.0,0.0,0.0,0.0,1.0,,-0.007070943727902147,-0.1730894113711754,0.25860119218090627,False,,0.11721009820425482,0.5330177671505305,-0.37039313903428006,-0.32444205842853074,-0.42311706179253716,-0.8459960418008519,0.7218447110722191,0.46724071361545755,-0.5105157476877507,0.6112917174473436,-0.776310548401971,0.15383227431234553
13:02:53.326377,,-0.4040224930479295,-0.4145717461541201,0.07248335164000001,-2.36976413457445,-0.06975356359515908,0.5936368310570563,,0.11721401609793283,0.5330007087796992,-0.37041014813122664,-0.35281840745089094,-0.6180248413408035,-0.7025414342581454,0.7153680783258801,0.30580543181248987,-0.6282766511548191,0.6031315643175664,-0.7242432832685795,0.33422145766571276,,0.008447250319042594,0.27967747002127286,-0.07441348280642064,0.7560651505816269,-0.4820422518384247,0.4427197256804747,0.5493887254118139,0.8350635762179122,-0.02899744907067063,-0.3557211217434756,0.2651491865059449,0.8961910468359251,,0.010969302380675422,0.723062172756356,1.199261890577288,0.997809055471196,-0.06405524229169728,-0.016553391031193625,-0.0386668677048926,-0.7676425820589852,0.639710668624267,-0.0536839097083286,-0.6376690302537565,-0.768437535323244,,0.16890331743080414,0.6195749168025336,-0.43236543922396775,0.8798173175282344,-0.46794132939454475,-0.08338105313492078,-0.2944844188123627,-0.6743457661377952,0.6771533908715035,-0.37309571808607944,-0.5712168589393143,-0.7311025134749138,,0.0,0.0,0.045,1.0,0.0,0.0,0.0,1.0,0.0,0.0,0.0,1.0,,-0.007070943727902147,-0.1730894113711754,0.25860119218090627,False,,0.11721401609793283,0.5330007087796992,-0.37041014813122664,-0.32670890943293757,-0.42831568384164864,-0.8425004234256515,0.7201552866779797,0.4644778817848408,-0.5153995153300253,0.6120765079358119,-0.7751167475341563,0.15670474187201117
13:02:53.339649,,-0.40411516584242013,-0.41454857795549743,0.07248464793,-2.3672480162223972,-0.06505861219933107,0.5767234027950544,,0.11721846408294723,0.5329826690345753,-0.37042575251345194,-0.35066293151282424,-0.6160239600218594,-0.7053722344562613,0.716013554756467,0.30911816095351774,-0.625915770670242,0.6036224795912095,-0.7245415400428754,0.33268522492659375,,0.008447639935335996,0.2796774153130975,-0.07441366995610343,0.7560643284771189,-0.4820417660815156,0.4427216585403945,0.5493889275808598,0.8350634338412224,-0.028997718809589637,-0.3557225568322833,0.26515051800368156,0.8961900832671512,,0.010969302380675422,0.723062172756356,1.199261890577288,0.997809055471196,-0.06405524229169728,-0.016553391031193625,-0.0386668677048926,-0.7676425820589852,0.639710668624267,-0.0536839097083286,-0.6376690302537565,-0.768437535323244,,0.16890331743080414,0.6195749168025336,-0.43236543922396775,0.8798173175282344,-0.46794132939454475,-0.08338105313492078,-0.2944844188123627,-0.6743457661377952,0.6771533908715035,-0.37309571808607944,-0.5712168589393143,-0.7311025134749138,,0.0,0.0,0.045,1.0,0.0,0.0,0.0,1.0,0.0,0.0,0.0,1.0,,-0.007070943727902147,-0.1730894113711754,0.25860119218090627,False,,0.11721846408294723,0.5329826690345753,-0.37042575251345194,-0.3289711324664918,-0.43482929840610185,-0.838272912154133,0.7184600316241326,0.4608411800008865,-0.5209996063089114,0.6128565712810494,-0.7736594134779512,0.16080402661186133
13:02:53.352761,,-0.4041923931711624,-0.41454085522262324,0.07248205535,-2.3659899570463714,-0.06344891457790432,0.561373581145919,,0.11722027901433307,0.5329649357622589,-0.3704495874218813,-0.34743929334591395,-0.6085432085658671,-0.7134150970841951,0.7169707898318968,0.3179419835945844,-0.6203755165992346,0.6043499184802775,-0.7270406167307991,0.32584216678720573,,0.008448029551596684,0.27967736060493764,-0.07441385710585616,0.7560635063713037,-0.4820412803228746,0.4427235913993231,0.5493891297516367,0.8350632914661069,-0.02899798854804192,-0.35572399192009846,0.26515184950095466,0.8961891196962581,,0.010969302380675422,0.723062172756356,1.199261890577288,0.997809055471196,-0.06405524229169728,-0.016553391031193625,-0.0386668677048926,-0.7676425820589852,0.639710668624267,-0.0536839097083286,-0.6376690302537565,-0.768437535323244,,0.16890331743080414,0.6195749168025336,-0.43236543922396775,0.8798173175282344,-0.46794132939454475,-0.08338105313492078,-0.2944844188123627,-0.6743457661377952,0.6771533908715035,-0.37309571808607944,-0.5712168589393143,-0.7311025134749138,,0.0,0.0,0.045,1.0,0.0,0.0,0.0,1.0,0.0,0.0,0.0,1.0,,-0.007070943727902147,-0.1730894113711754,0.25860119218090627,False,,0.11722027901433307,0.5329649357622589,-0.3704495874218813,-0.3326964345042747,-0.4549995175262933,-0.8260075795771996,0.7162653966776245,0.4478275095682591,-0.5351769830590031,0.6134141863295864,-0.769692120737072,0.17690979420280945
13:02:53.364914,,-0.40425417503415617,-0.4145254097568748,0.07248205535,-2.364941574399683,-0.0629123487040954,0.5474630840391291,,0.11721655995740021,0.5329652672917944,-0.37045160047623943,-0.3467421132157782,-0.6039154351086562,-0.717674058441699,0.7171765365359436,0.3224246987921789,-0.6178188480866226,0.6045061805845867,-0.7289228085650055,0.3213157586996625,,0.0084482502507617,0.2796775495440516,-0.07441395652624797,0.756062749546215,-0.4820414607399266,0.44272468742690463,0.549389311371848,0.8350632048536687,-0.028997041759487474,-0.35572531998706425,0.2651517942766985,0.8961886088836787,,0.010969302380675422,0.723062172756356,1.199261890577288,0.997809055471196,-0.06405524229169728,-0.016553391031193625,-0.0386668677048926,-0.7676425820589852,0.639710668624267,-0.0536839097083286,-0.6376690302537565,-0.768437535323244,,0.16890331743080414,0.6195749168025336,-0.43236543922396775,0.8798173175282344,-0.46794132939454475,-0.08338105313492078,-0.2944844188123627,-0.6743457661377952,0.6771533908715035,-0.37309571808607944,-0.5712168589393143,-0.7311025134749138,,0.0,0.0,0.045,1.0,0.0,0.0,0.0,1.0,0.0,0.0,0.0,1.0,,-0.007070943727902147,-0.1730894113711754,0.25860119218090627,False,,0.11721655995740021,0.5329652672917944,-0.37045160047623943,-0.33380030316431303,-0.46614565279284553,-0.8193201986950795,0.7160296718172074,0.4399198263998387,-0.5420074311461771,0.6130896073860288,-0.7675798178187514,0.18692874736802106
13:02:53.376499,,-0.40430051143140155,-0.41451768702400055,0.07248464793,-2.363683515223657,-0.06224164136183426,0.5358954615778855,,0.11721320535940122,0.5329613938716888,-0.3704540840826156,-0.345888809385899,-0.6000921485268493,-0.72128381710533,0.7174277410533964,0.32628106390973843,-0.6154982564564665,0.6046969223574948,-0.7303629786690718,0.3176657858205928,,0.008448302032635758,0.2796779821302739,-0.07441396821719155,0.7560620580012468,-0.48204230733957687,0.4427249466223926,0.5493894724438285,0.8350631739982449,-0.02899487844452643,-0.35572654103251167,0.26515035233402573,0.8961885508297519,,0.010969302380675422,0.723062172756356,1.199261890577288,0.997809055471196,-0.06405524229169728,-0.016553391031193625,-0.0386668677048926,-0.7676425820589852,0.639710668624267,-0.0536839097083286,-0.6376690302537565,-0.768437535323244,,0.16890331743080414,0.6195749168025336,-0.43236543922396775,0.8798173175282344,-0.46794132939454475,-0.08338105313492078,-0.2944844188123627,-0.6743457661377952,0.6771533908715035,-0.37309571808607944,-0.5712168589393143,-0.7311025134749138,,0.0,0.0,0.045,1.0,0.0,0.0,0.0,1.0,0.0,0.0,0.0,1.0,,-0.007070943727902147,-0.1730894113711754,0.25860119218090627,False,,0.11721320535940122,0.5329613938716888,-0.3704540840826156,-0.3351396311953634,-0.47524924570528193,-0.8135229450106473,0.715708394954466,0.43312699985486697,-0.547870874740047,0.6127339724496578,-0.765858444135261,0.19498185185493366
13:02:53.388638,,-0.40449357975325717,-0.4144790733596294,0.07247946277,-2.361167396871605,-0.05727840702910178,0.5067917798146718,,0.11721522471661794,0.5329558065572604,-0.37046768259945995,-0.3441677781164551,-0.5958364447981168,-0.7256221272513148,0.7179323351742409,0.3310477240499891,-0.6123565681141859,0.6050799142407917,-0.7317009877345138,0.31383429055903567,,0.008448743431908202,0.27967836000829066,-0.07441416705624611,0.7560605443528652,-0.4820426681811109,0.4427271386767629,0.5493898356817553,0.8350630007809754,-0.028992984866609117,-0.35572919716780643,0.26515024189077585,0.8961875292051547,,0.010969302380675422,0.723062172756356,1.199261890577288,0.997809055471196,-0.06405524229169728,-0.016553391031193625,-0.0386668677048926,-0.7676425820589852,0.639710668624267,-0.0536839097083286,-0.6376690302537565,-0.768437535323244,,0.16890331743080414,0.6195749168025336,-0.43236543922396775,0.8798173175282344,-0.46794132939454475,-0.08338105313492078,-0.2944844188123627,-0.6743457661377952,0.6771533908715035,-0.37309571808607944,-0.5712168589393143,-0.7311025134749138,,0.0,0.0,0.045,1.0,0.0,0.0,0.0,1.0,0.0,0.0,0.0,1.0,,-0.007070943727902147,-0.1730894113711754,0.25860119218090627,False,,0.11721522471661794,0.5329558065572604,-0.37046768259945995,-0.33714535375319,-0.4859414282633321,-0.8063460415603402,0.714396687387866,0.4257777549603663,-0.555293324676386,0.613164238595077,-0.7632655053638304,0.20360595479950094
13:02:53.400339,,-0.4045708070819994,-0.41446362789388097,0.07247946277,-2.3601190142249164,-0.0545955776600572,0.48807394758978473,,0.1172159076692115,0.5329406276627062,-0.3704852753038526,-0.34197390028343455,-0.5907753116359977,-0.730779298205912,0.7185715764384695,0.3367420917328262,-0.6084896492054188,0.6055648116095159,-0.7332048109612965,0.30935734050373026,,0.008448743431908202,0.2796783600082906,-0.07441416705624611,0.7560605443528652,-0.4820426681811109,0.4427271386767629,0.5493898356817553,0.8350630007809754,-0.028992984866609117,-0.35572919716780643,0.26515024189077585,0.8961875292051547,,0.010969302380675422,0.723062172756356,1.199261890577288,0.997809055471196,-0.06405524229169728,-0.016553391031193625,-0.0386668677048926,-0.7676425820589852,0.639710668624267,-0.0536839097083286,-0.6376690302537565,-0.768437535323244,,0.16890331743080414,0.6195749168025336,-0.43236543922396775,0.8798173175282344,-0.46794132939454475,-0.08338105313492078,-0.2944844188123627,-0.6743457661377952,0.6771533908715035,-0.37309571808607944,-0.5712168589393143,-0.7311025134749138,,0.0,0.0,0.045,1.0,0.0,0.0,0.0,1.0,0.0,0.0,0.0,1.0,,-0.007070943727902147,-0.1730894113711754,0.25860119218090627,False,,0.1172159076692115,0.5329406276627062,-0.3704852753038526,-0.33946168167702817,-0.4985447455733004,-0.797633313831774,0.712606701593906,0.4171980055187331,-0.5640368011350367,0.6139686111817589,-0.7598677258921085,0.21364359019427148
13:02:53.413713,,-0.4046403116778674,-0.41444045969525833,0.07248075906000001,-2.3592803081075653,-0.054059011786248286,0.46699975950177197,,0.11721424877999789,0.5329257485774668,-0.3705016763991905,-0.33933802435584925,-0.5768959008941335,-0.7429944984707593,0.7193337086577724,0.349824173702025,-0.6001517000578691,0.6061424921707141,-0.7381152803087343,0.296272023923681,,0.008448522732810607,0.27967817106915666,-0.07441406763575936,0.756061301179713,-0.48204248776148656,0.44272604265122445,0.5493896540648342,0.8350630873916771,-0.02899393165577044,-0.35572786910139403,0.26515029711289184,0.896188040020611,,0.010969302380675422,0.723062172756356,1.199261890577288,0.997809055471196,-0.06405524229169728,-0.016553391031193625,-0.0386668677048926,-0.7676425820589852,0.639710668624267,-0.0536839097083286,-0.6376690302537565,-0.768437535323244,,0.16890331743080414,0.6195749168025336,-0.43236543922396775,0.8798173175282344,-0.46794132939454475,-0.08338105313492078,-0.2944844188123627,-0.6743457661377952,0.6771533908715035,-0.37309571808607944,-0.5712168589393143,-0.7311025134749138,,0.0,0.0,0.045,1.0,0.0,0.0,0.0,1.0,0.0,0.0,0.0,1.0,,-0.007070943727902147,-0.1730894113711754,0.25860119218090627,False,,0.11721424877999789,0.5329257485774668,-0.3705016763991905,-0.3424662614737229,-0.5296292259029318,-0.7760217412042483,0.7106238944786591,0.394292056732583,-0.5827070057872769,0.6145978688119538,-0.7510170817411886,0.2413354565428661
13:02:53.425574,,-0.4047175390066097,-0.4144327369623841,0.07248075906000001,-2.358441601990215,-0.055668709407675036,0.4479776407698478,,0.11720119559034214,0.5329429417536418,-0.3704901664012355,-0.3402155838685155,-0.5696870421922705,-0.7481377082136866,0.7190806863172253,0.35506223796356245,-0.5973723911747637,0.6059507595989574,-0.7412067735325474,0.2888532426872127,,0.008448081333495056,0.2796777931911552,-0.07441386879676887,0.7560628148264843,-0.4820421269211318,0.44272385059554786,0.5493892908252914,0.835063260610639,-0.028995825233223,-0.3557252129654024,0.2651504075573403,0.8961890616432671,,0.010969302380675422,0.723062172756356,1.199261890577288,0.997809055471196,-0.06405524229169728,-0.016553391031193625,-0.0386668677048926,-0.7676425820589852,0.639710668624267,-0.0536839097083286,-0.6376690302537565,-0.768437535323244,,0.16890331743080414,0.6195749168025336,-0.43236543922396775,0.8798173175282344,-0.46794132939454475,-0.08338105313492078,-0.2944844188123627,-0.6743457661377952,0.6771533908715035,-0.37309571808607944,-0.5712168589393143,-0.7311025134749138,,0.0,0.0,0.045,1.0,0.0,0.0,0.0,1.0,0.0,0.0,0.0,1.0,,-0.007070943727902147,-0.1730894113711754,0.25860119218090627,False,,0.11720119559034214,0.5329429417536418,-0.3704901664012355,-0.3424209847792453,-0.5437091130913241,-0.7662429572428433,0.7118622752213082,0.3821233705198438,-0.5892655011277147,0.6131883644521923,-0.7472363281077815,0.2561989454631802
13:02:53.437628,,-0.4048874391298426,-0.4144095687637614,0.07247946277,-2.3567641897555136,-0.060497802271955274,0.4146754517714011,,0.1171850450480742,0.5329680001774284,-0.37047748781727996,-0.3421276828276955,-0.562699477454143,-0.7525409933789562,0.7185269135051376,0.3594315481029229,-0.5954225699426556,0.6055309432322449,-0.7444315014164639,0.2813432360784547,,0.008447808851354408,0.27967717166607486,-0.07441375768738331,0.7560642631910772,-0.4820410999035373,0.442722495368448,0.5493889481273407,0.8350633780744101,-0.028998935336190926,-0.35572266385066265,0.2651519047242288,0.8961896305025214,,0.010969302380675422,0.723062172756356,1.199261890577288,0.997809055471196,-0.06405524229169728,-0.016553391031193625,-0.0386668677048926,-0.7676425820589852,0.639710668624267,-0.0536839097083286,-0.6376690302537565,-0.768437535323244,,0.16895252642198977,0.6195600418033171,-0.43237483072294713,0.8798353161381622,-0.46790839864276634,-0.08337593750970371,-0.29446590438948805,-0.6743610574834693,0.6771462141235507,-0.37306788608528185,-0.5712257825320375,-0.7311097439800129,,0.0,0.0,0.045,1.0,0.0,0.0,0.0,1.0,0.0,0.0,0.0,1.0,,-0.007070943727902147,-0.1730894113711754,0.25860119218090627,False,,0.1171850450480742,0.5329680001774284,-0.37047748781727996,-0.3416073546787785,-0.5564116907679297,-0.7574367601365419,0.7143060707553979,0.37005111962853565,-0.5939941128863586,0.610795589793633,-0.7439544335767085,0.27103606448258316
13:02:53.449130,,-0.40494922099283637,-0.41438640056513876,0.07247946277,-2.3561351601675002,-0.06076608520885973,0.40131061532998125,,0.11717402362807548,0.5329851171335884,-0.37046688666605143,-0.3429385493816818,-0.5567680172657175,-0.7565728823437895,0.7182910517233805,0.3636071499833898,-0.5931676032076235,0.6053520598479101,-0.7468595687483414,0.27522657612762214,,0.008455085044711881,0.2796820739697861,-0.07441100976499121,0.7560608508417734,-0.4820493362849094,0.4427193546663255,0.5493949763930817,0.8350595906004383,-0.02899378976176524,-0.3557206059858421,0.265148858790647,0.8961913483980744,,0.010969302380675422,0.723062172756356,1.199261890577288,0.997809055471196,-0.06405524229169728,-0.016553391031193625,-0.0386668677048926,-0.7676425820589852,0.639710668624267,-0.0536839097083286,-0.6376690302537565,-0.768437535323244,,0.16895252642198977,0.6195600418033171,-0.43237483072294713,0.8798353161381622,-0.46790839864276634,-0.08337593750970371,-0.29446590438948805,-0.6743610574834693,0.6771462141235507,-0.37306788608528185,-0.5712257825320375,-0.7311097439800129,,0.0,0.0,0.045,1.0,0.0,0.0,0.0,1.0,0.0,0.0,0.0,1.0,,-0.007070943727902147,-0.1730894113711754,0.25860119218090627,False,,0.11717402362807548,0.5329851171335884,-0.37046688666605143,-0.3416169594646794,-0.567545924514004,-0.7491258082416147,0.7154445938853851,0.35984081172878607,-0.5988769684121651,0.6094562216322715,-0.7405445386888714,0.2831199394811369
13:02:53.460816,,-0.40500328012295594,-0.4143709550993903,0.07247946277,-2.355715807108825,-0.060900226677311965,0.39159740477106164,,0.11716795358115051,0.5329919660334561,-0.37046269062380105,-0.34301483262312893,-0.5517573084838874,-0.760200432211889,0.7182688313685568,0.36747234253979993,-0.5908078903948047,0.6053352050599524,-0.7486841456869032,0.27026161309386343,,0.008462361237052329,0.2796869762726388,-0.07440826184188697,0.7560574384670514,-0.48205757264399857,0.4427162139333842,0.5494010046574074,0.8350558030888692,-0.028988644213356243,-0.3557185481590261,0.265145812843562,0.8961930663152079,,0.010969302380675422,0.723062172756356,1.199261890577288,0.997809055471196,-0.06405524229169728,-0.016553391031193625,-0.0386668677048926,-0.7676425820589852,0.639710668624267,-0.0536839097083286,-0.6376690302537565,-0.768437535323244,,0.16895252642198977,0.6195600418033171,-0.43237483072294713,0.8798353161381622,-0.46790839864276634,-0.08337593750970371,-0.29446590438948805,-0.6743610574834693,0.6771462141235507,-0.37306788608528185,-0.5712257825320375,-0.7311097439800129,,0.0,0.0,0.045,1.0,0.0,0.0,0.0,1.0,0.0,0.0,0.0,1.0,,-0.007070943727902147,-0.1730894113711754,0.25860119218090627,False,,0.11716795358115051,0.5329919660334561,-0.37046269062380105,-0.3420033585794891,-0.5772117471150839,-0.7415256581620775,0.7157267831378737,0.3513234086210341,-0.6035785238508816,0.6089079360785674,-0.7371556562539899,0.2929721212560829
13:02:53.473680,,-0.4050805074516982,-0.41436323236651607,0.07247946277,-2.3548771009914744,-0.060900226677311965,0.38663792639944583,,0.11716289536981987,0.5329969438701994,-0.37046011452301536,-0.3430447169580912,-0.5481255852078732,-0.7628097174313326,0.7182601249638063,0.37026796296424913,-0.5890704783718861,0.6053286008889059,-0.7499733184872858,0.2666782827735467,,0.00846985812724018,0.27969206751414133,-0.07440561333822306,0.756053269248087,-0.48206598939918616,0.4427141691880967,0.5494072145293104,0.8350519289152649,-0.028982551890456162,-0.3557178184438716,0.26514271167716913,0.8961942734485941,,0.010969302380675422,0.723062172756356,1.199261890577288,0.997809055471196,-0.06405524229169728,-0.016553391031193625,-0.0386668677048926,-0.7676425820589852,0.639710668624267,-0.0536839097083286,-0.6376690302537565,-0.768437535323244,,0.16895252642198977,0.6195600418033171,-0.43237483072294713,0.8798353161381622,-0.46790839864276634,-0.08337593750970371,-0.29446590438948805,-0.6743610574834693,0.6771462141235507,-0.37306788608528185,-0.5712257825320375,-0.7311097439800129,,0.0,0.0,0.045,1.0,0.0,0.0,0.0,1.0,0.0,0.0,0.0,1.0,,-0.007070943727902147,-0.1730894113711754,0.25860119218090627,False,,0.11716289536981987,0.5329969438701994,-0.37046011452301536,-0.3422812900507832,-0.5841873003634246,-0.7359135252020211,0.7158899262127771,0.3451355566314141,-0.6069456821625709,0.6085598836829752,-0.734579230337217,0.3000803597854178
13:02:53.485949,,-0.40515001204756623,-0.4143477869007676,0.07247946277,-2.3536190418154486,-0.060229519335050816,0.3839560360206804,,0.1171517433632439,0.5330016591412642,-0.37046209691837917,-0.34231609618868913,-0.5455516971966324,-0.7649791081957795,0.7184721629008137,0.3726822998675101,-0.5872866885108924,0.6054894230511072,-0.7506538809939887,0.2643885578498058,,0.008477575715944338,0.27969734769447535,-0.07440306425200148,0.7560483431924313,-0.4820745865570357,0.44271322042138217,0.5494136059976167,0.83504796807599,-0.02897551278035458,-0.35571841684779804,0.26513955531389877,0.8961949698069461,,0.010969302380675422,0.723062172756356,1.199261890577288,0.997809055471196,-0.06405524229169728,-0.016553391031193625,-0.0386668677048926,-0.7676425820589852,0.639710668624267,-0.0536839097083286,-0.6376690302537565,-0.768437535323244,,0.16895252642198977,0.6195600418033171,-0.43237483072294713,0.8798353161381622,-0.46790839864276634,-0.08337593750970371,-0.29446590438948805,-0.6743610574834693,0.6771462141235507,-0.37306788608528185,-0.5712257825320375,-0.7311097439800129,,0.0,0.0,0.045,1.0,0.0,0.0,0.0,1.0,0.0,0.0,0.0,1.0,,-0.007070943727902147,-0.1730894113711754,0.25860119218090627,False,,0.1171517433632439,0.5330016591412642,-0.37046209691837917,-0.3442985455291545,-0.5890293950974549,-0.7310970409307067,0.7156885083679022,0.33933992622881615,-0.6104411302141666,0.6076581856081888,-0.7334117439597954,0.30472732612159326
13:02:53.497913,,-0.40525040757493114,-0.41432461870214493,0.07247946277,-2.352360982639422,-0.057144265560649554,0.38053262501845797,,0.11715180006801598,0.5329933964913942,-0.37047182136495926,-0.34107401903097584,-0.5451559682925479,-0.7658155677296408,0.7188324890856913,0.37371908960738753,-0.5861858874946538,0.6057626318756605,-0.7504258872787105,0.2644099497466633,,0.008485293303115735,0.2797026278745177,-0.0744005151649195,0.7560434171154147,-0.48208318369751985,0.4427122716082204,0.5494199974452401,0.835044007187631,-0.028968473679092305,-0.35571901529679256,0.2651363989649238,0.8961956661913699,,0.010969302380675422,0.723062172756356,1.199261890577288,0.997809055471196,-0.06405524229169728,-0.016553391031193625,-0.0386668677048926,-0.7676425820589852,0.639710668624267,-0.0536839097083286,-0.6376690302537565,-0.768437535323244,,0.16895252642198977,0.6195600418033171,-0.43237483072294713,0.8798353161381622,-0.46790839864276634,-0.08337593750970371,-0.29446590438948805,-0.6743610574834693,0.6771462141235507,-0.37306788608528185,-0.5712257825320375,-0.7311097439800129,,0.0,0.0,0.045,1.0,0.0,0.0,0.0,1.0,0.0,0.0,0.0,1.0,,-0.007070943727902147,-0.1730894113711754,0.25860119218090627,False,,0.11715180006801598,0.5329933964913942,-0.37047182136495926,-0.3458899718493564,-0.5902679828754768,-0.729344798957371,0.7146950768829056,0.3378937605604453,-0.6124040771040464,0.6079235761618312,-0.7330835661549351,0.30498755807438077
13:02:53.509593,,-0.4053044667050507,-0.41432461870214493,0.07247946277,-2.352360982639422,-0.05540042647077058,0.3786845043510042,,0.11715422692271266,0.532985153392474,-0.37047972821711245,-0.3401170172841018,-0.5448252806892891,-0.7664762410379092,0.7191091410096234,0.37453544253415927,-0.5853249060155761,0.6059723243434203,-0.7502590324731708,0.2644029620149023,,0.008485072610316745,0.27970243892655006,-0.07440041574722608,0.7560441739256514,-0.48208300328349507,0.4427111756139363,0.5494198158699422,0.8350440938057475,-0.028969420512073574,-0.3557176872152223,0.2651364541901625,0.8961961769930451,,0.010969302380675422,0.723062172756356,1.199261890577288,0.997809055471196,-0.06405524229169728,-0.016553391031193625,-0.0386668677048926,-0.7676425820589852,0.639710668624267,-0.0536839097083286,-0.6376690302537565,-0.768437535323244,,0.16895252642198977,0.6195600418033171,-0.43237483072294713,0.8798353161381622,-0.46790839864276634,-0.08337593750970371,-0.29446590438948805,-0.6743610574834693,0.6771462141235507,-0.37306788608528185,-0.5712257825320375,-0.7311097439800129,,0.0,0.0,0.045,1.0,0.0,0.0,0.0,1.0,0.0,0.0,0.0,1.0,,-0.007070943727902147,-0.1730894113711754,0.25860119218090627,False,,0.11715422692271266,0.532985153392474,-0.37047972821711245,-0.34673079076008073,-0.5914086766303075,-0.7280202853940804,0.7137140373791229,0.3372634502757715,-0.6138938328050503,0.6085967725735012,-0.7324541912737419,0.3051570515302694
13:02:53.521593,,-0.4053585258351703,-0.41432461870214493,0.07247946277,-2.352360982639422,-0.054059011786248286,0.3769025690840848,,0.11715577397365064,0.5329750125010175,-0.37049079151358827,-0.3390228148042727,-0.5443849231686215,-0.7672734756714075,0.7194244177792742,0.37551383513697106,-0.5843097352634783,0.6062112157863299,-0.7500896046789463,0.2643360490123169,,0.008485072610316745,0.27970243892655006,-0.07440041574722607,0.7560441739256516,-0.48208300328349507,0.4427111756139363,0.5494198158699422,0.8350440938057477,-0.0289694205120736,-0.3557176872152223,0.2651364541901625,0.8961961769930453,,0.010969302380675422,0.723062172756356,1.199261890577288,0.997809055471196,-0.06405524229169728,-0.016553391031193625,-0.0386668677048926,-0.7676425820589852,0.639710668624267,-0.0536839097083286,-0.6376690302537565,-0.768437535323244,,0.16895252642198977,0.6195600418033171,-0.43237483072294713,0.8798353161381622,-0.46790839864276634,-0.08337593750970371,-0.29446590438948805,-0.6743610574834693,0.6771462141235507,-0.37306788608528185,-0.5712257825320375,-0.7311097439800129,,0.0,0.0,0.045,1.0,0.0,0.0,0.0,1.0,0.0,0.0,0.0,1.0,,-0.007070943727902147,-0.1730894113711754,0.25860119218090627,False,,0.11715577397365064,0.5329750125010175,-0.37049079151358827,-0.34752617411076886,-0.59293986314856,-0.7263937479062572,0.7125267075434406,0.33658786608895147,-0.6156413724230941,0.6095336326612637,-0.7315264363582862,0.30551239510650047
13:02:53.534326,,-0.4053894167666672,-0.41431689596927074,0.07247946277,-2.351941629580747,-0.05392487031779605,0.37580136152711996,,0.11715361434773562,0.5329691451157309,-0.37049930679336207,-0.33806516463260283,-0.5435459170971109,-0.7682901668438766,0.7196994420246784,0.3767122742785698,-0.5831985730068568,0.606419539272357,-0.7500971259876472,0.2638363962264758,,0.00848490368083282,0.27970268256697367,-0.07440032802272323,0.7560442392060976,-0.4820836694424795,0.4427103387211602,0.5494197953252631,0.8350441495221205,-0.028968204018920862,-0.35571758019315863,0.26513506745847487,0.8961966297279692,,0.010969302380675422,0.723062172756356,1.199261890577288,0.997809055471196,-0.06405524229169728,-0.016553391031193625,-0.0386668677048926,-0.7676425820589852,0.639710668624267,-0.0536839097083286,-0.6376690302537565,-0.768437535323244,,0.16895252642198977,0.6195600418033171,-0.43237483072294713,0.8798353161381622,-0.46790839864276634,-0.08337593750970371,-0.29446590438948805,-0.6743610574834693,0.6771462141235507,-0.37306788608528185,-0.5712257825320375,-0.7311097439800129,,0.0,0.0,0.045,1.0,0.0,0.0,0.0,1.0,0.0,0.0,0.0,1.0,,-0.007070943727902147,-0.1730894113711754,0.25860119218090627,False,,0.11715361434773562,0.5329691451157309,-0.37049930679336207,-0.34853954711520235,-0.5950130786568518,-0.7242096521892161,0.7115788401652333,0.3349287283085234,-0.6176392969871145,0.6100620774362486,-0.7306039851937101,0.30666280911326377
13:02:53.546887,,-0.40541258496528987,-0.41431689596927074,0.07247946277,-2.351731953051409,-0.054327294723152744,0.3753164937752525,,0.11714990134538397,0.5329735765467953,-0.37049662033378294,-0.33831834025529683,-0.543333075739948,-0.7683292715066042,0.7196268156786633,0.3767259327840296,-0.5832793650766244,0.6063645329363258,-0.7502444537448916,0.2635437588370113,,0.008484903680832817,0.27970268256697367,-0.07440032802272323,0.7560442392060976,-0.4820836694424795,0.44271033872116017,0.5494197953252631,0.8350441495221205,-0.028968204018920904,-0.3557175801931586,0.2651350674584748,0.8961966297279692,,0.010969302380675422,0.723062172756356,1.199261890577288,0.997809055471196,-0.06405524229169728,-0.016553391031193625,-0.0386668677048926,-0.7676425820589852,0.639710668624267,-0.0536839097083286,-0.6376690302537565,-0.768437535323244,,0.16895252642198977,0.6195600418033171,-0.43237483072294713,0.8798353161381622,-0.46790839864276634,-0.08337593750970371,-0.29446590438948805,-0.6743610574834693,0.6771462141235507,-0.37306788608528185,-0.5712257825320375,-0.7311097439800129,,0.0,0.0,0.045,1.0,0.0,0.0,0.0,1.0,0.0,0.0,0.0,1.0,,-0.007070943727902147,-0.1730894113711754,0.25860119218090627,False,,0.11714990134538397,0.5329735765467953,-0.37049662033378294,-0.34852792613746497,-0.5952207935955898,-0.7240445370098129,0.7118884347193275,0.3343925483211782,-0.61757305652055,0.6097074226341547,-0.7306803887464786,0.307185657682958
13:02:53.559657,,-0.40547436682828364,-0.41431689596927074,0.07247946277,-2.3515222765220716,-0.05741254849755401,0.37681121874406887,,0.11714378939760015,0.5329831117429782,-0.3704894938296445,-0.3390652118433019,-0.5433854884904921,-0.7679628851810523,0.7194122223531391,0.3762494721347691,-0.5838513415649785,0.6062019766105803,-0.7504455647255549,0.263345054894085,,0.00848396913356923,0.2797014941885387,-0.07439991867966857,0.7560479579022784,-0.48208210121306283,0.4427056956011976,0.5494189079699526,0.8350445268379546,-0.028974154673240368,-0.355711046768085,0.2651367303183818,0.8961987309292389,,0.010969302380675422,0.723062172756356,1.199261890577288,0.997809055471196,-0.06405524229169728,-0.016553391031193625,-0.0386668677048926,-0.7676425820589852,0.639710668624267,-0.0536839097083286,-0.6376690302537565,-0.768437535323244,,0.16895252642198977,0.6195600418033171,-0.43237483072294713,0.8798353161381622,-0.46790839864276634,-0.08337593750970371,-0.29446590438948805,-0.6743610574834693,0.6771462141235507,-0.37306788608528185,-0.5712257825320375,-0.7311097439800129,,0.0,0.0,0.045,1.0,0.0,0.0,0.0,1.0,0.0,0.0,0.0,1.0,,-0.007070943727902147,-0.1730894113711754,0.25860119218090627,False,,0.11714378939760015,0.5329831117429782,-0.3704894938296445,-0.34803904237571587,-0.5947238009870018,-0.7246878124556584,0.712647379959961,0.3344052714712916,-0.6166902190309286,0.6090997757497516,-0.7310791441094354,0.3074422681249565
13:02:53.571682,,-0.4054898122940321,-0.41432461870214493,0.07248075906000001,-2.3515222765220716,-0.05848568024517184,0.37838830657451483,,0.11713388214048968,0.5329992651608133,-0.3704771661744505,-0.3403387177625559,-0.5435355654738656,-0.7672930641265725,0.7190451267914241,0.37538921114100804,-0.5848564317817123,0.6059238094259413,-0.7507676266488432,0.263067116810176,,0.008480685701740313,0.27969557719071736,-0.0743985332083231,0.7560633269114865,-0.4820729836096289,0.4426893738162357,0.5494152588168453,0.8350458982702686,-0.0290037700615743,-0.35568401228522945,0.265148984105684,0.8962058341413373,,0.010969302380675422,0.723062172756356,1.199261890577288,0.997809055471196,-0.06405524229169728,-0.016553391031193625,-0.0386668677048926,-0.7676425820589852,0.639710668624267,-0.0536839097083286,-0.6376690302537565,-0.768437535323244,,0.16895252642198977,0.6195600418033171,-0.43237483072294713,0.8798353161381622,-0.46790839864276634,-0.08337593750970371,-0.29446590438948805,-0.6743610574834693,0.6771462141235507,-0.37306788608528185,-0.5712257825320375,-0.7311097439800129,,0.0,0.0,0.045,1.0,0.0,0.0,0.0,1.0,0.0,0.0,0.0,1.0,,-0.007070943727902147,-0.1730894113711754,0.25860119218090627,False,,0.11713388214048968,0.5329992651608133,-0.3704771661744505,-0.34735388908472287,-0.5936961839035242,-0.7258581934208024,0.713986561140121,0.33436755590588163,-0.6151597581676093,0.6079214309834966,-0.7319311298038361,0.30774722577962865
13:02:53.584375,,-0.4055052577597806,-0.41432461870214493,0.07248075906000001,-2.351941629580747,-0.05915638758743299,0.3807257887330292,,0.11712274842433626,0.5330145318393188,-0.37046470038895013,-0.3417658314118387,-0.5448150803482585,-0.7657497271984465,0.7186319708274806,0.37357215213674655,-0.5865253086206345,0.6056106067300884,-0.7507465453620417,0.2638473377598761,,0.00847593598148956,0.2796856873676623,-0.07439656953702328,0.7560873180513792,-0.4820570395125093,0.4426657562962367,0.5494095733726023,0.8350479161512865,-0.029053262758950274,-0.35564178864050733,0.26517160867415757,0.8962158946284939,,0.010969302380675422,0.723062172756356,1.199261890577288,0.997809055471196,-0.06405524229169728,-0.016553391031193625,-0.0386668677048926,-0.7676425820589852,0.639710668624267,-0.0536839097083286,-0.6376690302537565,-0.768437535323244,,0.16895252642198977,0.6195600418033171,-0.43237483072294713,0.8798353161381622,-0.46790839864276634,-0.08337593750970371,-0.29446590438948805,-0.6743610574834693,0.6771462141235507,-0.37306788608528185,-0.5712257825320375,-0.7311097439800129,,0.0,0.0,0.045,1.0,0.0,0.0,0.0,1.0,0.0,0.0,0.0,1.0,,-0.007070943727902147,-0.1730894113711754,0.25860119218090627,False,,0.11712274842433626,0.5330145318393188,-0.37046470038895013,-0.34615523788776537,-0.5906815779788139,-0.7288839583358402,0.7152698790126781,0.3365836936464858,-0.6124544206293863,0.6070959985538147,-0.7333530463615372,0.305986532272582
13:02:53.596861,,-0.4055129804926548,-0.41432461870214493,0.07248075906000001,-2.352360982639422,-0.060229519335050816,0.38381827273257996,,0.11711829356568149,0.5330231786778568,-0.37045753698211065,-0.34266564269774646,-0.5458419746671908,-0.7646154562954913,0.7183705018388941,0.37225246071702134,-0.5876835267198309,0.6054123218123959,-0.7506561424390963,0.264558644568987,,0.008469174518081277,0.27967058169585546,-0.07439380628703668,0.7561228253880867,-0.48203221710793454,0.442632130181515,0.5494011641975238,0.835050812095397,-0.029128852862812138,-0.35557927636101355,0.2652075997416117,0.8962300459891706,,0.010969302380675422,0.723062172756356,1.199261890577288,0.997809055471196,-0.06405524229169728,-0.016553391031193625,-0.0386668677048926,-0.7676425820589852,0.639710668624267,-0.0536839097083286,-0.6376690302537565,-0.768437535323244,,0.16895252642198977,0.6195600418033171,-0.43237483072294713,0.8798353161381622,-0.46790839864276634,-0.08337593750970371,-0.29446590438948805,-0.6743610574834693,0.6771462141235507,-0.37306788608528185,-0.5712257825320375,-0.7311097439800129,,0.0,0.0,0.045,1.0,0.0,0.0,0.0,1.0,0.0,0.0,0.0,1.0,,-0.007070943727902147,-0.1730894113711754,0.25860119218090627,False,,0.11711829356568149,0.5330231786778568,-0.37045753698211065,-0.3453214448731587,-0.5884329291576319,-0.7310949237914891,0.7159819863848668,0.3384509416540248,-0.6105904971958576,0.6067313201764802,-0.7343007884896171,0.3044330092818979
13:02:53.610129,,-0.40554387142415166,-0.4143323414350192,0.07247946277,-2.35257065916876,-0.06358305604635654,0.39233712789884145,,0.11711026948280255,0.5330370620152071,-0.37044683848870497,-0.34404300508953795,-0.5472063903631113,-0.7630200370860091,0.7179688107118022,0.370383219673869,-0.589353083837778,0.6051075916678295,-0.7505873945982526,0.2654493653715647,,0.008458232434457785,0.27964374663365554,-0.07438941161667707,0.7561834303359732,-0.48198710449090015,0.44257770212962844,0.5493868216399046,0.8350555437869599,-0.029263127509068065,-0.3554725186653219,0.26527465300643865,0.8962525417417736,,0.010969302380675422,0.723062172756356,1.199261890577288,0.997809055471196,-0.06405524229169728,-0.016553391031193625,-0.0386668677048926,-0.7676425820589852,0.639710668624267,-0.0536839097083286,-0.6376690302537565,-0.768437535323244,,0.16895252642198977,0.6195600418033171,-0.43237483072294713,0.8798353161381622,-0.46790839864276634,-0.08337593750970371,-0.29446590438948805,-0.6743610574834693,0.6771462141235507,-0.37306788608528185,-0.5712257825320375,-0.7311097439800129,,0.0,0.0,0.045,1.0,0.0,0.0,0.0,1.0,0.0,0.0,0.0,1.0,,-0.007070943727902147,-0.1730894113711754,0.25860119218090627,False,,0.11711026948280255,0.5330370620152071,-0.37044683848870497,-0.3443537262413309,-0.58524980152869,-0.7341002527137145,0.7171749898459518,0.34062764603207263,-0.6079743750341029,0.6058717233566603,-0.7358365827881066,0.30243012129672614
13:02:53.622338,,-0.4055593168899001,-0.4143323414350192,0.07248075906000001,-2.3527803356980974,-0.06452204632552215,0.39708367010343626,,0.11710350143043716,0.5330512816509492,-0.37043699949010783,-0.34532012147593194,-0.5487007761888644,-0.7613681579325375,0.7175947809901159,0.3684632906977102,-0.5910097577062178,0.6048237296928711,-0.7504413778690195,0.2665070250151998,,0.008447861174668657,0.2796150718870827,-0.07438534652123771,0.7562451529686042,-0.4819376457212713,0.44252609328153564,0.5493722287223409,0.8350601029465888,-0.029406593858657126,-0.355363745909776,0.2653501443194605,0.896273327724027,,0.010969302380675422,0.723062172756356,1.199261890577288,0.997809055471196,-0.06405524229169728,-0.016553391031193625,-0.0386668677048926,-0.7676425820589852,0.639710668624267,-0.0536839097083286,-0.6376690302537565,-0.768437535323244,,0.16895252642198977,0.6195600418033171,-0.43237483072294713,0.8798353161381622,-0.46790839864276634,-0.08337593750970371,-0.29446590438948805,-0.6743610574834693,0.6771462141235507,-0.37306788608528185,-0.5712257825320375,-0.7311097439800129,,0.0,0.0,0.045,1.0,0.0,0.0,0.0,1.0,0.0,0.0,0.0,1.0,,-0.007070943727902147,-0.1730894113711754,0.25860119218090627,False,,0.11710350143043716,0.5330512816509492,-0.37043699949010783,-0.34361573988796534,-0.5817934276365675,-0.7371869714394989,0.7182948096421866,0.342856064060554,-0.6053943225518393,0.6049634614936189,-0.7375405933884586,0.3000884592280405
13:02:53.635083,,-0.4055593168899001,-0.4143400641678934,0.07247946277,-2.3536190418154486,-0.06492447073087883,0.4032114401803899,,0.11709746840527141,0.5330620601916354,-0.37042860193852867,-0.34663166916489174,-0.5526059717693874,-0.757940054289765,0.7172090884165331,0.36462753878366505,-0.5938500496365159,0.6045309003059204,-0.7494487293506993,0.2699425728741866,,0.008439682764184402,0.2795898280296235,-0.07438222361109688,0.7562972985710392,-0.48189320182976386,0.44248538078209504,0.5493599098535752,0.8350637533392908,-0.02953288516275951,-0.3552718109015813,0.26541937361583734,0.8962892783524505,,0.010969302380675422,0.723062172756356,1.199261890577288,0.997809055471196,-0.06405524229169728,-0.016553391031193625,-0.0386668677048926,-0.7676425820589852,0.639710668624267,-0.0536839097083286,-0.6376690302537565,-0.768437535323244,,0.16895252642198977,0.6195600418033171,-0.43237483072294713,0.8798353161381622,-0.46790839864276634,-0.08337593750970371,-0.29446590438948805,-0.6743610574834693,0.6771462141235507,-0.37306788608528185,-0.5712257825320375,-0.7311097439800129,,0.0,0.0,0.045,1.0,0.0,0.0,0.0,1.0,0.0,0.0,0.0,1.0,,-0.007070943727902147,-0.1730894113711754,0.25860119218090627,False,,0.11709746840527141,0.5330620601916354,-0.37042860193852867,-0.34214476007014083,-0.5739283252724585,-0.7440048659830774,0.7191343488007276,0.3496965622326831,-0.6004649055003938,0.6047997615173963,-0.7404853758262849,0.2930847260706472
13:02:53.647131,,-0.40556703962277435,-0.4143400641678934,0.07247946277,-2.3542480714034615,-0.06505861219933107,0.41009870583757324,,0.11709663194654762,0.533063507341671,-0.37042744383469056,-0.3470281405336556,-0.5551685244936073,-0.7558831782023889,0.7170921810479252,0.36237338880363923,-0.5953690712212856,0.6044421176239152,-0.7486477385917609,0.2723532447828731,,0.008432749891248106,0.2795683680578237,-0.07437957956597946,0.7563415795414914,-0.481855406381308,0.4424508662635624,0.5493494428726861,0.8350668428980652,-0.029640245736462012,-0.3551937377428574,0.2654782889295335,0.8963027799995356,,0.010969302380675422,0.723062172756356,1.199261890577288,0.997809055471196,-0.06405524229169728,-0.016553391031193625,-0.0386668677048926,-0.7676425820589852,0.639710668624267,-0.0536839097083286,-0.6376690302537565,-0.768437535323244,,0.16895252642198977,0.6195600418033171,-0.43237483072294713,0.8798353161381622,-0.46790839864276634,-0.08337593750970371,-0.29446590438948805,-0.6743610574834693,0.6771462141235507,-0.37306788608528185,-0.5712257825320375,-0.7311097439800129,,0.0,0.0,0.045,1.0,0.0,0.0,0.0,1.0,0.0,0.0,0.0,1.0,,-0.007070943727902147,-0.1730894113711754,0.25860119218090627,False,,0.11709663194654762,0.533063507341671,-0.37042744383469056,-0.34156846578489247,-0.568994234562703,-0.7480484905510862,0.7191763837648657,0.3541747198674505,-0.5977839048031519,0.6050754599355732,-0.7421629395498113,0.28823230031094343
13:02:53.659777,,-0.4055747623556486,-0.4143477869007676,0.07247946277,-2.3542480714034615,-0.06505861219933107,0.42353062642736605,,0.11709584814914652,0.5330641588430054,-0.37042735276494315,-0.3472389104264325,-0.5580069289965272,-0.7536931778102604,0.7170299717695388,0.36000259351977243,-0.5968803500226926,0.6043948698243875,-0.7476806804050125,0.27510078422109124,,0.00842838737779231,0.27955182556696273,-0.07437800986417165,0.7563734582444501,-0.48182533633789215,0.442429130962515,0.5493419242408468,0.835068855134907,-0.029722995358434395,-0.3551374958135691,0.26552655506482015,0.896310775691509,,0.010969302380675422,0.723062172756356,1.199261890577288,0.997809055471196,-0.06405524229169728,-0.016553391031193625,-0.0386668677048926,-0.7676425820589852,0.639710668624267,-0.0536839097083286,-0.6376690302537565,-0.768437535323244,,0.16895252642198977,0.6195600418033171,-0.43237483072294713,0.8798353161381622,-0.46790839864276634,-0.08337593750970371,-0.29446590438948805,-0.6743610574834693,0.6771462141235507,-0.37306788608528185,-0.5712257825320375,-0.7311097439800129,,0.0,0.0,0.045,1.0,0.0,0.0,0.0,1.0,0.0,0.0,0.0,1.0,,-0.007070943727902147,-0.1730894113711754,0.25860119218090627,False,,0.11709584814914652,0.5330641588430054,-0.37042735276494315,-0.34150907990779145,-0.5633406813085677,-0.7523422260669227,0.719265070074036,0.35861832559111645,-0.5950215588712868,0.6050035597514497,-0.7443387490471143,0.28271986020626716
13:02:53.671187,,-0.4055747623556486,-0.4143477869007676,0.07247816648000001,-2.3542480714034615,-0.0647903292624266,0.4253922283123992,,0.11709563414364375,0.5330635791878026,-0.37042817875391293,-0.3471949545365579,-0.560263294196649,-0.7520377016614771,0.7170429488813449,0.35823923532498836,-0.5979247943791197,0.6044047261594688,-0.7468398030700338,0.2773539895988711,,0.008429127808215177,0.2795497421411809,-0.0743784261320038,0.7563745140434164,-0.4818203162537581,0.44243279367213567,0.5493417041598091,0.8350686296857976,-0.029733404636824723,-0.35513558839153075,0.26553637439271655,0.8963086227957358,,0.010969302380675422,0.723062172756356,1.199261890577288,0.997809055471196,-0.06405524229169728,-0.016553391031193625,-0.0386668677048926,-0.7676425820589852,0.639710668624267,-0.0536839097083286,-0.6376690302537565,-0.768437535323244,,0.16895252642198977,0.6195600418033171,-0.43237483072294713,0.8798353161381622,-0.46790839864276634,-0.08337593750970371,-0.29446590438948805,-0.6743610574834693,0.6771462141235507,-0.37306788608528185,-0.5712257825320375,-0.7311097439800129,,0.0,0.0,0.045,1.0,0.0,0.0,0.0,1.0,0.0,0.0,0.0,1.0,,-0.007070943727902147,-0.1730894113711754,0.25860119218090627,False,,0.11709563414364375,0.5330635791878026,-0.37042817875391293,-0.3415706551574198,-0.5588867490966678,-0.7556289361978467,0.7191762887029387,0.3621767671440516,-0.5929700288450934,0.6050743370056265,-0.7459715752126497,0.2782291423844021
13:02:53.682678,,-0.40559020782139704,-0.4143555096336418,0.07247816648000001,-2.354457747932799,-0.0647903292624266,0.4256677548886001,,0.11709718001961793,0.5330624673822679,-0.37043058959362996,-0.34701363505717864,-0.5610044777421787,-0.7515687014755396,0.7170964608539432,0.357761720575005,-0.598146484669066,0.6044453680153007,-0.7465122418583887,0.27814613037108804,,0.008430998120368937,0.27955211876827457,-0.07437924293853505,0.756367083448641,-0.48182344720451414,0.44244208624193054,0.5493434849616436,0.8350678814367588,-0.029721504027830303,-0.35514865828882064,0.2655330450159429,0.8963044300900048,,0.010969302380675422,0.723062172756356,1.199261890577288,0.997809055471196,-0.06405524229169728,-0.016553391031193625,-0.0386668677048926,-0.7676425820589852,0.639710668624267,-0.0536839097083286,-0.6376690302537565,-0.768437535323244,,0.16895252642198977,0.6195600418033171,-0.43237483072294713,0.8798353161381622,-0.46790839864276634,-0.08337593750970371,-0.29446590438948805,-0.6743610574834693,0.6771462141235507,-0.37306788608528185,-0.5712257825320375,-0.7311097439800129,,0.0,0.0,0.045,1.0,0.0,0.0,0.0,1.0,0.0,0.0,0.0,1.0,,-0.007070943727902147,-0.1730894113711754,0.25860119218090627,False,,0.11709718001961793,0.5330624673822679,-0.37043058959362996,-0.3416938317031529,-0.5575169245619231,-0.7565845651366625,0.7189913018511345,0.3633596254068915,-0.5924704975663975,0.605224613873584,-0.7464212359326192,0.2766920767033147
13:02:53.695171,,-0.4056133760200197,-0.4143555096336418,0.07247816648000001,-2.354457747932799,-0.0647903292624266,0.42559887324454987,,0.117093484547844,0.533064337234135,-0.37043107262471386,-0.3470719246154943,-0.5610908096504369,-0.7514773333038818,0.7170792614703833,0.3576569434714328,-0.5982297581663435,0.6044323054840685,-0.7464975647063351,0.2782138996792295,,0.008434946428873293,0.27955860237474345,-0.07438092237166666,0.7563494582012635,-0.48183309219645704,0.4424617109716137,0.5493476922542189,0.8350662672410283,-0.029689049563292158,-0.3551796832963441,0.2655206167389044,0.8962958172350091,,0.010969302380675422,0.723062172756356,1.199261890577288,0.997809055471196,-0.06405524229169728,-0.016553391031193625,-0.0386668677048926,-0.7676425820589852,0.639710668624267,-0.0536839097083286,-0.6376690302537565,-0.768437535323244,,0.16895252642198977,0.6195600418033171,-0.43237483072294713,0.8798353161381622,-0.46790839864276634,-0.08337593750970371,-0.29446590438948805,-0.6743610574834693,0.6771462141235507,-0.37306788608528185,-0.5712257825320375,-0.7311097439800129,,0.0,0.0,0.045,1.0,0.0,0.0,0.0,1.0,0.0,0.0,0.0,1.0,,-0.007070943727902147,-0.1730894113711754,0.25860119218090627,False,,0.117093484547844,0.533064337234135,-0.37043107262471386,-0.3415243543173567,-0.5574052344584944,-0.7567433646926702,0.7189878721359316,0.3636149183680729,-0.5923180149730592,0.605324338788354,-0.7463803291475807,0.2765842532249285
13:02:53.707106,,-0.40563654421864237,-0.4143555096336418,0.07247816648000001,-2.354457747932799,-0.06505861219933107,0.42566595739292284,,0.11709039173441882,0.5330677594427597,-0.3704292079864454,-0.34722446947981817,-0.561081930512603,-0.7514134913925284,0.7170342353736116,0.3575696174079739,-0.5983359207075032,0.604398108118018,-0.7465460708884388,0.27815803232046876,,0.00844014119388039,0.2795688698284937,-0.07438307927199489,0.7563239703604784,-0.48184937842875436,0.4424875403049908,0.5493537579395192,0.8350641007840535,-0.02963766486456179,-0.3552245704551782,0.26549787013970383,0.8962847652701628,,0.010969302380675422,0.723062172756356,1.199261890577288,0.997809055471196,-0.06405524229169728,-0.016553391031193625,-0.0386668677048926,-0.7676425820589852,0.639710668624267,-0.0536839097083286,-0.6376690302537565,-0.768437535323244,,0.16895252642198977,0.6195600418033171,-0.43237483072294713,0.8798353161381622,-0.46790839864276634,-0.08337593750970371,-0.29446590438948805,-0.6743610574834693,0.6771462141235507,-0.37306788608528185,-0.5712257825320375,-0.7311097439800129,,0.0,0.0,0.045,1.0,0.0,0.0,0.0,1.0,0.0,0.0,0.0,1.0,,-0.007070943727902147,-0.1730894113711754,0.25860119218090627,False,,0.11709039173441882,0.5330677594427597,-0.3704292079864454,-0.34140110910739363,-0.5573001657492591,-0.7568763491853145,0.7191839331020433,0.3635742766400727,-0.5921049026427023,0.6051609315447566,-0.7464785801491538,0.2766766638341336
13:02:53.719356,,-0.4056751578830135,-0.41436323236651607,0.07247816648000001,-2.3546674244621366,-0.06532689513623552,0.42580192318534604,,0.117087615505513,0.5330697563176999,-0.3704289069998329,-0.34730491274140096,-0.5610826251685304,-0.7513757950051879,0.7170104825016296,0.35751927558790053,-0.5983944648523105,0.60438006715019,-0.7465696587171844,0.2781339229839443,,0.008446530281081128,0.2795824885712255,-0.07438570252223965,0.7562913100665631,-0.4818714614363207,0.4425193129020227,0.5493615187939688,0.8350614102482885,-0.02956951306287252,-0.3552820982070974,0.2654662484904927,0.8962713288542696,,0.010969302380675422,0.723062172756356,1.199261890577288,0.997809055471196,-0.06405524229169728,-0.016553391031193625,-0.0386668677048926,-0.7676425820589852,0.639710668624267,-0.0536839097083286,-0.6376690302537565,-0.768437535323244,,0.16895252642198977,0.6195600418033171,-0.43237483072294713,0.8798353161381622,-0.46790839864276634,-0.08337593750970371,-0.29446590438948805,-0.6743610574834693,0.6771462141235507,-0.37306788608528185,-0.5712257825320375,-0.7311097439800129,,0.0,0.0,0.045,1.0,0.0,0.0,0.0,1.0,0.0,0.0,0.0,1.0,,-0.007070943727902147,-0.1730894113711754,0.25860119218090627,False,,0.117087615505513,0.5330697563176999,-0.3704289069998329,-0.3411700556631727,-0.557285438622326,-0.7569913691835,0.7192655478718974,0.363708025572083,-0.5919235962343424,0.6051942372191983,-0.7464244181656837,0.2767499290021477
13:02:53.731707,,-0.40569832608163614,-0.41436323236651607,0.07247816648000001,-2.354457747932799,-0.06532689513623552,0.42580192318534604,,0.11708571748639722,0.533071694140523,-0.37042795369707515,-0.34732583874267353,-0.5610853842132212,-0.7513640617996047,0.7170043025909669,0.35750412530141684,-0.5984109210722259,0.604375373263785,-0.7465748401967285,0.278130214427505,,0.008453515845864106,0.27959778300703897,-0.07438856000058512,0.7562550600345236,-0.4818964453231366,0.4425540540572598,0.5493701252228572,0.835058453281135,-0.029492977498927916,-0.35534594452478696,0.2654301908111722,0.8962566954400638,,0.010969302380675422,0.723062172756356,1.199261890577288,0.997809055471196,-0.06405524229169728,-0.016553391031193625,-0.0386668677048926,-0.7676425820589852,0.639710668624267,-0.0536839097083286,-0.6376690302537565,-0.768437535323244,,0.16895252642198977,0.6195600418033171,-0.43237483072294713,0.8798353161381622,-0.46790839864276634,-0.08337593750970371,-0.29446590438948805,-0.6743610574834693,0.6771462141235507,-0.37306788608528185,-0.5712257825320375,-0.7311097439800129,,0.0,0.0,0.045,1.0,0.0,0.0,0.0,1.0,0.0,0.0,0.0,1.0,,-0.007070943727902147,-0.1730894113711754,0.25860119218090627,False,,0.11708571748639722,0.533071694140523,-0.37042795369707515,-0.34110840139734316,-0.5572040891070338,-0.7570790325841484,0.7193653867835925,0.36370793234935683,-0.5918023151727682,0.6051103195235078,-0.7464851927724735,0.27676950369865855
13:02:53.743079,,-0.4057292170131331,-0.41436323236651607,0.07247816648000001,-2.3540383948741237,-0.06546103660468774,0.4258699060815576,,0.11708348481411596,0.5330730649443138,-0.3704279095081086,-0.3472232986553944,-0.5611055103408552,-0.7513964247559308,0.7170345810440777,0.3575515654970218,-0.5983462940451565,0.6043983706611151,-0.7465369945794765,0.27818182051750234,,0.008461832270916458,0.2796133388616715,-0.07439175672854785,0.7562156516439134,-0.48192082061080366,0.44259485061497944,0.5493794967310588,0.8350550353871287,-0.029415087394813397,-0.3554153172003352,0.26539668697390617,0.8962391097039752,,0.010969302380675422,0.723062172756356,1.199261890577288,0.997809055471196,-0.06405524229169728,-0.016553391031193625,-0.0386668677048926,-0.7676425820589852,0.639710668624267,-0.0536839097083286,-0.6376690302537565,-0.768437535323244,,0.16895252642198977,0.6195600418033171,-0.43237483072294713,0.8798353161381622,-0.46790839864276634,-0.08337593750970371,-0.29446590438948805,-0.6743610574834693,0.6771462141235507,-0.37306788608528185,-0.5712257825320375,-0.7311097439800129,,0.0,0.0,0.045,1.0,0.0,0.0,0.0,1.0,0.0,0.0,0.0,1.0,,-0.007070943727902147,-0.1730894113711754,0.25860119218090627,False,,0.11708348481411596,0.5330730649443138,-0.3704279095081086,-0.34127992629892495,-0.5571122356368243,-0.75706932893173,0.7193946056537901,0.3635782390239483,-0.591846488090005,0.6049788535656665,-0.7466169171750558,0.2767015824428685
13:02:53.755043,,-0.4057523852117557,-0.41436323236651607,0.07247816648000001,-2.3540383948741237,-0.06546103660468774,0.42586990608155756,,0.11707782510013667,0.5330772920216919,-0.37042691114889525,-0.34723059831094777,-0.5611683128566459,-0.7513461494159976,0.7170324258962161,0.3574970336947616,-0.5983814595329922,0.6043967337850269,-0.7465159044153526,0.2782419677994664,,0.008473985753876387,0.27962858444828903,-0.07439650434188139,0.7561680859750725,-0.48194100449773597,0.4426541351612458,0.5493908659546332,0.8350502427190284,-0.029338677191584464,-0.35549893332787313,0.26537511141297127,0.8962123342624443,,0.010969302380675422,0.723062172756356,1.199261890577288,0.997809055471196,-0.06405524229169728,-0.016553391031193625,-0.0386668677048926,-0.7676425820589852,0.639710668624267,-0.0536839097083286,-0.6376690302537565,-0.768437535323244,,0.16895252642198977,0.6195600418033171,-0.43237483072294713,0.8798353161381622,-0.46790839864276634,-0.08337593750970371,-0.29446590438948805,-0.6743610574834693,0.6771462141235507,-0.37306788608528185,-0.5712257825320375,-0.7311097439800129,,0.0,0.0,0.045,1.0,0.0,0.0,0.0,1.0,0.0,0.0,0.0,1.0,,-0.007070943727902147,-0.1730894113711754,0.25860119218090627,False,,0.11707782510013667,0.5330772920216919,-0.37042691114889525,-0.3415612587914814,-0.5568525401205929,-0.7571335120399985,0.7195490888345845,0.3633189566802912,-0.59181791496546,0.6046362668994463,-0.7469368007254621,0.27658705767246855
13:02:53.766641,,-0.4057755534103784,-0.4143555096336418,0.07247816648000001,-2.3540383948741237,-0.06532689513623552,0.4255952782531953,,0.1170764964102799,0.5330779983507942,-0.37042687483266934,-0.3471612591166903,-0.5610789088800565,-0.7514449535251929,0.7170528955717199,0.35761114078549733,-0.5982887404408571,0.6044122807494288,-0.7465284522347827,0.2781745223474164,,0.008491241168840287,0.27964509336476473,-0.07440364644072534,0.7561071258725253,-0.48195892256780404,0.44273874121930823,0.5494054814009235,0.8350435264248578,-0.02925590191643805,-0.3556059800197342,0.2653636895801801,0.8961732427611221,,0.010969302380675422,0.723062172756356,1.199261890577288,0.997809055471196,-0.06405524229169728,-0.016553391031193625,-0.0386668677048926,-0.7676425820589852,0.639710668624267,-0.0536839097083286,-0.6376690302537565,-0.768437535323244,,0.16895252642198977,0.6195600418033171,-0.43237483072294713,0.8798353161381622,-0.46790839864276634,-0.08337593750970371,-0.29446590438948805,-0.6743610574834693,0.6771462141235507,-0.37306788608528185,-0.5712257825320375,-0.7311097439800129,,0.0,0.0,0.045,1.0,0.0,0.0,0.0,1.0,0.0,0.0,0.0,1.0,,-0.007070943727902147,-0.1730894113711754,0.25860119218090627,False,,0.1170764964102799,0.5330779983507942,-0.37042687483266934,-0.34162060466640554,-0.5570661456872417,-0.7569495833914704,0.7194715146072572,0.3631904519984007,-0.5919910769985787,0.6046950488767865,-0.7468400129253646,0.2767198817532679
13:02:53.778352,,-0.4058064443418753,-0.4143555096336418,0.07247816648000001,-2.353828718344786,-0.06505861219933107,0.42504602259647084,,0.11707454102127954,0.5330777568170635,-0.3704285243418631,-0.3469831896895694,-0.5609305857293589,-0.7516379075500188,0.7171054430488695,0.35783935242511367,-0.5980892754477879,0.6044521896912417,-0.7465305592199784,0.27808213629819784,,0.008513376500959211,0.27966287993309724,-0.0744136530426688,0.7560327650503058,-0.4819745723757483,0.44284866485282504,0.5494233370601258,0.8350348896902797,-0.029166760224337424,-0.35573645451714764,0.26536242158882084,0.8961218278473146,,0.010969302380675422,0.723062172756356,1.199261890577288,0.997809055471196,-0.06405524229169728,-0.016553391031193625,-0.0386668677048926,-0.7676425820589852,0.639710668624267,-0.0536839097083286,-0.6376690302537565,-0.768437535323244,,0.16895252642198977,0.6195600418033171,-0.43237483072294713,0.8798353161381622,-0.46790839864276634,-0.08337593750970371,-0.29446590438948805,-0.6743610574834693,0.6771462141235507,-0.37306788608528185,-0.5712257825320375,-0.7311097439800129,,0.0,0.0,0.045,1.0,0.0,0.0,0.0,1.0,0.0,0.0,0.0,1.0,,-0.007070943727902147,-0.1730894113711754,0.25860119218090627,False,,0.11707454102127954,0.5330777568170635,-0.3704285243418631,-0.34191529455756464,-0.5574221903446299,-0.7565543160005166,0.7193194401539027,0.3628148372971288,-0.592406057408037,0.6047094131599824,-0.7467569186478646,0.27691267592375857
13:02:53.791462,,-0.4058682262048691,-0.4143555096336418,0.07247816648000001,-2.353199688756773,-0.06465618779397438,0.42429102075543434,,0.11707258701396914,0.5330775156591661,-0.3704301736116152,-0.34686247794837477,-0.5607803098201163,-0.7518057365500528,0.7171410477280677,0.3580335260237562,-0.5979303570705248,0.6044792296307643,-0.7465503588915153,0.2779701829044747,,0.008551229133062447,0.27968771560215505,-0.0744303754222673,0.755913420462496,-0.48198999097593237,0.4430355175009839,0.5494520136318556,0.8350203339696267,-0.029042158611341823,-0.35594565018306257,0.2653801252165048,0.8960334835593384,,0.010969302380675422,0.723062172756356,1.199261890577288,0.997809055471196,-0.06405524229169728,-0.016553391031193625,-0.0386668677048926,-0.7676425820589852,0.639710668624267,-0.0536839097083286,-0.6376690302537565,-0.768437535323244,,0.16895252642198977,0.6195600418033171,-0.43237483072294713,0.8798353161381622,-0.46790839864276634,-0.08337593750970371,-0.29446590438948805,-0.6743610574834693,0.6771462141235507,-0.37306788608528185,-0.5712257825320375,-0.7311097439800129,,0.0,0.0,0.045,1.0,0.0,0.0,0.0,1.0,0.0,0.0,0.0,1.0,,-0.007070943727902147,-0.1730894113711754,0.25860119218090627,False,,0.11707258701396914,0.5330775156591661,-0.3704301736116152,-0.3422099561475169,-0.5577779872268822,-0.7561587550763678,0.7191672961020508,0.362438853736769,-0.5928207802694184,0.6047236940378471,-0.7466738205314988,0.27710550265578504
13:02:53.803545,,-0.405899117136366,-0.4143477869007676,0.07247816648000001,-2.3527803356980974,-0.06438790485706991,0.4238795283868103,,0.11707002402054556,0.5330783194097063,-0.3704310368293327,-0.3467823595312938,-0.5607429691582801,-0.7518705458105568,0.717164671657236,0.3581127315626557,-0.5978545853462214,0.6044971702536559,-0.7465404168779407,0.2779578693310069,,0.00859828228626306,0.2797211322804558,-0.07445210401230581,0.7557607698904205,-0.4820139929426531,0.44326971242892177,0.5494886035429493,0.835002034016652,-0.02887466742966406,-0.35621314114692415,0.2653940135915544,0.8959230347963532,,0.010969302380675422,0.723062172756356,1.199261890577288,0.997809055471196,-0.06405524229169728,-0.016553391031193625,-0.0386668677048926,-0.7676425820589852,0.639710668624267,-0.0536839097083286,-0.6376690302537565,-0.768437535323244,,0.16895252642198977,0.6195600418033171,-0.43237483072294713,0.8798353161381622,-0.46790839864276634,-0.08337593750970371,-0.29446590438948805,-0.6743610574834693,0.6771462141235507,-0.37306788608528185,-0.5712257825320375,-0.7311097439800129,,0.0,0.0,0.045,1.0,0.0,0.0,0.0,1.0,0.0,0.0,0.0,1.0,,-0.007070943727902147,-0.1730894113711754,0.25860119218090627,False,,0.11707002402054556,0.5330783194097063,-0.3704310368293327,-0.34261446622432123,-0.557779421671025,-0.755974499764483,0.7191255625896322,0.3620974634428771,-0.5930799711660977,0.6045442521139113,-0.746838365195958,0.2770536112514336
13:02:53.816651,,-0.4059222853349887,-0.4143477869007676,0.07247946277,-2.3527803356980974,-0.06411962192016546,0.4233302727300858,,0.11706655512200002,0.5330768142666942,-0.3704329246248412,-0.34644814744466723,-0.5604694532287827,-0.7522284713633136,0.7172631538182684,0.3585364803599793,-0.5974823515600686,0.6045719554418888,-0.7465424195908145,0.277789788229631,,0.00864999021383282,0.27976136610141283,-0.07447615665787283,0.7555880524684272,-0.48204752219448066,0.4435275820746215,0.5495298765724441,0.8349817985728295,-0.028673080653922392,-0.3565157001719178,0.26539671653220137,0.8958018604204184,,0.010969302380675422,0.723062172756356,1.199261890577288,0.997809055471196,-0.06405524229169728,-0.016553391031193625,-0.0386668677048926,-0.7676425820589852,0.639710668624267,-0.0536839097083286,-0.6376690302537565,-0.768437535323244,,0.16895252642198977,0.6195600418033171,-0.43237483072294713,0.8798353161381622,-0.46790839864276634,-0.08337593750970371,-0.29446590438948805,-0.6743610574834693,0.6771462141235507,-0.37306788608528185,-0.5712257825320375,-0.7311097439800129,,0.0,0.0,0.045,1.0,0.0,0.0,0.0,1.0,0.0,0.0,0.0,1.0,,-0.007070943727902147,-0.1730894113711754,0.25860119218090627,False,,0.11706655512200002,0.5330768142666942,-0.3704329246248412,-0.3432014416163582,-0.5583947025067323,-0.7552536836619013,0.718821003831207,0.36142094709212713,-0.593861316684397,0.6045735149041425,-0.7467062710433384,0.27734565051754995
13:02:53.828867,,-0.4059531762664856,-0.4143555096336418,0.07247946277,-2.3527803356980974,-0.06371719751480877,0.42271303417714967,,0.11706492336046907,0.5330751498593778,-0.37043613681758264,-0.3462334892536504,-0.5602821431163276,-0.7524668039350423,0.7173263522064275,0.35881762063839145,-0.5972376575113325,0.6046199428975715,-0.7465479456969782,0.2776704691287119,,0.0087027199713355,0.27980432526384996,-0.07450034895959215,0.755409519933019,-0.48208583654995696,0.443789976192372,0.5495724291907329,0.834961158991795,-0.028457821856343463,-0.3568283086363732,0.26539206610096433,0.8956787643919547,,0.010969302380675422,0.723062172756356,1.199261890577288,0.997809055471196,-0.06405524229169728,-0.016553391031193625,-0.0386668677048926,-0.7676425820589852,0.639710668624267,-0.0536839097083286,-0.6376690302537565,-0.768437535323244,,0.16895252642198977,0.6195600418033171,-0.43237483072294713,0.8798353161381622,-0.46790839864276634,-0.08337593750970371,-0.29446590438948805,-0.6743610574834693,0.6771462141235507,-0.37306788608528185,-0.5712257825320375,-0.7311097439800129,,0.0,0.0,0.045,1.0,0.0,0.0,0.0,1.0,0.0,0.0,0.0,1.0,,-0.007070943727902147,-0.1730894113711754,0.25860119218090627,False,,0.11706492336046907,0.5330751498593778,-0.37043613681758264,-0.34338833863872437,-0.5588922667216248,-0.754800558482637,0.7185543238063662,0.3611771265452539,-0.5943322025598893,0.6047843687018643,-0.7464519525456931,0.2775704413560813
13:02:53.841405,,-0.4059995126637309,-0.4143555096336418,0.07248075906000001,-2.351941629580747,-0.06331477310945209,0.4219580323361132,,0.11706368034296963,0.5330744578439914,-0.37043782709587275,-0.34599619124997966,-0.5601500418015734,-0.7526742763707306,0.7173961661445415,0.35906870379197087,-0.5970028532245614,0.6046729499833946,-0.746526353605048,0.2776130885450644,,0.008759290663831604,0.27985709128275055,-0.07452582853419029,0.7552092499945886,-0.4821409203234494,0.44407092580682633,0.5496199650711354,0.8349388531222344,-0.02819345698554239,-0.3571788742247763,0.2653622240848326,0.8955478810822659,,0.010969302380675422,0.723062172756356,1.199261890577288,0.997809055471196,-0.06405524229169728,-0.016553391031193625,-0.0386668677048926,-0.7676425820589852,0.639710668624267,-0.0536839097083286,-0.6376690302537565,-0.768437535323244,,0.16895252642198977,0.6195600418033171,-0.43237483072294713,0.8798353161381622,-0.46790839864276634,-0.08337593750970371,-0.29446590438948805,-0.6743610574834693,0.6771462141235507,-0.37306788608528185,-0.5712257825320375,-0.7311097439800129,,0.0,0.0,0.045,1.0,0.0,0.0,0.0,1.0,0.0,0.0,0.0,1.0,,-0.007070943727902147,-0.1730894113711754,0.25860119218090627,False,,0.11706368034296963,0.5330744578439914,-0.37043782709587275,-0.343682876613585,-0.5591485272119013,-0.7544766430045222,0.7183981289342899,0.36088163137320844,-0.5947004090137515,0.6048026195928082,-0.7464029559521945,0.2776624185580461
13:02:53.853295,,-0.40600723539660516,-0.4143477869007676,0.07248075906000001,-2.351312599992734,-0.06304649017254763,0.42147765832343886,,0.11706114685744809,0.533073869202599,-0.37043813643889884,-0.34567550899097427,-0.5600541379134834,-0.7528929572587434,0.7174904287577374,0.3593422575620109,-0.5967249170021942,0.6047445139270541,-0.746466680124587,0.2776176657543763,,0.00879968264760756,0.2799039723155775,-0.07454435032490733,0.7550534447917083,-0.4821991153332854,0.44427266960752465,0.5496567460165884,0.8349225513272946,-0.02795873966761965,-0.35745160979754365,0.26530782637748007,0.8954551916183338,,0.010969302380675422,0.723062172756356,1.199261890577288,0.997809055471196,-0.06405524229169728,-0.016553391031193625,-0.0386668677048926,-0.7676425820589852,0.639710668624267,-0.0536839097083286,-0.6376690302537565,-0.768437535323244,,0.16895252642198977,0.6195600418033171,-0.43237483072294713,0.8798353161381622,-0.46790839864276634,-0.08337593750970371,-0.29446590438948805,-0.6743610574834693,0.6771462141235507,-0.37306788608528185,-0.5712257825320375,-0.7311097439800129,,0.0,0.0,0.045,1.0,0.0,0.0,0.0,1.0,0.0,0.0,0.0,1.0,,-0.007070943727902147,-0.1730894113711754,0.25860119218090627,False,,0.11706114685744809,0.533073869202599,-0.37043813643889884,-0.3442586147657304,-0.559183080657928,-0.7541884966409195,0.7183701257361373,0.3603283840442586,-0.5950695909739466,0.6045083693460557,-0.7466443182385861,0.2776542696099057
13:02:53.865890,,-0.40601495812947935,-0.4143477869007676,0.07248075906000001,-2.351102923463396,-0.06277820723564317,0.42106616595481483,,0.1170615481322913,0.5330710799188987,-0.37044106565782153,-0.345016502132474,-0.5598262113532123,-0.7533646038527302,0.7176838395115465,0.3599281443939253,-0.5961389413359192,0.6048913288849803,-0.7463553737697974,0.2775970754253518,,0.008827983289448131,0.279942229511713,-0.07455677959530715,0.7549373880879244,-0.48225130269121863,0.4444132742906818,0.5496840312148682,0.8349110050405693,-0.027767188112552174,-0.3576547820741587,0.2652493769284458,0.8953914016477469,,0.010969302380675422,0.723062172756356,1.199261890577288,0.997809055471196,-0.06405524229169728,-0.016553391031193625,-0.0386668677048926,-0.7676425820589852,0.639710668624267,-0.0536839097083286,-0.6376690302537565,-0.768437535323244,,0.16895252642198977,0.6195600418033171,-0.43237483072294713,0.8798353161381622,-0.46790839864276634,-0.08337593750970371,-0.29446590438948805,-0.6743610574834693,0.6771462141235507,-0.37306788608528185,-0.5712257825320375,-0.7311097439800129,,0.0,0.0,0.045,1.0,0.0,0.0,0.0,1.0,0.0,0.0,0.0,1.0,,-0.007070943727902147,-0.1730894113711754,0.25860119218090627,False,,0.1170615481322913,0.5330710799188987,-0.37044106565782153,-0.3451880372981344,-0.5596202308708047,-0.7534390593182498,0.7180816747083434,0.3594322980644511,-0.5959590015732361,0.6043210465922255,-0.7467486995691488,0.2777813030739513
13:02:53.877687,,-0.4060304035952278,-0.4143477869007676,0.07248075906000001,-2.351102923463396,-0.06264406576719093,0.42072265648240237,,0.11706063539052294,0.5330709548185848,-0.37044184864469026,-0.34480661636128984,-0.5596996320980169,-0.753554722062587,0.7177453537192643,0.3601572316607329,-0.5959264851446738,0.6049380170958727,-0.7463397954764448,0.2775372140097468,,0.00884360088359011,0.2799703889368013,-0.07456344079906804,0.7548639559212391,-0.48229474527793154,0.44449089973766936,0.5497011968465899,0.8349044004845168,-0.027626245825054463,-0.357783419763597,0.26519124033469677,0.8953572492661133,,0.010969302380675422,0.723062172756356,1.199261890577288,0.997809055471196,-0.06405524229169728,-0.016553391031193625,-0.0386668677048926,-0.7676425820589852,0.639710668624267,-0.0536839097083286,-0.6376690302537565,-0.768437535323244,,0.16895252642198977,0.6195600418033171,-0.43237483072294713,0.8798353161381622,-0.46790839864276634,-0.08337593750970371,-0.29446590438948805,-0.6743610574834693,0.6771462141235507,-0.37306788608528185,-0.5712257825320375,-0.7311097439800129,,0.0,0.0,0.045,1.0,0.0,0.0,0.0,1.0,0.0,0.0,0.0,1.0,,-0.007070943727902147,-0.1730894113711754,0.25860119218090627,False,,0.11706063539052294,0.5330709548185848,-0.37044184864469026,-0.34524955161757837,-0.5598869777181358,-0.7532126653804441,0.7179964150645187,0.3592664416943277,-0.5961616993960578,0.604387206236499,-0.7466285529324123,0.27796026493672005
13:02:53.889162,,-0.4060458490609763,-0.4143400641678934,0.07248075906000001,-2.351102923463396,-0.06250992429873871,0.4203791470099899,,0.11706001611552078,0.5330712106325237,-0.3704418542685079,-0.3446109744522348,-0.5595715882914243,-0.7537392877275896,0.7178026564015986,0.3603785859219302,-0.5957236114774356,0.6049815061222035,-0.7463289572205563,0.2774715568561712,,0.008848587889681778,0.27998904252637935,-0.07456529236810916,0.7548276575417866,-0.4823286898426674,0.4445157346023589,0.5497095843107854,0.8349019741194029,-0.027532934330118553,-0.3578471409293111,0.2651371805511613,0.8953478068117094,,0.010969302380675422,0.723062172756356,1.199261890577288,0.997809055471196,-0.06405524229169728,-0.016553391031193625,-0.0386668677048926,-0.7676425820589852,0.639710668624267,-0.0536839097083286,-0.6376690302537565,-0.768437535323244,,0.16895252642198977,0.6195600418033171,-0.43237483072294713,0.8798353161381622,-0.46790839864276634,-0.08337593750970371,-0.29446590438948805,-0.6743610574834693,0.6771462141235507,-0.37306788608528185,-0.5712257825320375,-0.7311097439800129,,0.0,0.0,0.045,1.0,0.0,0.0,0.0,1.0,0.0,0.0,0.0,1.0,,-0.007070943727902147,-0.1730894113711754,0.25860119218090627,False,,0.11706001611552078,0.5330712106325237,-0.3704418542685079,-0.3453088507104531,-0.560156889342318,-0.752984765412531,0.7179149276636742,0.3590954008085364,-0.5963628507509655,0.6044501255345123,-0.7465083739922111,0.2781461725438938
13:02:53.902271,,-0.40606901725959893,-0.4143477869007676,0.07247946277,-2.351102923463396,-0.06224164136183426,0.419692128065165,,0.11705937585579322,0.5330716570979356,-0.37044408864136025,-0.3444312252281048,-0.5594925785640428,-0.7538800870295123,0.7178552728302997,0.3605513194546228,-0.595555667682935,0.6050214362794121,-0.7463047638674759,0.2774495649142532,,0.008830533627627705,0.2799834534841298,-0.07455624142532281,0.7548772019148007,-0.48233471125385485,0.4444250334157088,0.5496977517867873,0.834908825898022,-0.027560988656982116,-0.35776076599795714,0.26510460715509865,0.895391956382962,,0.010969302380675422,0.723062172756356,1.199261890577288,0.997809055471196,-0.06405524229169728,-0.016553391031193625,-0.0386668677048926,-0.7676425820589852,0.639710668624267,-0.0536839097083286,-0.6376690302537565,-0.768437535323244,,0.16895252642198977,0.6195600418033171,-0.43237483072294713,0.8798353161381622,-0.46790839864276634,-0.08337593750970371,-0.29446590438948805,-0.6743610574834693,0.6771462141235507,-0.37306788608528185,-0.5712257825320375,-0.7311097439800129,,0.0,0.0,0.045,1.0,0.0,0.0,0.0,1.0,0.0,0.0,0.0,1.0,,-0.007070943727902147,-0.1730894113711754,0.25860119218090627,False,,0.11705937585579322,0.5330716570979356,-0.37044408864136025,-0.34537257073702277,-0.5604202127057211,-0.7527595715587911,0.7178258633357665,0.35893442516804963,-0.5965669353522232,0.6045194929104949,-0.7463881454177554,0.27831801786999333
13:02:53.913977,,-0.4060921854582216,-0.4143400641678934,0.07248075906000001,-2.351102923463396,-0.06224164136183426,0.41955436477706454,,0.11705916751581606,0.533071079609018,-0.37044491415238634,-0.34429587954382884,-0.5594070596376132,-0.7540053640105893,0.7178948715840648,0.36070187959314903,-0.5954167510334828,0.6050514859765574,-0.74629611796228,0.27740728835412815,,0.008802164703006446,0.2799643561487194,-0.07454264734253907,0.7549684656116787,-0.4823225986668092,0.444283089296866,0.5496761063808955,0.8349198900312301,-0.027656680786035392,-0.357601357231498,0.2650917289042762,0.8954594246869346,,0.010969302380675422,0.723062172756356,1.199261890577288,0.997809055471196,-0.06405524229169728,-0.016553391031193625,-0.0386668677048926,-0.7676425820589852,0.639710668624267,-0.0536839097083286,-0.6376690302537565,-0.768437535323244,,0.16895252642198977,0.6195600418033171,-0.43237483072294713,0.8798353161381622,-0.46790839864276634,-0.08337593750970371,-0.29446590438948805,-0.6743610574834693,0.6771462141235507,-0.37306788608528185,-0.5712257825320375,-0.7311097439800129,,0.0,0.0,0.045,1.0,0.0,0.0,0.0,1.0,0.0,0.0,0.0,1.0,,-0.007070943727902147,-0.1730894113711754,0.25860119218090627,False,,0.11705916751581606,0.533071079609018,-0.37044491415238634,-0.34543409318992824,-0.5606921700057871,-0.7525287886561242,0.7177368627880164,0.3587684880537465,-0.596773799504339,0.6045900123697613,-0.746263668199002,0.2784985717537912
13:02:53.927145,,-0.40610763092397006,-0.4143400641678934,0.07248075906000001,-2.351102923463396,-0.06224164136183426,0.41955436477706454,,0.11705537466891756,0.5330727721218554,-0.3704432519503229,-0.3443211754593024,-0.5593918446936842,-0.754005100924736,0.7178874719265635,0.36069838253757225,-0.5954277911599916,0.6050458708075046,-0.7463092126759365,0.2773843061418798,,0.008766211981349864,0.279936395515044,-0.07452568852161318,0.7551093474408306,-0.48226750400977125,0.4441033949979325,0.5496125302966939,0.8349570468009537,-0.0277973740363595,-0.3574015072902884,0.2650748611970528,0.8955441798219754,,0.010969302380675422,0.723062172756356,1.199261890577288,0.997809055471196,-0.06405524229169728,-0.016553391031193625,-0.0386668677048926,-0.7676425820589852,0.639710668624267,-0.0536839097083286,-0.6376690302537565,-0.768437535323244,,0.16895252642198977,0.6195600418033171,-0.43237483072294713,0.8798353161381622,-0.46790839864276634,-0.08337593750970371,-0.29446590438948805,-0.6743610574834693,0.6771462141235507,-0.37306788608528185,-0.5712257825320375,-0.7311097439800129,,0.0,0.0,0.045,1.0,0.0,0.0,0.0,1.0,0.0,0.0,0.0,1.0,,-0.007070943727902147,-0.1730894113711754,0.25860119218090627,False,,0.11705537466891756,0.5330727721218554,-0.3704432519503229,-0.34543179150014097,-0.5607717416931128,-0.7524705516759286,0.717759188763587,0.3586800772176651,-0.5968000914481898,0.6045648223031513,-0.7462463774957994,0.27859956875048547
13:02:53.938728,,-0.4061153536568443,-0.4143400641678934,0.07248075906000001,-2.351102923463396,-0.06224164136183426,0.41955436477706454,,0.11705467056737584,0.5330732248977079,-0.37044320976364054,-0.3443125563409441,-0.5594308056259938,-0.7539801305489526,0.7178899932906472,0.36067290042672173,-0.595440187114483,0.6050477841287568,-0.7462923238345867,0.27742556894859877,,0.008724759242921282,0.2799021387268738,-0.07450629300550968,0.7552915985894757,-0.4821727370927517,0.44389629605415826,0.5495089341302833,0.8350194415290721,-0.027970207819017587,-0.3571755889714704,0.26505066085358703,0.8956414543610196,,0.010969302380675422,0.723062172756356,1.199261890577288,0.997809055471196,-0.06405524229169728,-0.016553391031193625,-0.0386668677048926,-0.7676425820589852,0.639710668624267,-0.0536839097083286,-0.6376690302537565,-0.768437535323244,,0.16895252642198977,0.6195600418033171,-0.43237483072294713,0.8798353161381622,-0.46790839864276634,-0.08337593750970371,-0.29446590438948805,-0.6743610574834693,0.6771462141235507,-0.37306788608528185,-0.5712257825320375,-0.7311097439800129,,0.0,0.0,0.045,1.0,0.0,0.0,0.0,1.0,0.0,0.0,0.0,1.0,,-0.007070943727902147,-0.1730894113711754,0.25860119218090627,False,,0.11705467056737584,0.5330732248977079,-0.37044320976364054,-0.3454317736152877,-0.5607662729307482,-0.7524746353999943,0.7177628971278526,0.3586798546288345,-0.5967957652246453,0.6045604298030334,-0.7462505939875664,0.27859780632585013
13:02:53.950548,,-0.4061153536568443,-0.4143400641678934,0.07248075906000001,-2.351312599992734,-0.06224164136183426,0.41955436477706454,,0.1170547848237154,0.5330732130996114,-0.37044313049711763,-0.34435600949817674,-0.5594503366667412,-0.7539457934931141,0.7178772811679515,0.36063082513476274,-0.5954809964604497,0.6050381375627504,-0.746298016053969,0.27743129478937356,,0.00867928769444287,0.2798633793965519,-0.07448540717447191,0.7554887679565644,-0.48207234567450535,0.4436697699101299,0.5494017480359247,0.8350834134155519,-0.028165610202081123,-0.35692342379185155,0.26503176390550903,0.8957475779339802,,0.010969302380675422,0.723062172756356,1.199261890577288,0.997809055471196,-0.06405524229169728,-0.016553391031193625,-0.0386668677048926,-0.7676425820589852,0.639710668624267,-0.0536839097083286,-0.6376690302537565,-0.768437535323244,,0.16895252642198977,0.6195600418033171,-0.43237483072294713,0.8798353161381622,-0.46790839864276634,-0.08337593750970371,-0.29446590438948805,-0.6743610574834693,0.6771462141235507,-0.37306788608528185,-0.5712257825320375,-0.7311097439800129,,0.0,0.0,0.045,1.0,0.0,0.0,0.0,1.0,0.0,0.0,0.0,1.0,,-0.007070943727902147,-0.1730894113711754,0.25860119218090627,False,,0.1170547848237154,0.5330732130996114,-0.37044313049711763,-0.3452604455673357,-0.5608420904172309,-0.752496760353874,0.7177452058131744,0.3588092487960788,-0.5967392583956563,0.6046792904167043,-0.7461314043751439,0.2786590805021911
13:02:53.962990,,-0.4061230763897185,-0.4143400641678934,0.07248075906000001,-2.351312599992734,-0.06224164136183426,0.41955436477706454,,0.1170547848237154,0.5330732130996114,-0.37044313049711763,-0.34438578420961796,-0.5594831846699746,-0.753907817777392,0.7178685696307674,0.36058661628681843,-0.595518269149737,0.6050315267575752,-0.7462947529135961,0.2774544888860726,,0.008635322466344669,0.279822633424282,-0.07446590207195217,0.7556844948324812,-0.4819660982682624,0.44345181069359396,0.5492948510211678,0.8351467759161293,-0.02837099462672306,-0.35667351307462203,0.265025332401535,0.8958490175660434,,0.010969302380675422,0.723062172756356,1.199261890577288,0.997809055471196,-0.06405524229169728,-0.016553391031193625,-0.0386668677048926,-0.7676425820589852,0.639710668624267,-0.0536839097083286,-0.6376690302537565,-0.768437535323244,,0.16895252642198977,0.6195600418033171,-0.43237483072294713,0.8798353161381622,-0.46790839864276634,-0.08337593750970371,-0.29446590438948805,-0.6743610574834693,0.6771462141235507,-0.37306788608528185,-0.5712257825320375,-0.7311097439800129,,0.0,0.0,0.045,1.0,0.0,0.0,0.0,1.0,0.0,0.0,0.0,1.0,,-0.007070943727902147,-0.1730894113711754,0.25860119218090627,False,,0.1170547848237154,0.5330732130996114,-0.37044313049711763,-0.3452604455673357,-0.5608420904172309,-0.752496760353874,0.7177452058131744,0.3588092487960788,-0.5967392583956563,0.6046792904167043,-0.7461314043751439,0.2786590805021911
13:02:53.974618,,-0.40613852185546695,-0.4143400641678934,0.07248075906000001,-2.3515222765220716,-0.06224164136183426,0.41955436477706454,,0.11705408072348651,0.5330736658785049,-0.37044308831510064,-0.34444257308995774,-0.5595190606688027,-0.7538552477707308,0.7178519519571374,0.3605234361370699,-0.595576550132095,0.6050189161625419,-0.7462983805048895,0.2774722298560386,,0.008598260231516195,0.27978576685230205,-0.07444930432349743,0.7558593686088575,-0.48186138480951785,0.4432675616289965,0.5491928821811717,0.8352075153356704,-0.028556872468757558,-0.35645996061914176,0.26502438120503735,0.8959343080377771,,0.010969302380675422,0.723062172756356,1.199261890577288,0.997809055471196,-0.06405524229169728,-0.016553391031193625,-0.0386668677048926,-0.7676425820589852,0.639710668624267,-0.0536839097083286,-0.6376690302537565,-0.768437535323244,,0.16895252642198977,0.6195600418033171,-0.43237483072294713,0.8798353161381622,-0.46790839864276634,-0.08337593750970371,-0.29446590438948805,-0.6743610574834693,0.6771462141235507,-0.37306788608528185,-0.5712257825320375,-0.7311097439800129,,0.0,0.0,0.045,1.0,0.0,0.0,0.0,1.0,0.0,0.0,0.0,1.0,,-0.007070943727902147,-0.1730894113711754,0.25860119218090627,False,,0.11705408072348651,0.5330736658785049,-0.37044308831510064,-0.34526042834031756,-0.5608366216837937,-0.7525008441195067,0.7177489138351558,0.3588090269330282,-0.5967349318414568,0.6046748988594739,-0.7461356217000252,0.27865731772125124
13:02:53.986565,,-0.40613852185546695,-0.4143400641678934,0.07248075906000001,-2.3515222765220716,-0.06224164136183426,0.41955436477706454,,0.11705278679422584,0.5330745596276134,-0.3704429247172158,-0.3445952111577188,-0.5595388458624115,-0.7537708009853709,0.7178072718548902,0.3604141380353904,-0.5956965415179496,0.604985008838572,-0.7463363377694852,0.27744406644479896,,0.008570602588415296,0.2797531093215301,-0.07443707788755474,0.7559866041404963,-0.48178827015755177,0.44313007343089494,0.5491324447764945,0.8352416455052794,-0.02872101299710117,-0.3562832543553889,0.2650498089650006,0.8959970905721213,,0.010969302380675422,0.723062172756356,1.199261890577288,0.997809055471196,-0.06405524229169728,-0.016553391031193625,-0.0386668677048926,-0.7676425820589852,0.639710668624267,-0.0536839097083286,-0.6376690302537565,-0.768437535323244,,0.16895252642198977,0.6195600418033171,-0.43237483072294713,0.8798353161381622,-0.46790839864276634,-0.08337593750970371,-0.29446590438948805,-0.6743610574834693,0.6771462141235507,-0.37306788608528185,-0.5712257825320375,-0.7311097439800129,,0.0,0.0,0.045,1.0,0.0,0.0,0.0,1.0,0.0,0.0,0.0,1.0,,-0.007070943727902147,-0.1730894113711754,0.25860119218090627,False,,0.11705278679422584,0.5330745596276134,-0.3704429247172158,-0.34508905143921836,-0.5609014693330839,-0.7525311211350455,0.7177386079905678,0.3589379769043089,-0.5966697741092675,0.6047849511822719,-0.7460248457228684,0.2787150738435717
13:02:53.998492,,-0.4061462445883412,-0.4143400641678934,0.07248075906000001,-2.351731953051409,-0.06224164136183426,0.41955436477706454,,0.11705219697517802,0.533075000577689,-0.3704428033187519,-0.34477868450898747,-0.5595497010895093,-0.7536788379136653,0.7177535370168987,0.3602929335720008,-0.5958345929180457,0.6049442278491329,-0.7463867188185511,0.2773974534189052,,0.008553844376282895,0.2797255503786881,-0.0744299043794699,0.7560616230163162,-0.48174718532896593,0.4430467750685419,0.5491146688348707,0.8352485942923364,-0.02885895826478528,-0.3561514789262941,0.2651026375375719,0.8960338659327105,,0.010969302380675422,0.723062172756356,1.199261890577288,0.997809055471196,-0.06405524229169728,-0.016553391031193625,-0.0386668677048926,-0.7676425820589852,0.639710668624267,-0.0536839097083286,-0.6376690302537565,-0.768437535323244,,0.16895252642198977,0.6195600418033171,-0.43237483072294713,0.8798353161381622,-0.46790839864276634,-0.08337593750970371,-0.29446590438948805,-0.6743610574834693,0.6771462141235507,-0.37306788608528185,-0.5712257825320375,-0.7311097439800129,,0.0,0.0,0.045,1.0,0.0,0.0,0.0,1.0,0.0,0.0,0.0,1.0,,-0.007070943727902147,-0.1730894113711754,0.25860119218090627,False,,0.11705219697517802,0.533075000577689,-0.3704428033187519,-0.3449176767941461,-0.560971753355591,-0.7525572989295122,0.7177245639245712,0.359067147615858,-0.5966089454930223,0.6048993689649653,-0.7459098306364957,0.27877460068238125
13:02:54.010705,,-0.40616169005408964,-0.4143400641678934,0.07248075906000001,-2.351731953051409,-0.062107499893382025,0.4194863818808529,,0.11705128389805182,0.5330748760599167,-0.37044358726140825,-0.3448934818912916,-0.5595686376143206,-0.7536122517232283,0.7177198997702845,0.360207472051576,-0.5959267761662886,0.6049186983575844,-0.7464137705566976,0.2773803372640167,,0.008549162905430055,0.2797022264737105,-0.07442865408955432,0.7561030220354368,-0.4817032008246595,0.44302396946886435,0.5491049991832819,0.8352509220758735,-0.028975648105313764,-0.3560785181397488,0.2651752526659922,0.8960413860044187,,0.010969302380675422,0.723062172756356,1.199261890577288,0.997809055471196,-0.06405524229169728,-0.016553391031193625,-0.0386668677048926,-0.7676425820589852,0.639710668624267,-0.0536839097083286,-0.6376690302537565,-0.768437535323244,,0.16895252642198977,0.6195600418033171,-0.43237483072294713,0.8798353161381622,-0.46790839864276634,-0.08337593750970371,-0.29446590438948805,-0.6743610574834693,0.6771462141235507,-0.37306788608528185,-0.5712257825320375,-0.7311097439800129,,0.0,0.0,0.045,1.0,0.0,0.0,0.0,1.0,0.0,0.0,0.0,1.0,,-0.007070943727902147,-0.1730894113711754,0.25860119218090627,False,,0.11705128389805182,0.5330748760599167,-0.37044358726140825,-0.3449791843743263,-0.5610308221711346,-0.752485068903301,0.7176392636393578,0.35906535734385747,-0.5967126246684317,0.6049654945793067,-0.7458662653113554,0.2787476719883166
13:02:54.022321,,-0.4061694127869639,-0.4143477869007676,0.07248075906000001,-2.351941629580747,-0.062107499893382025,0.4194863818808529,,0.11705099057069415,0.5330744952623212,-0.37044436474300074,-0.34521207835476353,-0.5595849521009986,-0.7534542470117928,0.7176264823423424,0.35999885523143094,-0.5961652925766603,0.6048477930842934,-0.7465021805823358,0.27729702772816983,,0.008575114597927105,0.2796899996199181,-0.07444168478505783,0.7560593234971545,-0.4816528587209592,0.4431532221843346,0.549115866891047,0.8352416404613686,-0.029036564213098054,-0.3561544880735389,0.26529583679118507,0.8959754767289928,,0.010969302380675422,0.723062172756356,1.199261890577288,0.997809055471196,-0.06405524229169728,-0.016553391031193625,-0.0386668677048926,-0.7676425820589852,0.639710668624267,-0.0536839097083286,-0.6376690302537565,-0.768437535323244,,0.16895252642198977,0.6195600418033171,-0.43237483072294713,0.8798353161381622,-0.46790839864276634,-0.08337593750970371,-0.29446590438948805,-0.6743610574834693,0.6771462141235507,-0.37306788608528185,-0.5712257825320375,-0.7311097439800129,,0.0,0.0,0.045,1.0,0.0,0.0,0.0,1.0,0.0,0.0,0.0,1.0,,-0.007070943727902147,-0.1730894113711754,0.25860119218090627,False,,0.11705099057069415,0.5330744952623212,-0.37044436474300074,-0.3449813994836235,-0.561027573778127,-0.7524864752744392,0.7176354769905633,0.35907043619164536,-0.5967141225223921,0.6049687233029882,-0.745866263691937,0.2787406689225356
13:02:54.034917,,-0.4061694127869639,-0.4143477869007676,0.07248075906000001,-2.351941629580747,-0.062107499893382025,0.4194863818808529,,0.11705040052206879,0.5330749362197222,-0.37044424354052286,-0.34572076345167096,-0.5595741192318204,-0.7532290214830588,0.717477132282136,0.3596947140831023,-0.5965285217932815,0.6047344197005791,-0.7466568942604146,0.27712770320340796,,0.008618490925672212,0.27968037869889634,-0.07446324567172465,0.7559718620098403,-0.4815910402173668,0.44336949530571185,0.5491373367482296,0.8352258277393394,-0.02908431883522515,-0.3563069249598561,0.2654576843781361,0.895866892214553,,0.010969302380675422,0.723062172756356,1.199261890577288,0.997809055471196,-0.06405524229169728,-0.016553391031193625,-0.0386668677048926,-0.7676425820589852,0.639710668624267,-0.0536839097083286,-0.6376690302537565,-0.768437535323244,,0.16895252642198977,0.6195600418033171,-0.43237483072294713,0.8798353161381622,-0.46790839864276634,-0.08337593750970371,-0.29446590438948805,-0.6743610574834693,0.6771462141235507,-0.37306788608528185,-0.5712257825320375,-0.7311097439800129,,0.0,0.0,0.045,1.0,0.0,0.0,0.0,1.0,0.0,0.0,0.0,1.0,,-0.007070943727902147,-0.1730894113711754,0.25860119218090627,False,,0.11705040052206879,0.5330749362197222,-0.37044424354052286,-0.3448100110538926,-0.561097818309087,-0.7525126540901471,0.7176214015960948,0.35919960979461746,-0.5966533032630013,0.6050831184624729,-0.7457512176404255,0.278800181383642
