AlexandreBanks6/RCL_Autocam_Public/dataCollection/ParticipantData/Pilot02/optimizationData/Data_16.csv
System Time,q_des,q0,q1,q2,q3,q4,q5,T_des,Tx,Ty,Tz,R00,R01,R02,R10,R11,R12,R20,R21,R22,T_target,Tx,Ty,Tz,R00,R01,R02,R10,R11,R12,R20,R21,R22,worldFrame,Tx,Ty,Tz,R00,R01,R02,R10,R11,R12,R20,R21,R22,ECM_T_PSM_RCM,Tx,Ty,Tz,R00,R01,R02,R10,R11,R12,R20,R21,R22,psm3_T_cam,Tx,Ty,Tz,R00,R01,R02,R10,R11,R12,R20,R21,R22,offset,x,y,z,IK Trigered,ECM_T_PSM3,Tx,Ty,Tz,R00,R01,R02,R10,R11,R12,R20,R21,R22
13:36:14.245142,,-0.06741173525910575,-0.44758642919142994,0.06763393075,-2.6645693348232267,-0.4248260305882092,0.6239766264520572,,0.13377609493083403,0.5260825265237231,-0.3800716008842195,-0.12809841539004638,-0.69886448759903,-0.7036897213598506,0.7595679125085156,0.3870879393023672,-0.5227040400973602,0.637689095298026,-0.6014576919614479,0.481249688330697,,0.02114918087479376,0.27851279489428926,-0.04565764631086019,0.95565610308986,-0.2943420760893783,0.009173596377523158,0.2383053677603337,0.7912691716964249,0.5631195695582476,-0.1730085671974517,-0.5359625361592437,0.826324509808366,,-0.011236151595895146,0.7229330597451377,1.1988815986622077,0.998525493912733,-0.04043734661566403,-0.03621683317212714,-0.007973966393106002,-0.7691863124490244,0.63897482939552,-0.053695939011201406,-0.6377438653093865,-0.7683745885920152,,0.0,0.0,0.0,1.0,0.0,0.0,0.0,1.0,0.0,0.0,0.0,1.0,,0.0,0.0,0.045,1.0,0.0,0.0,0.0,1.0,0.0,0.0,0.0,1.0,,-0.007070943727902147,-0.1730894113711754,0.25860119218090627,True,,0.13377609493083403,0.5260825265237231,-0.3800716008842195,0.03313699426195876,-0.7098648951269553,-0.7035579366887136,0.7694366088164608,0.4673861101856213,-0.43533611040043424,0.6378630296735402,-0.5269175027193074,0.561683808475677
13:36:16.005124,,-0.06513352906120952,-0.44154725208378637,0.06754837561,-2.4941023164716936,-0.383108033899566,0.5766589209911694,,0.1336585648186821,0.5260641826898379,-0.38002433927951074,-0.05316713110444777,-0.7129614829561233,-0.6991846537154032,0.766558106437694,0.41958620193950513,-0.48614410270683944,0.6399702537030763,-0.5618125514466429,0.524218209729721,,0.02107948136148399,0.27833038544034777,-0.04477622242953226,0.9142217348426072,-0.3970866293744891,-0.01034639386164872,0.3307220269311402,0.7465315547998386,0.5717515178320502,-0.22001768109970476,-0.5278248440654365,0.8164431232752016,,-0.011236151595895146,0.7229330597451377,1.1988815986622077,0.998525493912733,-0.04043734661566403,-0.03621683317212714,-0.007973966393106002,-0.7691863124490244,0.63897482939552,-0.053695939011201406,-0.6377438653093865,-0.7683745885920152,,0.1514902607297308,0.624084416551871,-0.43276100720544775,0.887785573581028,-0.44872175077238136,-0.10239905138805752,-0.26952620399912314,-0.6872005592459136,0.674619164217803,-0.37308497785253736,-0.5713179340401215,-0.7310290127928571,,0.0,0.0,0.045,1.0,0.0,0.0,0.0,1.0,0.0,0.0,0.0,1.0,,-0.007070943727902147,-0.1730894113711754,0.25860119218090627,False,,0.1336585648186821,0.5260641826898379,-0.38002433927951074,-0.1285847878504942,-0.6941485210290136,-0.7082540385247913,0.7587223110471498,0.3910331880983887,-0.5209928027572763,0.6385972181686321,-0.6043598899321854,0.4763850505509605
13:36:16.019451,,-0.06513352906120952,-0.4415395293509121,0.06754837561,-2.4941023164716936,-0.383108033899566,0.5766589209911694,,0.13365893802840662,0.5260645013559284,-0.38002362030878084,-0.050866226368733586,-0.7142339493264256,-0.6980562245582956,0.766703692700687,0.4199760201067864,-0.4855775840526359,0.6399828705630607,-0.5599017843915494,0.5262432110925742,,0.021019281962797204,0.27826555505316974,-0.044426655876025636,0.8999579417371549,-0.4291617135066377,-0.01777777156872183,0.360051729741082,0.7312339793518493,0.5745256667455281,-0.2342190799494308,-0.5249163871503588,0.8148768811828792,,-0.011236151595895146,0.7229330597451377,1.1988815986622077,0.998525493912733,-0.04043734661566403,-0.03621683317212714,-0.007973966393106002,-0.7691863124490244,0.63897482939552,-0.053695939011201406,-0.6377438653093865,-0.7683745885920152,,0.1514902607297308,0.624084416551871,-0.43276100720544775,0.887785573581028,-0.44872175077238136,-0.10239905138805752,-0.26952620399912314,-0.6872005592459136,0.674619164217803,-0.37308497785253736,-0.5713179340401215,-0.7310290127928571,,0.0,0.0,0.045,1.0,0.0,0.0,0.0,1.0,0.0,0.0,0.0,1.0,,-0.007070943727902147,-0.1730894113711754,0.25860119218090627,False,,0.13365893802840662,0.5260645013559284,-0.38002362030878084,-0.12858514761918333,-0.6941509615386947,-0.7082515812948522,0.7587263906264108,0.3910272815184324,-0.5209912948172204,0.6385922987155201,-0.604360908483673,0.47639035288093073
13:36:16.031208,,-0.06514125179408374,-0.4415395293509121,0.06754837561,-2.494311993001031,-0.38324217536801825,0.576726903887381,,0.1336588532203788,0.5260658152963659,-0.38002225194964034,-0.049818665483799644,-0.7148361283855447,-0.6975151683828664,0.7667686198989798,0.42013741528175885,-0.4853353848820182,0.6399874874617684,-0.5590115042064234,0.5271832262669639,,0.020966183984995522,0.2782241019519199,-0.044237204618723325,0.893311395220769,-0.44374372256725686,-0.022010388573263567,0.3738405140064233,0.7240324150142385,0.5756896120743643,-0.2400754435805668,-0.5237048482161227,0.8145521534553766,,-0.011236151595895146,0.7229330597451377,1.1988815986622077,0.998525493912733,-0.04043734661566403,-0.03621683317212714,-0.007973966393106002,-0.7691863124490244,0.63897482939552,-0.053695939011201406,-0.6377438653093865,-0.7683745885920152,,0.1514902607297308,0.624084416551871,-0.43276100720544775,0.887785573581028,-0.44872175077238136,-0.10239905138805752,-0.26952620399912314,-0.6872005592459136,0.674619164217803,-0.37308497785253736,-0.5713179340401215,-0.7310290127928571,,0.0,0.0,0.045,1.0,0.0,0.0,0.0,1.0,0.0,0.0,0.0,1.0,,-0.007070943727902147,-0.1730894113711754,0.25860119218090627,False,,0.1336588532203788,0.5260658152963659,-0.38002225194964034,-0.12836805511380922,-0.6941649484014975,-0.7082772528022094,0.7588078315728205,0.3910910253084213,-0.5208248118772397,0.6385392056640316,-0.6043035945068956,0.4765342049590915
13:36:16.044143,,-0.06515669725983218,-0.4415626975495348,0.06754837561,-2.497457140941096,-0.38471773152099276,0.5774747157457085,,0.13365902466450838,0.5260678629472971,-0.3800204794478107,-0.049395477439159015,-0.7151127934518234,-0.6972616291250274,0.7667946083471836,0.42017933523574924,-0.4852580291458693,0.6399891525785785,-0.5586260098512901,0.527589675504913,,0.020901504722416767,0.27818676856666397,-0.044111968108750614,0.8907503412174052,-0.44960762781195845,-0.025151140628854526,0.38018252635600486,0.7209814606913902,0.5760752982322953,-0.24133140184235174,-0.5236931196733118,0.8146903952620237,,-0.011236151595895146,0.7229330597451377,1.1988815986622077,0.998525493912733,-0.04043734661566403,-0.03621683317212714,-0.007973966393106002,-0.7691863124490244,0.63897482939552,-0.053695939011201406,-0.6377438653093865,-0.7683745885920152,,0.1514902607297308,0.624084416551871,-0.43276100720544775,0.887785573581028,-0.44872175077238136,-0.10239905138805752,-0.26952620399912314,-0.6872005592459136,0.674619164217803,-0.37308497785253736,-0.5713179340401215,-0.7310290127928571,,0.0,0.0,0.045,1.0,0.0,0.0,0.0,1.0,0.0,0.0,0.0,1.0,,-0.007070943727902147,-0.1730894113711754,0.25860119218090627,False,,0.13365902466450838,0.5260678629472971,-0.3800204794478107,-0.12793349596718417,-0.6941954029315779,-0.7083260288583773,0.7589637553159009,0.39122338209580604,-0.5204981108691022,0.6384411004363675,-0.6041829258181524,0.4768185749563634
13:36:16.056171,,-0.06517214272558064,-0.44157814301528325,0.06754837561,-2.5024893776452,-0.3864615706108717,0.5783584933964592,,0.1336665155283486,0.5260768072841202,-0.38001074703777366,-0.047874594980173414,-0.7164012175415454,-0.6960440493679085,0.7668868651411177,0.42012482229203907,-0.48515942716607263,0.6399941868716571,-0.5570138500962735,0.5292853781953669,,0.020765740930119674,0.2780918764503762,-0.043637506109346184,0.8746951965663687,-0.4832799817185161,-0.03539110631441217,0.4120777376439618,0.7034210937947634,0.5790461648047577,-0.2549588383920854,-0.5210978623128434,0.8144671673253803,,-0.011236151595895146,0.7229330597451377,1.1988815986622077,0.998525493912733,-0.04043734661566403,-0.03621683317212714,-0.007973966393106002,-0.7691863124490244,0.63897482939552,-0.053695939011201406,-0.6377438653093865,-0.7683745885920152,,0.1514902607297308,0.624084416551871,-0.43276100720544775,0.887785573581028,-0.44872175077238136,-0.10239905138805752,-0.26952620399912314,-0.6872005592459136,0.674619164217803,-0.37308497785253736,-0.5713179340401215,-0.7310290127928571,,0.0,0.0,0.045,1.0,0.0,0.0,0.0,1.0,0.0,0.0,0.0,1.0,,-0.007070943727902147,-0.1730894113711754,0.25860119218090627,False,,0.1336665155283486,0.5260768072841202,-0.38001074703777366,-0.1252262057408317,-0.6946604287772636,-0.7083539271344119,0.7596292378687833,0.39213114081920186,-0.5188415840839311,0.6381863508181969,-0.6030589167658662,0.47857927717206245
13:36:16.069597,,-0.06518758819132908,-0.44160903394678014,0.06754967190000001,-2.5062635551732786,-0.38820540970075074,0.5792422710472098,,0.1336911534896385,0.5261014919953462,-0.37998117671685716,-0.052941472267997315,-0.7154720855999668,-0.6966325396084585,0.766572565671334,0.41796018131964585,-0.4875200389638533,0.639971641617162,-0.5598294218406911,0.5263338449761257,,0.020655471473459013,0.2780357994981263,-0.043609616942123355,0.8785707836056335,-0.47600964131304124,-0.037742626274157476,0.4078845771229923,0.7070341889937456,0.5776063829335787,-0.2482737525519736,-0.5228898385295357,0.8153788486481454,,-0.011236151595895146,0.7229330597451377,1.1988815986622077,0.998525493912733,-0.04043734661566403,-0.03621683317212714,-0.007973966393106002,-0.7691863124490244,0.63897482939552,-0.053695939011201406,-0.6377438653093865,-0.7683745885920152,,0.1514902607297308,0.624084416551871,-0.43276100720544775,0.887785573581028,-0.44872175077238136,-0.10239905138805752,-0.26952620399912314,-0.6872005592459136,0.674619164217803,-0.37308497785253736,-0.5713179340401215,-0.7310290127928571,,0.0,0.0,0.045,1.0,0.0,0.0,0.0,1.0,0.0,0.0,0.0,1.0,,-0.007070943727902147,-0.1730894113711754,0.25860119218090627,False,,0.1336911534896385,0.5261014919953462,-0.37998117671685716,-0.1165729716158791,-0.6963204448257445,-0.7082009463466715,0.7614877893998149,0.39511403610542806,-0.5138299768089266,0.6376104523011107,-0.5991850603863186,0.4841798989282984
13:36:16.083619,,-0.06526481552007134,-0.44170942947414504,0.06755096819,-2.5186344704042014,-0.3894126829168208,0.5798541171131142,,0.1337021833986544,0.5261070811367767,-0.37997342347881957,-0.055100785048311014,-0.7146913960059278,-0.6972661700973007,0.7664325920501817,0.41730519891648055,-0.48830057628525947,0.6399570183459978,-0.5613132631894375,0.5247689350917463,,0.020540931427264406,0.27798062102965493,-0.04358521221221467,0.8825365914454587,-0.46842361031790714,-0.040226031993987096,0.40346559153245687,0.7106651455690943,0.576264014941099,-0.24135933543703758,-0.5248276095666157,0.8162176787030505,,-0.011236151595895146,0.7229330597451377,1.1988815986622077,0.998525493912733,-0.04043734661566403,-0.03621683317212714,-0.007973966393106002,-0.7691863124490244,0.63897482939552,-0.053695939011201406,-0.6377438653093865,-0.7683745885920152,,0.1514902607297308,0.624084416551871,-0.43276100720544775,0.887785573581028,-0.44872175077238136,-0.10239905138805752,-0.26952620399912314,-0.6872005592459136,0.674619164217803,-0.37308497785253736,-0.5713179340401215,-0.7310290127928571,,0.0,0.0,0.045,1.0,0.0,0.0,0.0,1.0,0.0,0.0,0.0,1.0,,-0.007070943727902147,-0.1730894113711754,0.25860119218090627,False,,0.1337021833986544,0.5261070811367767,-0.37997342347881957,-0.11225729274726148,-0.6975856004656152,-0.7076529023808794,0.7617879887291316,0.3968470908341503,-0.5120463325954947,0.6380261440200393,-0.5965624162813967,0.4868633514934363
13:36:16.095577,,-0.06532659738306512,-0.44177893407001306,0.06755226448000001,-2.5293279734004233,-0.39021753172753415,0.5802620144903837,,0.133726298464029,0.526106023485161,-0.37996765872062405,-0.05794124437624308,-0.713239320459508,-0.6985216417195617,0.7662429722256938,0.41674053924837834,-0.48907977924026413,0.6399332150426849,-0.5635751899236073,0.5223681513910499,,0.02040176506393052,0.2779288884500798,-0.04357175163527518,0.8872508255560948,-0.45914369964335544,-0.04341347596944428,0.39797539242012203,0.7146684994811595,0.575131478138092,-0.2330520410680566,-0.5275866688943808,0.8168541774557151,,-0.011236151595895146,0.7229330597451377,1.1988815986622077,0.998525493912733,-0.04043734661566403,-0.03621683317212714,-0.007973966393106002,-0.7691863124490244,0.63897482939552,-0.053695939011201406,-0.6377438653093865,-0.7683745885920152,,0.1514902607297308,0.624084416551871,-0.43276100720544775,0.887785573581028,-0.44872175077238136,-0.10239905138805752,-0.26952620399912314,-0.6872005592459136,0.674619164217803,-0.37308497785253736,-0.5713179340401215,-0.7310290127928571,,0.0,0.0,0.045,1.0,0.0,0.0,0.0,1.0,0.0,0.0,0.0,1.0,,-0.007070943727902147,-0.1730894113711754,0.25860119218090627,False,,0.133726298464029,0.526106023485161,-0.37996765872062405,-0.10519417804984649,-0.7001124086771003,-0.7062413186162124,0.7616424944756423,0.3999041087844854,-0.5098798038618592,0.6394019827255297,-0.591539786484084,0.49116777733583666
13:36:16.108864,,-0.06538837924605892,-0.44185616139875533,0.06755356077,-2.540021476396645,-0.39155894641205646,0.5809418434524996,,0.13379010086221765,0.526114092261373,-0.3799426812451189,-0.06586714927969732,-0.7100656397577837,-0.7010480054041488,0.765680839550695,0.4145456936625732,-0.49181777093834156,0.6398393318566068,-0.5691736598799925,0.5163787120981127,,0.020263203000507535,0.27788451400087383,-0.043570091801847566,0.8911499867691094,-0.4511620826549032,-0.04682856277375319,0.39355954031349505,0.7177621974505414,0.5742967474875245,-0.2255017235969506,-0.5302439449168743,0.817238502255825,,-0.011236151595895146,0.7229330597451377,1.1988815986622077,0.998525493912733,-0.04043734661566403,-0.03621683317212714,-0.007973966393106002,-0.7691863124490244,0.63897482939552,-0.053695939011201406,-0.6377438653093865,-0.7683745885920152,,0.1514902607297308,0.624084416551871,-0.43276100720544775,0.887785573581028,-0.44872175077238136,-0.10239905138805752,-0.26952620399912314,-0.6872005592459136,0.674619164217803,-0.37308497785253736,-0.5713179340401215,-0.7310290127928571,,0.0,0.0,0.045,1.0,0.0,0.0,0.0,1.0,0.0,0.0,0.0,1.0,,-0.007070943727902147,-0.1730894113711754,0.25860119218090627,False,,0.13379010086221765,0.526114092261373,-0.3799426812451189,-0.08548029253082995,-0.7064212681915163,-0.702610924648581,0.7618002991461565,0.408160853176871,-0.503055684944277,0.6421475093852429,-0.5782505596889803,0.5032622243023122
13:36:16.122089,,-0.0654733293076754,-0.4419642796589945,0.06755744964,-2.5473601549234637,-0.393034502565031,0.5816896553108271,,0.13380447172176202,0.5261190684594015,-0.379932072848451,-0.06916753853976983,-0.7086336042053412,-0.7021782299411576,0.7654324126408713,0.413707413447951,-0.49290911711691937,0.6397883034966522,-0.5715632870025452,0.5137960058814409,,0.02010734405564257,0.2778412144143268,-0.04357489282915361,0.8951545413290829,-0.4427112958228582,-0.050751463493115864,0.3889940902206147,0.7207819596782052,0.5736092918823843,-0.21737663229814647,-0.5332454692833497,0.8174761920554168,,-0.011236151595895146,0.7229330597451377,1.1988815986622077,0.998525493912733,-0.04043734661566403,-0.03621683317212714,-0.007973966393106002,-0.7691863124490244,0.63897482939552,-0.053695939011201406,-0.6377438653093865,-0.7683745885920152,,0.1514902607297308,0.624084416551871,-0.43276100720544775,0.887785573581028,-0.44872175077238136,-0.10239905138805752,-0.26952620399912314,-0.6872005592459136,0.674619164217803,-0.37308497785253736,-0.5713179340401215,-0.7310290127928571,,0.0,0.0,0.045,1.0,0.0,0.0,0.0,1.0,0.0,0.0,0.0,1.0,,-0.007070943727902147,-0.1730894113711754,0.25860119218090627,False,,0.13380447172176202,0.5261190684594015,-0.379932072848451,-0.0785600166488229,-0.7081771717740725,-0.7016504950202865,0.762266716002619,0.4109227185300673,-0.5000919646129522,0.6424778419982434,-0.5741320516866617,0.5075377914671428
13:36:16.134562,,-0.06566639762953101,-0.4421959616452212,0.06756004222,-2.5557472160969708,-0.3945100587180055,0.5824374671691546,,0.13380620157514647,0.526121072592325,-0.3799297406328709,-0.07140070436484618,-0.7071698487079882,-0.7034292746925769,0.7652595268432488,0.4134869037558243,-0.49336237898533397,0.6397497917091106,-0.5735323752856001,0.5116452076462819,,0.019890946259019993,0.2778023230920256,-0.04360371877580377,0.9000839706418488,-0.43183748993835697,-0.05631478062709751,0.38322124085813464,0.7239746116638274,0.5734181446911992,-0.20687303543113167,-0.5377576316424388,0.8172064630566499,,-0.011236151595895146,0.7229330597451377,1.1988815986622077,0.998525493912733,-0.04043734661566403,-0.03621683317212714,-0.007973966393106002,-0.7691863124490244,0.63897482939552,-0.053695939011201406,-0.6377438653093865,-0.7683745885920152,,0.1514902607297308,0.624084416551871,-0.43276100720544775,0.887785573581028,-0.44872175077238136,-0.10239905138805752,-0.26952620399912314,-0.6872005592459136,0.674619164217803,-0.37308497785253736,-0.5713179340401215,-0.7310290127928571,,0.0,0.0,0.045,1.0,0.0,0.0,0.0,1.0,0.0,0.0,0.0,1.0,,-0.007070943727902147,-0.1730894113711754,0.25860119218090627,False,,0.13380620157514647,0.526121072592325,-0.3799297406328709,-0.07420549613441224,-0.7092121304065232,-0.701078953062839,0.7625352012231209,0.41270954834408013,-0.4982076832017346,0.6426769104605052,-0.5715671288570277,0.5101738977751349
13:36:16.146505,,-0.06576679315689593,-0.4423118026383346,0.06756263480000001,-2.5601504232130625,-0.39477834165490994,0.5825045513175274,,0.13380755522908144,0.5261233169595876,-0.379929413485583,-0.07317774647021545,-0.7055916649042494,-0.7048300645114325,0.7651191886536829,0.41360062658790797,-0.4934846997020473,0.6397168471874654,-0.5753911053394369,0.5095953603799684,,0.019659642388509,0.2777763141479325,-0.04364979328181784,0.9049495562036989,-0.42068794967036593,-0.06241004861463385,0.3774196600390849,0.7267577540287586,0.5737461386486753,-0.1960300114317164,-0.542818459892833,0.8165337829244195,,-0.011236151595895146,0.7229330597451377,1.1988815986622077,0.998525493912733,-0.04043734661566403,-0.03621683317212714,-0.007973966393106002,-0.7691863124490244,0.63897482939552,-0.053695939011201406,-0.6377438653093865,-0.7683745885920152,,0.1514902607297308,0.624084416551871,-0.43276100720544775,0.887785573581028,-0.44872175077238136,-0.10239905138805752,-0.26952620399912314,-0.6872005592459136,0.674619164217803,-0.37308497785253736,-0.5713179340401215,-0.7310290127928571,,0.0,0.0,0.045,1.0,0.0,0.0,0.0,1.0,0.0,0.0,0.0,1.0,,-0.007070943727902147,-0.1730894113711754,0.25860119218090627,False,,0.13380755522908144,0.5261233169595876,-0.379929413485583,-0.07068839708550609,-0.7101373599491464,-0.7005055892153456,0.7626056166144243,0.4142060052461614,-0.4968561750910929,0.6429897542151164,-0.569331463404644,0.5122751806909163
13:36:16.160079,,-0.06587491141713507,-0.4424430890971964,0.06756652367,-2.5635052476824653,-0.39531490752871884,0.5827076012583235,,0.13380607053858032,0.5261185808640667,-0.37993132110179073,-0.07609112429994302,-0.7035432150575176,-0.7065671131246503,0.7648838074244407,0.4134083572173778,-0.4940104162087274,0.6396584259920772,-0.5780315516728829,0.5066721063251634,,0.01944442921286457,0.27776245629622187,-0.04370686182773607,0.9089821394810648,-0.4109833720151333,-0.06825884643497052,0.3725986918314335,0.7286733067094971,0.5744741587048872,-0.18637815600296828,-0.5476705324383027,0.8155582768562989,,-0.011236151595895146,0.7229330597451377,1.1988815986622077,0.998525493912733,-0.04043734661566403,-0.03621683317212714,-0.007973966393106002,-0.7691863124490244,0.63897482939552,-0.053695939011201406,-0.6377438653093865,-0.7683745885920152,,0.1514902607297308,0.624084416551871,-0.43276100720544775,0.887785573581028,-0.44872175077238136,-0.10239905138805752,-0.26952620399912314,-0.6872005592459136,0.674619164217803,-0.37308497785253736,-0.5713179340401215,-0.7310290127928571,,0.0,0.0,0.045,1.0,0.0,0.0,0.0,1.0,0.0,0.0,0.0,1.0,,-0.007070943727902147,-0.1730894113711754,0.25860119218090627,False,,0.13380607053858032,0.5261185808640667,-0.37993132110179073,-0.06351340246570997,-0.7122006402287621,-0.6990967713878887,0.7625209923276822,0.4172965535303182,-0.49439389424964075,0.6438383212941238,-0.5644766022338389,0.5165640149717217
13:36:16.173600,,-0.06609114793761335,-0.4426979392820458,0.06756911625,-2.564972983387829,-0.3965221807447889,0.5833194473242279,,0.13379337480469872,0.5261191352448242,-0.3799344085326594,-0.07727313213970333,-0.7022141939072168,-0.7077599090966918,0.7647864296762004,0.41367777098125624,-0.493935642345346,0.6396331605165965,-0.5794531281054722,0.505077709165959,,0.01923357735527125,0.2777657122841754,-0.04379452695959097,0.9131766779188969,-0.40050037703395697,-0.07444548928869166,0.3672389339966116,0.7302912509647793,0.575885910659479,-0.17629023863165744,-0.5532706975204121,0.8140317039300357,,-0.011236151595895146,0.7229330597451377,1.1988815986622077,0.998525493912733,-0.04043734661566403,-0.03621683317212714,-0.007973966393106002,-0.7691863124490244,0.63897482939552,-0.053695939011201406,-0.6377438653093865,-0.7683745885920152,,0.1514902607297308,0.624084416551871,-0.43276100720544775,0.887785573581028,-0.44872175077238136,-0.10239905138805752,-0.26952620399912314,-0.6872005592459136,0.674619164217803,-0.37308497785253736,-0.5713179340401215,-0.7310290127928571,,0.0,0.0,0.045,1.0,0.0,0.0,0.0,1.0,0.0,0.0,0.0,1.0,,-0.007070943727902147,-0.1730894113711754,0.25860119218090627,False,,0.13379337480469872,0.5261191352448242,-0.3799344085326594,-0.06205244640147481,-0.7122879393985287,-0.6991390314400923,0.762804040796777,0.4178914276316543,-0.4934538986127147,0.6436454685925332,-0.5639260998565113,0.5174049329692584
13:36:16.185855,,-0.06617609799922983,-0.4427828893436623,0.06757041254000001,-2.563295571153127,-0.3969246051501456,0.5835233960128626,,0.13377853251503222,0.526122437223303,-0.3799375829934356,-0.07804982510207334,-0.7011586542744312,-0.7087205135577805,0.7647218522268026,0.4139812678225379,-0.49378132672150765,0.6396160672843858,-0.5805136100283201,0.5038801792525117,,0.01905458972923679,0.27777536031952305,-0.04389156036252194,0.9169117758173025,-0.3908389600657422,-0.0801393289803102,0.3623026285887044,0.7315601651157405,0.5774609419871362,-0.16707546220914823,-0.5585420677958683,0.8124168620954638,,-0.011236151595895146,0.7229330597451377,1.1988815986622077,0.998525493912733,-0.04043734661566403,-0.03621683317212714,-0.007973966393106002,-0.7691863124490244,0.63897482939552,-0.053695939011201406,-0.6377438653093865,-0.7683745885920152,,0.1514902607297308,0.624084416551871,-0.43276100720544775,0.887785573581028,-0.44872175077238136,-0.10239905138805752,-0.26952620399912314,-0.6872005592459136,0.674619164217803,-0.37308497785253736,-0.5713179340401215,-0.7310290127928571,,0.0,0.0,0.045,1.0,0.0,0.0,0.0,1.0,0.0,0.0,0.0,1.0,,-0.007070943727902147,-0.1730894113711754,0.25860119218090627,False,,0.13377853251503222,0.526122437223303,-0.3799375829934356,-0.06194537214895374,-0.7119828133998536,-0.6994592513453212,0.7631210280003302,0.4178949358005778,-0.4929605656195538,0.6432799293410661,-0.5643086886230447,0.5174423991629336
13:36:16.197887,,-0.06625332532797207,-0.44286783940527874,0.06757170883000001,-2.560989129330413,-0.39719288808705006,0.5837282434493362,,0.133759330921372,0.5261244675608485,-0.3799407492332915,-0.07826591953732029,-0.7007349607357398,-0.7091156186699451,0.7647038019039825,0.4141560974092704,-0.4936626604598708,0.6396112422343532,-0.5809003716485334,0.5034403808059336,,0.018958464116536466,0.27778648221436436,-0.043978598846627595,0.9194061788287134,-0.38414691888111047,-0.08397708710149326,0.3588175719876208,0.7322610978545977,0.5787679696683343,-0.16084451024766383,-0.562275339487023,0.8111129478933624,,-0.011236151595895146,0.7229330597451377,1.1988815986622077,0.998525493912733,-0.04043734661566403,-0.03621683317212714,-0.007973966393106002,-0.7691863124490244,0.63897482939552,-0.053695939011201406,-0.6377438653093865,-0.7683745885920152,,0.1514902607297308,0.624084416551871,-0.43276100720544775,0.887785573581028,-0.44872175077238136,-0.10239905138805752,-0.26952620399912314,-0.6872005592459136,0.674619164217803,-0.37308497785253736,-0.5713179340401215,-0.7310290127928571,,0.0,0.0,0.045,1.0,0.0,0.0,0.0,1.0,0.0,0.0,0.0,1.0,,-0.007070943727902147,-0.1730894113711754,0.25860119218090627,False,,0.133759330921372,0.5261244675608485,-0.3799407492332915,-0.06337994233090294,-0.7112119296605666,-0.7001146863326216,0.7634786983747219,0.417235626612971,-0.4929652208958784,0.64271553586184,-0.5657667567057781,0.5165507883726953
13:36:16.210543,,-0.06631510719096587,-0.44294506673402095,0.06757170883000001,-2.5599407466837243,-0.3973270295555023,0.5839339896336482,,0.13372460344583217,0.5261256569788859,-0.3799507206231909,-0.07798339455437095,-0.700955704873474,-0.7089285506869564,0.7647273938650633,0.41415959192616053,-0.4936231816759668,0.6396175445108785,-0.5806314943411934,0.5037424585370852,,0.018903909756754468,0.27779097263151153,-0.04405779634646003,0.9215907595174425,-0.3782533450766639,-0.08689778468926257,0.3555527294888097,0.7330930019010683,0.5797527517746347,-0.1555926559919989,-0.5652038601916286,0.8101184283173425,,-0.011236151595895146,0.7229330597451377,1.1988815986622077,0.998525493912733,-0.04043734661566403,-0.03621683317212714,-0.007973966393106002,-0.7691863124490244,0.63897482939552,-0.053695939011201406,-0.6377438653093865,-0.7683745885920152,,0.1514902607297308,0.624084416551871,-0.43276100720544775,0.887785573581028,-0.44872175077238136,-0.10239905138805752,-0.26952620399912314,-0.6872005592459136,0.674619164217803,-0.37308497785253736,-0.5713179340401215,-0.7310290127928571,,0.0,0.0,0.045,1.0,0.0,0.0,0.0,1.0,0.0,0.0,0.0,1.0,,-0.007070943727902147,-0.1730894113711754,0.25860119218090627,False,,0.13372460344583217,0.5261256569788859,-0.3799507206231909,-0.06632429989278002,-0.7096951582246858,-0.7013799752175498,0.7639271227420863,0.41607754470898417,-0.493249255374948,0.6418850663340985,-0.5685175979522371,0.5145593283926437
13:36:16.224021,,-0.06638461178683389,-0.4430068485970148,0.06757300512,-2.5588923640370362,-0.39759531249240676,0.5845521269344229,,0.13371643706662795,0.5261248063486998,-0.3799533703054031,-0.07861144496163586,-0.7007672405411223,-0.7090454959347986,0.7646748648444821,0.4139413558708143,-0.4938875428424014,0.6396034644966495,-0.5810144821639239,0.5033185668338399,,0.01888167293112886,0.2777767138345787,-0.04413212824066322,0.9237649915300817,-0.3723664423693766,-0.0893190722871269,0.35213402704143476,0.7344001598974018,0.5802020818610388,-0.15045361769210255,-0.5674293448469819,0.8095455954938636,,-0.011236151595895146,0.7229330597451377,1.1988815986622077,0.998525493912733,-0.04043734661566403,-0.03621683317212714,-0.007973966393106002,-0.7691863124490244,0.63897482939552,-0.053695939011201406,-0.6377438653093865,-0.7683745885920152,,0.1514902607297308,0.624084416551871,-0.43276100720544775,0.887785573581028,-0.44872175077238136,-0.10239905138805752,-0.26952620399912314,-0.6872005592459136,0.674619164217803,-0.37308497785253736,-0.5713179340401215,-0.7310290127928571,,0.0,0.0,0.045,1.0,0.0,0.0,0.0,1.0,0.0,0.0,0.0,1.0,,-0.007070943727902147,-0.1730894113711754,0.25860119218090627,False,,0.13371643706662795,0.5261248063486998,-0.3799533703054031,-0.06667441300201657,-0.7093210655687586,-0.7017251232435945,0.7640249178182609,0.4160357483456364,-0.4931330257154619,0.6417323800492202,-0.5690148346386829,0.5142000295191318
13:36:16.236441,,-0.06639233451970811,-0.4430068485970148,0.06757430141000001,-2.5580536579196855,-0.39759531249240676,0.5846898902225233,,0.1337105679211753,0.5261268252507751,-0.37995268698109275,-0.07922102809692236,-0.7008706529777936,-0.7088754167706394,0.7646235872598507,0.41352988802507634,-0.49431144182169734,0.6395895547248596,-0.581182724712675,0.5031419700068828,,0.01888172648372118,0.2777425213096309,-0.044176849492446595,0.9252568394222103,-0.36823804702080065,-0.09097820176286371,0.34983960448918183,0.7357654784972893,0.579860261743968,-0.14658971178275298,-0.568354126179477,0.8096058022405026,,-0.011236151595895146,0.7229330597451377,1.1988815986622077,0.998525493912733,-0.04043734661566403,-0.03621683317212714,-0.007973966393106002,-0.7691863124490244,0.63897482939552,-0.053695939011201406,-0.6377438653093865,-0.7683745885920152,,0.1514902607297308,0.624084416551871,-0.43276100720544775,0.887785573581028,-0.44872175077238136,-0.10239905138805752,-0.26952620399912314,-0.6872005592459136,0.674619164217803,-0.37308497785253736,-0.5713179340401215,-0.7310290127928571,,0.0,0.0,0.045,1.0,0.0,0.0,0.0,1.0,0.0,0.0,0.0,1.0,,-0.007070943727902147,-0.1730894113711754,0.25860119218090627,False,,0.1337105679211753,0.5261268252507751,-0.37995268698109275,-0.0672157343352395,-0.7088498190809086,-0.7021495417977126,0.7641601390533402,0.4159093631123385,-0.4930301041087338,0.6415148688376244,-0.5696940719934273,0.5137191230583046
13:36:16.250706,,-0.06639233451970811,-0.4430068485970148,0.06757430141000001,-2.55763430486101,-0.39759531249240676,0.5846898902225233,,0.13370455643550377,0.526126325930928,-0.37995287804214517,-0.0795071210382046,-0.7009907230171665,-0.7087246460707336,0.7645994218038404,0.41328674262647563,-0.49455211307447683,0.6395829437074202,-0.5812108693177266,0.5031178624392931,,0.01888218356091555,0.2777119653313413,-0.044220239231582435,0.9265809039756958,-0.3644917857532277,-0.09258081765739176,0.347808390001659,0.7369601533061128,0.579565956191002,-0.1430202556428353,-0.5692214962996036,0.809635557469164,,-0.011236151595895146,0.7229330597451377,1.1988815986622077,0.998525493912733,-0.04043734661566403,-0.03621683317212714,-0.007973966393106002,-0.7691863124490244,0.63897482939552,-0.053695939011201406,-0.6377438653093865,-0.7683745885920152,,0.1514902607297308,0.624084416551871,-0.43276100720544775,0.887785573581028,-0.44872175077238136,-0.10239905138805752,-0.26952620399912314,-0.6872005592459136,0.674619164217803,-0.37308497785253736,-0.5713179340401215,-0.7310290127928571,,0.0,0.0,0.045,1.0,0.0,0.0,0.0,1.0,0.0,0.0,0.0,1.0,,-0.007070943727902147,-0.1730894113711754,0.25860119218090627,False,,0.13370455643550377,0.526126325930928,-0.37995287804214517,-0.06835078312892656,-0.7083404997807832,-0.7025538462039568,0.7642490767497423,0.4154794696606498,-0.4932546593572854,0.6412889513572092,-0.5706404705774167,0.5129502258566181
13:36:16.263046,,-0.06638461178683389,-0.4429836803983921,0.06757430141000001,-2.55763430486101,-0.39759531249240676,0.5848276535106237,,0.13370638750132052,0.5261270225876329,-0.3799509671269592,-0.08009325897439445,-0.7008164131313922,-0.7088310270808625,0.7645497137114456,0.41308171938446925,-0.49480019035376,0.639569234040074,-0.5815667186110468,0.5027239268956397,,0.01887665501187772,0.2776941263407247,-0.04426901243433039,0.927773410183376,-0.3610131768721535,-0.09427786123867768,0.34598886404543117,0.7378049367505753,0.5795842569475007,-0.13968011652206022,-0.5703469918124489,0.8094294926781634,,-0.011236151595895146,0.7229330597451377,1.1988815986622077,0.998525493912733,-0.04043734661566403,-0.03621683317212714,-0.007973966393106002,-0.7691863124490244,0.63897482939552,-0.053695939011201406,-0.6377438653093865,-0.7683745885920152,,0.1514902607297308,0.624084416551871,-0.43276100720544775,0.887785573581028,-0.44872175077238136,-0.10239905138805752,-0.26952620399912314,-0.6872005592459136,0.674619164217803,-0.37308497785253736,-0.5713179340401215,-0.7310290127928571,,0.0,0.0,0.045,1.0,0.0,0.0,0.0,1.0,0.0,0.0,0.0,1.0,,-0.007070943727902147,-0.1730894113711754,0.25860119218090627,False,,0.13370638750132052,0.5261270225876329,-0.3799509671269592,-0.06835182426000808,-0.7082558330636637,-0.702639098721118,0.7642593028963467,0.4155291554561668,-0.4931969575152254,0.6412766532914786,-0.5707093795419703,0.5128889334408574
13:36:16.274689,,-0.06634599812246277,-0.44293734400114676,0.06757430141000001,-2.5574246283316726,-0.39759531249240676,0.5849654167987243,,0.13370808114846577,0.5261275220608688,-0.3799494685817274,-0.08050434498323032,-0.7004115138125864,-0.7091845752394662,0.7645146917597763,0.41313517538624916,-0.49480967345235616,0.6395594863046559,-0.5820163555926364,0.5022157159034257,,0.018844456605352767,0.27769514110643834,-0.04433034186057297,0.929174833071963,-0.3567575754852112,-0.09662840343989362,0.3438345294383132,0.7383912310983153,0.580116447478252,-0.1356128031690325,-0.5722598261303754,0.8087686600293121,,-0.011236151595895146,0.7229330597451377,1.1988815986622077,0.998525493912733,-0.04043734661566403,-0.03621683317212714,-0.007973966393106002,-0.7691863124490244,0.63897482939552,-0.053695939011201406,-0.6377438653093865,-0.7683745885920152,,0.1514902607297308,0.624084416551871,-0.43276100720544775,0.887785573581028,-0.44872175077238136,-0.10239905138805752,-0.26952620399912314,-0.6872005592459136,0.674619164217803,-0.37308497785253736,-0.5713179340401215,-0.7310290127928571,,0.0,0.0,0.045,1.0,0.0,0.0,0.0,1.0,0.0,0.0,0.0,1.0,,-0.007070943727902147,-0.1730894113711754,0.25860119218090627,False,,0.13370808114846577,0.5261275220608688,-0.3799494685817274,-0.0685419859300079,-0.7082047414779169,-0.7026720716756629,0.7642813370426595,0.4154265938141104,-0.4932492098324043,0.6412300944380696,-0.5708474308431312,0.5127935029685354
13:36:16.286865,,-0.06633827538958854,-0.4429064530696499,0.06757430141000001,-2.5574246283316726,-0.39759531249240676,0.5850342984427744,,0.13371133734579144,0.5261276955440228,-0.37994804745401733,-0.08077940413482905,-0.69991596310809,-0.7096423975877545,0.764491185080936,0.41332753672769923,-0.4946853295946408,0.6395529030511611,-0.5824757436744359,0.5016912319641883,,0.01878511094147421,0.2777038333538317,-0.044380739311556436,0.9304557706995412,-0.352701401525805,-0.09910674200773675,0.34191082428210673,0.7388153512418286,0.5807040822879379,-0.1315956427408808,-0.5742142146524054,0.8080402147668567,,-0.011236151595895146,0.7229330597451377,1.1988815986622077,0.998525493912733,-0.04043734661566403,-0.03621683317212714,-0.007973966393106002,-0.7691863124490244,0.63897482939552,-0.053695939011201406,-0.6377438653093865,-0.7683745885920152,,0.1514902607297308,0.624084416551871,-0.43276100720544775,0.887785573581028,-0.44872175077238136,-0.10239905138805752,-0.26952620399912314,-0.6872005592459136,0.674619164217803,-0.37308497785253736,-0.5713179340401215,-0.7310290127928571,,0.0,0.0,0.045,1.0,0.0,0.0,0.0,1.0,0.0,0.0,0.0,1.0,,-0.007070943727902147,-0.1730894113711754,0.25860119218090627,False,,0.13371133734579144,0.5261276955440228,-0.37994804745401733,-0.06854296705177146,-0.7081297866925758,-0.7027475128852947,0.7642865113963393,0.41547398410380004,-0.4932012743602039,0.6412238222066875,-0.5709059237139189,0.5127362246838076
13:36:16.300346,,-0.06632282992384009,-0.4428832848710272,0.06757430141000001,-2.5580536579196855,-0.39759531249240676,0.5851031800868246,,0.13371863515194332,0.5261289537845906,-0.37994325041805554,-0.08118297145396279,-0.699217616456828,-0.7102844852468178,0.7644565895681162,0.41358936924073686,-0.49451992509598014,0.6395431555507334,-0.58312825217741,0.5009451004858009,,0.01870522751695107,0.2777164560243205,-0.044426713843332924,0.9318599039737138,-0.3481923015746186,-0.10177858808046561,0.3397420974494623,0.739319459458779,0.5813275192072033,-0.12716944243065345,-0.576305907041678,0.8072540336982702,,-0.011236151595895146,0.7229330597451377,1.1988815986622077,0.998525493912733,-0.04043734661566403,-0.03621683317212714,-0.007973966393106002,-0.7691863124490244,0.63897482939552,-0.053695939011201406,-0.6377438653093865,-0.7683745885920152,,0.1514902607297308,0.624084416551871,-0.43276100720544775,0.887785573581028,-0.44872175077238136,-0.10239905138805752,-0.26952620399912314,-0.6872005592459136,0.674619164217803,-0.37308497785253736,-0.5713179340401215,-0.7310290127928571,,0.0,0.0,0.045,1.0,0.0,0.0,0.0,1.0,0.0,0.0,0.0,1.0,,-0.007070943727902147,-0.1730894113711754,0.25860119218090627,False,,0.13371863515194332,0.5261289537845906,-0.37994325041805554,-0.06797790304940712,-0.7082686762008117,-0.702662427492573,0.7642656648193511,0.4157479711937143,-0.49300265519218656,0.6413088166205427,-0.5705340539889451,0.5130437554085411
13:36:16.312382,,-0.06632282992384009,-0.44286783940527874,0.06757430141000001,-2.5580536579196855,-0.39759531249240676,0.585240943374925,,0.13371938091834165,0.5261295928311791,-0.37994181336940813,-0.08127885207204577,-0.6986132198936894,-0.7108680026528287,0.7644483516548585,0.4139565357798197,-0.4942253576429892,0.6395408242309635,-0.5835919426062548,0.5004078123561196,,0.018612487304599228,0.27773297973722305,-0.04446735165292958,0.9333160551390148,-0.34345698970838223,-0.10448688916461875,0.33742461509216237,0.7398767612850786,0.581967421603052,-0.12257586596369276,-0.5784278234126145,0.8064462057400307,,-0.011236151595895146,0.7229330597451377,1.1988815986622077,0.998525493912733,-0.04043734661566403,-0.03621683317212714,-0.007973966393106002,-0.7691863124490244,0.63897482939552,-0.053695939011201406,-0.6377438653093865,-0.7683745885920152,,0.1514902607297308,0.624084416551871,-0.43276100720544775,0.887785573581028,-0.44872175077238136,-0.10239905138805752,-0.26952620399912314,-0.6872005592459136,0.674619164217803,-0.37308497785253736,-0.5713179340401215,-0.7310290127928571,,0.0,0.0,0.045,1.0,0.0,0.0,0.0,1.0,0.0,0.0,0.0,1.0,,-0.007070943727902147,-0.1730894113711754,0.25860119218090627,False,,0.13371938091834165,0.5261295928311791,-0.37994181336940813,-0.06797861900260455,-0.708176711706765,-0.7027550443466719,0.7642741667229862,0.41580447612851346,-0.4929418177750575,0.6412986086359336,-0.5706070299494097,0.5129753521699942
13:36:16.324440,,-0.06632282992384009,-0.4428523939395303,0.06757430141000001,-2.5540698038622693,-0.39759531249240676,0.585516469951126,,0.13371247721993318,0.5261308094357665,-0.379941886117099,-0.0806124194495768,-0.6981864398276705,-0.7113630107555834,0.7645054626826634,0.41462322040584726,-0.4935777371687776,0.6395569054891458,-0.5836294032526522,0.5003435662623242,,0.018519103117998134,0.2777810323753775,-0.04451773294616512,0.9350132501463866,-0.33802768067169187,-0.10702419391125063,0.3343706401949066,0.7402153673799774,0.5833045120707699,-0.11795408411023588,-0.5811928818612521,0.8051511268373619,,-0.011236151595895146,0.7229330597451377,1.1988815986622077,0.998525493912733,-0.04043734661566403,-0.03621683317212714,-0.007973966393106002,-0.7691863124490244,0.63897482939552,-0.053695939011201406,-0.6377438653093865,-0.7683745885920152,,0.1514902607297308,0.624084416551871,-0.43276100720544775,0.887785573581028,-0.44872175077238136,-0.10239905138805752,-0.26952620399912314,-0.6872005592459136,0.674619164217803,-0.37308497785253736,-0.5713179340401215,-0.7310290127928571,,0.0,0.0,0.045,1.0,0.0,0.0,0.0,1.0,0.0,0.0,0.0,1.0,,-0.007070943727902147,-0.1730894113711754,0.25860119218090627,False,,0.13371247721993318,0.5261308094357665,-0.379941886117099,-0.06968162478677739,-0.7074711872105394,-0.7032986495323197,0.7644111912639228,0.41511281653032533,-0.4933121529242217,0.6409524177640218,-0.5719841508461316,0.5118731574748616
13:36:16.336566,,-0.06633055265671431,-0.4428523939395303,0.06757430141000001,-2.551973038568893,-0.39759531249240676,0.5856542332392264,,0.133703980231979,0.5261314432367455,-0.379943578856579,-0.07979776824499261,-0.6979789824056806,-0.7116583845519204,0.764574806516997,0.4152190808804468,-0.49296904579526435,0.63957617327619,-0.5834539013433089,0.500523589438757,,0.018448883967414672,0.2778258967433259,-0.044553136397917845,0.9364260188838558,-0.3335590331661435,-0.10870639288353356,0.33163881166964876,0.7405773919892424,0.5844084379711711,-0.11443079591973823,-0.5833145765115326,0.8041281583662492,,-0.011236151595895146,0.7229330597451377,1.1988815986622077,0.998525493912733,-0.04043734661566403,-0.03621683317212714,-0.007973966393106002,-0.7691863124490244,0.63897482939552,-0.053695939011201406,-0.6377438653093865,-0.7683745885920152,,0.15153705305093618,0.6240992225857236,-0.43275595700708824,0.8878112737290048,-0.44866898923488646,-0.10240742325938917,-0.2694807062267622,-0.6872191859852591,0.6746183657337559,-0.37305668632422045,-0.5713369658202623,-0.7310285769216475,,0.0,0.0,0.045,1.0,0.0,0.0,0.0,1.0,0.0,0.0,0.0,1.0,,-0.007070943727902147,-0.1730894113711754,0.25860119218090627,False,,0.133703980231979,0.5261314432367455,-0.379943578856579,-0.07157251894133523,-0.706689222738315,-0.7038946774894014,0.7645522354283825,0.414349707599151,-0.49373494824041086,0.6405757206090904,-0.5735021031155981,0.510644772702248
13:36:16.349070,,-0.06633055265671431,-0.44284467120665605,0.06757430141000001,-2.5507149793928665,-0.39759531249240676,0.5857919965273268,,0.13353152022878745,0.5261393954237068,-0.37993529902645207,-0.07922238807807656,-0.6986147805293325,-0.7110985878576609,0.7646234725365978,0.41509763907596553,-0.49299583698002375,0.639589523423642,-0.5827789790817033,0.5012922332005618,,0.018406542730996914,0.2778835409792837,-0.044581937939575544,0.9376492899153324,-0.3297289195272928,-0.10987333079939413,0.3291164005100269,0.7407761643830917,0.5855873711663481,-0.11169469149835462,-0.5852426966494796,0.8031156716076762,,-0.011236151595895146,0.7229330597451377,1.1988815986622077,0.998525493912733,-0.04043734661566403,-0.03621683317212714,-0.007973966393106002,-0.7691863124490244,0.63897482939552,-0.053695939011201406,-0.6377438653093865,-0.7683745885920152,,0.15153705305093618,0.6240992225857236,-0.43275595700708824,0.8878112737290048,-0.44866898923488646,-0.10240742325938917,-0.2694807062267622,-0.6872191859852591,0.6746183657337559,-0.37305668632422045,-0.5713369658202623,-0.7310285769216475,,0.0,0.0,0.045,1.0,0.0,0.0,0.0,1.0,0.0,0.0,0.0,1.0,,-0.007070943727902147,-0.1730894113711754,0.25860119218090627,False,,0.13353152022878745,0.5261393954237068,-0.37993529902645207,-0.07327961842178576,-0.7059164681731152,-0.7044941713640741,0.7647039086812699,0.41368210594444016,-0.49405976082753544,0.6402015538653011,-0.5749339572362802,0.509502615542929
13:36:16.360544,,-0.06633827538958854,-0.44284467120665605,0.06757430141000001,-2.5500859498048536,-0.39759531249240676,0.5859986414594774,,0.13352353792981875,0.5261405334928038,-0.37993588629736835,-0.0782819024215076,-0.6986846738023971,-0.7111340733974905,0.7647024654159444,0.41557081868566603,-0.49247439937899457,0.639610884163212,-0.5823578120456212,0.5017542183274507,,0.018391325958279317,0.27794697657383294,-0.044607816526192945,0.938775095726393,-0.3263546832766762,-0.1103607804144049,0.3265623607944342,0.7409300396041485,0.5868264329688595,-0.10974472954389174,-0.5869419550704906,0.8021476156056082,,-0.011236151595895146,0.7229330597451377,1.1988815986622077,0.998525493912733,-0.04043734661566403,-0.03621683317212714,-0.007973966393106002,-0.7691863124490244,0.63897482939552,-0.053695939011201406,-0.6377438653093865,-0.7683745885920152,,0.15153705305093618,0.6240992225857236,-0.43275595700708824,0.8878112737290048,-0.44866898923488646,-0.10240742325938917,-0.2694807062267622,-0.6872191859852591,0.6746183657337559,-0.37305668632422045,-0.5713369658202623,-0.7310285769216475,,0.0,0.0,0.045,1.0,0.0,0.0,0.0,1.0,0.0,0.0,0.0,1.0,,-0.007070943727902147,-0.1730894113711754,0.25860119218090627,False,,0.13352353792981875,0.5261405334928038,-0.37993588629736835,-0.07498081562799735,-0.7050487738767143,-0.7051837375767412,0.7648346023847713,0.413100066397743,-0.4943443801006635,0.6398483478783775,-0.5764152683587782,0.5082711187153846
13:36:16.374897,,-0.06628421625946897,-0.44284467120665605,0.06757430141000001,-2.549247243687503,-0.39759531249240676,0.5864808129678291,,0.133524764315121,0.526138860621489,-0.3799358099644351,-0.0777610843919871,-0.6985750331777181,-0.7112989081778014,0.7647459140487016,0.4159353438481866,-0.4920990516996619,0.6396224673195884,-0.5822290895847104,0.5018888189045072,,0.018411097138521435,0.2780182956926539,-0.044628355530446945,0.9402797279272003,-0.3221806442270277,-0.10980190894990802,0.3227652179659503,0.741536979687461,0.5881567098162077,-0.1080714615195846,-0.5884771310050132,0.8012477887417634,,-0.011236151595895146,0.7229330597451377,1.1988815986622077,0.998525493912733,-0.04043734661566403,-0.03621683317212714,-0.007973966393106002,-0.7691863124490244,0.63897482939552,-0.053695939011201406,-0.6377438653093865,-0.7683745885920152,,0.15153705305093618,0.6240992225857236,-0.43275595700708824,0.8878112737290048,-0.44866898923488646,-0.10240742325938917,-0.2694807062267622,-0.6872191859852591,0.6746183657337559,-0.37305668632422045,-0.5713369658202623,-0.7310285769216475,,0.0,0.0,0.045,1.0,0.0,0.0,0.0,1.0,0.0,0.0,0.0,1.0,,-0.007070943727902147,-0.1730894113711754,0.25860119218090627,False,,0.133524764315121,0.526138860621489,-0.3799358099644351,-0.07498077320360616,-0.7049128009762397,-0.7053196627555637,0.7648295050483643,0.41319998810756137,-0.49426875081820176,0.6398544458369136,-0.5765099416729462,0.5081560540768876
13:36:16.387384,,-0.06622243439647517,-0.44281378027515916,0.06757430141000001,-2.5477795079821393,-0.39759531249240676,0.58675633954403,,0.13352512900383795,0.5261389459449636,-0.3799382932168261,-0.07714508694026402,-0.6988274870395819,-0.7111179781997656,0.7647970308810191,0.4161019367196256,-0.4918787247012767,0.6396359410762944,-0.5818069453144402,0.5023609671016682,,0.018440630351410147,0.27805550713497446,-0.04462617572147853,0.9416818480221165,-0.3183715829118218,-0.10886152933203112,0.3191528135684412,0.7427221025204727,0.5886266731023598,-0.10654942029704108,-0.5890495852561358,0.8010267207856272,,-0.011236151595895146,0.7229330597451377,1.1988815986622077,0.998525493912733,-0.04043734661566403,-0.03621683317212714,-0.007973966393106002,-0.7691863124490244,0.63897482939552,-0.053695939011201406,-0.6377438653093865,-0.7683745885920152,,0.15153705305093618,0.6240992225857236,-0.43275595700708824,0.8878112737290048,-0.44866898923488646,-0.10240742325938917,-0.2694807062267622,-0.6872191859852591,0.6746183657337559,-0.37305668632422045,-0.5713369658202623,-0.7310285769216475,,0.0,0.0,0.045,1.0,0.0,0.0,0.0,1.0,0.0,0.0,0.0,1.0,,-0.007070943727902147,-0.1730894113711754,0.25860119218090627,False,,0.13352512900383795,0.5261389459449636,-0.3799382932168261,-0.07573643732261803,-0.7044651814987533,-0.7056860492581712,0.7648713363997994,0.4129985140223944,-0.49437239624525886,0.6397154295588486,-0.5772010355770536,0.5075461887484871
13:36:16.401849,,-0.0661683752663556,-0.44277516661078803,0.06757300512,-2.5463117722767756,-0.39759531249240676,0.5870318661202307,,0.13352748811671716,0.5261398893157386,-0.37993851053630107,-0.07602031226555224,-0.6993904619234346,-0.7106855098379119,0.764889606703689,0.4163355096092432,-0.4915370108090416,0.6396599109524718,-0.5809627571617106,0.5033065399051947,,0.01846120205431537,0.27808118437109075,-0.04461978109018501,0.9430458332705612,-0.3145491763381081,-0.10816036350095289,0.31569992957447823,0.7440116153090662,0.5888595443469274,-0.10475401202011293,-0.5894750411737711,0.8009501014516937,,-0.011236151595895146,0.7229330597451377,1.1988815986622077,0.998525493912733,-0.04043734661566403,-0.03621683317212714,-0.007973966393106002,-0.7691863124490244,0.63897482939552,-0.053695939011201406,-0.6377438653093865,-0.7683745885920152,,0.15153705305093618,0.6240992225857236,-0.43275595700708824,0.8878112737290048,-0.44866898923488646,-0.10240742325938917,-0.2694807062267622,-0.6872191859852591,0.6746183657337559,-0.37305668632422045,-0.5713369658202623,-0.7310285769216475,,0.0,0.0,0.045,1.0,0.0,0.0,0.0,1.0,0.0,0.0,0.0,1.0,,-0.007070943727902147,-0.1730894113711754,0.25860119218090627,False,,0.13352748811671716,0.5261398893157386,-0.37993851053630107,-0.07838392763196708,-0.7031949326412161,-0.7066631776148397,0.7650594802364981,0.41204096684725844,-0.4948800191357864,0.6391713006614473,-0.5794300029747271,0.5056885603446668
13:36:16.415482,,-0.06603708880749379,-0.4426979392820458,0.06757300512,-2.5458924192181,-0.39759531249240676,0.5875829192726325,,0.13353335579890108,0.5261395112429955,-0.3799372286140276,-0.07574137038840921,-0.6993965328831286,-0.7107093179371892,0.7649124132683982,0.4164857729667958,-0.49137419645741043,0.6396657289863206,-0.5808477345288603,0.5034318866074037,,0.018455153934953276,0.27810140968874997,-0.04462510920504069,0.9445725231288771,-0.31000860305870437,-0.10794533707935829,0.31193858602856717,0.745266076365074,0.589277163297157,-0.10223428150128407,-0.5902947760794066,0.8006715994943983,,-0.011236151595895146,0.7229330597451377,1.1988815986622077,0.998525493912733,-0.04043734661566403,-0.03621683317212714,-0.007973966393106002,-0.7691863124490244,0.63897482939552,-0.053695939011201406,-0.6377438653093865,-0.7683745885920152,,0.15153705305093618,0.6240992225857236,-0.43275595700708824,0.8878112737290048,-0.44866898923488646,-0.10240742325938917,-0.2694807062267622,-0.6872191859852591,0.6746183657337559,-0.37305668632422045,-0.5713369658202623,-0.7310285769216475,,0.0,0.0,0.045,1.0,0.0,0.0,0.0,1.0,0.0,0.0,0.0,1.0,,-0.007070943727902147,-0.1730894113711754,0.25860119218090627,False,,0.13353335579890108,0.5261395112429955,-0.3799372286140276,-0.07876332548626022,-0.7028627677333713,-0.7069513903321291,0.7650866419807479,0.41200798765480345,-0.49486548512829454,0.6390921442334966,-0.5798563165499055,0.5052997955038252
13:36:16.427249,,-0.06595213874587731,-0.4426593256176747,0.06757300512,-2.5456827426887623,-0.39759531249240676,0.587720682560733,,0.13354163336779037,0.5261387521090195,-0.37993584018458126,-0.07552942472670861,-0.6992067158016493,-0.7109186131888263,0.7649297017580627,0.4167342748441878,-0.4911365345180605,0.6396701160510576,-0.580898022675203,0.5033682845425066,,0.018450592685746385,0.27813777766017,-0.044643591704754654,0.9462346799951088,-0.3050044679894404,-0.1076575010488855,0.3077019346075283,0.7462654063781821,0.5902418108987615,-0.09968642066197739,-0.5916402204048872,0.8000014998647927,,-0.011236151595895146,0.7229330597451377,1.1988815986622077,0.998525493912733,-0.04043734661566403,-0.03621683317212714,-0.007973966393106002,-0.7691863124490244,0.63897482939552,-0.053695939011201406,-0.6377438653093865,-0.7683745885920152,,0.15153705305093618,0.6240992225857236,-0.43275595700708824,0.8878112737290048,-0.44866898923488646,-0.10240742325938917,-0.2694807062267622,-0.6872191859852591,0.6746183657337559,-0.37305668632422045,-0.5713369658202623,-0.7310285769216475,,0.0,0.0,0.045,1.0,0.0,0.0,0.0,1.0,0.0,0.0,0.0,1.0,,-0.007070943727902147,-0.1730894113711754,0.25860119218090627,False,,0.13354163336779037,0.5261387521090195,-0.37993584018458126,-0.07876501775273939,-0.7027729045184605,-0.707040533953392,0.7650846178723005,0.41207164657986645,-0.49481560765617894,0.639094358818482,-0.5799199968613296,0.5052239085462494
13:36:16.439467,,-0.06588263415000929,-0.44262071195330355,0.06757300512,-2.5456827426887623,-0.39772945396085896,0.5878575471009947,,0.13355048752020454,0.5261375294726649,-0.3799351182124223,-0.07527802324140655,-0.6989131093402491,-0.7112339170829886,0.764950163446999,0.41707606737955927,-0.49081442670485026,0.6396752822012709,-0.5810060409423867,0.503237035331441,,0.01843355054936237,0.2781773500925044,-0.04467169914256228,0.9476369138065653,-0.3005689439043068,-0.10776972463362995,0.3041217944275051,0.746772919897062,0.5914489532147311,-0.0972930508389631,-0.5932623703428834,0.7990904493170851,,-0.011236151595895146,0.7229330597451377,1.1988815986622077,0.998525493912733,-0.04043734661566403,-0.03621683317212714,-0.007973966393106002,-0.7691863124490244,0.63897482939552,-0.053695939011201406,-0.6377438653093865,-0.7683745885920152,,0.15153705305093618,0.6240992225857236,-0.43275595700708824,0.8878112737290048,-0.44866898923488646,-0.10240742325938917,-0.2694807062267622,-0.6872191859852591,0.6746183657337559,-0.37305668632422045,-0.5713369658202623,-0.7310285769216475,,0.0,0.0,0.045,1.0,0.0,0.0,0.0,1.0,0.0,0.0,0.0,1.0,,-0.007070943727902147,-0.1730894113711754,0.25860119218090627,False,,0.13355048752020454,0.5261375294726649,-0.3799351182124223,-0.07895552646659074,-0.7026714328257775,-0.7071201328847544,0.7650907208466464,0.4120161219193235,-0.49485240643339345,0.6390635443480898,-0.580082384467181,0.5050764432401567
13:36:16.452733,,-0.06580540682126705,-0.44256665282318397,0.06757300512,-2.5456827426887623,-0.39772945396085896,0.5879264287450449,,0.1335683893552534,0.5261374886611039,-0.37993023521712593,-0.07521390986698986,-0.6984708228103778,-0.7116750504585041,0.7649553738118721,0.4174165347184393,-0.49051678118081654,0.6396765931616221,-0.5812933392240479,0.5029034797402944,,0.01840602515813307,0.2782158771128405,-0.04470252509488541,0.9489528902925295,-0.2962267829114581,-0.10821019813496555,0.30080882522777974,0.7471194870162796,0.5927038591696872,-0.09473016710406285,-0.5950071487767901,0.7981002632714622,,-0.011236151595895146,0.7229330597451377,1.1988815986622077,0.998525493912733,-0.04043734661566403,-0.03621683317212714,-0.007973966393106002,-0.7691863124490244,0.63897482939552,-0.053695939011201406,-0.6377438653093865,-0.7683745885920152,,0.15153705305093618,0.6240992225857236,-0.43275595700708824,0.8878112737290048,-0.44866898923488646,-0.10240742325938917,-0.2694807062267622,-0.6872191859852591,0.6746183657337559,-0.37305668632422045,-0.5713369658202623,-0.7310285769216475,,0.0,0.0,0.045,1.0,0.0,0.0,0.0,1.0,0.0,0.0,0.0,1.0,,-0.007070943727902147,-0.1730894113711754,0.25860119218090627,False,,0.1335683893552534,0.5261374886611039,-0.37993023521712593,-0.07893299796481118,-0.7026423268611145,-0.7071515695630508,0.7651783829408608,0.4119712166664719,-0.49475424093013776,0.6389613635520515,-0.580149529984767,0.5051285962466958
13:36:16.466188,,-0.0657281794925248,-0.4425125936930644,0.06757041254000001,-2.5456827426887623,-0.39772945396085896,0.5880641920331454,,0.13357472813053467,0.526138665371889,-0.37992867987078377,-0.0750617856738449,-0.6980157994592868,-0.7121373968811541,0.764967723867801,0.4178139509413679,-0.4901590393324189,0.6396796931058304,-0.5815543363297849,0.5025976960990308,,0.01837384983742326,0.27826354896560046,-0.04474184372264281,0.9503675499282056,-0.2914255687403682,-0.10884905018730841,0.29722123552157786,0.7472964629031211,0.594292008600467,-0.09185050352258835,-0.597155417136698,0.7968339542124256,,-0.011236151595895146,0.7229330597451377,1.1988815986622077,0.998525493912733,-0.04043734661566403,-0.03621683317212714,-0.007973966393106002,-0.7691863124490244,0.63897482939552,-0.053695939011201406,-0.6377438653093865,-0.7683745885920152,,0.15153705305093618,0.6240992225857236,-0.43275595700708824,0.8878112737290048,-0.44866898923488646,-0.10240742325938917,-0.2694807062267622,-0.6872191859852591,0.6746183657337559,-0.37305668632422045,-0.5713369658202623,-0.7310285769216475,,0.0,0.0,0.045,1.0,0.0,0.0,0.0,1.0,0.0,0.0,0.0,1.0,,-0.007070943727902147,-0.1730894113711754,0.25860119218090627,False,,0.13357472813053467,0.526138665371889,-0.37992867987078377,-0.07893475925270144,-0.7026351734717998,-0.7071584806689175,0.7651840375840245,0.41196996833054317,-0.4947465349250476,0.6389543742774817,-0.5801590800754436,0.5051264687161888
13:36:16.478284,,-0.06570501129390213,-0.44249714822731595,0.06757170883000001,-2.5458924192181,-0.3978635954293112,0.5882010565734073,,0.13357852230326228,0.5261394070810735,-0.37992878963093274,-0.07485406295963482,-0.6976996041548837,-0.7124690390610341,0.7649845586169726,0.4181460861842662,-0.48984944185573553,0.639683901889074,-0.581695034335775,0.5024294902700984,,0.018366600623275837,0.27831560240634357,-0.04477898259674151,0.9516452583337606,-0.2872125999228083,-0.10890657144785454,0.2937579929967042,0.7473656323445369,0.5959289133016408,-0.08976614289081433,-0.5991109668533092,0.7956057475626194,,-0.011236151595895146,0.7229330597451377,1.1988815986622077,0.998525493912733,-0.04043734661566403,-0.03621683317212714,-0.007973966393106002,-0.7691863124490244,0.63897482939552,-0.053695939011201406,-0.6377438653093865,-0.7683745885920152,,0.15153705305093618,0.6240992225857236,-0.43275595700708824,0.8878112737290048,-0.44866898923488646,-0.10240742325938917,-0.2694807062267622,-0.6872191859852591,0.6746183657337559,-0.37305668632422045,-0.5713369658202623,-0.7310285769216475,,0.0,0.0,0.045,1.0,0.0,0.0,0.0,1.0,0.0,0.0,0.0,1.0,,-0.007070943727902147,-0.1730894113711754,0.25860119218090627,False,,0.13357852230326228,0.5261394070810735,-0.37992878963093274,-0.07893544058035462,-0.7026109195912896,-0.7071825025348603,0.7651821985433255,0.41198817351127404,-0.49473421947470664,0.6389564924568715,-0.5801755256454091,0.5051049001834027
13:36:16.491166,,-0.06568956582815368,-0.44248942549444176,0.06757041254000001,-2.5458924192181,-0.3978635954293112,0.5882699382174574,,0.1335839403852754,0.5261400964150696,-0.3799267672624715,-0.07485815691147853,-0.6974522754974959,-0.7127107265554389,0.7649842271490017,0.41831382269819073,-0.4897067264729689,0.6396838192084126,-0.5818710073057358,0.5022257881669829,,0.018360312637624946,0.2783525623010161,-0.044806899110671025,0.9527028573451624,-0.28362905665582494,-0.10907624530794943,0.2909111100239231,0.7475213187909209,0.5971334921785254,-0.08782821377326322,-0.6006265392381518,0.794682180932597,,-0.011236151595895146,0.7229330597451377,1.1988815986622077,0.998525493912733,-0.04043734661566403,-0.03621683317212714,-0.007973966393106002,-0.7691863124490244,0.63897482939552,-0.053695939011201406,-0.6377438653093865,-0.7683745885920152,,0.15153705305093618,0.6240992225857236,-0.43275595700708824,0.8878112737290048,-0.44866898923488646,-0.10240742325938917,-0.2694807062267622,-0.6872191859852591,0.6746183657337559,-0.37305668632422045,-0.5713369658202623,-0.7310285769216475,,0.0,0.0,0.045,1.0,0.0,0.0,0.0,1.0,0.0,0.0,0.0,1.0,,-0.007070943727902147,-0.1730894113711754,0.25860119218090627,False,,0.1335839403852754,0.5261400964150696,-0.3799267672624715,-0.07872100386305253,-0.7025614587156912,-0.7072555410020296,0.7652546594526801,0.412093155779487,-0.4945346672839692,0.6388961650665592,-0.5801608636292039,0.5051980429259999
13:36:16.502951,,-0.06567412036240523,-0.4424817027615675,0.06757041254000001,-2.546102095747438,-0.3978635954293112,0.5883388198615077,,0.13358658786106706,0.5261398332358621,-0.37992636346160713,-0.0748536519519469,-0.6972596773071549,-0.7128996235031823,0.7649845918936078,0.4184486080312403,-0.4895909890940474,0.6396839101891082,-0.5820049010431437,0.5020705032233355,,0.01835542907863397,0.2783761335946193,-0.04482785352695208,0.9535241798938855,-0.28075184604816356,-0.10936392100169055,0.28873446920813034,0.7477059135508891,0.5979621234248472,-0.08610733167050853,-0.601751357040598,0.794022203500007,,-0.011236151595895146,0.7229330597451377,1.1988815986622077,0.998525493912733,-0.04043734661566403,-0.03621683317212714,-0.007973966393106002,-0.7691863124490244,0.63897482939552,-0.053695939011201406,-0.6377438653093865,-0.7683745885920152,,0.15153705305093618,0.6240992225857236,-0.43275595700708824,0.8878112737290048,-0.44866898923488646,-0.10240742325938917,-0.2694807062267622,-0.6872191859852591,0.6746183657337559,-0.37305668632422045,-0.5713369658202623,-0.7310285769216475,,0.0,0.0,0.045,1.0,0.0,0.0,0.0,1.0,0.0,0.0,0.0,1.0,,-0.007070943727902147,-0.1730894113711754,0.25860119218090627,False,,0.13358658786106706,0.5261398332358621,-0.37992636346160713,-0.07853250300784567,-0.7025950719936112,-0.7072431058565473,0.7652405145291239,0.41220216171883894,-0.4944657043693912,0.6389363042545985,-0.5800427076385055,0.5052829468929926
13:36:16.516480,,-0.06572045675965058,-0.44249714822731595,0.06757170883000001,-2.5463117722767756,-0.3979977368977634,0.5885445660458197,,0.13358447923369632,0.5261399860693654,-0.3799251084023594,-0.07487072396439004,-0.6972196751477713,-0.7129369532293052,0.7649832095727193,0.41846666943078153,-0.489577711550812,0.6396835653390426,-0.5820398364049881,0.502030442376541,,0.018369135181457434,0.27839890151002905,-0.04484599672664087,0.9544447493224996,-0.2776535697964811,-0.10925474782699103,0.2861607687611118,0.7481022269789849,0.5987052335364128,-0.08449922582792292,-0.6026976334955295,0.7934786245804785,,-0.011236151595895146,0.7229330597451377,1.1988815986622077,0.998525493912733,-0.04043734661566403,-0.03621683317212714,-0.007973966393106002,-0.7691863124490244,0.63897482939552,-0.053695939011201406,-0.6377438653093865,-0.7683745885920152,,0.15153705305093618,0.6240992225857236,-0.43275595700708824,0.8878112737290048,-0.44866898923488646,-0.10240742325938917,-0.2694807062267622,-0.6872191859852591,0.6746183657337559,-0.37305668632422045,-0.5713369658202623,-0.7310285769216475,,0.0,0.0,0.045,1.0,0.0,0.0,0.0,1.0,0.0,0.0,0.0,1.0,,-0.007070943727902147,-0.1730894113711754,0.25860119218090627,False,,0.13358447923369632,0.5261399860693654,-0.3799251084023594,-0.07850554332898499,-0.7025289135752968,-0.7073118161442898,0.7653272851859965,0.4121867342512043,-0.49434425520800707,0.6388356801372735,-0.5801337963763531,0.5053056026658589
13:36:16.528204,,-0.06573590222539903,-0.4425048709601902,0.06757170883000001,-2.546521448806113,-0.39813187836621566,0.5887503122301317,,0.13358210545899316,0.5261406534028255,-0.37992467055709167,-0.07491270166621102,-0.6973168133998136,-0.7128375332984359,0.7649798096758205,0.418376815628614,-0.48965981143320925,0.6396827166005148,-0.581988059924248,0.5020915456250934,,0.018394983207669538,0.27841056366088623,-0.04485260753505557,0.9553102561165601,-0.2748573322874147,-0.10875149043907319,0.2836340704466874,0.7487968041809068,0.5990377161386969,-0.08321750937583793,-0.6031151781895961,0.7932956908977735,,-0.011236151595895146,0.7229330597451377,1.1988815986622077,0.998525493912733,-0.04043734661566403,-0.03621683317212714,-0.007973966393106002,-0.7691863124490244,0.63897482939552,-0.053695939011201406,-0.6377438653093865,-0.7683745885920152,,0.15153705305093618,0.6240992225857236,-0.43275595700708824,0.8878112737290048,-0.44866898923488646,-0.10240742325938917,-0.2694807062267622,-0.6872191859852591,0.6746183657337559,-0.37305668632422045,-0.5713369658202623,-0.7310285769216475,,0.0,0.0,0.045,1.0,0.0,0.0,0.0,1.0,0.0,0.0,0.0,1.0,,-0.007070943727902147,-0.1730894113711754,0.25860119218090627,False,,0.13358210545899316,0.5261406534028255,-0.37992467055709167,-0.07831638918560657,-0.702479531001367,-0.7073818287947662,0.7653200699769973,0.4123478173135218,-0.4942210720387974,0.6388675400075765,-0.580079120535185,0.5053280916828132
13:36:16.541699,,-0.06577451588977015,-0.4425048709601902,0.06757041254000001,-2.5467311253354508,-0.39826601983466786,0.5888871767703936,,0.13357841784627353,0.5261453922038126,-0.37992205451176003,-0.07525246289670905,-0.6974604762760437,-0.7126611753566865,0.7649522410673418,0.4180907394922784,-0.4899471424927911,0.6396758051654219,-0.5820214923725706,0.5020615965221549,,0.01841256307095428,0.27841217638367266,-0.04485412183568571,0.9561051430798854,-0.27218579658046993,-0.10847681167575471,0.28137055367002006,0.7496072687449896,0.5990900811458936,-0.0817492388888634,-0.6033184946111151,0.7932926491255038,,-0.011236151595895146,0.7229330597451377,1.1988815986622077,0.998525493912733,-0.04043734661566403,-0.03621683317212714,-0.007973966393106002,-0.7691863124490244,0.63897482939552,-0.053695939011201406,-0.6377438653093865,-0.7683745885920152,,0.15153705305093618,0.6240992225857236,-0.43275595700708824,0.8878112737290048,-0.44866898923488646,-0.10240742325938917,-0.2694807062267622,-0.6872191859852591,0.6746183657337559,-0.37305668632422045,-0.5713369658202623,-0.7310285769216475,,0.0,0.0,0.045,1.0,0.0,0.0,0.0,1.0,0.0,0.0,0.0,1.0,,-0.007070943727902147,-0.1730894113711754,0.25860119218090627,False,,0.13357841784627353,0.5261453922038126,-0.37992205451176003,-0.07788522875940118,-0.7023289143436969,-0.7075789618253926,0.7654788796224289,0.4125821610884161,-0.49377934870102047,0.6387299711091435,-0.5800948684727498,0.5054838944798304
13:36:16.553680,,-0.06581312955414127,-0.4425125936930644,0.06757041254000001,-2.5467311253354508,-0.39826601983466786,0.5890249400584939,,0.1335748552739337,0.5261467004865558,-0.379920829189899,-0.07531187092552107,-0.6975633362922333,-0.7125542182588959,0.7649474114265297,0.41798724008830873,-0.4900429826813257,0.6396745890291009,-0.5819725586178502,0.5021198673287522,,0.018425081364149092,0.27841381940689613,-0.04485782380499331,0.9568312104031438,-0.2696632272228951,-0.10838060430540737,0.27932939737349977,0.7503251961382063,0.5991475315066709,-0.08024773684553042,-0.6035597904361364,0.7932631699551385,,-0.011236151595895146,0.7229330597451377,1.1988815986622077,0.998525493912733,-0.04043734661566403,-0.03621683317212714,-0.007973966393106002,-0.7691863124490244,0.63897482939552,-0.053695939011201406,-0.6377438653093865,-0.7683745885920152,,0.15153705305093618,0.6240992225857236,-0.43275595700708824,0.8878112737290048,-0.44866898923488646,-0.10240742325938917,-0.2694807062267622,-0.6872191859852591,0.6746183657337559,-0.37305668632422045,-0.5713369658202623,-0.7310285769216475,,0.0,0.0,0.045,1.0,0.0,0.0,0.0,1.0,0.0,0.0,0.0,1.0,,-0.007070943727902147,-0.1730894113711754,0.25860119218090627,False,,0.1335748552739337,0.5261467004865558,-0.379920829189899,-0.07788529045181752,-0.7022069321998239,-0.7077000112348086,0.7654916674652534,0.4126556171325615,-0.49369813519012906,0.6387146378254549,-0.5801902843201161,0.5053937528383596
13:36:16.566060,,-0.06586718868426085,-0.44252031642593864,0.06757041254000001,-2.5473601549234637,-0.3984001613031201,0.5892995678868563,,0.1335723706748148,0.5261484664552067,-0.3799194751931836,-0.07548525155930427,-0.697579726104123,-0.7125198260578617,0.7649333005876869,0.41788030200541615,-0.4901561984183099,0.6396710267387885,-0.5820297062215631,0.5020581625933246,,0.018437985010858356,0.2784233127431741,-0.04486954887222465,0.9574692026448823,-0.26737108803226406,-0.10844799523150879,0.27754277920050385,0.7507553003873835,0.5994430957585771,-0.07885602132336149,-0.6040486078316957,0.7930337620028272,,-0.011236151595895146,0.7229330597451377,1.1988815986622077,0.998525493912733,-0.04043734661566403,-0.03621683317212714,-0.007973966393106002,-0.7691863124490244,0.63897482939552,-0.053695939011201406,-0.6377438653093865,-0.7683745885920152,,0.15153705305093618,0.6240992225857236,-0.43275595700708824,0.8878112737290048,-0.44866898923488646,-0.10240742325938917,-0.2694807062267622,-0.6872191859852591,0.6746183657337559,-0.37305668632422045,-0.5713369658202623,-0.7310285769216475,,0.0,0.0,0.045,1.0,0.0,0.0,0.0,1.0,0.0,0.0,0.0,1.0,,-0.007070943727902147,-0.1730894113711754,0.25860119218090627,False,,0.1335723706748148,0.5261484664552067,-0.3799194751931836,-0.07766954005321086,-0.7021522930956786,-0.7077779311679641,0.765570182007112,0.4127590886014969,-0.49348984913416327,0.638646802990135,-0.5801828091880543,0.505488050257509
13:36:16.578081,,-0.06587491141713507,-0.44252031642593864,0.06757041254000001,-2.5475698314528015,-0.39853430277157237,0.5894364324271181,,0.13357156084022243,0.5261488117394773,-0.37991910795882,-0.07565156238020913,-0.697533122912281,-0.7125478114131529,0.7649197432013692,0.41782058606201417,-0.4902282573695098,0.6396675914646487,-0.5821284225177773,0.501948077122305,,0.018440757326309436,0.27842849279620213,-0.04487978419179753,0.9578581728569895,-0.26585030025380546,-0.1087633591895753,0.27651997065302764,0.7509813923289383,0.5996347087701872,-0.07773388114128757,-0.6044408126415852,0.7928473229393296,,-0.011236151595895146,0.7229330597451377,1.1988815986622077,0.998525493912733,-0.04043734661566403,-0.03621683317212714,-0.007973966393106002,-0.7691863124490244,0.63897482939552,-0.053695939011201406,-0.6377438653093865,-0.7683745885920152,,0.15153705305093618,0.6240992225857236,-0.43275595700708824,0.8878112737290048,-0.44866898923488646,-0.10240742325938917,-0.2694807062267622,-0.6872191859852591,0.6746183657337559,-0.37305668632422045,-0.5713369658202623,-0.7310285769216475,,0.0,0.0,0.045,1.0,0.0,0.0,0.0,1.0,0.0,0.0,0.0,1.0,,-0.007070943727902147,-0.1730894113711754,0.25860119218090627,False,,0.13357156084022243,0.5261488117394773,-0.37991910795882,-0.07729154964714585,-0.7021776931888477,-0.7077941109822345,0.7655469476293268,0.41300180845176915,-0.4933227920854554,0.6387205079912215,-0.5799793042890041,0.5056284399318132
13:36:16.590265,,-0.06588263415000929,-0.4425125936930644,0.06757041254000001,-2.5477795079821393,-0.39853430277157237,0.5895053140711682,,0.13357158814985443,0.5261501120303068,-0.3799177711975651,-0.07584114504606812,-0.6974966963102158,-0.7125633160319409,0.7649042625346901,0.41774101924869,-0.4903202116916324,0.6396636537074487,-0.5822291640526089,0.5018362388790163,,0.018442135401185267,0.2784327028138664,-0.04488970142178572,0.958152706492677,-0.26464132382832006,-0.10911962549571051,0.2757690228976486,0.7511253523300155,0.5998007027357991,-0.076769583534145,-0.6047928626518971,0.7926731711332796,,-0.011236151595895146,0.7229330597451377,1.1988815986622077,0.998525493912733,-0.04043734661566403,-0.03621683317212714,-0.007973966393106002,-0.7691863124490244,0.63897482939552,-0.053695939011201406,-0.6377438653093865,-0.7683745885920152,,0.15153705305093618,0.6240992225857236,-0.43275595700708824,0.8878112737290048,-0.44866898923488646,-0.10240742325938917,-0.2694807062267622,-0.6872191859852591,0.6746183657337559,-0.37305668632422045,-0.5713369658202623,-0.7310285769216475,,0.0,0.0,0.045,1.0,0.0,0.0,0.0,1.0,0.0,0.0,0.0,1.0,,-0.007070943727902147,-0.1730894113711754,0.25860119218090627,False,,0.13357158814985443,0.5261501120303068,-0.3799177711975651,-0.07707615386872652,-0.7021401476991688,-0.7078548435193432,0.7656219233569778,0.4130961807780191,-0.4931273830378684,0.6386566659637765,-0.5799575488047413,0.5057340255553602
13:36:16.603288,,-0.06588263415000929,-0.4425048709601902,0.06757041254000001,-2.5477795079821393,-0.39866844424002457,0.5897110602554803,,0.13357236237049408,0.526152051484389,-0.37991499807729745,-0.07603098996655516,-0.6975094093060293,-0.7125306396880484,0.7648887324834448,0.41762747770726705,-0.49044114507628267,0.6396596872435958,-0.5822953836270902,0.5017644574120461,,0.01844578164771717,0.2784375130576008,-0.04489738193258498,0.9585259357392761,-0.26320286339614196,-0.10931222143917181,0.2747442006498041,0.7513970471366116,0.599929146070126,-0.07576630692593446,-0.6050814893840352,0.7925482549853684,,-0.011236151595895146,0.7229330597451377,1.1988815986622077,0.998525493912733,-0.04043734661566403,-0.03621683317212714,-0.007973966393106002,-0.7691863124490244,0.63897482939552,-0.053695939011201406,-0.6377438653093865,-0.7683745885920152,,0.15153705305093618,0.6240992225857236,-0.43275595700708824,0.8878112737290048,-0.44866898923488646,-0.10240742325938917,-0.2694807062267622,-0.6872191859852591,0.6746183657337559,-0.37305668632422045,-0.5713369658202623,-0.7310285769216475,,0.0,0.0,0.045,1.0,0.0,0.0,0.0,1.0,0.0,0.0,0.0,1.0,,-0.007070943727902147,-0.1730894113711754,0.25860119218090627,False,,0.13357236237049408,0.526152051484389,-0.37991499807729745,-0.07686151392842988,-0.7020099412927655,-0.7080073092862516,0.7657052844502598,0.4132468984885809,-0.4928716042282366,0.6385825906189244,-0.5800077958232084,0.5057699395404266
13:36:16.616928,,-0.06587491141713507,-0.44249714822731595,0.06757041254000001,-2.547989184511477,-0.3988025857084768,0.5898479247957422,,0.13357236237049408,0.526152051484389,-0.37991499807729745,-0.07604313435075788,-0.6974969483416333,-0.7125415417870185,0.7648877380731594,0.4176293503954055,-0.4904411012890719,0.6396594327166908,-0.5823089667370926,0.5017490183290256,,0.018444363018991588,0.2784373437383373,-0.044898854915625286,0.9591043233675078,-0.2610292996747955,-0.10942202487636264,0.27311078694997837,0.752031277561485,0.5998750149321161,-0.07429651989374077,-0.6052299068945031,0.7925701009066344,,-0.011236151595895146,0.7229330597451377,1.1988815986622077,0.998525493912733,-0.04043734661566403,-0.03621683317212714,-0.007973966393106002,-0.7691863124490244,0.63897482939552,-0.053695939011201406,-0.6377438653093865,-0.7683745885920152,,0.15153705305093618,0.6240992225857236,-0.43275595700708824,0.8878112737290048,-0.44866898923488646,-0.10240742325938917,-0.2694807062267622,-0.6872191859852591,0.6746183657337559,-0.37305668632422045,-0.5713369658202623,-0.7310285769216475,,0.0,0.0,0.045,1.0,0.0,0.0,0.0,1.0,0.0,0.0,0.0,1.0,,-0.007070943727902147,-0.1730894113711754,0.25860119218090627,False,,0.13357236237049408,0.526152051484389,-0.37991499807729745,-0.07686151392842988,-0.7020099412927655,-0.7080073092862516,0.7657052844502598,0.4132468984885809,-0.4928716042282366,0.6385825906189244,-0.5800077958232084,0.5057699395404266
13:36:16.628839,,-0.06585946595138661,-0.44248942549444176,0.06757041254000001,-2.548408537570152,-0.3988025857084768,0.5899168064397924,,0.13357418908840796,0.5261531480073924,-0.37991343350323514,-0.07619439319132765,-0.6975018189017144,-0.712520615192996,0.7648753430515239,0.4175424898666886,-0.4905343808009179,0.6396562545914947,-0.5823654194616352,0.5016875463645223,,0.018438136291386773,0.27843131392946113,-0.044892985717988984,0.9597353241176404,-0.2586936239860064,-0.10942695158679054,0.2713048068766298,0.7528805592200344,0.5996274731013801,-0.07273479628228648,-0.605175192519735,0.7927554332530679,,-0.011236151595895146,0.7229330597451377,1.1988815986622077,0.998525493912733,-0.04043734661566403,-0.03621683317212714,-0.007973966393106002,-0.7691863124490244,0.63897482939552,-0.053695939011201406,-0.6377438653093865,-0.7683745885920152,,0.15153705305093618,0.6240992225857236,-0.43275595700708824,0.8878112737290048,-0.44866898923488646,-0.10240742325938917,-0.2694807062267622,-0.6872191859852591,0.6746183657337559,-0.37305668632422045,-0.5713369658202623,-0.7310285769216475,,0.0,0.0,0.045,1.0,0.0,0.0,0.0,1.0,0.0,0.0,0.0,1.0,,-0.007070943727902147,-0.1730894113711754,0.25860119218090627,False,,0.13357418908840796,0.5261531480073924,-0.37991343350323514,-0.07664649605386761,-0.7019846157501156,-0.7080557279570775,0.7657793006418944,0.41333322128877625,-0.4926841898086993,0.6385196765574851,-0.5799769369804337,0.50588474499605
13:36:16.643884,,-0.06585174321851239,-0.44249714822731595,0.06757041254000001,-2.5488278906288278,-0.3988025857084768,0.5899856880838426,,0.13357973231067474,0.5261521203064388,-0.37991347092908495,-0.07639093538300307,-0.6973807662842588,-0.7126180546464495,0.7648592107058798,0.4175173108506722,-0.49058096471265755,0.6396521029354069,-0.5825284215871388,0.501503564547161,,0.018431175338531166,0.27843100704973495,-0.044890097568237294,0.9604465233988871,-0.25607629919066976,-0.10935220211576327,0.2692148464965607,0.7537047069922319,0.5995357207934756,-0.07110795694287242,-0.605264110181935,0.7928363732882379,,-0.011236151595895146,0.7229330597451377,1.1988815986622077,0.998525493912733,-0.04043734661566403,-0.03621683317212714,-0.007973966393106002,-0.7691863124490244,0.63897482939552,-0.053695939011201406,-0.6377438653093865,-0.7683745885920152,,0.15153705305093618,0.6240992225857236,-0.43275595700708824,0.8878112737290048,-0.44866898923488646,-0.10240742325938917,-0.2694807062267622,-0.6872191859852591,0.6746183657337559,-0.37305668632422045,-0.5713369658202623,-0.7310285769216475,,0.0,0.0,0.045,1.0,0.0,0.0,0.0,1.0,0.0,0.0,0.0,1.0,,-0.007070943727902147,-0.1730894113711754,0.25860119218090627,False,,0.13357973231067474,0.5261521203064388,-0.37991347092908495,-0.07589113939612718,-0.7021813513356688,-0.707942006662673,0.7657178335098925,0.413729204561826,-0.49244730148266197,0.6386835949091495,-0.579456206394455,0.5062744023401464
13:36:16.656416,,-0.06584402048563817,-0.4425048709601902,0.06757041254000001,-2.549037567158165,-0.398936727176929,0.5901225526241043,,0.13358021062214068,0.5261517398291599,-0.3799140151627496,-0.07643847723283871,-0.6972910324179198,-0.7127007614054276,0.7648553039251622,0.41755283290637707,-0.49055682218210644,0.6396510949383832,-0.5826103739562235,0.5014096418126768,,0.018414712882269514,0.2784283055569659,-0.044888535744571946,0.9612266798866269,-0.25310862522921407,-0.10941625861427481,0.26693037247112517,0.7545751819573892,0.5994640063980786,-0.0691669723711757,-0.6054295520942025,0.7928831006677182,,-0.011236151595895146,0.7229330597451377,1.1988815986622077,0.998525493912733,-0.04043734661566403,-0.03621683317212714,-0.007973966393106002,-0.7691863124490244,0.63897482939552,-0.053695939011201406,-0.6377438653093865,-0.7683745885920152,,0.15153705305093618,0.6240992225857236,-0.43275595700708824,0.8878112737290048,-0.44866898923488646,-0.10240742325938917,-0.2694807062267622,-0.6872191859852591,0.6746183657337559,-0.37305668632422045,-0.5713369658202623,-0.7310285769216475,,0.0,0.0,0.045,1.0,0.0,0.0,0.0,1.0,0.0,0.0,0.0,1.0,,-0.007070943727902147,-0.1730894113711754,0.25860119218090627,False,,0.13358021062214068,0.5261517398291599,-0.3799140151627496,-0.07570192135261458,-0.7022487222676415,-0.707895438025269,0.7657001208902294,0.41381780365632065,-0.49240039626887666,0.6387272845058448,-0.5793112785459332,0.5063851287086397
13:36:16.668668,,-0.06585946595138661,-0.4425048709601902,0.06757041254000001,-2.549037567158165,-0.398936727176929,0.5901914342681545,,0.13358081451385465,0.5261525772424087,-0.3799133435218187,-0.07653427602610634,-0.6972306147216364,-0.7127495875046501,0.7648474262677182,0.4175415316016824,-0.4905787234678741,0.6396490593480204,-0.5826907750107346,0.5013188023529361,,0.01839821612499504,0.2784278822709394,-0.044892654861594036,0.961819246775529,-0.25078080579181217,-0.10958380811973245,0.2651960274692188,0.7551201780064939,0.599550223755646,-0.0676068825650043,-0.6057213808652533,0.792796824675775,,-0.011236151595895146,0.7229330597451377,1.1988815986622077,0.998525493912733,-0.04043734661566403,-0.03621683317212714,-0.007973966393106002,-0.7691863124490244,0.63897482939552,-0.053695939011201406,-0.6377438653093865,-0.7683745885920152,,0.15153705305093618,0.6240992225857236,-0.43275595700708824,0.8878112737290048,-0.44866898923488646,-0.10240742325938917,-0.2694807062267622,-0.6872191859852591,0.6746183657337559,-0.37305668632422045,-0.5713369658202623,-0.7310285769216475,,0.0,0.0,0.045,1.0,0.0,0.0,0.0,1.0,0.0,0.0,0.0,1.0,,-0.007070943727902147,-0.1730894113711754,0.25860119218090627,False,,0.13358081451385465,0.5261525772424087,-0.3799133435218187,-0.07567541279805429,-0.7021510807843779,-0.7079951212057709,0.7657833347299509,0.4138269442041724,-0.49226328778460926,0.6386306570684814,-0.5794230923979186,0.5063790712976919
13:36:16.681302,,-0.06586718868426085,-0.4425048709601902,0.06757041254000001,-2.549037567158165,-0.398936727176929,0.5902603159122047,,0.1335793894563018,0.5261531005827681,-0.3799128534033831,-0.07660114617142835,-0.6971729119192938,-0.7127988463032162,0.7648419232256288,0.41754433116790257,-0.49058492025955114,0.6396476349379748,-0.5827578076658617,0.5012426964283209,,0.018388380268794306,0.2784291016143338,-0.04490191663869221,0.9621583362463377,-0.24941063869080046,-0.10973829574133659,0.2641939885619755,0.7552928199006612,0.5997758888675911,-0.06670604659309987,-0.6060725317707786,0.7926053329580647,,-0.011236151595895146,0.7229330597451377,1.1988815986622077,0.998525493912733,-0.04043734661566403,-0.03621683317212714,-0.007973966393106002,-0.7691863124490244,0.63897482939552,-0.053695939011201406,-0.6377438653093865,-0.7683745885920152,,0.15153705305093618,0.6240992225857236,-0.43275595700708824,0.8878112737290048,-0.44866898923488646,-0.10240742325938917,-0.2694807062267622,-0.6872191859852591,0.6746183657337559,-0.37305668632422045,-0.5713369658202623,-0.7310285769216475,,0.0,0.0,0.045,1.0,0.0,0.0,0.0,1.0,0.0,0.0,0.0,1.0,,-0.007070943727902147,-0.1730894113711754,0.25860119218090627,False,,0.1335793894563018,0.5261531005827681,-0.3799128534033831,-0.07567543381741129,-0.7020925093332947,-0.7080532021357039,0.765788429711657,0.41386302912120887,-0.4922250237913266,0.6386245451251472,-0.5794682920270053,0.5063350559649253
13:36:16.693872,,-0.06588263415000929,-0.4425048709601902,0.06757041254000001,-2.549037567158165,-0.398936727176929,0.5902603159122047,,0.1335772518688778,0.5261538856232545,-0.3799121182608915,-0.07671684619109213,-0.6971447460471896,-0.712813950880096,0.7648323935521508,0.4174998440579168,-0.4906376361276244,0.6396451635741337,-0.5828233722753531,0.5011696134501822,,0.018381080660221552,0.27842569700505426,-0.04491057133277017,0.962449015287185,-0.24823608565430386,-0.10986043252735817,0.26333228891863764,0.7554706676752156,0.599932289328201,-0.06592855579292065,-0.6063344720075993,0.7924711410957921,,-0.011236151595895146,0.7229330597451377,1.1988815986622077,0.998525493912733,-0.04043734661566403,-0.03621683317212714,-0.007973966393106002,-0.7691863124490244,0.63897482939552,-0.053695939011201406,-0.6377438653093865,-0.7683745885920152,,0.15153705305093618,0.6240992225857236,-0.43275595700708824,0.8878112737290048,-0.44866898923488646,-0.10240742325938917,-0.2694807062267622,-0.6872191859852591,0.6746183657337559,-0.37305668632422045,-0.5713369658202623,-0.7310285769216475,,0.0,0.0,0.045,1.0,0.0,0.0,0.0,1.0,0.0,0.0,0.0,1.0,,-0.007070943727902147,-0.1730894113711754,0.25860119218090627,False,,0.1335772518688778,0.5261538856232545,-0.3799121182608915,-0.07567546514052403,-0.7020290316775345,-0.708116136419492,0.7657960721051175,0.41390019909506004,-0.4921818781075177,0.6386153771435034,-0.5795186484238216,0.5062889848741409
13:36:16.706604,,-0.06589807961575773,-0.4425048709601902,0.06757041254000001,-2.549037567158165,-0.398936727176929,0.5903980792003052,,0.1335772518688778,0.5261538856232545,-0.3799121182608915,-0.07693697017140608,-0.6971676990575142,-0.7127677756546626,0.764814234251967,0.4173625015424442,-0.49078277210168103,0.639640437829271,-0.5828942800346257,0.5010931735680441,,0.01837869434655962,0.27841068769965593,-0.04492025090128082,0.9626429026834087,-0.24743384351520195,-0.10997766391261035,0.26277067454037606,0.7556446750585992,0.599960539719321,-0.0653465077718488,-0.6064466750687959,0.7924343605518032,,-0.011236151595895146,0.7229330597451377,1.1988815986622077,0.998525493912733,-0.04043734661566403,-0.03621683317212714,-0.007973966393106002,-0.7691863124490244,0.63897482939552,-0.053695939011201406,-0.6377438653093865,-0.7683745885920152,,0.15153705305093618,0.6240992225857236,-0.43275595700708824,0.8878112737290048,-0.44866898923488646,-0.10240742325938917,-0.2694807062267622,-0.6872191859852591,0.6746183657337559,-0.37305668632422045,-0.5713369658202623,-0.7310285769216475,,0.0,0.0,0.045,1.0,0.0,0.0,0.0,1.0,0.0,0.0,0.0,1.0,,-0.007070943727902147,-0.1730894113711754,0.25860119218090627,False,,0.1335772518688778,0.5261538856232545,-0.3799121182608915,-0.07567546514052309,-0.7019314726087256,-0.7082128435273618,0.7657960721051176,0.4139679997610688,-0.492124853184833,0.6386153771435035,-0.5795883909596238,0.5062091436755121
13:36:16.718899,,-0.06590580234863197,-0.4425048709601902,0.06757041254000001,-2.549037567158165,-0.398936727176929,0.5904669608443555,,0.13357582680986582,0.5261544090035435,-0.37991162818933844,-0.07720701472562763,-0.6971974546888455,-0.712709468193423,0.7647919053042727,0.4171928612804484,-0.49096176844810735,0.6396345976088357,-0.582980124594336,0.5010007543604652,,0.018388289153355778,0.27839609469396687,-0.04493350193097237,0.9626519245232252,-0.2474033462642824,-0.10996744124097149,0.26273349293193127,0.7555892440750951,0.6000466545144081,-0.06536333504066141,-0.6065282022786593,0.7923705925494082,,-0.011236151595895146,0.7229330597451377,1.1988815986622077,0.998525493912733,-0.04043734661566403,-0.03621683317212714,-0.007973966393106002,-0.7691863124490244,0.63897482939552,-0.053695939011201406,-0.6377438653093865,-0.7683745885920152,,0.15153705305093618,0.6240992225857236,-0.43275595700708824,0.8878112737290048,-0.44866898923488646,-0.10240742325938917,-0.2694807062267622,-0.6872191859852591,0.6746183657337559,-0.37305668632422045,-0.5713369658202623,-0.7310285769216475,,0.0,0.0,0.045,1.0,0.0,0.0,0.0,1.0,0.0,0.0,0.0,1.0,,-0.007070943727902147,-0.1730894113711754,0.25860119218090627,False,,0.13357582680986582,0.5261544090035435,-0.37991162818933844,-0.07567548588531567,-0.7019216683616353,-0.7082225584662212,0.765801166981357,0.41397017534374336,-0.49211509484658406,0.6386092651113147,-0.5795987106699679,0.5062050385996741
13:36:16.731376,,-0.06591352508150619,-0.4425125936930644,0.06757041254000001,-2.549037567158165,-0.39907086864538127,0.5906038253846173,,0.13357511428014118,0.5261546706996773,-0.37991138316059436,-0.07750520114356534,-0.697274232740047,-0.7126019843871292,0.764767183600882,0.4169752040798126,-0.4911851321750012,0.6396280940381451,-0.5830440150960967,0.5009347041059866,,0.018404253838894664,0.2783791831696575,-0.044947535381929804,0.962698025244766,-0.24728922090022482,-0.10982015978428887,0.26254825261886033,0.7555845839771803,0.6001335397904983,-0.06542813855880376,-0.6065804907522581,0.7923251737778744,,-0.011236151595895146,0.7229330597451377,1.1988815986622077,0.998525493912733,-0.04043734661566403,-0.03621683317212714,-0.007973966393106002,-0.7691863124490244,0.63897482939552,-0.053695939011201406,-0.6377438653093865,-0.7683745885920152,,0.15153705305093618,0.6240992225857236,-0.43275595700708824,0.8878112737290048,-0.44866898923488646,-0.10240742325938917,-0.2694807062267622,-0.6872191859852591,0.6746183657337559,-0.37305668632422045,-0.5713369658202623,-0.7310285769216475,,0.0,0.0,0.045,1.0,0.0,0.0,0.0,1.0,0.0,0.0,0.0,1.0,,-0.007070943727902147,-0.1730894113711754,0.25860119218090627,False,,0.13357511428014118,0.5261546706996773,-0.37991138316059436,-0.07567549621652805,-0.7018679806559036,-0.7082757633876701,0.765803714403656,0.414005159454412,-0.4920816994673658,0.6386062090818928,-0.579638737210628,0.5061630607293689
13:36:16.743868,,-0.06592124781438041,-0.4425048709601902,0.06757041254000001,-2.5488278906288278,-0.39907086864538127,0.5906038253846173,,0.13357272861182445,0.5261563542790952,-0.37991015077061174,-0.07786486275031627,-0.6974339792091837,-0.7124064203762613,0.7647372732745408,0.41666622172281814,-0.4914938072243147,0.6396201732383797,-0.58307384122397,0.5009101013823037,,0.018428510484280864,0.27836150178495384,-0.044963893252693926,0.9628780341637396,-0.24676412001412307,-0.10941863633734275,0.2618823413424438,0.7556950305350575,0.6002847138624421,-0.06544163962851118,-0.6066560536890484,0.7922656763387256,,-0.011236151595895146,0.7229330597451377,1.1988815986622077,0.998525493912733,-0.04043734661566403,-0.03621683317212714,-0.007973966393106002,-0.7691863124490244,0.63897482939552,-0.053695939011201406,-0.6377438653093865,-0.7683745885920152,,0.15153705305093618,0.6240992225857236,-0.43275595700708824,0.8878112737290048,-0.44866898923488646,-0.10240742325938917,-0.2694807062267622,-0.6872191859852591,0.6746183657337559,-0.37305668632422045,-0.5713369658202623,-0.7310285769216475,,0.0,0.0,0.045,1.0,0.0,0.0,0.0,1.0,0.0,0.0,0.0,1.0,,-0.007070943727902147,-0.1730894113711754,0.25860119218090627,False,,0.13357272861182445,0.5261563542790952,-0.37991015077061174,-0.07583783191017207,-0.7016857064390934,-0.7084389829972905,0.7659080576606484,0.4139346440781192,-0.49197861502550516,0.6384618003151464,-0.5799097169482432,0.5060348305476126
13:36:16.756823,,-0.06592897054725463,-0.4425048709601902,0.06757041254000001,-2.5488278906288278,-0.39907086864538127,0.5906727070286675,,0.13357272861182445,0.5261563542790952,-0.37991015077061174,-0.0784095103426385,-0.6975419577681694,-0.7122409464786315,0.7646917877285232,0.416290401831129,-0.49188288354427656,0.6396080193903004,-0.5832130987008319,0.5007634801334765,,0.01845225064028156,0.2783240620872844,-0.04498382299243944,0.963180631677069,-0.2457456385065585,-0.10903850424816747,0.26086061541696326,0.7561067419228547,0.6002096114147125,-0.06505423566499682,-0.6065549599709171,0.7923738198907342,,-0.011236151595895146,0.7229330597451377,1.1988815986622077,0.998525493912733,-0.04043734661566403,-0.03621683317212714,-0.007973966393106002,-0.7691863124490244,0.63897482939552,-0.053695939011201406,-0.6377438653093865,-0.7683745885920152,,0.15153705305093618,0.6240992225857236,-0.43275595700708824,0.8878112737290048,-0.44866898923488646,-0.10240742325938917,-0.2694807062267622,-0.6872191859852591,0.6746183657337559,-0.37305668632422045,-0.5713369658202623,-0.7310285769216475,,0.0,0.0,0.045,1.0,0.0,0.0,0.0,1.0,0.0,0.0,0.0,1.0,,-0.007070943727902147,-0.1730894113711754,0.25860119218090627,False,,0.13357272861182445,0.5261563542790952,-0.37991015077061174,-0.07583783191017207,-0.7016857064390934,-0.7084389829972905,0.7659080576606484,0.4139346440781192,-0.49197861502550516,0.6384618003151464,-0.5799097169482432,0.5060348305476126
13:36:16.769568,,-0.06592897054725463,-0.4425048709601902,0.06757041254000001,-2.5488278906288278,-0.39907086864538127,0.5906727070286675,,0.13357201608284186,0.5261566159940189,-0.3799099057650519,-0.07897966269285658,-0.69766730354752,-0.7120551568815825,0.764643925235026,0.4158881557817201,-0.49229737911312466,0.6395950910397097,-0.5833501310887074,0.5006203592311176,,0.01847444963436655,0.27828525699611134,-0.04500459570722183,0.9634836707093416,-0.24469023984863406,-0.10873179730275737,0.2598546114458516,0.7565196924391321,0.600125184280366,-0.06458713596526375,-0.606466274758981,0.7924795646533643,,-0.011236151595895146,0.7229330597451377,1.1988815986622077,0.998525493912733,-0.04043734661566403,-0.03621683317212714,-0.007973966393106002,-0.7691863124490244,0.63897482939552,-0.053695939011201406,-0.6377438653093865,-0.7683745885920152,,0.15153705305093618,0.6240992225857236,-0.43275595700708824,0.8878112737290048,-0.44866898923488646,-0.10240742325938917,-0.2694807062267622,-0.6872191859852591,0.6746183657337559,-0.37305668632422045,-0.5713369658202623,-0.7310285769216475,,0.0,0.0,0.045,1.0,0.0,0.0,0.0,1.0,0.0,0.0,0.0,1.0,,-0.007070943727902147,-0.1730894113711754,0.25860119218090627,False,,0.13357201608284186,0.5261566159940189,-0.3799099057650519,-0.07583784098723795,-0.7016320023326825,-0.7084921701592934,0.7659106052880422,0.4139696166688486,-0.49194522172936256,0.6384587430536914,-0.5799497303884859,0.505992829633606
13:36:16.783847,,-0.06592124781438041,-0.44249714822731595,0.06757041254000001,-2.54861821409949,-0.39907086864538127,0.5906727070286675,,0.13357224977257717,0.5261567347562665,-0.37990960685578046,-0.07955498806709864,-0.6977807675761049,-0.7118799086043555,0.7645953723998586,0.4154909239408483,-0.49270803588687456,0.6395818324330088,-0.5834974657388684,0.5004655703422091,,0.018498705910619365,0.2782440823836406,-0.04503077689914818,0.9638002005308314,-0.24358230110882192,-0.10841842448277031,0.2587972916063114,0.7568922733323286,0.6001131286275305,-0.06411594215195454,-0.606448240067045,0.7925322686210426,,-0.011236151595895146,0.7229330597451377,1.1988815986622077,0.998525493912733,-0.04043734661566403,-0.03621683317212714,-0.007973966393106002,-0.7691863124490244,0.63897482939552,-0.053695939011201406,-0.6377438653093865,-0.7683745885920152,,0.15153705305093618,0.6240992225857236,-0.43275595700708824,0.8878112737290048,-0.44866898923488646,-0.10240742325938917,-0.2694807062267622,-0.6872191859852591,0.6746183657337559,-0.37305668632422045,-0.5713369658202623,-0.7310285769216475,,0.0,0.0,0.045,1.0,0.0,0.0,0.0,1.0,0.0,0.0,0.0,1.0,,-0.007070943727902147,-0.1730894113711754,0.25860119218090627,False,,0.13357224977257717,0.5261567347562665,-0.37990960685578046,-0.0760270209043396,-0.7015694376011024,-0.708533849802876,0.7659257543943494,0.4138799556862223,-0.49199707421550565,0.6384180690173628,-0.5800893952704566,0.5058840407118002
13:36:16.796287,,-0.06592124781438041,-0.44249714822731595,0.06757041254000001,-2.548408537570152,-0.39907086864538127,0.5906727070286675,,0.13357139781632196,0.5261567955234735,-0.3799097813481433,-0.08022875215132416,-0.6978806593529587,-0.711706352809444,0.7645381850563566,0.4150481646082408,-0.4931697320862899,0.6395660332748869,-0.5836930754740972,0.5002576163584279,,0.018521603747014344,0.27819770918837133,-0.04506360353650464,0.9640657800101393,-0.24262325322973638,-0.10821453546573703,0.2579220806867237,0.757196762700254,0.6001070902188134,-0.06366026223695007,-0.6064538535031986,0.7925656764353652,,-0.011236151595895146,0.7229330597451377,1.1988815986622077,0.998525493912733,-0.04043734661566403,-0.03621683317212714,-0.007973966393106002,-0.7691863124490244,0.63897482939552,-0.053695939011201406,-0.6377438653093865,-0.7683745885920152,,0.15153705305093618,0.6240992225857236,-0.43275595700708824,0.8878112737290048,-0.44866898923488646,-0.10240742325938917,-0.2694807062267622,-0.6872191859852591,0.6746183657337559,-0.37305668632422045,-0.5713369658202623,-0.7310285769216475,,0.0,0.0,0.045,1.0,0.0,0.0,0.0,1.0,0.0,0.0,0.0,1.0,,-0.007070943727902147,-0.1730894113711754,0.25860119218090627,False,,0.13357139781632196,0.5261567955234735,-0.3799097813481433,-0.07621583181085592,-0.701499494233734,-0.7085828156053429,0.7659392216485408,0.41379713602010615,-0.4920457691739516,0.6383793979459293,-0.5802330478448928,0.5057680836775088
13:36:16.808969,,-0.06589807961575773,-0.44249714822731595,0.06757041254000001,-2.5481988610408144,-0.39907086864538127,0.5906727070286675,,0.13357125841461198,0.5261565944858357,-0.3799102009977374,-0.08112932375639142,-0.697979340787651,-0.7115074649365717,0.7644611957758728,0.4144799166305048,-0.49376662388510273,0.6395444573911602,-0.5839787997381463,0.4999516461385447,,0.018548761031770028,0.2781368428902755,-0.04510749492592406,0.9641955398506658,-0.2421268431088169,-0.10817334430060409,0.25751284959835874,0.7573900801017214,0.6000394307828251,-0.06335623775723868,-0.6064113934026981,0.7926229423424368,,-0.011236151595895146,0.7229330597451377,1.1988815986622077,0.998525493912733,-0.04043734661566403,-0.03621683317212714,-0.007973966393106002,-0.7691863124490244,0.63897482939552,-0.053695939011201406,-0.6377438653093865,-0.7683745885920152,,0.15153705305093618,0.6240992225857236,-0.43275595700708824,0.8878112737290048,-0.44866898923488646,-0.10240742325938917,-0.2694807062267622,-0.6872191859852591,0.6746183657337559,-0.37305668632422045,-0.5713369658202623,-0.7310285769216475,,0.0,0.0,0.045,1.0,0.0,0.0,0.0,1.0,0.0,0.0,0.0,1.0,,-0.007070943727902147,-0.1730894113711754,0.25860119218090627,False,,0.13357125841461198,0.5261565944858357,-0.3799102009977374,-0.0764046284932122,-0.7014344217201268,-0.7086269009647923,0.7659501206544582,0.4137132352584457,-0.49209935139299954,0.6383437517625086,-0.5803715284179104,0.5056541739050748
13:36:16.821133,,-0.06589807961575773,-0.44249714822731595,0.06757041254000001,-2.5481988610408144,-0.39907086864538127,0.5906727070286675,,0.133572683469488,0.5261560710553426,-0.3799106910056533,-0.08199588748753973,-0.6980268335597892,-0.7113615213557907,0.764386518453,0.4139655078046056,-0.4943134721564612,0.6395232011760263,-0.5842868285170986,0.4996188318898703,,0.018579361639795823,0.27808654823630585,-0.04515260574489717,0.9641966724558073,-0.24215653043325785,-0.10809675107305185,0.25748315530444255,0.7573310378551374,0.600126686487614,-0.06345957420666319,-0.6064732721799546,0.7925673274692326,,-0.011236151595895146,0.7229330597451377,1.1988815986622077,0.998525493912733,-0.04043734661566403,-0.03621683317212714,-0.007973966393106002,-0.7691863124490244,0.63897482939552,-0.053695939011201406,-0.6377438653093865,-0.7683745885920152,,0.15153705305093618,0.6240992225857236,-0.43275595700708824,0.8878112737290048,-0.44866898923488646,-0.10240742325938917,-0.2694807062267622,-0.6872191859852591,0.6746183657337559,-0.37305668632422045,-0.5713369658202623,-0.7310285769216475,,0.0,0.0,0.045,1.0,0.0,0.0,0.0,1.0,0.0,0.0,0.0,1.0,,-0.007070943727902147,-0.1730894113711754,0.25860119218090627,False,,0.133572683469488,0.5261560710553426,-0.3799106910056533,-0.07640461188069766,-0.7014442319024378,-0.7086171920114268,0.7659450211851008,0.41371106933259044,-0.49210910948024555,0.6383498725660683,-0.5803612156601127,0.5056582833815744
13:36:16.833995,,-0.06590580234863197,-0.44249714822731595,0.06757041254000001,-2.547989184511477,-0.39920501011383347,0.590740689924879,,0.13357100912076814,0.5261574928181239,-0.3799097047020749,-0.08293139791226294,-0.6981286187856878,-0.7111531585198128,0.764305243978956,0.4133744543957435,-0.4949333838803864,0.6394997085742778,-0.5845836057275379,0.4993016429454287,,0.018610874274304592,0.2780358847750199,-0.04520054868917732,0.9642002616730931,-0.24220794080550057,-0.10794954756700187,0.2574290408879563,0.7572899539353504,0.6002017582411138,-0.06362452606242491,-0.6065040602493742,0.7925305549970789,,-0.011236151595895146,0.7229330597451377,1.1988815986622077,0.998525493912733,-0.04043734661566403,-0.03621683317212714,-0.007973966393106002,-0.7691863124490244,0.63897482939552,-0.053695939011201406,-0.6377438653093865,-0.7683745885920152,,0.15153705305093618,0.6240992225857236,-0.43275595700708824,0.8878112737290048,-0.44866898923488646,-0.10240742325938917,-0.2694807062267622,-0.6872191859852591,0.6746183657337559,-0.37305668632422045,-0.5713369658202623,-0.7310285769216475,,0.0,0.0,0.045,1.0,0.0,0.0,0.0,1.0,0.0,0.0,0.0,1.0,,-0.007070943727902147,-0.1730894113711754,0.25860119218090627,False,,0.13357100912076814,0.5261574928181239,-0.3799097047020749,-0.07656685964900234,-0.7013154150118973,-0.7087271722392053,0.7660467258297879,0.4136055642976449,-0.49203948116740415,0.6382083749442274,-0.58059204769676,0.5055718982521987
13:36:16.845869,,-0.06591352508150619,-0.44249714822731595,0.06757041254000001,-2.5475698314528015,-0.39920501011383347,0.590740689924879,,0.13356859232616802,0.5261578755234743,-0.37990980991828555,-0.08373978784054971,-0.6982410751688957,-0.7109479930904964,0.7642344650458841,0.4128460830510314,-0.49548339441948225,0.6394789522481963,-0.5848226335021633,0.49904825114926865,,0.01864067662093754,0.27798371879306116,-0.045248732736159716,0.9642038081805466,-0.2422682420217497,-0.10778241718174066,0.2573757584356056,0.7573061527807734,0.6002041687507651,-0.06378612322084366,-0.6064597464991317,0.7925514750578542,,-0.011236151595895146,0.7229330597451377,1.1988815986622077,0.998525493912733,-0.04043734661566403,-0.03621683317212714,-0.007973966393106002,-0.7691863124490244,0.63897482939552,-0.053695939011201406,-0.6377438653093865,-0.7683745885920152,,0.15153705305093618,0.6240992225857236,-0.43275595700708824,0.8878112737290048,-0.44866898923488646,-0.10240742325938917,-0.2694807062267622,-0.6872191859852591,0.6746183657337559,-0.37305668632422045,-0.5713369658202623,-0.7310285769216475,,0.0,0.0,0.045,1.0,0.0,0.0,0.0,1.0,0.0,0.0,0.0,1.0,,-0.007070943727902147,-0.1730894113711754,0.25860119218090627,False,,0.13356859232616802,0.5261578755234743,-0.37990980991828555,-0.07694442596145859,-0.7011703484099204,-0.7088298087864058,0.7660760776786667,0.41344102550551864,-0.4921320571121278,0.6381277290025338,-0.5808843782885335,0.5053378479180171
