AlexandreBanks6/RCL_Autocam_Public/dataCollection/ParticipantData/Pilot06/optimizationData/Data_24.csv
System Time,q_des,q0,q1,q2,q3,q4,q5,T_des,Tx,Ty,Tz,R00,R01,R02,R10,R11,R12,R20,R21,R22,T_target,Tx,Ty,Tz,R00,R01,R02,R10,R11,R12,R20,R21,R22,worldFrame,Tx,Ty,Tz,R00,R01,R02,R10,R11,R12,R20,R21,R22,ECM_T_PSM_RCM,Tx,Ty,Tz,R00,R01,R02,R10,R11,R12,R20,R21,R22,psm3_T_cam,Tx,Ty,Tz,R00,R01,R02,R10,R11,R12,R20,R21,R22,offset,x,y,z,IK Trigered,ECM_T_PSM3,Tx,Ty,Tz,R00,R01,R02,R10,R11,R12,R20,R21,R22
15:31:36.929888,,0.2701566414061218,-0.2759023546645448,0.06399654101,-2.5853116067335837,-0.028572132780324777,1.3449293117230599,,0.028877884426203163,0.2277475612218179,-0.1696473060308734,-0.9511418710706717,-0.22135136143090212,-0.21525035630369607,-0.29628922942866204,0.45827086077385937,0.837974051322686,-0.0868437310388705,0.8608085692871974,-0.5014646282849633,,-0.005643971062443847,0.2775446663554091,-0.0688143252760272,-0.9718789889494338,-0.05980945662235134,0.22775877532416872,0.15795020369400234,-0.8829299380342798,0.44213850508161556,0.1746509776429816,0.4656796682498836,0.8675479713462702,,0.043534522619110325,0.718648480701024,1.1779610596860868,0.9905479653003999,-0.03956455337822338,-0.1313368743164669,0.054814650143351094,-0.7635421044881268,0.6434273920214344,-0.12573815080913087,-0.644544878801953,-0.7541563608703941,,0.05189288904106193,0.6519219200158858,-0.3935724818465429,0.9334797068762133,-0.35583976232969416,-0.04465087228090617,-0.27416136095985266,-0.7883257862757269,0.5507976060672363,-0.23119512323347227,-0.5019168439471858,-0.8334436374195653,,0.0,0.0,0.045,1.0,0.0,0.0,0.0,1.0,0.0,0.0,0.0,1.0,,0.019037333378670685,-0.19337877532911046,0.2249495411038443,True,,0.0721491078089246,0.5646417189435771,-0.3299322535909404,-0.11568985966732151,-0.3950640802547115,-0.9113397987922257,0.5888394362663466,0.7116172851642094,-0.38323485978320343,0.799927480880415,-0.5809692005158443,0.15030240644877926
15:31:37.368456,,0.13729474503796332,-0.40336606075362036,0.07237835215,-2.744456092500882,0.003755961116662412,0.9472855339181013,,0.0399984953244063,0.5756047445960657,-0.3780392204066361,-0.2132256741722303,-0.8776107628010745,-0.42934154340048913,0.7222694820630216,0.1543324084031707,-0.6741723095744083,0.6579221892854904,-0.45385113939726224,0.6009638392728752,,-0.005645052121793668,0.2775434243765587,-0.06881363432923268,-0.9718793455518988,-0.05981537845678274,0.22775569841359566,0.1579532324157656,-0.8829315122617802,0.44213427937077776,0.17464625397987799,0.46567592285341275,0.8675509326924836,,0.043534522619110325,0.718648480701024,1.1779610596860868,0.9905479653003999,-0.03956455337822338,-0.1313368743164669,0.054814650143351094,-0.7635421044881268,0.6434273920214344,-0.12573815080913087,-0.644544878801953,-0.7541563608703941,,0.05189288904106193,0.6519219200158858,-0.3935724818465429,0.9334797068762133,-0.35583976232969416,-0.04465087228090617,-0.27416136095985266,-0.7883257862757269,0.5507976060672363,-0.23119512323347227,-0.5019168439471858,-0.8334436374195653,,0.0,0.0,0.045,1.0,0.0,0.0,0.0,1.0,0.0,0.0,0.0,1.0,,0.019037333378670685,-0.19337877532911046,0.2249495411038443,False,,0.05413352266732563,0.5518733143854122,-0.3305265853405372,0.008758847144485826,-0.5987674969974061,-0.8008750009434439,0.5302821446518712,0.6817959742068272,-0.5039395763569039,0.8477759902592853,-0.4202757833789916,0.3234874591774207
15:31:37.503908,,0.0037146345125019893,-0.5229062429137415,0.08076664474,-2.807359051302186,0.015694551808910794,0.7526371147457688,,0.05307751649531044,0.58879883544605,-0.34294401410794245,-0.46357989066313815,-0.694432704293148,-0.5503243626997251,0.6323058945001465,0.17582314327756737,-0.7545034645834079,0.6207116405812949,-0.6977459720386079,0.35758581872157036,,-0.005645772832337282,0.27754259639140655,-0.0688131737034203,-0.9718795832676661,-0.059819326338414434,0.22775364712227786,0.15795525157478077,-0.8829325617276496,0.44213146223110045,0.17464310487685597,0.46567342590175953,0.8675529069062606,,0.043534522619110325,0.718648480701024,1.1779610596860868,0.9905479653003999,-0.03956455337822338,-0.1313368743164669,0.054814650143351094,-0.7635421044881268,0.6434273920214344,-0.12573815080913087,-0.644544878801953,-0.7541563608703941,,0.05189288904106193,0.6519219200158858,-0.3935724818465429,0.9334797068762133,-0.35583976232969416,-0.04465087228090617,-0.27416136095985266,-0.7883257862757269,0.5507976060672363,-0.23119512323347227,-0.5019168439471858,-0.8334436374195653,,0.0,0.0,0.045,1.0,0.0,0.0,0.0,1.0,0.0,0.0,0.0,1.0,,0.019037333378670685,-0.19337877532911046,0.2249495411038443,False,,0.036537416312696865,0.5422782558098952,-0.33374629293103836,0.008295714578647917,-0.6275547227191894,-0.7785282596749273,0.46622159326747836,0.6911834602056518,-0.5521800886570216,0.8846290788182151,-0.3583859572178905,0.2983134233960194
15:31:37.574705,,-0.17123615602018005,-0.6318508355704268,0.09338084273000001,-2.786391398368418,0.06076608520885973,0.6308808207625591,,0.06435549763970075,0.5800528981110119,-0.34818453658812776,-0.4000474348093891,-0.6738956838593206,-0.6211494644433065,0.6615943411984988,0.25667328074024487,-0.704564939979392,0.6342357429194229,-0.6928083676095567,0.34316408345517413,,-0.005645862919741008,0.2775424928930884,-0.06881311612323307,-0.9718796129873056,-0.05981981982355361,0.22775339071133754,0.1579555039713018,-0.8829326929154844,0.4421311100915333,0.17464271124042263,0.4656731137846344,0.8675531536876031,,0.043534522619110325,0.718648480701024,1.1779610596860868,0.9905479653003999,-0.03956455337822338,-0.1313368743164669,0.054814650143351094,-0.7635421044881268,0.6434273920214344,-0.12573815080913087,-0.644544878801953,-0.7541563608703941,,0.05189288904106193,0.6519219200158858,-0.3935724818465429,0.9334797068762133,-0.35583976232969416,-0.04465087228090617,-0.27416136095985266,-0.7883257862757269,0.5507976060672363,-0.23119512323347227,-0.5019168439471858,-0.8334436374195653,,0.0,0.0,0.045,1.0,0.0,0.0,0.0,1.0,0.0,0.0,0.0,1.0,,0.019037333378670685,-0.19337877532911046,0.2249495411038443,False,,0.009822019470364991,0.5310545676411804,-0.33870955878339265,-0.13531994998815797,-0.589496769171687,-0.7963554923972995,0.39494011315800015,0.7050430873096594,-0.5890132019366036,0.9086863144968942,-0.39421796530981035,0.13740952540870197
15:31:37.709473,,-0.2342691017396005,-0.6678156025656903,0.10112487919000002,-2.759762479142533,0.06680245128921004,0.6342275833297081,,0.03963303959115699,0.5762493215233522,-0.38431715593294746,-0.34522604083693864,-0.8375918338596976,-0.4233897738250199,0.6834140207039507,0.08483969663862742,-0.7250844793398394,0.6432450987246717,-0.5396685517294988,0.5431331303104912,,-0.005646133186597257,0.277542182398754,-0.06881294338898003,-0.9718797021284815,-0.059821300277368594,0.22775262147337583,0.15795626115905337,-0.8829330864627439,0.4421300536654816,0.17464153032862156,0.46567217742389716,0.8675538940158009,,0.043534522619110325,0.718648480701024,1.1779610596860868,0.9905479653003999,-0.03956455337822338,-0.1313368743164669,0.054814650143351094,-0.7635421044881268,0.6434273920214344,-0.12573815080913087,-0.644544878801953,-0.7541563608703941,,0.05189288904106193,0.6519219200158858,-0.3935724818465429,0.9334797068762133,-0.35583976232969416,-0.04465087228090617,-0.27416136095985266,-0.7883257862757269,0.5507976060672363,-0.23119512323347227,-0.5019168439471858,-0.8334436374195653,,0.0,0.0,0.045,1.0,0.0,0.0,0.0,1.0,0.0,0.0,0.0,1.0,,0.019037333378670685,-0.19337877532911046,0.2249495411038443,False,,-0.0003150266799257437,0.525350856923398,-0.34011698590491435,-0.20595358634576627,-0.5346380656996541,-0.8196006704342365,0.39178005747892675,0.722450282146427,-0.5697139425960693,0.896711495874301,-0.43843782744133836,0.06066930554566535
15:31:37.791114,,-0.3134116682346533,-0.6876321351209503,0.11372481799,-2.7381657966207515,0.0666683098207578,0.6609527624733547,,0.05701498583126359,0.5910548362445841,-0.3457892773518572,-0.4211196811370882,-0.6678178989582992,-0.6137405542979217,0.6524951037479746,0.24695383107608695,-0.7164244167403593,0.6300066299206045,-0.7021631285874864,0.33175079066720586,,-0.005645038432903059,0.27754260223090116,-0.0688132736823522,-0.9718700235667779,-0.059799703324343985,0.22779957238613172,0.157963812951659,-0.8829210962090743,0.4421512909303934,0.17468853280841676,0.4656976763480365,0.8675307390253995,,0.043534522619110325,0.718648480701024,1.1779610596860868,0.9905479653003999,-0.03956455337822338,-0.1313368743164669,0.054814650143351094,-0.7635421044881268,0.6434273920214344,-0.12573815080913087,-0.644544878801953,-0.7541563608703941,,0.05189288904106193,0.6519219200158858,-0.3935724818465429,0.9334797068762133,-0.35583976232969416,-0.04465087228090617,-0.27416136095985266,-0.7883257862757269,0.5507976060672363,-0.23119512323347227,-0.5019168439471858,-0.8334436374195653,,0.0,0.0,0.045,1.0,0.0,0.0,0.0,1.0,0.0,0.0,0.0,1.0,,0.019037333378670685,-0.19337877532911046,0.2249495411038443,False,,-0.013465066870561211,0.5178259435358136,-0.33877952252975846,-0.27119164728353007,-0.45181102566395615,-0.8498952215021154,0.41318134177192567,0.7428467783536555,-0.5267445706423051,0.8693309319558329,-0.4940095757959344,-0.014773955689807966
15:31:37.931718,,-0.3360392755561311,-0.6769438728230236,0.11946997527000001,-2.7268432640365172,0.06170507548802534,0.6723538617156617,,0.0017404250661702536,0.6390469639046397,-0.36785870992835096,0.9335604116914317,0.3507973747593188,-0.07352659100281203,-0.17638403053492172,0.2710674650327315,-0.9462616462548741,-0.3120154347060105,0.8963613285180807,0.3149329091132277,,-0.005644773081878947,0.27754151304289604,-0.06881299649593203,-0.9718604218160871,-0.05978404522354275,0.22784463640264951,0.15797479964085698,-0.8829110868223508,0.4421673499229622,0.17473200359172114,0.4657186603478259,0.867510718215019,,0.043534522619110325,0.718648480701024,1.1779610596860868,0.9905479653003999,-0.03956455337822338,-0.1313368743164669,0.054814650143351094,-0.7635421044881268,0.6434273920214344,-0.12573815080913087,-0.644544878801953,-0.7541563608703941,,0.05194494786754567,0.6519290456444843,-0.39356477347248187,0.9335086845914383,-0.35576933013988543,-0.044606272251556334,-0.27413212498943573,-0.7883550025287652,0.5507703405564311,-0.2311127729943525,-0.501920883924636,-0.8334640438790225,,0.0,0.0,0.045,1.0,0.0,0.0,0.0,1.0,0.0,0.0,0.0,1.0,,0.019037333378670685,-0.19337877532911046,0.2249495411038443,False,,-0.018583121936564202,0.5148853717650776,-0.3353892137932635,-0.28660329427047393,-0.4208137160529398,-0.8606825013296296,0.43843382434179656,0.7411678609533658,-0.5083758290505547,0.851841730244732,-0.5230545079353852,-0.02792218369206198
15:31:38.048438,,-0.32698823262753995,-0.6528489462554431,0.12683030989000002,-2.697069196870567,0.049632343327324725,0.6878402259655347,,-0.04929943225534888,0.5944462166651199,-0.36362624354837725,0.9518404377653542,-0.21164141219508437,0.22182807234146343,0.2941353670783688,0.42619936252727264,-0.8554755924133778,0.08651107945420825,0.8795237438667683,0.4679250122682597,,-0.005648974996722185,0.2775392500449071,-0.06881780046292,-0.9718457006361028,-0.0597613424406032,0.22791336711934854,0.15799138503152416,-0.8828989491076558,0.44218565640155866,0.1747988650357967,0.46574458066750873,0.8674833307723574,,0.043534522619110325,0.718648480701024,1.1779610596860868,0.9905479653003999,-0.03956455337822338,-0.1313368743164669,0.054814650143351094,-0.7635421044881268,0.6434273920214344,-0.12573815080913087,-0.644544878801953,-0.7541563608703941,,0.05194494786754567,0.6519290456444843,-0.39356477347248187,0.9335086845914383,-0.35576933013988543,-0.044606272251556334,-0.27413212498943573,-0.7883550025287652,0.5507703405564311,-0.2311127729943525,-0.501920883924636,-0.8334640438790225,,0.0,0.0,0.045,1.0,0.0,0.0,0.0,1.0,0.0,0.0,0.0,1.0,,0.019037333378670685,-0.19337877532911046,0.2249495411038443,False,,-0.020752997616468073,0.5098956868960931,-0.32859286914765995,-0.29249508675615465,-0.40996630489445834,-0.8639295417305127,0.4723769441037052,0.7235728431971935,-0.5032915291029392,0.8314485233030092,-0.5553106963121759,-0.017982871253828553
15:31:38.172852,,-0.28353241474427865,-0.6409327694305147,0.12949029697,-2.7073433468081127,0.050034767732681416,0.6941111518176206,,-0.03833999395269739,0.6102507280488746,-0.35618594097480444,0.9902490110340537,0.11700822313658069,0.0756040466145741,0.025898729822685138,0.37862167038838096,-0.9251891085101922,-0.1368800640694255,0.9181256484984681,0.371899370300109,,-0.005677997894263829,0.27749838144481753,-0.06880449142073837,-0.971846051817788,-0.05982844089532222,0.22789412767889877,0.15801709773978873,-0.8829586006006354,0.44205727078239065,0.17477348938664966,0.46562279958107367,0.8675537793832795,,0.043534522619110325,0.718648480701024,1.1779610596860868,0.9905479653003999,-0.03956455337822338,-0.1313368743164669,0.054814650143351094,-0.7635421044881268,0.6434273920214344,-0.12573815080913087,-0.644544878801953,-0.7541563608703941,,0.05194494786754567,0.6519290456444843,-0.39356477347248187,0.9335086845914383,-0.35576933013988543,-0.044606272251556334,-0.27413212498943573,-0.7883550025287652,0.5507703405564311,-0.2311127729943525,-0.501920883924636,-0.8334640438790225,,0.0,0.0,0.045,1.0,0.0,0.0,0.0,1.0,0.0,0.0,0.0,1.0,,0.019037333378670685,-0.19337877532911046,0.2249495411038443,False,,-0.016419599130545477,0.5056957321398562,-0.325287270667446,-0.26321483949453667,-0.44098363358408793,-0.8580509210885098,0.46215766000773256,0.7230790821591242,-0.5133877075272599,0.846834249169247,-0.5316860688930012,0.01347881964655856
15:31:38.293698,,-0.2559777038490456,-0.6305997528448023,0.12971974030000002,-2.7488592996169734,0.05097375801184702,0.6860582906986152,,0.0785509520650714,0.5645730754616383,-0.3444390160391093,-0.285074147545183,-0.6509017295458661,-0.7036047675190864,0.7040990577912148,0.35587286389082234,-0.6144908636942196,0.6503670096329539,-0.6705829130095282,0.35684914117977745,,-0.005734586682439806,0.2774223124668919,-0.06877285960380308,-0.9718490631098632,-0.06009190089973376,0.22781139738644657,0.15816755136432906,-0.8830523334192135,0.4418158812658529,0.17461985863103097,0.46541079777930217,0.8676983145555487,,0.043534522619110325,0.718648480701024,1.1779610596860868,0.9905479653003999,-0.03956455337822338,-0.1313368743164669,0.054814650143351094,-0.7635421044881268,0.6434273920214344,-0.12573815080913087,-0.644544878801953,-0.7541563608703941,,0.05194494786754567,0.6519290456444843,-0.39356477347248187,0.9335086845914383,-0.35576933013988543,-0.044606272251556334,-0.27413212498943573,-0.7883550025287652,0.5507703405564311,-0.2311127729943525,-0.501920883924636,-0.8334640438790225,,0.0,0.0,0.045,1.0,0.0,0.0,0.0,1.0,0.0,0.0,0.0,1.0,,0.019037333378670685,-0.19337877532911046,0.2249495411038443,False,,-0.012438857134770727,0.5043228111428937,-0.3234606504003465,-0.21350552175750265,-0.47670301039513663,-0.8527424183534386,0.4484267217184047,0.7276636496021864,-0.5190559587332669,0.8679451984013397,-0.4932138004231438,0.058406161012502344
15:31:38.408301,,-0.24064807909370994,-0.6235334522648869,0.12754586197,-2.8115525818889395,0.05258345563327377,0.6638891862885081,,0.025622892620986895,0.5975047178810011,-0.3571053656084896,-0.6514550678941218,-0.6928392694777875,-0.30916021927885756,0.5129007923267818,-0.10191519200067096,-0.8523767188690844,0.5590519401143551,-0.7138536546862758,0.4217509785945056,,-0.005776464733112736,0.2773676315990835,-0.06875261192078058,-0.971852475705424,-0.06031612518040606,0.22773758288852258,0.15829898194791975,-0.883119168303976,0.4416351922569042,0.17448172950465984,0.4652549578121249,0.8678096717897004,,0.043534522619110325,0.718648480701024,1.1779610596860868,0.9905479653003999,-0.03956455337822338,-0.1313368743164669,0.054814650143351094,-0.7635421044881268,0.6434273920214344,-0.12573815080913087,-0.644544878801953,-0.7541563608703941,,0.05194494786754567,0.6519290456444843,-0.39356477347248187,0.9335086845914383,-0.35576933013988543,-0.044606272251556334,-0.27413212498943573,-0.7883550025287652,0.5507703405564311,-0.2311127729943525,-0.501920883924636,-0.8334640438790225,,0.0,0.0,0.045,1.0,0.0,0.0,0.0,1.0,0.0,0.0,0.0,1.0,,0.019037333378670685,-0.19337877532911046,0.2249495411038443,False,,-0.009527259256171122,0.5054639275621564,-0.3231032391787,-0.1474856768811024,-0.514870966127775,-0.8444855613647725,0.43167037030981437,0.7347032927124527,-0.523327586769576,0.889892502784191,-0.4417227183608875,0.11389632817767772
15:31:38.539217,,-0.22630696414627502,-0.6197647586222653,0.12058219209000001,-2.871310392750178,0.04775436276899352,0.638301741423686,,0.03164291778871786,0.5888138558635471,-0.3621286514317722,-0.48614201136897117,-0.8019079652205934,-0.3472888712554701,0.6206770998093732,-0.0370922758261658,-0.7831884197600605,0.6151632974701565,-0.5962950430699578,0.5157580237435383,,-0.005800559366787075,0.2773364461559117,-0.06874353840356727,-0.9718513554130492,-0.060436035811309755,0.2277108206806945,0.1583746899178532,-0.8831559417679599,0.4415346299116458,0.17441957995903204,0.4651697081638101,0.8678679289105877,,0.043534522619110325,0.718648480701024,1.1779610596860868,0.9905479653003999,-0.03956455337822338,-0.1313368743164669,0.054814650143351094,-0.7635421044881268,0.6434273920214344,-0.12573815080913087,-0.644544878801953,-0.7541563608703941,,0.05194494786754567,0.6519290456444843,-0.39356477347248187,0.9335086845914383,-0.35576933013988543,-0.044606272251556334,-0.27413212498943573,-0.7883550025287652,0.5507703405564311,-0.2311127729943525,-0.501920883924636,-0.8334640438790225,,0.0,0.0,0.045,1.0,0.0,0.0,0.0,1.0,0.0,0.0,0.0,1.0,,0.019037333378670685,-0.19337877532911046,0.2249495411038443,False,,-0.00495809029515696,0.5110740759678029,-0.3254734508219278,-0.07555024721559914,-0.5515215982856958,-0.8307322593772637,0.4158844800990727,0.7397644602115496,-0.5289505105590113,0.9062738324360833,-0.38545099563019203,0.17347988531615946
15:31:38.654546,,-0.20034313622313224,-0.6055163164693211,0.11177519783,-2.9132456986177138,0.03755961116662412,0.6323784968436815,,0.037843920423732635,0.5955534542308535,-0.34906939302123935,-0.562752616318965,-0.6993072009509586,-0.44077083787870486,0.5784573494784655,0.04775756870574279,-0.8143133975722524,0.590505366326597,-0.7132241255940884,0.37764369319510643,,-0.005787549714781059,0.27735858361360716,-0.06875341181647207,-0.9718392094932005,-0.060418597897923865,0.22776723877191632,0.15840449327102243,-0.8831053980789595,0.4416250032929022,0.17446013453303524,0.4652679013750618,0.867807128656399,,0.043534522619110325,0.718648480701024,1.1779610596860868,0.9905479653003999,-0.03956455337822338,-0.1313368743164669,0.054814650143351094,-0.7635421044881268,0.6434273920214344,-0.12573815080913087,-0.644544878801953,-0.7541563608703941,,0.05194494786754567,0.6519290456444843,-0.39356477347248187,0.9335086845914383,-0.35576933013988543,-0.044606272251556334,-0.27413212498943573,-0.7883550025287652,0.5507703405564311,-0.2311127729943525,-0.501920883924636,-0.8334640438790225,,0.0,0.0,0.045,1.0,0.0,0.0,0.0,1.0,0.0,0.0,0.0,1.0,,0.019037333378670685,-0.19337877532911046,0.2249495411038443,False,,0.0015632854017656392,0.518103694141363,-0.32713223215967213,-0.01483182189580215,-0.5758583375386304,-0.817414944900383,0.4158170107409745,0.7399090287347168,-0.5288013263743658,0.9093273506486493,-0.34773812601452414,0.2284774935922911
15:31:38.772555,,-0.18242639595493138,-0.5918625247476922,0.10032117939000001,-2.975309951301667,0.002146263495235664,0.529163169559205,,0.040611169135051285,0.5870801464895563,-0.36164171703907927,-0.42640080860454843,-0.7705018341192386,-0.47382409609503584,0.6501986547779434,0.10307686917625164,-0.7527395753949542,0.6288275278216924,-0.6290485534994197,0.4570271956830882,,-0.005745097602961406,0.27741918691532413,-0.06878296135837243,-0.9718242168036383,-0.06019172849197265,0.22789155710406048,0.15830208030614087,-0.8830165181607684,0.44183955727181223,0.17463693008328088,0.46546610920726716,0.8676653491840649,,0.043534522619110325,0.718648480701024,1.1779610596860868,0.9905479653003999,-0.03956455337822338,-0.1313368743164669,0.054814650143351094,-0.7635421044881268,0.6434273920214344,-0.12573815080913087,-0.644544878801953,-0.7541563608703941,,0.05194494786754567,0.6519290456444843,-0.39356477347248187,0.9335086845914383,-0.35576933013988543,-0.044606272251556334,-0.27413212498943573,-0.7883550025287652,0.5507703405564311,-0.2311127729943525,-0.501920883924636,-0.8334640438790225,,0.0,0.0,0.045,1.0,0.0,0.0,0.0,1.0,0.0,0.0,0.0,1.0,,0.019037333378670685,-0.19337877532911046,0.2249495411038443,False,,0.007079419794256636,0.5269472529320193,-0.3294899719505536,0.07377189078671897,-0.6671058895403379,-0.7413011805402354,0.4358350360538821,0.6901507652952651,-0.5777021226464996,0.8969980654815615,-0.28046684884840556,0.3416618463033031
15:31:38.891938,,-0.16675697095312983,-0.5808190167375511,0.08662587554000001,-2.989358278767291,0.001207273216070061,0.5143473248535373,,0.026234076729245326,0.5821626548433689,-0.3730264968870762,-0.4754732854818942,-0.8299064071416188,-0.29185700296265493,0.6261995902146079,-0.08626046934228991,-0.7748762511807326,0.6178990435403753,-0.5511936926472744,0.5607016008339479,,-0.005716863732327732,0.2774550459631676,-0.06880172875328454,-0.9718161205650716,-0.06002819073655983,0.22796939116574405,0.1582160726272184,-0.8829707342857918,0.4419619394687273,0.1747601251830737,0.4655741593918582,0.867582618506325,,0.043534522619110325,0.718648480701024,1.1779610596860868,0.9905479653003999,-0.03956455337822338,-0.1313368743164669,0.054814650143351094,-0.7635421044881268,0.6434273920214344,-0.12573815080913087,-0.644544878801953,-0.7541563608703941,,0.05194494786754567,0.6519290456444843,-0.39356477347248187,0.9335086845914383,-0.35576933013988543,-0.044606272251556334,-0.27413212498943573,-0.7883550025287652,0.5507703405564311,-0.2311127729943525,-0.501920883924636,-0.8334640438790225,,0.0,0.0,0.045,1.0,0.0,0.0,0.0,1.0,0.0,0.0,0.0,1.0,,0.019037333378670685,-0.19337877532911046,0.2249495411038443,False,,0.013740293008308542,0.5394641326462205,-0.3347762460502668,0.09282741380766657,-0.68804100719504,-0.7197101108528454,0.43535903435519474,0.6781196830072731,-0.5921285390212396,0.8954583086057624,-0.2583665379575113,0.36249296491484795
15:31:38.987001,,-0.15336575214922454,-0.5772742823482822,0.07557629958,-2.989148602237954,-0.012877580971413984,0.47974325266132123,,0.04172880045962619,0.5893933673281927,-0.35795369954834627,-0.4821764402342132,-0.7272492001697917,-0.4884818126967073,0.6233281656284452,0.10701341724430141,-0.7746032058182919,0.6156036699186745,-0.6779798886265697,0.4017155613124346,,-0.005720129927176041,0.2774548731044687,-0.06880071864167989,-0.9718183001644995,-0.060036371254524525,0.22795794365346106,0.15821788340835394,-0.8829705098078369,0.44196173891210544,0.17474636281738787,0.46557352955147746,0.8675857281824179,,0.043534522619110325,0.718648480701024,1.1779610596860868,0.9905479653003999,-0.03956455337822338,-0.1313368743164669,0.054814650143351094,-0.7635421044881268,0.6434273920214344,-0.12573815080913087,-0.644544878801953,-0.7541563608703941,,0.05194494786754567,0.6519290456444843,-0.39356477347248187,0.9335086845914383,-0.35576933013988543,-0.044606272251556334,-0.27413212498943573,-0.7883550025287652,0.5507703405564311,-0.2311127729943525,-0.501920883924636,-0.8334640438790225,,0.0,0.0,0.045,1.0,0.0,0.0,0.0,1.0,0.0,0.0,0.0,1.0,,0.019037333378670685,-0.19337877532911046,0.2249495411038443,False,,0.018305697400237728,0.548585503669641,-0.33929182538377967,0.10403309670888544,-0.7206845235419587,-0.6854129648002438,0.44673681106093255,0.6495798456084207,-0.6152009800239668,0.8885962730240706,-0.2421979391044456,0.38953410872642585
15:31:39.071949,,-0.13975829682484095,-0.5710265914530345,0.06744078354000001,-2.9822292767698104,-0.03179152802317827,0.4471043932243707,,0.04803355786963254,0.5826691961972353,-0.36093527939222636,-0.37816398777409377,-0.7760115655600073,-0.5047752454983324,0.6707245254169056,0.1461464536832278,-0.7271656104905423,0.638060035854826,-0.6135529840143578,0.4652226633043746,,-0.005729716422430932,0.277456775349507,-0.06879668132458806,-0.9718259535910532,-0.06005608413364677,0.22792011450596683,0.15821886886988681,-0.8829665561808663,0.44196928186320267,0.17470289457079485,0.46557848246635486,0.8675918229236329,,0.043534522619110325,0.718648480701024,1.1779610596860868,0.9905479653003999,-0.03956455337822338,-0.1313368743164669,0.054814650143351094,-0.7635421044881268,0.6434273920214344,-0.12573815080913087,-0.644544878801953,-0.7541563608703941,,0.051907350404647314,0.6519314697887914,-0.3935765828268116,0.9334772091208633,-0.35584773318265583,-0.04463956586582654,-0.27417392419008735,-0.7883216226532731,0.5507973116778244,-0.23119030980154068,-0.5019177323487143,-0.8334444376248437,,0.0,0.0,0.045,1.0,0.0,0.0,0.0,1.0,0.0,0.0,0.0,1.0,,0.019037333378670685,-0.19337877532911046,0.2249495411038443,False,,0.021639840542690327,0.5548241364821493,-0.34200546613910776,0.10927742705150537,-0.7487992959224249,-0.653726287036925,0.4639299743742541,0.6200611532200972,-0.6326872411740793,0.8791060361606599,-0.23414478574899822,0.4151491256072315
15:31:39.160963,,-0.13157219997816297,-0.5681846257553198,0.06197303232,-2.96692289012816,-0.04882749451661136,0.42281279518723763,,0.04593267768412859,0.5850781584147569,-0.3593697417623906,-0.43790521254596726,-0.7581103524553171,-0.483226363441758,0.6452883527059307,0.10920461774367103,-0.756093442191853,0.6259728162525413,-0.6429176035570447,0.44137850916116056,,-0.005724029192664693,0.2774569680962969,-0.06879735797690428,-0.9718254345306188,-0.06003725741330783,0.22792728624882447,0.1582065159123629,-0.882965648294208,0.44197551691281667,0.17471696659837194,0.4655826317097411,0.8675867621903796,,0.043534522619110325,0.718648480701024,1.1779610596860868,0.9905479653003999,-0.03956455337822338,-0.1313368743164669,0.054814650143351094,-0.7635421044881268,0.6434273920214344,-0.12573815080913087,-0.644544878801953,-0.7541563608703941,,0.051907350404647314,0.6519314697887914,-0.3935765828268116,0.9334772091208633,-0.35584773318265583,-0.04463956586582654,-0.27417392419008735,-0.7883216226532731,0.5507973116778244,-0.23119030980154068,-0.5019177323487143,-0.8334444376248437,,0.0,0.0,0.045,1.0,0.0,0.0,0.0,1.0,0.0,0.0,0.0,1.0,,0.019037333378670685,-0.19337877532911046,0.2249495411038443,False,,0.024136651188909,0.5600513623330587,-0.34436165249166606,0.10456870213683755,-0.7735488982202772,-0.6250499888773802,0.4849916883557357,0.588360178289759,-0.6470049171595965,0.8682444637078146,-0.23548758494884323,0.43668884640632966
15:31:39.289867,,-0.11731603509234452,-0.5674123524678975,0.05656231786,-2.936519793374196,-0.07189982709039475,0.3951744345829556,,0.034859542056663154,0.5846224898345895,-0.3696811320204896,-0.45674733082019886,-0.7892936306063217,-0.41036257196888126,0.634196316356321,0.034582645824828666,-0.7723982605675829,0.6238404508435609,-0.6130412753575781,0.48477158188084535,,-0.005725361531344328,0.2774574411881745,-0.0687947118622645,-0.9718301859881139,-0.060035920837308625,0.2279073773972018,0.1581971745770245,-0.8829633941943215,0.4419833631815071,0.1746989937541158,0.4655870784102647,0.8675879948796201,,0.043534522619110325,0.718648480701024,1.1779610596860868,0.9905479653003999,-0.03956455337822338,-0.1313368743164669,0.054814650143351094,-0.7635421044881268,0.6434273920214344,-0.12573815080913087,-0.644544878801953,-0.7541563608703941,,0.051907350404647314,0.6519314697887914,-0.3935765828268116,0.9334772091208633,-0.35584773318265583,-0.04463956586582654,-0.27417392419008735,-0.7883216226532731,0.5507973116778244,-0.23119030980154068,-0.5019177323487143,-0.8334444376248437,,0.0,0.0,0.045,1.0,0.0,0.0,0.0,1.0,0.0,0.0,0.0,1.0,,0.019037333378670685,-0.19337877532911046,0.2249495411038443,False,,0.026441820979215748,0.56401801207774,-0.34645273112231045,0.08946891331030504,-0.7971561511441887,-0.5971075148112411,0.5073759539714326,0.552369483865216,-0.6614057715397208,0.8570676489534835,-0.24378273931404212,0.45387776011817327
15:31:39.411664,,-0.0947811005653574,-0.5652577099959888,0.051966969810000006,-2.8845200140984515,-0.098996403717745,0.3701266140174231,,0.037387628845445296,0.5858136416932805,-0.365204690954978,-0.47715907843577515,-0.7611275617407698,-0.43932226056150686,0.6260334790553187,0.05644974457022038,-0.7777502873286842,0.6167668092303734,-0.6461410535606816,0.44955582738440475,,-0.005728932899963323,0.27746010639997776,-0.06879071967752295,-0.9718375302635364,-0.06003560379681351,0.2278761447478515,0.15818479414003034,-0.8829578165679044,0.4419989381906215,0.17466935040603998,0.4655976983786675,0.8675882650141951,,0.043534522619110325,0.718648480701024,1.1779610596860868,0.9905479653003999,-0.03956455337822338,-0.1313368743164669,0.054814650143351094,-0.7635421044881268,0.6434273920214344,-0.12573815080913087,-0.644544878801953,-0.7541563608703941,,0.051907350404647314,0.6519314697887914,-0.3935765828268116,0.9334772091208633,-0.35584773318265583,-0.04463956586582654,-0.27417392419008735,-0.7883216226532731,0.5507973116778244,-0.23119030980154068,-0.5019177323487143,-0.8334444376248437,,0.0,0.0,0.045,1.0,0.0,0.0,0.0,1.0,0.0,0.0,0.0,1.0,,0.019037333378670685,-0.19337877532911046,0.2249495411038443,False,,0.029399087027094237,0.5677387378347234,-0.34847387372243355,0.05591724888219615,-0.8240822501440737,-0.5637035624110663,0.5357498542264154,0.5011879914763928,-0.679545944654395,0.8425232073799637,-0.2640057616745129,0.4695269990414173
15:31:39.531537,,-0.07785287010505729,-0.5655280056465867,0.049323834500000004,-2.8260202624132393,-0.1286416682456876,0.347059284920413,,0.03574837953904216,0.5812252250501482,-0.37379220370389704,-0.36938809143890444,-0.8355409527091928,-0.4067231911865098,0.6710115355453596,0.06296590089152868,-0.738768444433015,0.6428809820395854,-0.5458082187643687,0.5373987637323753,,-0.005725952842461858,0.2774625097071431,-0.06878982878530997,-0.9718399554548631,-0.06001896250420489,0.22787018670810374,0.15816960254550994,-0.8829534947721945,0.44201300859719184,0.1746696157923943,0.46560804017807145,0.8675826618308196,,0.043534522619110325,0.718648480701024,1.1779610596860868,0.9905479653003999,-0.03956455337822338,-0.1313368743164669,0.054814650143351094,-0.7635421044881268,0.6434273920214344,-0.12573815080913087,-0.644544878801953,-0.7541563608703941,,0.051907350404647314,0.6519314697887914,-0.3935765828268116,0.9334772091208633,-0.35584773318265583,-0.04463956586582654,-0.27417392419008735,-0.7883216226532731,0.5507973116778244,-0.23119030980154068,-0.5019177323487143,-0.8334444376248437,,0.0,0.0,0.045,1.0,0.0,0.0,0.0,1.0,0.0,0.0,0.0,1.0,,0.019037333378670685,-0.19337877532911046,0.2249495411038443,False,,0.03142915377544071,0.5699964063862385,-0.34975324577729583,0.009066592807742524,-0.8452077045755786,-0.5343610511825689,0.5695116028901233,0.44360985742990305,-0.6920020437574902,0.82193328869707,-0.2980507180281613,0.4853776245507372
15:31:39.671812,,-0.07157428827831276,-0.5714050053638715,0.047932915330000006,-2.787859134073782,-0.14232409802781495,0.3347755616439839,,0.02880143054788168,0.5802636310143959,-0.3801667195607126,-0.42864513514282976,-0.8429346847158866,-0.3251529877170354,0.6488729178796634,-0.036797435046013266,-0.7600065034039946,0.6286710463833345,-0.5367560582582778,0.5627305299717795,,-0.005719389579893006,0.2774619192004624,-0.06879052664336709,-0.9718385971837229,-0.06000018961965451,0.2278809266709124,0.15815846305907968,-0.8829538008985576,0.4420163848913237,0.17468726358145856,0.4656098809037568,0.8675781216801322,,0.043534522619110325,0.718648480701024,1.1779610596860868,0.9905479653003999,-0.03956455337822338,-0.1313368743164669,0.054814650143351094,-0.7635421044881268,0.6434273920214344,-0.12573815080913087,-0.644544878801953,-0.7541563608703941,,0.051907350404647314,0.6519314697887914,-0.3935765828268116,0.9334772091208633,-0.35584773318265583,-0.04463956586582654,-0.27417392419008735,-0.7883216226532731,0.5507973116778244,-0.23119030980154068,-0.5019177323487143,-0.8334444376248437,,0.0,0.0,0.045,1.0,0.0,0.0,0.0,1.0,0.0,0.0,0.0,1.0,,0.019037333378670685,-0.19337877532911046,0.2249495411038443,False,,0.031980564604484854,0.5709223791259299,-0.35082625453567057,-0.023605680436602827,-0.8505827595647556,-0.5253110897195394,0.5806375776332003,0.4160820727634859,-0.6998111975133652,0.8138198666113858,-0.3215348781330671,0.48405841264518845
15:31:39.773991,,-0.06602164334174533,-0.5814136671688664,0.04717977084,-2.706085287632087,-0.2261625158104581,0.23323335406721826,,0.030848960191849673,0.5775749758959962,-0.38199821215174157,-0.37572116343804973,-0.8524416272899915,-0.3635613832737875,0.6716827915557245,0.019800471732222075,-0.7405742156239915,0.6384949763879646,-0.5224473307256654,0.5651309155805934,,-0.0057259016264045405,0.27746500646252853,-0.06878783696054566,-0.9718444895365461,-0.06000931683022753,0.22785339574126035,0.1581556141241089,-0.882948636100876,0.4420277226921776,0.1746570633506701,0.4656185002778306,0.8675795769383624,,0.043534522619110325,0.718648480701024,1.1779610596860868,0.9905479653003999,-0.03956455337822338,-0.1313368743164669,0.054814650143351094,-0.7635421044881268,0.6434273920214344,-0.12573815080913087,-0.644544878801953,-0.7541563608703941,,0.051907350404647314,0.6519314697887914,-0.3935765828268116,0.9334772091208633,-0.35584773318265583,-0.04463956586582654,-0.27417392419008735,-0.7883216226532731,0.5507973116778244,-0.23119030980154068,-0.5019177323487143,-0.8334444376248437,,0.0,0.0,0.045,1.0,0.0,0.0,0.0,1.0,0.0,0.0,0.0,1.0,,0.019037333378670685,-0.19337877532911046,0.2249495411038443,False,,0.032073667526453666,0.5716537001079256,-0.3513679620804519,-0.08262669400012751,-0.8883302505868044,-0.45171030022681014,0.648252790962439,0.2963541581513371,-0.7013861503878023,0.7569287604841144,-0.35077568165253115,0.5513757998980229
15:31:39.910314,,-0.06101731243924785,-0.5953145863424706,0.04630866396,-2.68952084181441,-0.231394033080095,0.22865211439419728,,0.0373397148711441,0.5796978563651001,-0.3743462818762008,-0.3869937465839936,-0.8311654900545425,-0.399249005317829,0.6646283752618485,0.04868763846549267,-0.745586102779182,0.6391439297229372,-0.5538893770447721,0.5335743576065808,,-0.005726153304140916,0.27746527353024664,-0.06878775356471689,-0.9718447696259013,-0.06000929856317881,0.22785220590143873,0.15815520913847325,-0.8829482317467628,0.44202867528594575,0.1746558715605122,0.46561926940219894,0.8675794040825415,,0.043534522619110325,0.718648480701024,1.1779610596860868,0.9905479653003999,-0.03956455337822338,-0.1313368743164669,0.054814650143351094,-0.7635421044881268,0.6434273920214344,-0.12573815080913087,-0.644544878801953,-0.7541563608703941,,0.051907350404647314,0.6519314697887914,-0.3935765828268116,0.9334772091208633,-0.35584773318265583,-0.04463956586582654,-0.27417392419008735,-0.7883216226532731,0.5507973116778244,-0.23119030980154068,-0.5019177323487143,-0.8334444376248437,,0.0,0.0,0.045,1.0,0.0,0.0,0.0,1.0,0.0,0.0,0.0,1.0,,0.019037333378670685,-0.19337877532911046,0.2249495411038443,False,,0.0322013231372191,0.5718488783861208,-0.3528963771195226,-0.0972859121796549,-0.8870712117552826,-0.4512650181061978,0.6429913635234907,0.29006772010372345,-0.7088179062270015,0.7596693739552588,-0.35911750587912383,0.5421596252448008
15:31:40.072271,,-0.06055394846679438,-0.6130614264874384,0.045441445950000006,-2.6886821356970594,-0.2478934336997192,0.20822148341523103,,0.03611930605282352,0.5732232797823653,-0.3824959091284442,-0.2862319760191673,-0.8687581967564256,-0.4041416230391106,0.7037326237502847,0.0956358193640606,-0.7039987104562798,0.6502550654733134,-0.4859145867568583,0.5839994556531783,,-0.0057271246311137,0.27746582635637135,-0.06878736529375791,-0.9718456810474436,-0.06001042811448072,0.2278480208886941,0.15815459992399028,-0.8829473333070791,0.44203068785407634,0.17465135163593953,0.4656208274974199,0.8675794777703683,,0.043534522619110325,0.718648480701024,1.1779610596860868,0.9905479653003999,-0.03956455337822338,-0.1313368743164669,0.054814650143351094,-0.7635421044881268,0.6434273920214344,-0.12573815080913087,-0.644544878801953,-0.7541563608703941,,0.051907350404647314,0.6519314697887914,-0.3935765828268116,0.9334772091208633,-0.35584773318265583,-0.04463956586582654,-0.27417392419008735,-0.7883216226532731,0.5507973116778244,-0.23119030980154068,-0.5019177323487143,-0.8334444376248437,,0.0,0.0,0.045,1.0,0.0,0.0,0.0,1.0,0.0,0.0,0.0,1.0,,0.019037333378670685,-0.19337877532911046,0.2249495411038443,False,,0.0319302596899888,0.5721233349376322,-0.35448629434665957,-0.09634748523074657,-0.8925826203157223,-0.44046955399894605,0.6432496439087494,0.2818658701005963,-0.711885894567171,0.759570311229302,-0.35192029947525494,0.546996384920658
15:31:40.191144,,-0.05542605383830931,-0.6195871357661582,0.04478422692,-2.685746664286332,-0.2567467706175663,0.19355925751923483,,0.03960875196133014,0.5782848491412735,-0.37777998717097105,-0.37618870681189404,-0.8353328444514837,-0.4008754118772916,0.6715114480889578,0.0523030113960727,-0.7391459734615168,0.6383998997122929,-0.5472507962346842,0.5412597657944277,,-0.005729658762691845,0.2774659781885067,-0.0687864253991005,-0.9718566141064323,-0.06003432132742001,0.22779507202068092,0.158146644358093,-0.8829583223173098,0.4420115755106946,0.1745976902837663,0.46559690105275364,0.8676031150440945,,0.043534522619110325,0.718648480701024,1.1779610596860868,0.9905479653003999,-0.03956455337822338,-0.1313368743164669,0.054814650143351094,-0.7635421044881268,0.6434273920214344,-0.12573815080913087,-0.644544878801953,-0.7541563608703941,,0.051852376492015365,0.6519462556392142,-0.3935681508441009,0.933468905394963,-0.3558682488532785,-0.044649659784039966,-0.2741819343483882,-0.7883083041908789,0.5508123858635322,-0.23121433679100778,-0.501924104822434,-0.8334339346705848,,0.0,0.0,0.045,1.0,0.0,0.0,0.0,1.0,0.0,0.0,0.0,1.0,,0.019037333378670685,-0.19337877532911046,0.2249495411038443,False,,0.03222086706031735,0.5724468730978114,-0.35532626810258494,-0.09601165305902393,-0.8995580713082936,-0.42611857366345457,0.6442118172875089,0.27018883972953517,-0.7155341538687955,0.7587970064147587,-0.3432102376528282,0.5535646627326298
15:31:40.309773,,-0.05290844292131212,-0.6255876992094306,0.04441608056,-2.6853273112276566,-0.26855121984136243,0.19368681264158605,,0.03861683000649227,0.5820909628506875,-0.37077106090751616,-0.42083308347541465,-0.7875205438086793,-0.45023428227074885,0.6529749380331219,0.08154999145838636,-0.7529763138331625,0.6297009180183994,-0.6108690465004909,0.4799122439304562,,-0.005742618925072477,0.27745907566753253,-0.06879057146285104,-0.9718630873114954,-0.06006732008867781,0.22775874535849733,0.15815333544604687,-0.8829710009127343,0.4419838498667096,0.17455558288752232,0.46556859657098026,0.8676267745282351,,0.043534522619110325,0.718648480701024,1.1779610596860868,0.9905479653003999,-0.03956455337822338,-0.1313368743164669,0.054814650143351094,-0.7635421044881268,0.6434273920214344,-0.12573815080913087,-0.644544878801953,-0.7541563608703941,,0.051852376492015365,0.6519462556392142,-0.3935681508441009,0.933468905394963,-0.3558682488532785,-0.044649659784039966,-0.2741819343483882,-0.7883083041908789,0.5508123858635322,-0.23121433679100778,-0.501924104822434,-0.8334339346705848,,0.0,0.0,0.045,1.0,0.0,0.0,0.0,1.0,0.0,0.0,0.0,1.0,,0.019037333378670685,-0.19337877532911046,0.2249495411038443,False,,0.03233636575822188,0.5725811844161215,-0.3558361838150296,-0.0938629537820756,-0.8992989451776461,-0.42714301247904973,0.6474929846300412,0.2707650289427137,-0.7123476215700681,0.7562688548143349,-0.34343515589412954,0.5568749526902694
15:31:40.433008,,-0.04589620147151626,-0.6389248588832164,0.04382237974000001,-2.683649898992955,-0.2826360740288465,0.17857624571558206,,0.03826399927399314,0.5716006116188208,-0.3828581690756552,-0.24703964117787874,-0.8655704050826456,-0.43561369300306624,0.7154894027607563,0.14023323442623883,-0.6844045254813937,0.6534878194915045,-0.4807520294366113,0.5846632842660967,,-0.005755146499678054,0.2774526699086964,-0.0687949937213378,-0.9718694179314699,-0.06009794890623552,0.22772364881441032,0.15815881606724624,-0.8829830507458529,0.441957814953297,0.1745153649175119,0.46554178956926007,0.86764924870301,,0.043534522619110325,0.718648480701024,1.1779610596860868,0.9905479653003999,-0.03956455337822338,-0.1313368743164669,0.054814650143351094,-0.7635421044881268,0.6434273920214344,-0.12573815080913087,-0.644544878801953,-0.7541563608703941,,0.051852376492015365,0.6519462556392142,-0.3935681508441009,0.933468905394963,-0.3558682488532785,-0.044649659784039966,-0.2741819343483882,-0.7883083041908789,0.5508123858635322,-0.23121433679100778,-0.501924104822434,-0.8334339346705848,,0.0,0.0,0.045,1.0,0.0,0.0,0.0,1.0,0.0,0.0,0.0,1.0,,0.019037333378670685,-0.19337877532911046,0.2249495411038443,False,,0.03258957840879982,0.5726458164920626,-0.3571769763628538,-0.09103696817423229,-0.905974868606632,-0.4134269075409095,0.6474084272767524,0.2616062821287209,-0.7158383067717388,0.7566865921348717,-0.3328238131564266,0.5627199220565505
15:31:40.562539,,-0.04198077590428444,-0.6428402844504482,0.043497010950000005,-2.5916019026137143,-0.28277021549729875,0.17058507625791797,,0.036585936882539,0.5759865452452251,-0.3792588578186341,-0.30261421723163656,-0.8609642470067013,-0.40885841180715315,0.6940432151086036,0.09495400824257529,-0.7136439951967517,0.653244709960208,-0.4997242256433571,0.5688119612087555,,-0.005768323014268441,0.2774455190290257,-0.06879900176508075,-0.9718759614692349,-0.06013212966293036,0.227686704493263,0.15816611602270725,-0.8829960447254339,0.44192924506540954,0.1744723134571599,0.4655127333210036,0.867673498417156,,0.043534522619110325,0.718648480701024,1.1779610596860868,0.9905479653003999,-0.03956455337822338,-0.1313368743164669,0.054814650143351094,-0.7635421044881268,0.6434273920214344,-0.12573815080913087,-0.644544878801953,-0.7541563608703941,,0.051852376492015365,0.6519462556392142,-0.3935681508441009,0.933468905394963,-0.3558682488532785,-0.044649659784039966,-0.2741819343483882,-0.7883083041908789,0.5508123858635322,-0.23121433679100778,-0.501924104822434,-0.8334339346705848,,0.0,0.0,0.045,1.0,0.0,0.0,0.0,1.0,0.0,0.0,0.0,1.0,,0.019037333378670685,-0.19337877532911046,0.2249495411038443,False,,0.03256695237228165,0.5727294124199835,-0.35773290627776816,-0.1612751046990416,-0.8914442800405087,-0.4234588955109723,0.6519042958179224,0.22591625480455735,-0.7238664482549397,0.7409528525476179,-0.39279631031635437,0.5447016879939023
15:31:40.726220,,-0.03281389198257994,-0.6422224658205102,0.043051087190000004,-2.4423122137252866,-0.28277021549729875,0.16583224281845285,,0.030123612756674793,0.5790486690332397,-0.38059283908206865,-0.383624910146026,-0.8389735897974622,-0.38594720356262846,0.6684929791757417,0.03605360517843904,-0.7428440444308472,0.6371413227127832,-0.5429764757114224,0.5470168934464532,,-0.005781715855166123,0.27743811984826205,-0.06880287175543119,-0.9718825751302136,-0.06016749317798086,0.22764914309353043,0.15817402321252674,-0.8830093530091226,0.44189983062618393,0.17442831756141006,0.46548292631563254,0.8676983385771853,,0.043534522619110325,0.718648480701024,1.1779610596860868,0.9905479653003999,-0.03956455337822338,-0.1313368743164669,0.054814650143351094,-0.7635421044881268,0.6434273920214344,-0.12573815080913087,-0.644544878801953,-0.7541563608703941,,0.051852376492015365,0.6519462556392142,-0.3935681508441009,0.933468905394963,-0.3558682488532785,-0.044649659784039966,-0.2741819343483882,-0.7883083041908789,0.5508123858635322,-0.23121433679100778,-0.501924104822434,-0.8334339346705848,,0.0,0.0,0.045,1.0,0.0,0.0,0.0,1.0,0.0,0.0,0.0,1.0,,0.019037333378670685,-0.19337877532911046,0.2249495411038443,False,,0.032821206608192335,0.5730080253055416,-0.3580594843415954,-0.3011340176061574,-0.8438484633629554,-0.44411493368311017,0.6594071772116826,0.15215923424064964,-0.7362266920432996,0.6888399509915891,-0.5145554764214233,0.5106194116978191
15:31:40.852751,,-0.023670176259498122,-0.6501846034138357,0.0425442378,-2.3076998818904966,-0.2791483958490885,0.1529067599286545,,0.03347897662638441,0.5800538637833735,-0.376486735315292,-0.4348215132648463,-0.8216439407241092,-0.36855323397499257,0.6462802130457426,0.00027564369635835174,-0.7631001312056642,0.6270981883466243,-0.5700010163955054,0.5308923652497485,,-0.005793113186544496,0.2774316183158798,-0.06880756934404375,-0.9718790282260547,-0.06017772994587233,0.22766158058568323,0.1581880590363535,-0.883010142132807,0.44189323012549214,0.17443535316707168,0.4654801066329169,0.8676984371636942,,0.043534522619110325,0.718648480701024,1.1779610596860868,0.9905479653003999,-0.03956455337822338,-0.1313368743164669,0.054814650143351094,-0.7635421044881268,0.6434273920214344,-0.12573815080913087,-0.644544878801953,-0.7541563608703941,,0.051852376492015365,0.6519462556392142,-0.3935681508441009,0.933468905394963,-0.3558682488532785,-0.044649659784039966,-0.2741819343483882,-0.7883083041908789,0.5508123858635322,-0.23121433679100778,-0.501924104822434,-0.8334339346705848,,0.0,0.0,0.045,1.0,0.0,0.0,0.0,1.0,0.0,0.0,0.0,1.0,,0.019037333378670685,-0.19337877532911046,0.2249495411038443,False,,0.033030048555910074,0.573002181148515,-0.3592552922632898,-0.4169803308913833,-0.7890602880409919,-0.4511222289871999,0.6482703647463951,0.08970292910920608,-0.7561077427859106,0.6370815786391006,-0.6077312287071448,0.47412004367334637
15:31:40.896965,,-0.02119890173974628,-0.6549186386657353,0.042017944060000006,-2.299732173775665,-0.28048981053361083,0.11887024028945978,,0.03586936578234653,0.5865513259916794,-0.36502775255151665,-0.4286727963775005,-0.7957916071873602,-0.4277328039513128,0.6491043437723666,0.05802371025997364,-0.7584832232445963,0.628413227535624,-0.6027843453324121,0.4916786028295677,,-0.005793364844484484,0.27743188539862074,-0.06880748594408448,-0.9718793080914255,-0.06017771145048933,0.22766039074140526,0.15818765381355285,-0.883009737985062,0.44189418277312886,0.17443416135869494,0.4654808756891624,0.8676982641926598,,0.043534522619110325,0.718648480701024,1.1779610596860868,0.9905479653003999,-0.03956455337822338,-0.1313368743164669,0.054814650143351094,-0.7635421044881268,0.6434273920214344,-0.12573815080913087,-0.644544878801953,-0.7541563608703941,,0.051852376492015365,0.6519462556392142,-0.3935681508441009,0.933468905394963,-0.3558682488532785,-0.044649659784039966,-0.2741819343483882,-0.7883083041908789,0.5508123858635322,-0.23121433679100778,-0.501924104822434,-0.8334339346705848,,0.0,0.0,0.045,1.0,0.0,0.0,0.0,1.0,0.0,0.0,0.0,1.0,,0.019037333378670685,-0.19337877532911046,0.2249495411038443,False,,0.033172626043000204,0.5733227539105608,-0.3598421792746461,-0.42474616851239283,-0.799722744099578,-0.42430440123086494,0.6453150068446949,0.06126381781265394,-0.7614560306203172,0.6349482138529672,-0.5972355290811647,0.4900515161981113
15:31:41.026905,,-0.021229792671243176,-0.6575289223772232,0.041954425850000004,-2.3032966747744053,-0.2816970837496809,0.12010202115181604,,0.028928853273331955,0.5778527717497668,-0.38149489751341975,-0.358558069780419,-0.8674389927802364,-0.3449430451534705,0.6784038769540479,0.011697206954140166,-0.7345960489161298,0.6412521269587004,-0.4974060405281395,0.5842798477759281,,-0.005794084474889652,0.2774321712045821,-0.06880718106991121,-0.9718799387096584,-0.06017885875576124,0.22765739530116222,0.15818744936203663,-0.8830092440242887,0.44189524298721783,0.17443083311384086,0.4654816643749282,0.8676985101593198,,0.043534522619110325,0.718648480701024,1.1779610596860868,0.9905479653003999,-0.03956455337822338,-0.1313368743164669,0.054814650143351094,-0.7635421044881268,0.6434273920214344,-0.12573815080913087,-0.644544878801953,-0.7541563608703941,,0.051852376492015365,0.6519462556392142,-0.3935681508441009,0.933468905394963,-0.3558682488532785,-0.044649659784039966,-0.2741819343483882,-0.7883083041908789,0.5508123858635322,-0.23121433679100778,-0.501924104822434,-0.8334339346705848,,0.0,0.0,0.045,1.0,0.0,0.0,0.0,1.0,0.0,0.0,0.0,1.0,,0.019037333378670685,-0.19337877532911046,0.2249495411038443,False,,0.03311892939006042,0.5733027824332145,-0.3600497034685174,-0.42285691423670435,-0.7997926668566333,-0.4260560058543561,0.6444370198523133,0.0651393395177286,-0.7618778077166073,0.6370972904714647,-0.5967315614994306,0.487871382624939
15:31:41.146176,,-0.019924650815499236,-0.6642708681764212,0.04125572554,-2.3114740594185745,-0.2890748645145535,0.12370331715535302,,0.02750905254813279,0.5788483029822794,-0.3811866722339341,-0.3421685518546728,-0.8743796915403909,-0.34406516409454707,0.6845858356722766,0.018839270256467127,-0.7286887644894046,0.6436325937354067,-0.48487651718549474,0.5921417460063916,,-0.005794768756683417,0.27743194156983114,-0.06880682150863432,-0.971880360377412,-0.060181208844824884,0.22765497395606235,0.15818825613347762,-0.8830094685750696,0.4418945054880299,0.17442775205341934,0.465480934583831,0.8676995210352729,,0.043534522619110325,0.718648480701024,1.1779610596860868,0.9905479653003999,-0.03956455337822338,-0.1313368743164669,0.054814650143351094,-0.7635421044881268,0.6434273920214344,-0.12573815080913087,-0.644544878801953,-0.7541563608703941,,0.051852376492015365,0.6519462556392142,-0.3935681508441009,0.933468905394963,-0.3558682488532785,-0.044649659784039966,-0.2741819343483882,-0.7883083041908789,0.5508123858635322,-0.23121433679100778,-0.501924104822434,-0.8334339346705848,,0.0,0.0,0.045,1.0,0.0,0.0,0.0,1.0,0.0,0.0,0.0,1.0,,0.019037333378670685,-0.19337877532911046,0.2249495411038443,False,,0.03313593500094539,0.5737913696266574,-0.36080929645259324,-0.4123880084970966,-0.8018588960356321,-0.432386911569159,0.6468202236372629,0.0765122341843607,-0.7587947524291127,0.641529211136671,-0.5925944556512782,0.4871058225783443
15:31:41.377760,,-0.019499900507416887,-0.667498970517847,0.04095887513,-2.3190224144747313,-0.2996720405222796,0.11385112262097008,,0.031058679550943585,0.578508217208195,-0.38193586236826305,-0.35812116285692086,-0.8634714682510104,-0.3551988967190792,0.678574953582976,0.020602829237601452,-0.7342421642736598,0.6413152618516642,-0.5039767325421388,0.5785518023239412,,-0.00579433613431561,0.277432438285707,-0.0688070976691347,-0.9718802185756932,-0.06017884025212021,0.2276562054490509,0.1581870441205176,-0.8830088398844437,0.4418961956281475,0.17442964130549626,0.46548243342163453,0.867698337189946,,0.043534522619110325,0.718648480701024,1.1779610596860868,0.9905479653003999,-0.03956455337822338,-0.1313368743164669,0.054814650143351094,-0.7635421044881268,0.6434273920214344,-0.12573815080913087,-0.644544878801953,-0.7541563608703941,,0.05187748205433406,0.6519339988498813,-0.3935688530875614,0.9334818401652684,-0.3558360425200021,-0.044635915195806716,-0.2741677928222437,-0.788328502562364,0.550790516827187,-0.23117888195214387,-0.5019152148435867,-0.8334491236109572,,0.0,0.0,0.045,1.0,0.0,0.0,0.0,1.0,0.0,0.0,0.0,1.0,,0.019037333378670685,-0.19337877532911046,0.2249495411038443,True,,0.03312830887360915,0.5740394549743546,-0.36108643048612427,-0.4033382377225614,-0.808358045035523,-0.4288071093361281,0.6522532164621955,0.07468950629180371,-0.7543124148949208,0.6417819003412133,-0.5839338564223128,0.49712900108340796
15:31:41.517936,,-0.01936861404855507,-0.6804808844794185,0.040629617470000004,-2.3219578858854586,-0.30731810422405664,0.10009244682817442,,0.03195538776273274,0.5758495519972625,-0.3818389928918713,-0.33591560569200646,-0.8620771041239302,-0.3794519368745808,0.6866881867304743,0.05159453994228709,-0.7251188438131757,0.6446860011334087,-0.5041438981019628,0.5746467523176062,,-0.005785988974008188,0.2774371089133135,-0.06880317934889695,-0.9718824884498067,-0.0601731089722417,0.22764802963943562,0.15817887286782628,-0.8830077622320552,0.4419012738312637,0.17442440374089482,0.4654852184463479,0.8676978959206254,,0.043534522619110325,0.718648480701024,1.1779610596860868,0.9905479653003999,-0.03956455337822338,-0.1313368743164669,0.054814650143351094,-0.7635421044881268,0.6434273920214344,-0.12573815080913087,-0.644544878801953,-0.7541563608703941,,0.05187748205433406,0.6519339988498813,-0.3935688530875614,0.9334818401652684,-0.3558360425200021,-0.044635915195806716,-0.2741677928222437,-0.788328502562364,0.550790516827187,-0.23117888195214387,-0.5019152148435867,-0.8334491236109572,,0.0,0.0,0.045,1.0,0.0,0.0,0.0,1.0,0.0,0.0,0.0,1.0,,0.019037333378670685,-0.19337877532911046,0.2249495411038443,False,,0.03280966138154704,0.574066204552014,-0.36218879515780317,-0.39850100823877443,-0.813727497070272,-0.42313651100375493,0.6520425765715622,0.07309641135668127,-0.7546505104912428,0.6450096315332033,-0.5766320101750556,0.5014559801925549
15:31:41.574591,,-0.018295154179037862,-0.6819482037255211,0.04038461866,-2.3259417399428743,-0.314561743520477,0.10087049417349109,,0.035224172805779524,0.5857626952694974,-0.3662532352527606,-0.3966524416237947,-0.8109704203952607,-0.43010907662802983,0.6630946879416567,0.07088654312609025,-0.7451714788068514,0.634800973043866,-0.5807771304446889,0.5096328574326755,,-0.005777209216360931,0.2774422762544197,-0.06879953720296447,-0.9718846164301272,-0.060165009160889196,0.22764108524476595,0.15816948958848293,-0.8830060557859445,0.4419080421093832,0.1744210554436117,0.46548950234167447,0.8676962707652471,,0.043534522619110325,0.718648480701024,1.1779610596860868,0.9905479653003999,-0.03956455337822338,-0.1313368743164669,0.054814650143351094,-0.7635421044881268,0.6434273920214344,-0.12573815080913087,-0.644544878801953,-0.7541563608703941,,0.05187748205433406,0.6519339988498813,-0.3935688530875614,0.9334818401652684,-0.3558360425200021,-0.044635915195806716,-0.2741677928222437,-0.788328502562364,0.550790516827187,-0.23117888195214387,-0.5019152148435867,-0.8334491236109572,,0.0,0.0,0.045,1.0,0.0,0.0,0.0,1.0,0.0,0.0,0.0,1.0,,0.019037333378670685,-0.19337877532911046,0.2249495411038443,False,,0.032872423049475845,0.5742933321072522,-0.3623032230991479,-0.3927710128552162,-0.8153077029765876,-0.42544597885951196,0.6564266648567363,0.07545294703977246,-0.7506070119896799,0.6440768316945966,-0.5740907613348729,0.5055539858652055
15:31:41.644966,,-0.0173298125697598,-0.6852767015943119,0.040326285610000005,-2.328248181765589,-0.3180494217002349,0.09809186096767791,,0.03515519121704593,0.5856385871603835,-0.36637479430923503,-0.39315939958183355,-0.8128994424051431,-0.42967450827092285,0.6645554957955443,0.07173150693589882,-0.743787996623126,0.6354460476927926,-0.5779697980432128,0.5120148757814534,,-0.005766990196219216,0.27744687202035856,-0.0687965048042389,-0.9718854831481782,-0.06015461474611428,0.22764013172924846,0.15816051532622713,-0.883005337100817,0.44191269007163125,0.17442436366719327,0.4654922089351764,0.8676941537103241,,0.043534522619110325,0.718648480701024,1.1779610596860868,0.9905479653003999,-0.03956455337822338,-0.1313368743164669,0.054814650143351094,-0.7635421044881268,0.6434273920214344,-0.12573815080913087,-0.644544878801953,-0.7541563608703941,,0.05187748205433406,0.6519339988498813,-0.3935688530875614,0.9334818401652684,-0.3558360425200021,-0.044635915195806716,-0.2741677928222437,-0.788328502562364,0.550790516827187,-0.23117888195214387,-0.5019152148435867,-0.8334491236109572,,0.0,0.0,0.045,1.0,0.0,0.0,0.0,1.0,0.0,0.0,0.0,1.0,,0.019037333378670685,-0.19337877532911046,0.2249495411038443,False,,0.03285040406799455,0.5742585839246281,-0.3626051127550163,-0.3895683358752894,-0.8174627300658256,-0.4242536937219114,0.6568027385581557,0.07633473539270597,-0.7501887567772747,0.6456366426294787,-0.5709007734500395,0.5071741639400436
15:31:41.769092,,-0.01628724363173949,-0.6904663780857907,0.04000869456,-2.32908688788294,-0.32368336337522857,0.08675752393421951,,0.02874934139754221,0.5779402509221582,-0.38151384393498733,-0.36450740899480355,-0.8636792549078045,-0.34812712251387984,0.6758720979388055,0.011790326270545536,-0.7369246199132116,0.6405710390079247,-0.5039038924719011,0.5794390486806823,,-0.005758029505618365,0.277452803154546,-0.06879305543263875,-0.9718877490586844,-0.06014412793822595,0.22763322878251696,0.15814951477122485,-0.8830025975867789,0.4419221010250413,0.17442171295176967,0.46549876076237945,0.8676911717433912,,0.043534522619110325,0.718648480701024,1.1779610596860868,0.9905479653003999,-0.03956455337822338,-0.1313368743164669,0.054814650143351094,-0.7635421044881268,0.6434273920214344,-0.12573815080913087,-0.644544878801953,-0.7541563608703941,,0.05187748205433406,0.6519339988498813,-0.3935688530875614,0.9334818401652684,-0.3558360425200021,-0.044635915195806716,-0.2741677928222437,-0.788328502562364,0.550790516827187,-0.23117888195214387,-0.5019152148435867,-0.8334491236109572,,0.0,0.0,0.045,1.0,0.0,0.0,0.0,1.0,0.0,0.0,0.0,1.0,,0.019037333378670685,-0.19337877532911046,0.2249495411038443,False,,0.03282728653450914,0.5744422734655895,-0.36308615361382385,-0.3869743716959623,-0.822038610956,-0.4177359904868691,0.6579088375897549,0.07127405281747146,-0.7497172605831282,0.6460702725492119,-0.5649535657843949,0.5132452351806929
15:31:41.811852,,-0.015916552453776715,-0.6926132978248252,0.03957962257000001,-2.3311836531763164,-0.3246223536543942,0.08275609734443631,,0.03493189060318011,0.5854884642602057,-0.3667799831901069,-0.3881162399300108,-0.8187339515725426,-0.4231317771628594,0.6665421171432969,0.06770394425003373,-0.7423865448720899,0.6364647597288648,-0.5701674249511259,0.519443661187506,,-0.005748962729739845,0.27745718798026076,-0.06878944199070729,-0.9718893881555274,-0.06013724943489932,0.22762804826965638,0.15814154794581645,-0.883002013688881,0.44192611890751143,0.17441980375504768,0.46550075723865325,0.8676904845659337,,0.043534522619110325,0.718648480701024,1.1779610596860868,0.9905479653003999,-0.03956455337822338,-0.1313368743164669,0.054814650143351094,-0.7635421044881268,0.6434273920214344,-0.12573815080913087,-0.644544878801953,-0.7541563608703941,,0.05187748205433406,0.6519339988498813,-0.3935688530875614,0.9334818401652684,-0.3558360425200021,-0.044635915195806716,-0.2741677928222437,-0.788328502562364,0.550790516827187,-0.23117888195214387,-0.5019152148435867,-0.8334491236109572,,0.0,0.0,0.045,1.0,0.0,0.0,0.0,1.0,0.0,0.0,0.0,1.0,,0.019037333378670685,-0.19337877532911046,0.2249495411038443,False,,0.032879118688847866,0.5747720453481742,-0.3633998123707693,-0.3849758076371028,-0.8244284035295175,-0.4148631521211924,0.6572159536300735,0.07070611708787378,-0.7503784613783029,0.6479666795663753,-0.5615322363499065,0.514607354894583
15:31:41.852549,,-0.015870216056531366,-0.692126765653749,0.039542030160000005,-2.332861065411018,-0.3255613439335598,0.08164769980476247,,0.03493342205544016,0.5855068316028701,-0.3667712650787064,-0.3865676891427041,-0.8198492748580242,-0.4223891431199924,0.6671549532747642,0.06762919316158879,-0.741842679112802,0.6367650194787847,-0.5685714192140547,0.5208232437411936,,-0.005748062158342278,0.2774576660093203,-0.06878993963890984,-0.9718888955304724,-0.060133715088658654,0.22763108528885667,0.15814013529426824,-0.8830014745740039,0.4419277016038185,0.17442382947652896,0.4655022364558082,0.8676888817433193,,0.043534522619110325,0.718648480701024,1.1779610596860868,0.9905479653003999,-0.03956455337822338,-0.1313368743164669,0.054814650143351094,-0.7635421044881268,0.6434273920214344,-0.12573815080913087,-0.644544878801953,-0.7541563608703941,,0.05187748205433406,0.6519339988498813,-0.3935688530875614,0.9334818401652684,-0.3558360425200021,-0.044635915195806716,-0.2741677928222437,-0.788328502562364,0.550790516827187,-0.23117888195214387,-0.5019152148435867,-0.8334491236109572,,0.0,0.0,0.045,1.0,0.0,0.0,0.0,1.0,0.0,0.0,0.0,1.0,,0.019037333378670685,-0.19337877532911046,0.2249495411038443,False,,0.032907358381113194,0.5748242615923,-0.3633516529116029,-0.383904899475339,-0.8253299064277833,-0.4140622824101906,0.6579619936145018,0.07010659560958188,-0.7497806880754297,0.647844922120765,-0.5602817244993282,0.5161214450828396
15:31:41.968687,,-0.01587793878940559,-0.6928681480096746,0.03940851229,-2.3362158898804206,-0.33039043679784,0.07686251144310663,,0.028857692285648405,0.5778340896011522,-0.38146827046417214,-0.35757827990415336,-0.8646869231575045,-0.3527808082381961,0.6787990677683029,0.01878924749242383,-0.7340836394959033,0.6413810094925402,-0.5019596488753616,0.5802300505517219,,-0.005747845859408702,0.2774579143754399,-0.0687900777236647,-0.9718888246011435,-0.06013253081058454,0.22763170099190247,0.15813952931561007,-0.8830011601503445,0.4419285466947434,0.17442477411764104,0.46550298587034306,0.8676882898037463,,0.043534522619110325,0.718648480701024,1.1779610596860868,0.9905479653003999,-0.03956455337822338,-0.1313368743164669,0.054814650143351094,-0.7635421044881268,0.6434273920214344,-0.12573815080913087,-0.644544878801953,-0.7541563608703941,,0.05187748205433406,0.6519339988498813,-0.3935688530875614,0.9334818401652684,-0.3558360425200021,-0.044635915195806716,-0.2741677928222437,-0.788328502562364,0.550790516827187,-0.23117888195214387,-0.5019152148435867,-0.8334491236109572,,0.0,0.0,0.045,1.0,0.0,0.0,0.0,1.0,0.0,0.0,0.0,1.0,,0.019037333378670685,-0.19337877532911046,0.2249495411038443,False,,0.032905058112850646,0.5749219323556801,-0.3633870785849061,-0.38058596634694286,-0.828029864868565,-0.411729116174105,0.6605183670609068,0.0681961510641651,-0.7477063405878184,0.6472015211624249,-0.5565211836631014,0.5209744361667505
15:31:42.010474,,-0.015816156926411796,-0.6974477286040897,0.038896477740000004,-2.33810297864446,-0.33468296378831136,0.07228756300495592,,0.03478206348498569,0.5854562365685991,-0.3671583457635014,-0.37976718838542906,-0.8247324576390721,-0.419038489810235,0.6698745224826869,0.06723475453724267,-0.7394238378027239,0.6380007889920032,-0.5615121201710015,0.5269337075445533,,-0.005748565503911476,0.27745820015028805,-0.06878977285310903,-0.9718894552081794,-0.06013367814418821,0.22762870549440492,0.1581393247430584,-0.8830006662493518,0.4419296067588924,0.17442144587755506,0.46550377454228115,0.86768853574421,,0.043534522619110325,0.718648480701024,1.1779610596860868,0.9905479653003999,-0.03956455337822338,-0.1313368743164669,0.054814650143351094,-0.7635421044881268,0.6434273920214344,-0.12573815080913087,-0.644544878801953,-0.7541563608703941,,0.05187748205433406,0.6519339988498813,-0.3935688530875614,0.9334818401652684,-0.3558360425200021,-0.044635915195806716,-0.2741677928222437,-0.788328502562364,0.550790516827187,-0.23117888195214387,-0.5019152148435867,-0.8334491236109572,,0.0,0.0,0.045,1.0,0.0,0.0,0.0,1.0,0.0,0.0,0.0,1.0,,0.019037333378670685,-0.19337877532911046,0.2249495411038443,False,,0.03288971477980686,0.5753707205674379,-0.3638982257636938,-0.37604013008366277,-0.8311565065185205,-0.40960063749778397,0.6622468252853535,0.0681052594564921,-0.7461841703184509,0.6480917859116354,-0.5518519142906844,0.5248204471317544
15:31:42.056714,,-0.015785265994914897,-0.6989536615145635,0.03884203356,-2.3383126551737976,-0.3360243784728336,0.07282962867897136,,0.034766256972376564,0.5854091753249394,-0.3671955337259002,-0.3788401224697201,-0.8248375343681892,-0.4196703509953185,0.6703720486504171,0.06804957552875499,-0.7388982146808849,0.6380293707936731,-0.5612595630969355,0.527168118190836,,-0.005748530127987527,0.27745768471352705,-0.06878971815625697,-0.9718892463101113,-0.060134880890099385,0.22762927968807775,0.15814033599566032,-0.883001384848269,0.4419278090949184,0.17442169303776187,0.4655022560853906,0.8676893006955128,,0.043534522619110325,0.718648480701024,1.1779610596860868,0.9905479653003999,-0.03956455337822338,-0.1313368743164669,0.054814650143351094,-0.7635421044881268,0.6434273920214344,-0.12573815080913087,-0.644544878801953,-0.7541563608703941,,0.05187748205433406,0.6519339988498813,-0.3935688530875614,0.9334818401652684,-0.3558360425200021,-0.044635915195806716,-0.2741677928222437,-0.788328502562364,0.550790516827187,-0.23117888195214387,-0.5019152148435867,-0.8334491236109572,,0.0,0.0,0.045,1.0,0.0,0.0,0.0,1.0,0.0,0.0,0.0,1.0,,0.019037333378670685,-0.19337877532911046,0.2249495411038443,False,,0.032866252987492114,0.5753857454965122,-0.3639981943489945,-0.3760194267269227,-0.8307296638760453,-0.41048461150248905,0.6621272018827713,0.06901601877198082,-0.7462066454272287,0.6482260093908979,-0.5523812222634461,0.5240973440496461
15:31:42.101740,,-0.015731206864795327,-0.7000580123155776,0.038712404560000004,-2.3391513612911483,-0.3380365004996171,0.07316055568164304,,0.034754062797407566,0.5853644622660206,-0.36724282089162674,-0.3774327447502243,-0.82520349146376,-0.42021865839861516,0.6710222517251129,0.06901021109696452,-0.7382186183334255,0.6381799596352673,-0.560603949718848,0.5276831915833177,,-0.005748097530655898,0.27745818144697776,-0.06878999432846741,-0.9718891044459468,-0.06013251234217837,0.2276305110983356,0.1581391240465701,-0.8830007559901396,0.441929499276572,0.1744235823197518,0.46550375491984586,0.8676881168083871,,0.043534522619110325,0.718648480701024,1.1779610596860868,0.9905479653003999,-0.03956455337822338,-0.1313368743164669,0.054814650143351094,-0.7635421044881268,0.6434273920214344,-0.12573815080913087,-0.644544878801953,-0.7541563608703941,,0.05187748205433406,0.6519339988498813,-0.3935688530875614,0.9334818401652684,-0.3558360425200021,-0.044635915195806716,-0.2741677928222437,-0.788328502562364,0.550790516827187,-0.23117888195214387,-0.5019152148435867,-0.8334491236109572,,0.0,0.0,0.045,1.0,0.0,0.0,0.0,1.0,0.0,0.0,0.0,1.0,,0.019037333378670685,-0.19337877532911046,0.2249495411038443,False,,0.03285723502730218,0.575501830145104,-0.36413317189066574,-0.374104857902161,-0.8308117513765874,-0.412064787464995,0.6633402377205613,0.07079077370166431,-0.7449620093531943,0.6480935768196079,-0.5520330607248876,0.5246276923227362
15:31:42.151071,,-0.015731206864795327,-0.7008997901988681,0.03841555415,-2.339990067408499,-0.33937791518413934,0.0737715029997087,,0.03475182643732998,0.5853586722881268,-0.3672751177242501,-0.3760770724589456,-0.8255297091335706,-0.4207929834355024,0.6715193973429354,0.07008961832694613,-0.7376646557853805,0.6384573083322721,-0.5599894148469461,0.5280001142959014,,-0.005749033474081431,0.27745821885578387,-0.06878955137327035,-0.9718898059779429,-0.06013484395470797,0.22762689989812,0.15813952545185408,-0.8830005765170316,0.44192971425214406,0.17441930943719566,0.46550379417536675,0.8676889546849833,,0.043534522619110325,0.718648480701024,1.1779610596860868,0.9905479653003999,-0.03956455337822338,-0.1313368743164669,0.054814650143351094,-0.7635421044881268,0.6434273920214344,-0.12573815080913087,-0.644544878801953,-0.7541563608703941,,0.05187748205433406,0.6519339988498813,-0.3935688530875614,0.9334818401652684,-0.3558360425200021,-0.044635915195806716,-0.2741677928222437,-0.788328502562364,0.550790516827187,-0.23117888195214387,-0.5019152148435867,-0.8334491236109572,,0.0,0.0,0.045,1.0,0.0,0.0,0.0,1.0,0.0,0.0,0.0,1.0,,0.019037333378670685,-0.19337877532911046,0.2249495411038443,False,,0.03288727491002008,0.5757184969446709,-0.36425006613152566,-0.37336703331703336,-0.8306481789504484,-0.4130625391370434,0.6638968534195241,0.07174641506889184,-0.7443745159154884,0.6479490924846586,-0.5521558246827307,0.5246769661584557
15:31:42.331676,,-0.01573892959766955,-0.7017183998835359,0.038131666640000006,-2.336844919468434,-0.3396461981210438,0.07390746879213189,,0.030244132814226558,0.5773247047176298,-0.3816357590091914,-0.3491615077542333,-0.8627768862753171,-0.3656532319176995,0.6818876160532965,0.033712614219095965,-0.7306796416458216,0.6427406324295536,-0.5044596159769213,0.576545726957086,,-0.005748781800426008,0.2774579517848056,-0.06878963476353377,-0.9718895261471034,-0.060134862422016204,0.22762808979382843,0.15813993072477905,-0.8830009806851249,0.44192876167501594,0.17442050123785363,0.46550302513166997,0.8676891276934056,,0.043534522619110325,0.718648480701024,1.1779610596860868,0.9905479653003999,-0.03956455337822338,-0.1313368743164669,0.054814650143351094,-0.7635421044881268,0.6434273920214344,-0.12573815080913087,-0.644544878801953,-0.7541563608703941,,0.05187748205433406,0.6519339988498813,-0.3935688530875614,0.9334818401652684,-0.3558360425200021,-0.044635915195806716,-0.2741677928222437,-0.788328502562364,0.550790516827187,-0.23117888195214387,-0.5019152148435867,-0.8334491236109572,,0.0,0.0,0.045,1.0,0.0,0.0,0.0,1.0,0.0,0.0,0.0,1.0,,0.019037333378670685,-0.19337877532911046,0.2249495411038443,False,,0.032916277167289815,0.5759651305614302,-0.3644085588871374,-0.37478839534542574,-0.8294725743278397,-0.41413633884549184,0.6637658832087332,0.0717895137496955,-0.7444871509997424,0.6472623200855522,-0.5539147174010901,0.5236697192352632
15:31:42.378986,,-0.015777543262040672,-0.7018883000067688,0.03782055704,-2.336425566409759,-0.3395120566525916,0.07383948589592026,,0.03475349624075711,0.5853467588358954,-0.3673776757092195,-0.37897577434777646,-0.8240016607231593,-0.42118716217731356,0.6704494999468014,0.06924030291820302,-0.7387172994271078,0.6378674082272796,-0.5623406828402786,0.5262111039726757,,-0.0057490334752949976,0.27745821885549465,-0.06878955137569256,-0.9718898059721464,-0.06013484395434937,0.22762689989676238,0.15813952545091095,-0.8830005765117651,0.4419297142495083,0.17441930943615536,0.4655037941725904,0.8676889546798082,,0.043534522619110325,0.718648480701024,1.1779610596860868,0.9905479653003999,-0.03956455337822338,-0.1313368743164669,0.054814650143351094,-0.7635421044881268,0.6434273920214344,-0.12573815080913087,-0.644544878801953,-0.7541563608703941,,0.05185647550427274,0.6519345443993263,-0.39357485272249626,0.9334731950099666,-0.35585675205214307,-0.04465160934148958,-0.27417247954538915,-0.7883147300756137,0.5508078955550166,-0.2312082300823623,-0.5019221636516089,-0.8334367978302071,,0.0,0.0,0.045,1.0,0.0,0.0,0.0,1.0,0.0,0.0,0.0,1.0,,0.019037333378670685,-0.19337877532911046,0.2249495411038443,False,,0.03297896854622059,0.5762968314263067,-0.3645488966891207,-0.3758708142280479,-0.8288179699259939,-0.4144658052714345,0.6635479392760655,0.07148587873936174,-0.7447106158927427,0.6468579931438052,-0.5549329165481317,0.5230910005317938
15:31:42.429138,,-0.015746652330543776,-0.7022898821162284,0.037801112690000006,-2.336844919468434,-0.33937791518413934,0.07370262135565853,,0.03472861839319965,0.5853554991451251,-0.36738026219898284,-0.37834993071207246,-0.8243542042998034,-0.4210599432187879,0.6705804545678603,0.06947367400418214,-0.7385765109803611,0.6381012332551418,-0.5617949398789557,0.5265104572984933,,-0.005751498812643381,0.2774580704632697,-0.0687918070325043,-0.9718885770309585,-0.06013586275597505,0.22763187766217652,0.15814198467376428,-0.8830023585171008,0.44192527356709893,0.17442392726015682,0.46550028221742984,0.867689910472233,,0.043534522619110325,0.718648480701024,1.1779610596860868,0.9905479653003999,-0.03956455337822338,-0.1313368743164669,0.054814650143351094,-0.7635421044881268,0.6434273920214344,-0.12573815080913087,-0.644544878801953,-0.7541563608703941,,0.05185647550427274,0.6519345443993263,-0.39357485272249626,0.9334731950099666,-0.35585675205214307,-0.04465160934148958,-0.27417247954538915,-0.7883147300756137,0.5508078955550166,-0.2312082300823623,-0.5019221636516089,-0.8334367978302071,,0.0,0.0,0.045,1.0,0.0,0.0,0.0,1.0,0.0,0.0,0.0,1.0,,0.019037333378670685,-0.19337877532911046,0.2249495411038443,False,,0.03291389281251085,0.5763358754373022,-0.3645649841382039,-0.37549690545178493,-0.8290669309963785,-0.41430676789593907,0.6632300716317017,0.07188697027204849,-0.7449551232044208,0.6474009160323619,-0.5545090508128355,0.5228687851527445
15:31:42.470569,,-0.015522693077191264,-0.7038344286910734,0.03766370595,-2.333699771528369,-0.3395120566525916,0.07080869355771063,,0.0347037613887123,0.585313095660692,-0.36748648981883236,-0.3805861806726035,-0.8240880129333883,-0.4195629941028412,0.6697095925116298,0.06724401397438418,-0.7395723793399268,0.6376858323492441,-0.5624563889975055,0.5263075048837319,,-0.005754648420970597,0.27745769240878254,-0.06879370312746248,-0.9718877697876999,-0.06013923165468645,0.22763443410947537,0.15814525057060808,-0.8830043651962407,0.44192009527244824,0.17442546401920994,0.46549604047685955,0.867691877132266,,0.043534522619110325,0.718648480701024,1.1779610596860868,0.9905479653003999,-0.03956455337822338,-0.1313368743164669,0.054814650143351094,-0.7635421044881268,0.6434273920214344,-0.12573815080913087,-0.644544878801953,-0.7541563608703941,,0.05185647550427274,0.6519345443993263,-0.39357485272249626,0.9334731950099666,-0.35585675205214307,-0.04465160934148958,-0.27417247954538915,-0.7883147300756137,0.5508078955550166,-0.2312082300823623,-0.5019221636516089,-0.8334367978302071,,0.0,0.0,0.045,1.0,0.0,0.0,0.0,1.0,0.0,0.0,0.0,1.0,,0.019037333378670685,-0.19337877532911046,0.2249495411038443,False,,0.03290772029507405,0.5764245688224225,-0.36473295843694803,-0.37800921213581024,-0.828552458616856,-0.41304946297075285,0.6624797112009653,0.06957450772340434,-0.7458418197728871,0.6467067865637022,-0.5555719676108661,0.5225993886500835
15:31:42.516410,,-0.015167447364976936,-0.7049542249578359,0.03749129938,-2.3299255940002905,-0.3396461981210438,0.06874134548836541,,0.0346869896995982,0.5852597344809239,-0.36761744517416056,-0.38383688588108833,-0.8229921071270655,-0.4187519989727363,0.6684411420288685,0.06522632566533246,-0.7408994304784846,0.6370680377167349,-0.5642955945661408,0.5250855142479134,,-0.005757581728882218,0.27745756272421407,-0.06879573730574676,-0.971886891616445,-0.06014141631104841,0.2276376062701295,0.15814791050600682,-0.8830060574382241,0.44191576207480615,0.17442794542984616,0.465492548180606,0.8676932518359342,,0.043534522619110325,0.718648480701024,1.1779610596860868,0.9905479653003999,-0.03956455337822338,-0.1313368743164669,0.054814650143351094,-0.7635421044881268,0.6434273920214344,-0.12573815080913087,-0.644544878801953,-0.7541563608703941,,0.05185647550427274,0.6519345443993263,-0.39357485272249626,0.9334731950099666,-0.35585675205214307,-0.04465160934148958,-0.27417247954538915,-0.7883147300756137,0.5508078955550166,-0.2312082300823623,-0.5019221636516089,-0.8334367978302071,,0.0,0.0,0.045,1.0,0.0,0.0,0.0,1.0,0.0,0.0,0.0,1.0,,0.019037333378670685,-0.19337877532911046,0.2249495411038443,False,,0.03292537393864032,0.5765531017333098,-0.3648820896967534,-0.3809832630806854,-0.82751125051114,-0.4124037869975037,0.6619057518271717,0.06732030173804349,-0.7465579365809497,0.6455482390577019,-0.557398517446349,0.522086548187283
15:31:42.573645,,-0.014704083392523467,-0.7062825350122025,0.03729685588,-2.3280385052362513,-0.3395120566525916,0.068397836015953,,0.03469392581879917,0.5852333465675486,-0.3676559740234862,-0.3847260908391916,-0.8226851126049028,-0.41853917442200483,0.6680268897201418,0.06474187123378465,-0.7413154286266964,0.6369661762122292,-0.5647988098494964,0.5246678899591296,,-0.0057604796756264105,0.2774569175959002,-0.06879771680663949,-0.9718858045114938,-0.0601448037228491,0.227641352571676,0.15815158164018012,-0.8830084682173788,0.44190963115503995,0.17443067402332535,0.46548753739280063,0.8676953914353989,,0.043534522619110325,0.718648480701024,1.1779610596860868,0.9905479653003999,-0.03956455337822338,-0.1313368743164669,0.054814650143351094,-0.7635421044881268,0.6434273920214344,-0.12573815080913087,-0.644544878801953,-0.7541563608703941,,0.05185647550427274,0.6519345443993263,-0.39357485272249626,0.9334731950099666,-0.35585675205214307,-0.04465160934148958,-0.27417247954538915,-0.7883147300756137,0.5508078955550166,-0.2312082300823623,-0.5019221636516089,-0.8334367978302071,,0.0,0.0,0.045,1.0,0.0,0.0,0.0,1.0,0.0,0.0,0.0,1.0,,0.019037333378670685,-0.19337877532911046,0.2249495411038443,False,,0.03294793571778779,0.5766583749957103,-0.36502343868168446,-0.3826877393761755,-0.8266161300563106,-0.4126207310132162,0.6610824334186831,0.06698448332131579,-0.7473172654364469,0.6453836923539245,-0.558765471843872,0.520827262265245
15:31:42.727568,,-0.014626856063781222,-0.7067690671832787,0.037031116430000004,-2.3301352705296283,-0.3404510469317572,0.06935588779778562,,0.03185828653030812,0.5783726403956445,-0.38119182309521593,-0.3983546387699636,-0.8445888801089039,-0.35774740441663605,0.6623891872699954,0.004899985908029205,-0.7491438811909875,0.6344715488958091,-0.5353929526380502,0.5574946097562413,,-0.0057629096388445615,0.27745625376469135,-0.0687999177692051,-0.971884366682539,-0.060147025373694096,0.2276469044764079,0.15815505202968527,-0.8830109687779272,0.4419033927412965,0.17443553908674153,0.46548250701554533,0.8676971121001587,,0.043534522619110325,0.718648480701024,1.1779610596860868,0.9905479653003999,-0.03956455337822338,-0.1313368743164669,0.054814650143351094,-0.7635421044881268,0.6434273920214344,-0.12573815080913087,-0.644544878801953,-0.7541563608703941,,0.05185647550427274,0.6519345443993263,-0.39357485272249626,0.9334731950099666,-0.35585675205214307,-0.04465160934148958,-0.27417247954538915,-0.7883147300756137,0.5508078955550166,-0.2312082300823623,-0.5019221636516089,-0.8334367978302071,,0.0,0.0,0.045,1.0,0.0,0.0,0.0,1.0,0.0,0.0,0.0,1.0,,0.019037333378670685,-0.19337877532911046,0.2249495411038443,False,,0.033000407536607886,0.5768960708906177,-0.365154662700448,-0.3808103206986475,-0.8273387278213923,-0.4129093473103671,0.6610295156485303,0.06865870947634195,-0.7472121258749169,0.6465473525511203,-0.557491355143668,0.5207493733546052
15:31:42.866924,,-0.014619133330906997,-0.7064138214710644,0.036823710030000005,-2.332232035823005,-0.34112175427401836,0.06969580227884359,,0.029623104146483975,0.5774625784839114,-0.38156404804481653,-0.3531581523718534,-0.8625070443151641,-0.3624374675996114,0.6804680241596196,0.02905989755708377,-0.7322013319096572,0.6420612023083181,-0.5052099770003481,0.5766457245395179,,-0.005762874274907655,0.277455738324453,-0.06879986308752772,-0.9718841577571018,-0.060148228141580024,0.22764747863383145,0.15815606325952433,-0.8830116873134661,0.441901595039233,0.17443578626864858,0.46548098854346065,0.8676978769995836,,0.043534522619110325,0.718648480701024,1.1779610596860868,0.9905479653003999,-0.03956455337822338,-0.1313368743164669,0.054814650143351094,-0.7635421044881268,0.6434273920214344,-0.12573815080913087,-0.644544878801953,-0.7541563608703941,,0.05185647550427274,0.6519345443993263,-0.39357485272249626,0.9334731950099666,-0.35585675205214307,-0.04465160934148958,-0.27417247954538915,-0.7883147300756137,0.5508078955550166,-0.2312082300823623,-0.5019221636516089,-0.8334367978302071,,0.0,0.0,0.045,1.0,0.0,0.0,0.0,1.0,0.0,0.0,0.0,1.0,,0.019037333378670685,-0.19337877532911046,0.2249495411038443,False,,0.03306206178165596,0.5771378731774084,-0.3651912086078871,-0.3785599413331725,-0.8282294995217965,-0.41319277212906314,0.6619888177742568,0.06972493013237407,-0.7462635186446391,0.6468872977263251,-0.5560344685717877,0.5218836017738273
15:31:42.990865,,-0.01402448289959171,-0.7087229186004574,0.03671482167,-2.3292965644122776,-0.34179246161627946,0.069897953471801,,0.030748245814077296,0.5767090972790769,-0.38171248830595195,-0.34785019585210064,-0.8632743237188356,-0.3657289751351983,0.6824873837298069,0.034302450695004615,-0.7300919893588483,0.6428150685036088,-0.5035680528827302,0.5772417204435218,,-0.005762406306394656,0.27745571961689103,-0.06880008457266014,-0.9718838069653473,-0.0601470623464379,0.22764928423227576,0.1581558625042193,-0.8830117770671061,0.441901487526539,0.1744379227000833,0.46548096890605006,0.8676974580302715,,0.043534522619110325,0.718648480701024,1.1779610596860868,0.9905479653003999,-0.03956455337822338,-0.1313368743164669,0.054814650143351094,-0.7635421044881268,0.6434273920214344,-0.12573815080913087,-0.644544878801953,-0.7541563608703941,,0.05185647550427274,0.6519345443993263,-0.39357485272249626,0.9334731950099666,-0.35585675205214307,-0.04465160934148958,-0.27417247954538915,-0.7883147300756137,0.5508078955550166,-0.2312082300823623,-0.5019221636516089,-0.8334367978302071,,0.0,0.0,0.045,1.0,0.0,0.0,0.0,1.0,0.0,0.0,0.0,1.0,,0.019037333378670685,-0.19337877532911046,0.2249495411038443,False,,0.033053436009186685,0.5771864847038087,-0.3653905116999683,-0.3806685887910072,-0.8265056612749089,-0.4147044940537646,0.6612185048663648,0.07022039439071154,-0.746899715513336,0.6464375564044468,-0.5585315461924588,0.5197701391747213
15:31:43.152289,,-0.013553396194264015,-0.7129549762155325,0.03662797024,-2.3276191521775758,-0.34474357392222854,0.06884495635859789,,0.027731568320547444,0.57871096940404,-0.381474667203431,-0.3732862398044183,-0.8587943024196045,-0.35089846010534725,0.6726405969113777,0.009947852194318051,-0.7399024716970651,0.6389147130559637,-0.5122239611423364,0.5739465158638658,,-0.005762406306394655,0.27745571961689103,-0.06880008457266015,-0.9718838069653473,-0.06014706234643789,0.2276492842322758,0.1581558625042193,-0.8830117770671061,0.441901487526539,0.17443792270008332,0.46548096890605006,0.8676974580302714,,0.043534522619110325,0.718648480701024,1.1779610596860868,0.9905479653003999,-0.03956455337822338,-0.1313368743164669,0.054814650143351094,-0.7635421044881268,0.6434273920214344,-0.12573815080913087,-0.644544878801953,-0.7541563608703941,,0.05185647550427274,0.6519345443993263,-0.39357485272249626,0.9334731950099666,-0.35585675205214307,-0.04465160934148958,-0.27417247954538915,-0.7883147300756137,0.5508078955550166,-0.2312082300823623,-0.5019221636516089,-0.8334367978302071,,0.0,0.0,0.045,1.0,0.0,0.0,0.0,1.0,0.0,0.0,0.0,1.0,,0.019037333378670685,-0.19337877532911046,0.2249495411038443,False,,0.03298215484807862,0.5771854003346297,-0.3657227187661874,-0.38102683183459385,-0.8256004334243029,-0.4161760177517383,0.6610541442366599,0.07143295386835241,-0.7469302186209761,0.6463945945083617,-0.5597153360693674,0.518548715897673
15:31:43.329361,,-0.012541718187740603,-0.717132974700488,0.03655148913,-2.3265707695308877,-0.347962969165082,0.06744575352946647,,0.03151985427697484,0.5765080769664405,-0.38105766698746374,-0.398602070516631,-0.842048276020588,-0.3634158640326681,0.6622742442186347,0.009840472230611715,-0.7491968970510458,0.6344361392799842,-0.5393124010784791,0.5537444529911558,,-0.005762225369403995,0.2774564834231035,-0.06880027733845262,-0.9718839449550974,-0.060144675289813015,0.22764932578912914,0.15815424528073618,-0.8830107441382027,0.44190413032197745,0.17443862014371367,0.4654832367875619,0.8676961011964827,,0.043534522619110325,0.718648480701024,1.1779610596860868,0.9905479653003999,-0.03956455337822338,-0.1313368743164669,0.054814650143351094,-0.7635421044881268,0.6434273920214344,-0.12573815080913087,-0.644544878801953,-0.7541563608703941,,0.05185647550427274,0.6519345443993263,-0.39357485272249626,0.9334731950099666,-0.35585675205214307,-0.04465160934148958,-0.27417247954538915,-0.7883147300756137,0.5508078955550166,-0.2312082300823623,-0.5019221636516089,-0.8334367978302071,,0.0,0.0,0.045,1.0,0.0,0.0,0.0,1.0,0.0,0.0,0.0,1.0,,0.019037333378670685,-0.19337877532911046,0.2249495411038443,False,,0.032936624644992876,0.5771651751073147,-0.3660689596520899,-0.380685312375685,-0.8253076343319694,-0.4170683417076817,0.6607650120675124,0.07273840686215433,-0.7470600531380165,0.646891251887709,-0.5599789575336953,0.517643965820745
15:31:43.467219,,-0.012541718187740603,-0.7204537498364045,0.036465933990000005,-2.323844974649498,-0.34876781797579537,0.06344522568752192,,0.028955341959644606,0.5775030246211479,-0.38143977115477357,-0.3529654586003403,-0.8676055652067837,-0.35025129301298735,0.6805279377665188,0.018843972038525145,-0.7324797817257901,0.6421036605987395,-0.4968958522065056,0.5837785548524971,,-0.0057629450085647385,0.27745676920549983,-0.06879997246300654,-0.9718845755782478,-0.060145822612711335,0.2276463303155727,0.15815404080514628,-0.8830102502099696,0.44190519043336474,0.17443529190192758,0.465484025480128,0.8676963471703233,,0.043534522619110325,0.718648480701024,1.1779610596860868,0.9905479653003999,-0.03956455337822338,-0.1313368743164669,0.054814650143351094,-0.7635421044881268,0.6434273920214344,-0.12573815080913087,-0.644544878801953,-0.7541563608703941,,0.05185647550427274,0.6519345443993263,-0.39357485272249626,0.9334731950099666,-0.35585675205214307,-0.04465160934148958,-0.27417247954538915,-0.7883147300756137,0.5508078955550166,-0.2312082300823623,-0.5019221636516089,-0.8334367978302071,,0.0,0.0,0.045,1.0,0.0,0.0,0.0,1.0,0.0,0.0,0.0,1.0,,0.019037333378670685,-0.19337877532911046,0.2249495411038443,False,,0.03286581435327015,0.5771788904746585,-0.36632831555372786,-0.38268665461123524,-0.8250465493408882,-0.4157512667487076,0.6597978703876796,0.07093249394881146,-0.7480877966750192,0.6466975294636159,-0.5605950166768303,0.5172190374133192
15:31:43.616448,,-0.011993404153670664,-0.7232107654725026,0.036412786100000004,-2.322377238944134,-0.35265792056091005,0.05673764252733032,,0.030345182498639302,0.5769580822826249,-0.3816629403732723,-0.3517607187568647,-0.8623761326165109,-0.3641041096074647,0.6809971339446306,0.03112263204467157,-0.7316244154850293,0.6422673121830608,-0.5053105853512299,0.5763279552764594,,-0.005761456560864249,0.2774533606613124,-0.06879927003181499,-0.9718873783106751,-0.06015011049321914,0.22763323058110835,0.15815161193441737,-0.8830105352576691,0.4419054897183853,0.1744218767806492,0.46548293030824883,0.867699631248451,,0.043534522619110325,0.718648480701024,1.1779610596860868,0.9905479653003999,-0.03956455337822338,-0.1313368743164669,0.054814650143351094,-0.7635421044881268,0.6434273920214344,-0.12573815080913087,-0.644544878801953,-0.7541563608703941,,0.051796339618206504,0.651965730123101,-0.39355371338109024,0.9334378560916714,-0.355946054492353,-0.04467857547316481,-0.27422883767254874,-0.7882816714595189,0.5508271516816776,-0.23128405350077066,-0.5019107617219558,-0.8334226262011002,,0.0,0.0,0.045,1.0,0.0,0.0,0.0,1.0,0.0,0.0,0.0,1.0,,0.019037333378670685,-0.19337877532911046,0.2249495411038443,False,,0.03299170292392226,0.5771533802688446,-0.3665760352682395,-0.38266887410477823,-0.8266940983938256,-0.4124820001796463,0.6610687389943861,0.06688468466829206,-0.7473383178194436,0.645408905358265,-0.5586620683719662,0.5209069381824387
15:31:43.768503,,-0.013576564392886688,-0.7269408454507531,0.036362230790000005,-2.3253127103548614,-0.35413347671388457,0.04735985271027554,,0.029751833912919894,0.577281989720591,-0.3815825144035883,-0.3546539973150946,-0.8644859198879231,-0.3562086979622426,0.6798977168562332,0.023080146856121878,-0.7329436550204803,0.6418408188967931,-0.5021268775286095,0.5795765368450165,,-0.005759897371445071,0.27744892124204146,-0.06879845821324442,-0.971889763184971,-0.060156803784910444,0.22762127911824206,0.15815120552077547,-0.8830122575424169,0.441902193652566,0.17440895602395626,0.465478798143383,0.8677044451138909,,0.043534522619110325,0.718648480701024,1.1779610596860868,0.9905479653003999,-0.03956455337822338,-0.1313368743164669,0.054814650143351094,-0.7635421044881268,0.6434273920214344,-0.12573815080913087,-0.644544878801953,-0.7541563608703941,,0.051796339618206504,0.651965730123101,-0.39355371338109024,0.9334378560916714,-0.355946054492353,-0.04467857547316481,-0.27422883767254874,-0.7882816714595189,0.5508271516816776,-0.23128405350077066,-0.5019107617219558,-0.8334226262011002,,0.0,0.0,0.045,1.0,0.0,0.0,0.0,1.0,0.0,0.0,0.0,1.0,,0.019037333378670685,-0.19337877532911046,0.2249495411038443,False,,0.03282019617685299,0.57715827564346,-0.3668559828596417,-0.38020712232057907,-0.8305706909683626,-0.4069334975656854,0.6606876190677962,0.06400251819393815,-0.7479275016172101,0.6472514303941178,-0.5532232867199031,0.5244135590195939
15:31:43.869687,,-0.013205873214923912,-0.7300762749976882,0.03631297177,-2.324264327708173,-0.35641388167757243,0.04693128413271752,,0.028770148515074853,0.5777571549886719,-0.3815336389090167,-0.36791856957776264,-0.8578728466069547,-0.358734031302208,0.6747987132992583,0.019101547549926486,-0.7377545848118213,0.6397520009265452,-0.5135068742827873,0.5718636790134545,,-0.0057574729764137186,0.2774454752869399,-0.06879819872030354,-0.9718918643136815,-0.06015876005057633,0.22761179055126715,0.15814837520689928,-0.8830127222581478,0.44190227797282655,0.17439981372752247,0.465477663746965,0.8677068912094527,,0.043534522619110325,0.718648480701024,1.1779610596860868,0.9905479653003999,-0.03956455337822338,-0.1313368743164669,0.054814650143351094,-0.7635421044881268,0.6434273920214344,-0.12573815080913087,-0.644544878801953,-0.7541563608703941,,0.051796339618206504,0.651965730123101,-0.39355371338109024,0.9334378560916714,-0.355946054492353,-0.04467857547316481,-0.27422883767254874,-0.7882816714595189,0.5508271516816776,-0.23128405350077066,-0.5019107617219558,-0.8334226262011002,,0.0,0.0,0.045,1.0,0.0,0.0,0.0,1.0,0.0,0.0,0.0,1.0,,0.019037333378670685,-0.19337877532911046,0.2249495411038443,False,,0.03276870877679161,0.5771526072234913,-0.3670826587978058,-0.3802455499610582,-0.8298230362246364,-0.40842018839148786,0.660737356807275,0.06527117103321889,-0.7477739093812302,0.6471780798622188,-0.5541961771637173,0.5234760072467252
15:31:44.013862,,-0.013066864023187871,-0.7323930948599556,0.03626112017,-2.3248933572961863,-0.3599015598573304,0.041741793385146664,,0.029577917418012682,0.5777915776625793,-0.38159357031289065,-0.35688262286822947,-0.8647547636342985,-0.3533185422058715,0.6790528835648129,0.019581180630305017,-0.7338281533761402,0.641499785515947,-0.5018124910132393,0.5802260327200787,,-0.0057558784326106,0.27744052042643597,-0.06879733224187168,-0.9718940401012215,-0.06016665597849047,0.2276004131568516,0.1581489801438027,-0.8830151631738938,0.4418971842290184,0.17438714012299955,0.46547201297008817,0.8677124697999757,,0.043534522619110325,0.718648480701024,1.1779610596860868,0.9905479653003999,-0.03956455337822338,-0.1313368743164669,0.054814650143351094,-0.7635421044881268,0.6434273920214344,-0.12573815080913087,-0.644544878801953,-0.7541563608703941,,0.051796339618206504,0.651965730123101,-0.39355371338109024,0.9334378560916714,-0.355946054492353,-0.04467857547316481,-0.27422883767254874,-0.7882816714595189,0.5508271516816776,-0.23128405350077066,-0.5019107617219558,-0.8334226262011002,,0.0,0.0,0.045,1.0,0.0,0.0,0.0,1.0,0.0,0.0,0.0,1.0,,0.019037333378670685,-0.19337877532911046,0.2249495411038443,False,,0.03271639600283513,0.5771716645212532,-0.3672621105649202,-0.37852079083702417,-0.8318625622720696,-0.4058653574700123,0.6619679189212401,0.06318089987804348,-0.7468645447533865,0.646931592382994,-0.551373604174835,0.5267510449881005
15:31:44.135220,,-0.012958745762948727,-0.7369803981872449,0.036197601960000006,-2.325103033825524,-0.3629868136317317,0.03572841915248903,,0.029479276579311035,0.5776567224813935,-0.38157505388627355,-0.35777187358654106,-0.8652006833691049,-0.3513218808557342,0.6787031715610221,0.017477186332941607,-0.7342047077422573,0.64137453284597,-0.5011210686605764,0.5809616021400177,,-0.0057533479492081286,0.27743552814859523,-0.06879690872205202,-0.9718955143975418,-0.06017222025519549,0.22759264693545245,0.1581491836057829,-0.8830177835587406,0.4418918754394804,0.17437873939890047,0.4654663229108601,0.8677172105110519,,0.043534522619110325,0.718648480701024,1.1779610596860868,0.9905479653003999,-0.03956455337822338,-0.1313368743164669,0.054814650143351094,-0.7635421044881268,0.6434273920214344,-0.12573815080913087,-0.644544878801953,-0.7541563608703941,,0.051796339618206504,0.651965730123101,-0.39355371338109024,0.9334378560916714,-0.355946054492353,-0.04467857547316481,-0.27422883767254874,-0.7882816714595189,0.5508271516816776,-0.23128405350077066,-0.5019107617219558,-0.8334226262011002,,0.0,0.0,0.045,1.0,0.0,0.0,0.0,1.0,0.0,0.0,0.0,1.0,,0.019037333378670685,-0.19337877532911046,0.2249495411038443,False,,0.03261906373238419,0.5771609889711335,-0.3675898393725211,-0.37734802395705047,-0.8336607484915538,-0.40325950111585923,0.6619385402288659,0.06172604058958037,-0.7470122253837695,0.647646383279786,-0.5488165926223768,0.528539979459432
15:31:44.252791,,-0.01277340017396734,-0.738941972337298,0.0361405652,-2.32363529812016,-0.36432822831625394,0.0343417987930984,,0.029132412737958073,0.5773287995814735,-0.3813361573042625,-0.33906707676298004,-0.8758070422849659,-0.34350479201820155,0.685723147103418,0.019895569085187765,-0.7275904973660395,0.6440631048134894,-0.4822511700502518,0.5938152288407325,,-0.005752844601922393,0.2774349940046948,-0.0687970754967667,-0.971894954842584,-0.060172257129486206,0.2275950266781003,0.15814999404657468,-0.8830185918404482,0.4418899702327617,0.1743811230601827,0.4654647847917022,0.8677175565725372,,0.043534522619110325,0.718648480701024,1.1779610596860868,0.9905479653003999,-0.03956455337822338,-0.1313368743164669,0.054814650143351094,-0.7635421044881268,0.6434273920214344,-0.12573815080913087,-0.644544878801953,-0.7541563608703941,,0.051796339618206504,0.651965730123101,-0.39355371338109024,0.9334378560916714,-0.355946054492353,-0.04467857547316481,-0.27422883767254874,-0.7882816714595189,0.5508271516816776,-0.23128405350077066,-0.5019107617219558,-0.8334226262011002,,0.0,0.0,0.045,1.0,0.0,0.0,0.0,1.0,0.0,0.0,0.0,1.0,,0.019037333378670685,-0.19337877532911046,0.2249495411038443,False,,0.03258238306864296,0.5771790318242541,-0.36776095887694027,-0.3781028955565541,-0.8332048978257581,-0.4034944839906959,0.6617209937556959,0.06156909623421686,-0.7472178884447804,0.6474283951100107,-0.5495260181538906,0.5280697194284161
15:31:44.413928,,-0.012642113715105522,-0.7415522560487858,0.0360887136,-2.323844974649498,-0.3686207553067253,0.026736058016738062,,0.029878387559226404,0.5771408942047023,-0.3815977650441291,-0.3543294393934091,-0.8622775911650324,-0.3618397492727715,0.6800419002937654,0.027994354926644358,-0.7326386080033493,0.6418673244713404,-0.5056616179490694,0.5764656675892612,,-0.005753096274956853,0.27743526107679506,-0.06879699210817941,-0.9718952346231398,-0.060172238691953484,0.2275938368075058,0.1581495888272007,-0.8830181877020695,0.44189092283760584,0.17437993122991638,0.46546555385257254,0.8677173835449526,,0.043534522619110325,0.718648480701024,1.1779610596860868,0.9905479653003999,-0.03956455337822338,-0.1313368743164669,0.054814650143351094,-0.7635421044881268,0.6434273920214344,-0.12573815080913087,-0.644544878801953,-0.7541563608703941,,0.051796339618206504,0.651965730123101,-0.39355371338109024,0.9334378560916714,-0.355946054492353,-0.04467857547316481,-0.27422883767254874,-0.7882816714595189,0.5508271516816776,-0.23128405350077066,-0.5019107617219558,-0.8334226262011002,,0.0,0.0,0.045,1.0,0.0,0.0,0.0,1.0,0.0,0.0,0.0,1.0,,0.019037333378670685,-0.19337877532911046,0.2249495411038443,False,,0.03252167631387966,0.5772034772881696,-0.3679465248175036,-0.37634266655411386,-0.8359344641903712,-0.399474365772945,0.663575063506006,0.057694708855832666,-0.7458816633106363,0.6465557457976379,-0.5457883217409459,0.5329922845851172
15:31:44.625460,,-0.012387263530256114,-0.7456375817392507,0.03604334345,-2.3248933572961863,-0.37210843348648326,0.020651105896514366,,0.030539531140396314,0.5768022940521921,-0.38166549047826226,-0.34804999168352446,-0.8648826691295235,-0.36171697766138927,0.6823892954303663,0.030836728957136673,-0.7303382405634203,0.6428110552651899,-0.5010260120858152,0.5794539519601515,,-0.005753060907369503,0.27743474563727033,-0.06879693742623405,-0.9718950257309036,-0.0601734413765901,0.2275944109343822,0.15815060006811538,-0.8830189062295628,0.44188912513817974,0.17438017844286485,0.4654640353133515,0.8677181484630766,,0.043534522619110325,0.718648480701024,1.1779610596860868,0.9905479653003999,-0.03956455337822338,-0.1313368743164669,0.054814650143351094,-0.7635421044881268,0.6434273920214344,-0.12573815080913087,-0.644544878801953,-0.7541563608703941,,0.0519577051297781,0.6519295655910088,-0.39359646133467874,0.9335231763531269,-0.35572698980116685,-0.04464065342901555,-0.2740651760039267,-0.7883437467823216,0.5508197674477086,-0.23113363778019327,-0.501968570366922,-0.8334295386235617,,0.0,0.0,0.045,1.0,0.0,0.0,0.0,1.0,0.0,0.0,0.0,1.0,,0.019037333378670685,-0.19337877532911046,0.2249495411038443,False,,0.03244060884366344,0.577187374018603,-0.36823788432892673,-0.3742937336444304,-0.838295059898024,-0.3964411602054977,0.6639410206932098,0.05619213190121802,-0.7456706815701255,0.6473689226363678,-0.5423134120257076,0.5355461148600221
15:31:44.756224,,-0.012062908749538684,-0.7481088562590025,0.03600834362,-2.3248933572961863,-0.37358398963945777,0.016232794451075394,,0.030498933297788248,0.5771551235977317,-0.3817573488739976,-0.35681772193080286,-0.8612208885529582,-0.361911169261417,0.6790349057192685,0.026950539468876926,-0.7336111130818296,0.6415549159120649,-0.5075157628511554,0.5751826147639317,,-0.005751426384931924,0.2774389034994429,-0.06879599831079286,-0.9718934770950289,-0.060172256297405136,0.22760133703695887,0.1581534525083046,-0.8830170168734813,0.4418918795818261,0.17438622224429143,0.4654677726252754,0.86771492899882,,0.043534522619110325,0.718648480701024,1.1779610596860868,0.9905479653003999,-0.03956455337822338,-0.1313368743164669,0.054814650143351094,-0.7635421044881268,0.6434273920214344,-0.12573815080913087,-0.644544878801953,-0.7541563608703941,,0.0519577051297781,0.6519295655910088,-0.39359646133467874,0.9335231763531269,-0.35572698980116685,-0.04464065342901555,-0.2740651760039267,-0.7883437467823216,0.5508197674477086,-0.23113363778019327,-0.501968570366922,-0.8334295386235617,,0.0,0.0,0.045,1.0,0.0,0.0,0.0,1.0,0.0,0.0,0.0,1.0,,0.019037333378670685,-0.19337877532911046,0.2249495411038443,False,,0.032323539852602105,0.577205165554999,-0.36840386940390635,-0.3735962999803403,-0.8398161083743808,-0.3938714368368311,0.6636422569731281,0.054670721269472755,-0.7460496411067352,0.648077741787675,-0.5401111148187805,0.5369126784204316
15:31:44.918604,,-0.009560743298289943,-0.7500009258131874,0.035978528950000005,-2.324264327708173,-0.3778765166299291,0.011244556148623464,,0.029662076520981216,0.5773301648352518,-0.3816151322106161,-0.3587993834174389,-0.8621192417646312,-0.35778962455393215,0.6783189275501383,0.022489512019087235,-0.7344233481966471,0.6412070141432452,-0.506206118916318,0.5767225764483155,,-0.005749791862767083,0.27744306136117997,-0.06879505919631107,-0.9718919284434772,-0.06017107119040494,0.22760826313127067,0.15815630497297806,-0.8830151275351228,0.4418946340122729,0.17439226603014504,0.4654715099373381,0.8677117095054907,,0.043534522619110325,0.718648480701024,1.1779610596860868,0.9905479653003999,-0.03956455337822338,-0.1313368743164669,0.054814650143351094,-0.7635421044881268,0.6434273920214344,-0.12573815080913087,-0.644544878801953,-0.7541563608703941,,0.0519577051297781,0.6519295655910088,-0.39359646133467874,0.9335231763531269,-0.35572698980116685,-0.04464065342901555,-0.2740651760039267,-0.7883437467823216,0.5508197674477086,-0.23113363778019327,-0.501968570366922,-0.8334295386235617,,0.0,0.0,0.045,1.0,0.0,0.0,0.0,1.0,0.0,0.0,0.0,1.0,,0.019037333378670685,-0.19337877532911046,0.2249495411038443,False,,0.03240001134128227,0.5771861753385198,-0.3685367506975108,-0.372114016638453,-0.8421875485047494,-0.3901939155916675,0.6650308823711091,0.05134966060486157,-0.745048413090364,0.6475068216736416,-0.5367339615669254,0.5409728000433784
