AlexandreBanks6/RCL_Autocam_Public/optimizationData/PreUserStudyData/Data_6.csv
System Time,q_des,q0,q1,q2,q3,q4,q5,T_des,Tx,Ty,Tz,R00,R01,R02,R10,R11,R12,R20,R21,R22,T_target,Tx,Ty,Tz,R00,R01,R02,R10,R11,R12,R20,R21,R22,worldFrame,Tx,Ty,Tz,R00,R01,R02,R10,R11,R12,R20,R21,R22,ECM_T_PSM_RCM,Tx,Ty,Tz,R00,R01,R02,R10,R11,R12,R20,R21,R22,psm3_T_cam,Tx,Ty,Tz,R00,R01,R02,R10,R11,R12,R20,R21,R22,offset,x,y,z,IK Trigered,ECM_T_PSM3,Tx,Ty,Tz,R00,R01,R02,R10,R11,R12,R20,R21,R22
21:09:26.437613,,0.2347640350642628,2.2881178405302562,-0.7359310619516615,0.15097519227311373,-2.9759139892670916,-2.6931783320967995,,0.10932966507378371,0.5348570261896122,-0.4559647029567357,-0.2899819130528998,-0.754455389126471,-0.5888187802033881,0.7652670820930978,0.18666511623955012,-0.616053916020336,0.5746971229847043,-0.6292481229191714,0.5232303666988405,,0.02258811559924623,0.271469225325561,-0.11571229615586773,0.5454351787637077,0.5888187802033881,0.5964837884190956,-0.7805873730491285,0.616053916020336,0.10564528192148326,-0.30526024766297843,-0.5232303666988405,0.795641982653589,,-0.011894601224190803,0.7814129309760394,1.1138799909996253,0.9988487260218782,-0.02573023679179401,-0.04048675634215548,0.0031252923638853767,-0.8072858965330064,0.5901522801841408,-0.047869145303745475,-0.5895993861712703,-0.8062760747748569,,0.0,0.0,0.0,1.0,0.0,0.0,0.0,1.0,0.0,0.0,0.0,1.0,,0.0,0.0,0.045,1.0,0.0,0.0,0.0,1.0,0.0,0.0,0.0,1.0,,-0.004778288941558408,-0.15716988368721235,0.2612241015305524,True,,0.10002601467523764,0.5455865863832989,-0.45389230138873093,-0.5318853594674494,-0.7040748327399794,-0.47050674202008225,0.6700813470641541,-0.01020933986002931,-0.7422174598433473,0.517773070660179,-0.7100523919273791,0.47721761075775143
21:09:32.224489,,-0.7028616890643825,-1.0707413603413987,0.02654306971008074,-2.7148388896448754,-0.5618092068256945,-0.37885701840236047,,0.10932233946369765,0.5348794086614272,-0.4559547890135282,-0.28987148818050024,-0.7545186054773233,-0.5887921486641764,0.7652967648157357,0.18669296612491476,-0.6160086023441962,0.5747133042679546,-0.629164056815102,0.5233136798416153,,0.022604989392166146,0.27151035743508717,-0.1156901102009513,0.5455801537374823,0.5887921486641764,0.5963774824045653,-0.7805853290400054,0.6160086023441962,0.10592424616421162,-0.3050062949109275,-0.5233136798416153,0.7956845810717559,,-0.011894601224190803,0.7814129309760394,1.1138799909996253,0.9988487260218782,-0.02573023679179401,-0.04048675634215548,0.0031252923638853767,-0.8072858965330064,0.5901522801841408,-0.047869145303745475,-0.5895993861712703,-0.8062760747748569,,0.1517934928479062,0.5917338775840016,-0.4530098712410455,0.961389972844595,-0.2747598237110933,0.015373984132878708,-0.24201050748746955,-0.817562505875281,0.5225155148439027,-0.1309970777518587,-0.5060618423287615,-0.8524911596956847,,0.0,0.0,0.045,1.0,0.0,0.0,0.0,1.0,0.0,0.0,0.0,1.0,,-0.004778288941558408,-0.15716988368721235,0.2612241015305524,True,,0.09999861755072342,0.5455972428372045,-0.45388174592010233,-0.5324035612336305,-0.7040697066943903,-0.46992796905592205,0.6697660600039389,-0.010890878413246097,-0.742492298703622,0.517648406597131,-0.7100473483385905,0.4773603358730052
21:09:32.231406,,-0.7028616890643825,-1.0707413603413987,0.02654306971008074,-2.7148388896448754,-0.5618092068256945,-0.37885701840236047,,0.10932233946369765,0.5348794086614272,-0.4559547890135282,-0.28987148818050024,-0.7545186054773233,-0.5887921486641764,0.7652967648157357,0.18669296612491476,-0.6160086023441962,0.5747133042679546,-0.629164056815102,0.5233136798416153,,0.022604989392166146,0.27151035743508717,-0.1156901102009513,0.5455801537374823,0.5887921486641764,0.5963774824045653,-0.7805853290400054,0.6160086023441962,0.10592424616421162,-0.3050062949109275,-0.5233136798416153,0.7956845810717559,,-0.011894601224190803,0.7814129309760394,1.1138799909996253,0.9988487260218782,-0.02573023679179401,-0.04048675634215548,0.0031252923638853767,-0.8072858965330064,0.5901522801841408,-0.047869145303745475,-0.5895993861712703,-0.8062760747748569,,0.1517934928479062,0.5917338775840016,-0.4530098712410455,0.961389972844595,-0.2747598237110933,0.015373984132878708,-0.24201050748746955,-0.817562505875281,0.5225155148439027,-0.1309970777518587,-0.5060618423287615,-0.8524911596956847,,0.0,0.0,0.045,1.0,0.0,0.0,0.0,1.0,0.0,0.0,0.0,1.0,,-0.004778288941558408,-0.15716988368721235,0.2612241015305524,True,,0.09999861755072342,0.5455972428372045,-0.45388174592010233,-0.5324035612336305,-0.7040697066943903,-0.46992796905592205,0.6697660600039389,-0.010890878413246097,-0.742492298703622,0.517648406597131,-0.7100473483385905,0.4773603358730052
21:09:32.238253,,-0.7028616890643825,-1.0707413603413987,0.02654306971008074,-2.7148388896448754,-0.5618092068256945,-0.37885701840236047,,0.10932233946369765,0.5348794086614272,-0.4559547890135282,-0.28987148818050024,-0.7545186054773233,-0.5887921486641764,0.7652967648157357,0.18669296612491476,-0.6160086023441962,0.5747133042679546,-0.629164056815102,0.5233136798416153,,0.022604989392166146,0.27151035743508717,-0.1156901102009513,0.5455801537374823,0.5887921486641764,0.5963774824045653,-0.7805853290400054,0.6160086023441962,0.10592424616421162,-0.3050062949109275,-0.5233136798416153,0.7956845810717559,,-0.011894601224190803,0.7814129309760394,1.1138799909996253,0.9988487260218782,-0.02573023679179401,-0.04048675634215548,0.0031252923638853767,-0.8072858965330064,0.5901522801841408,-0.047869145303745475,-0.5895993861712703,-0.8062760747748569,,0.1517934928479062,0.5917338775840016,-0.4530098712410455,0.961389972844595,-0.2747598237110933,0.015373984132878708,-0.24201050748746955,-0.817562505875281,0.5225155148439027,-0.1309970777518587,-0.5060618423287615,-0.8524911596956847,,0.0,0.0,0.045,1.0,0.0,0.0,0.0,1.0,0.0,0.0,0.0,1.0,,-0.004778288941558408,-0.15716988368721235,0.2612241015305524,True,,0.09999861755072342,0.5455972428372045,-0.45388174592010233,-0.5324035612336305,-0.7040697066943903,-0.46992796905592205,0.6697660600039389,-0.010890878413246097,-0.742492298703622,0.517648406597131,-0.7100473483385905,0.4773603358730052
21:09:32.246234,,-0.7028593924107255,-1.0707454098165021,0.026543131045921438,-2.7148364500888214,-0.5618133489151438,-0.3788578145141589,,0.10932245712338089,0.5348792805731868,-0.455954992555071,-0.28987148818050024,-0.7545186054773233,-0.5887921486641764,0.7652967648157357,0.18669296612491476,-0.6160086023441962,0.5747133042679546,-0.629164056815102,0.5233136798416153,,0.022604989392166146,0.27151035743508717,-0.1156901102009513,0.5455801537374823,0.5887921486641764,0.5963774824045653,-0.7805853290400054,0.6160086023441962,0.10592424616421162,-0.3050062949109275,-0.5233136798416153,0.7956845810717559,,-0.011894601224190803,0.7814129309760394,1.1138799909996253,0.9988487260218782,-0.02573023679179401,-0.04048675634215548,0.0031252923638853767,-0.8072858965330064,0.5901522801841408,-0.047869145303745475,-0.5895993861712703,-0.8062760747748569,,0.1517934928479062,0.5917338775840016,-0.4530098712410455,0.961389972844595,-0.2747598237110933,0.015373984132878708,-0.24201050748746955,-0.817562505875281,0.5225155148439027,-0.1309970777518587,-0.5060618423287615,-0.8524911596956847,,0.0,0.0,0.045,1.0,0.0,0.0,0.0,1.0,0.0,0.0,0.0,1.0,,-0.004778288941558408,-0.15716988368721235,0.2612241015305524,True,,0.09999885287008989,0.5455969866607236,-0.4538821530031879,-0.5324092031502352,-0.7040665216059244,-0.4699263490746889,0.6697613817786675,-0.010891656512406755,-0.7424965072620517,0.5176486567922898,-0.7100504946636899,0.47735538453964044
21:09:32.253483,,-0.7028593924107255,-1.0707454098165021,0.026543131045921438,-2.7148364500888214,-0.5618133489151438,-0.3788578145141589,,0.10932245712338089,0.5348792805731868,-0.455954992555071,-0.28987148818050024,-0.7545186054773233,-0.5887921486641764,0.7652967648157357,0.18669296612491476,-0.6160086023441962,0.5747133042679546,-0.629164056815102,0.5233136798416153,,0.022604989392166146,0.27151035743508717,-0.1156901102009513,0.5455801537374823,0.5887921486641764,0.5963774824045653,-0.7805853290400054,0.6160086023441962,0.10592424616421162,-0.3050062949109275,-0.5233136798416153,0.7956845810717559,,-0.011894601224190803,0.7814129309760394,1.1138799909996253,0.9988487260218782,-0.02573023679179401,-0.04048675634215548,0.0031252923638853767,-0.8072858965330064,0.5901522801841408,-0.047869145303745475,-0.5895993861712703,-0.8062760747748569,,0.1517934928479062,0.5917338775840016,-0.4530098712410455,0.961389972844595,-0.2747598237110933,0.015373984132878708,-0.24201050748746955,-0.817562505875281,0.5225155148439027,-0.1309970777518587,-0.5060618423287615,-0.8524911596956847,,0.0,0.0,0.045,1.0,0.0,0.0,0.0,1.0,0.0,0.0,0.0,1.0,,-0.004778288941558408,-0.15716988368721235,0.2612241015305524,True,,0.09999885287008989,0.5455969866607236,-0.4538821530031879,-0.5324092031502352,-0.7040665216059244,-0.4699263490746889,0.6697613817786675,-0.010891656512406755,-0.7424965072620517,0.5176486567922898,-0.7100504946636899,0.47735538453964044
21:09:32.260134,,-0.7028546413639543,-1.0707448513965248,0.026543156483052492,-2.714833731600962,-0.5618137834793354,-0.37885509108325865,,0.10932254450822709,0.5348791803843902,-0.45595487815633884,-0.28987148818050024,-0.7545186054773233,-0.5887921486641764,0.7652967648157357,0.18669296612491476,-0.6160086023441962,0.5747133042679546,-0.629164056815102,0.5233136798416153,,0.022604989392166146,0.27151035743508717,-0.1156901102009513,0.5455801537374823,0.5887921486641764,0.5963774824045653,-0.7805853290400054,0.6160086023441962,0.10592424616421162,-0.3050062949109275,-0.5233136798416153,0.7956845810717559,,-0.011894601224190803,0.7814129309760394,1.1138799909996253,0.9988487260218782,-0.02573023679179401,-0.04048675634215548,0.0031252923638853767,-0.8072858965330064,0.5901522801841408,-0.047869145303745475,-0.5895993861712703,-0.8062760747748569,,0.1517934928479062,0.5917338775840016,-0.4530098712410455,0.961389972844595,-0.2747598237110933,0.015373984132878708,-0.24201050748746955,-0.817562505875281,0.5225155148439027,-0.1309970777518587,-0.5060618423287615,-0.8524911596956847,,0.0,0.0,0.045,1.0,0.0,0.0,0.0,1.0,0.0,0.0,0.0,1.0,,-0.004778288941558408,-0.15716988368721235,0.2612241015305524,True,,0.09999902763978231,0.5455967862831302,-0.4538819242057236,-0.5324085524384216,-0.7040709620294061,-0.4699204333899634,0.6697582023685471,-0.010892901160317714,-0.742499356945421,0.5176534397166475,-0.7100460725412809,0.47735677560732825
21:09:32.266383,,-0.7028569380013544,-1.0707408019218028,0.02654309514743939,-2.7148361711533537,-0.5618096413948256,-0.37885429495094997,,0.10932242684932839,0.5348793084717387,-0.45595467461378136,-0.28987148818050024,-0.7545186054773233,-0.5887921486641764,0.7652967648157357,0.18669296612491476,-0.6160086023441962,0.5747133042679546,-0.629164056815102,0.5233136798416153,,0.022604989392166146,0.27151035743508717,-0.1156901102009513,0.5455801537374823,0.5887921486641764,0.5963774824045653,-0.7805853290400054,0.6160086023441962,0.10592424616421162,-0.3050062949109275,-0.5233136798416153,0.7956845810717559,,-0.011894601224190803,0.7814129309760394,1.1138799909996253,0.9988487260218782,-0.02573023679179401,-0.04048675634215548,0.0031252923638853767,-0.8072858965330064,0.5901522801841408,-0.047869145303745475,-0.5895993861712703,-0.8062760747748569,,0.1517934928479062,0.5917338775840016,-0.4530098712410455,0.961389972844595,-0.2747598237110933,0.015373984132878708,-0.24201050748746955,-0.817562505875281,0.5225155148439027,-0.1309970777518587,-0.5060618423287615,-0.8524911596956847,,0.0,0.0,0.045,1.0,0.0,0.0,0.0,1.0,0.0,0.0,0.0,1.0,,-0.004778288941558408,-0.15716988368721235,0.2612241015305524,True,,0.09999879232198489,0.5455970424578275,-0.4538815171206086,-0.5324029105416797,-0.7040741471010485,-0.4699220533563837,0.6697628806163995,-0.01089212308028259,-0.7424951484038309,0.5176531894957968,-0.7100429261944208,0.4773617269598535
21:09:32.273921,,-0.7028569380013544,-1.0707408019218028,0.02654309514743939,-2.7148361711533537,-0.5618096413948256,-0.37885429495094997,,0.10932242684932839,0.5348793084717387,-0.45595467461378136,-0.28987148818050024,-0.7545186054773233,-0.5887921486641764,0.7652967648157357,0.18669296612491476,-0.6160086023441962,0.5747133042679546,-0.629164056815102,0.5233136798416153,,0.022604989392166146,0.27151035743508717,-0.1156901102009513,0.5455801537374823,0.5887921486641764,0.5963774824045653,-0.7805853290400054,0.6160086023441962,0.10592424616421162,-0.3050062949109275,-0.5233136798416153,0.7956845810717559,,-0.011894601224190803,0.7814129309760394,1.1138799909996253,0.9988487260218782,-0.02573023679179401,-0.04048675634215548,0.0031252923638853767,-0.8072858965330064,0.5901522801841408,-0.047869145303745475,-0.5895993861712703,-0.8062760747748569,,0.1517934928479062,0.5917338775840016,-0.4530098712410455,0.961389972844595,-0.2747598237110933,0.015373984132878708,-0.24201050748746955,-0.817562505875281,0.5225155148439027,-0.1309970777518587,-0.5060618423287615,-0.8524911596956847,,0.0,0.0,0.045,1.0,0.0,0.0,0.0,1.0,0.0,0.0,0.0,1.0,,-0.004778288941558408,-0.15716988368721235,0.2612241015305524,True,,0.09999879232198489,0.5455970424578275,-0.4538815171206086,-0.5324029105416797,-0.7040741471010485,-0.4699220533563837,0.6697628806163995,-0.01089212308028259,-0.7424951484038309,0.5176531894957968,-0.7100429261944208,0.4773617269598535
21:09:32.280195,,-0.7028592345960808,-1.0707367524430933,0.0265430338109284,-2.714838610661667,-0.5618054993101329,-0.3788534988174769,,0.10932230919196956,0.534879436560467,-0.4559544710712019,-0.28987148818050024,-0.7545186054773233,-0.5887921486641764,0.7652967648157357,0.18669296612491476,-0.6160086023441962,0.5747133042679546,-0.629164056815102,0.5233136798416153,,0.022604989392166146,0.27151035743508717,-0.1156901102009513,0.5455801537374823,0.5887921486641764,0.5963774824045653,-0.7805853290400054,0.6160086023441962,0.10592424616421162,-0.3050062949109275,-0.5233136798416153,0.7956845810717559,,-0.011894601224190803,0.7814129309760394,1.1138799909996253,0.9988487260218782,-0.02573023679179401,-0.04048675634215548,0.0031252923638853767,-0.8072858965330064,0.5901522801841408,-0.047869145303745475,-0.5895993861712703,-0.8062760747748569,,0.1517934928479062,0.5917338775840016,-0.4530098712410455,0.961389972844595,-0.2747598237110933,0.015373984132878708,-0.24201050748746955,-0.817562505875281,0.5225155148439027,-0.1309970777518587,-0.5060618423287615,-0.8524911596956847,,0.0,0.0,0.045,1.0,0.0,0.0,0.0,1.0,0.0,0.0,0.0,1.0,,-0.004778288941558408,-0.15716988368721235,0.2612241015305524,True,,0.09999855700726723,0.5455972986352838,-0.45388111003544973,-0.5323972686225742,-0.7040773321549157,-0.4699236732798633,0.66976755883498,-0.010891344972068118,-0.7424909398349125,0.5176529392319287,-0.710039779836536,0.47736667830319846
21:09:32.286394,,-0.7028753453039452,-1.0707427598725294,0.026542581632265437,-2.7148489709504458,-0.5618113089580521,-0.37887079495280046,,0.10932230458754985,0.5348800683115249,-0.4559550361346937,-0.28986765977176293,-0.7545237453450574,-0.5887874468166833,0.7652977937082304,0.18669084713724177,-0.6160079662962922,0.5747138651222504,-0.629158521602979,0.5233197186525629,,0.022605944281326014,0.27151146334441273,-0.11569071139744087,0.5455807723466218,0.5887874468166833,0.5963815584982111,-0.7805851031353112,0.6160079662962922,0.10592960975450527,-0.3050057665174534,-0.5233197186525629,0.7956808119217801,,-0.011894601224190803,0.7814129309760394,1.1138799909996253,0.9988487260218782,-0.02573023679179401,-0.04048675634215548,0.0031252923638853767,-0.8072858965330064,0.5901522801841408,-0.047869145303745475,-0.5895993861712703,-0.8062760747748569,,0.1517934928479062,0.5917338775840016,-0.4530098712410455,0.961389972844595,-0.2747598237110933,0.015373984132878708,-0.24201050748746955,-0.817562505875281,0.5225155148439027,-0.1309970777518587,-0.5060618423287615,-0.8524911596956847,,0.0,0.0,0.045,1.0,0.0,0.0,0.0,1.0,0.0,0.0,0.0,1.0,,-0.004778288941558408,-0.15716988368721235,0.2612241015305524,True,,0.09999832169562936,0.5455975548154993,-0.45388070295024685,-0.5323916266811055,-0.7040805171910077,-0.46992529316040155,0.6697722370242879,-0.01089056683567502,-0.7424867312386657,0.517652688925043,-0.7100366334676266,0.47737162963736324
21:09:32.292707,,-0.7028753453039452,-1.0707427598725294,0.026542581632265437,-2.7148489709504458,-0.5618113089580521,-0.37887079495280046,,0.10932230458754985,0.5348800683115249,-0.4559550361346937,-0.28986765977176293,-0.7545237453450574,-0.5887874468166833,0.7652977937082304,0.18669084713724177,-0.6160079662962922,0.5747138651222504,-0.629158521602979,0.5233197186525629,,0.022605944281326014,0.27151146334441273,-0.11569071139744087,0.5455807723466218,0.5887874468166833,0.5963815584982111,-0.7805851031353112,0.6160079662962922,0.10592960975450527,-0.3050057665174534,-0.5233197186525629,0.7956808119217801,,-0.011894601224190803,0.7814129309760394,1.1138799909996253,0.9988487260218782,-0.02573023679179401,-0.04048675634215548,0.0031252923638853767,-0.8072858965330064,0.5901522801841408,-0.047869145303745475,-0.5895993861712703,-0.8062760747748569,,0.1517934928479062,0.5917338775840016,-0.4530098712410455,0.961389972844595,-0.2747598237110933,0.015373984132878708,-0.24201050748746955,-0.817562505875281,0.5225155148439027,-0.1309970777518587,-0.5060618423287615,-0.8524911596956847,,0.0,0.0,0.045,1.0,0.0,0.0,0.0,1.0,0.0,0.0,0.0,1.0,,-0.004778288941558408,-0.15716988368721235,0.2612241015305524,True,,0.09999832169562936,0.5455975548154993,-0.45388070295024685,-0.5323916266811055,-0.7040805171910077,-0.46992529316040155,0.6697722370242879,-0.01089056683567502,-0.7424867312386657,0.517652688925043,-0.7100366334676266,0.47737162963736324
21:09:32.299316,,-0.7028776417860554,-1.0707387103584913,0.026542520291807967,-2.71485141037269,-0.5618071668565583,-0.3788699988015339,,0.10932218693327087,0.5348801964030122,-0.45595483259207026,-0.28986765977176293,-0.7545237453450574,-0.5887874468166833,0.7652977937082304,0.18669084713724177,-0.6160079662962922,0.5747138651222504,-0.629158521602979,0.5233197186525629,,0.022605944281326014,0.27151146334441273,-0.11569071139744087,0.5455807723466218,0.5887874468166833,0.5963815584982111,-0.7805851031353112,0.6160079662962922,0.10592960975450527,-0.3050057665174534,-0.5233197186525629,0.7956808119217801,,-0.011894601224190803,0.7814129309760394,1.1138799909996253,0.9988487260218782,-0.02573023679179401,-0.04048675634215548,0.0031252923638853767,-0.8072858965330064,0.5901522801841408,-0.047869145303745475,-0.5895993861712703,-0.8062760747748569,,0.1517934928479062,0.5917338775840016,-0.4530098712410455,0.961389972844595,-0.2747598237110933,0.015373984132878708,-0.24201050748746955,-0.817562505875281,0.5225155148439027,-0.1309970777518587,-0.5060618423287615,-0.8524911596956847,,0.0,0.0,0.045,1.0,0.0,0.0,0.0,1.0,0.0,0.0,0.0,1.0,,-0.004778288941558408,-0.15716988368721235,0.2612241015305524,True,,0.09999808638707139,0.545597810998474,-0.45388029586500006,-0.5323859847172732,-0.7040837022093254,-0.46992691299800005,0.6697769151843247,-0.010889788671102074,-0.742482522615091,0.5176524385751408,-0.7100334870876931,0.4773765809623482
21:09:32.307401,,-0.7028661241242136,-1.0707246039830465,0.026542849796009155,-2.7148459289221374,-0.561793073054968,-0.3788511104100662,,0.10932195622913254,0.5348798208349289,-0.45595386044333175,-0.28987148818050024,-0.7545186054773233,-0.5887921486641764,0.7652967648157357,0.18669296612491476,-0.6160086023441962,0.5747133042679546,-0.629164056815102,0.5233136798416153,,0.022604989392166146,0.27151035743508717,-0.1156901102009513,0.5455801537374823,0.5887921486641764,0.5963774824045653,-0.7805853290400054,0.6160086023441962,0.10592424616421162,-0.3050062949109275,-0.5233136798416153,0.7956845810717559,,-0.011894601224190803,0.7814129309760394,1.1138799909996253,0.9988487260218782,-0.02573023679179401,-0.04048675634215548,0.0031252923638853767,-0.8072858965330064,0.5901522801841408,-0.047869145303745475,-0.5895993861712703,-0.8062760747748569,,0.1517934928479062,0.5917338775840016,-0.4530098712410455,0.961389972844595,-0.2747598237110933,0.015373984132878708,-0.24201050748746955,-0.817562505875281,0.5225155148439027,-0.1309970777518587,-0.5060618423287615,-0.8524911596956847,,0.0,0.0,0.045,1.0,0.0,0.0,0.0,1.0,0.0,0.0,0.0,1.0,,-0.004778288941558408,-0.15716988368721235,0.2612241015305524,True,,0.09999785108159319,0.5455980671842078,-0.4538798887797095,-0.5323803427310784,-0.7040868872098672,-0.46992853279265734,0.6697815933150882,-0.010889010478350225,-0.7424783139641888,0.517652188182221,-0.7100303406967357,0.47738153227815205
21:09:32.314837,,-0.702852310749455,-1.0707145471699655,0.026543240658331163,-2.7148380085577215,-0.5617831214709085,-0.3788330184171369,,0.1093218431720098,0.5348793171708288,-0.4559530918401446,-0.28987531651086573,-0.754513465580487,-0.5887968504802388,0.7652957359307876,0.18669508518578806,-0.6160092383508755,0.5747127434152471,-0.6291695919425816,0.5233076410018545,,0.02260403449643099,0.2715092515258518,-0.11568950901473986,0.5455795351305915,0.5887968504802389,0.5963734062743237,-0.780585554940482,0.6160092383508756,0.10591888256885243,-0.30500682330883677,-0.5233076410018546,0.7956883501749455,,-0.011894601224190803,0.7814129309760394,1.1138799909996253,0.9988487260218782,-0.02573023679179401,-0.04048675634215548,0.0031252923638853767,-0.8072858965330064,0.5901522801841408,-0.047869145303745475,-0.5895993861712703,-0.8062760747748569,,0.1517934928479062,0.5917338775840016,-0.4530098712410455,0.961389972844595,-0.2747598237110933,0.015373984132878708,-0.24201050748746955,-0.817562505875281,0.5225155148439027,-0.1309970777518587,-0.5060618423287615,-0.8524911596956847,,0.0,0.0,0.045,1.0,0.0,0.0,0.0,1.0,0.0,0.0,0.0,1.0,,-0.004778288941558408,-0.15716988368721235,0.2612241015305524,True,,0.09999785108159319,0.5455980671842078,-0.4538798887797095,-0.5323803427310784,-0.7040868872098672,-0.46992853279265734,0.6697815933150882,-0.010889010478350225,-0.7424783139641888,0.517652188182221,-0.7100303406967357,0.47738153227815205
21:09:32.321587,,-0.702852310749455,-1.0707145471699655,0.026543240658331163,-2.7148380085577215,-0.5617831214709085,-0.3788330184171369,,0.1093218431720098,0.5348793171708288,-0.4559530918401446,-0.28987531651086573,-0.754513465580487,-0.5887968504802388,0.7652957359307876,0.18669508518578806,-0.6160092383508755,0.5747127434152471,-0.6291695919425816,0.5233076410018545,,0.02260403449643099,0.2715092515258518,-0.11568950901473986,0.5455795351305915,0.5887968504802389,0.5963734062743237,-0.780585554940482,0.6160092383508756,0.10591888256885243,-0.30500682330883677,-0.5233076410018546,0.7956883501749455,,-0.011894601224190803,0.7814129309760394,1.1138799909996253,0.9988487260218782,-0.02573023679179401,-0.04048675634215548,0.0031252923638853767,-0.8072858965330064,0.5901522801841408,-0.047869145303745475,-0.5895993861712703,-0.8062760747748569,,0.1517934928479062,0.5917338775840016,-0.4530098712410455,0.961389972844595,-0.2747598237110933,0.015373984132878708,-0.24201050748746955,-0.817562505875281,0.5225155148439027,-0.1309970777518587,-0.5060618423287615,-0.8524911596956847,,0.0,0.0,0.045,1.0,0.0,0.0,0.0,1.0,0.0,0.0,0.0,1.0,,-0.004778288941558408,-0.15716988368721235,0.2612241015305524,True,,0.09999785108159319,0.5455980671842078,-0.4538798887797095,-0.5323803427310784,-0.7040868872098672,-0.46992853279265734,0.6697815933150882,-0.010889010478350225,-0.7424783139641888,0.517652188182221,-0.7100303406967357,0.47738153227815205
21:09:32.328646,,-0.7028707169296062,-1.0707165049897442,0.02654272711490755,-2.714850807542071,-0.5617847888839466,-0.3788495181326303,,0.10932172092827412,0.5348800770248014,-0.4559534533579753,-0.28987148818050024,-0.7545186054773233,-0.5887921486641764,0.7652967648157357,0.18669296612491476,-0.6160086023441962,0.5747133042679546,-0.629164056815102,0.5233136798416153,,0.022604989392166146,0.27151035743508717,-0.1156901102009513,0.5455801537374823,0.5887921486641764,0.5963774824045653,-0.7805853290400054,0.6160086023441962,0.10592424616421162,-0.3050062949109275,-0.5233136798416153,0.7956845810717559,,-0.011894601224190803,0.7814129309760394,1.1138799909996253,0.9988487260218782,-0.02573023679179401,-0.04048675634215548,0.0031252923638853767,-0.8072858965330064,0.5901522801841408,-0.047869145303745475,-0.5895993861712703,-0.8062760747748569,,0.1517934928479062,0.5917338775840016,-0.4530098712410455,0.961389972844595,-0.2747598237110933,0.015373984132878708,-0.24201050748746955,-0.817562505875281,0.5225155148439027,-0.1309970777518587,-0.5060618423287615,-0.8524911596956847,,0.0,0.0,0.045,1.0,0.0,0.0,0.0,1.0,0.0,0.0,0.0,1.0,,-0.004778288941558408,-0.15716988368721235,0.2612241015305524,True,,0.09999738047987636,0.5455985795639527,-0.4538790746089966,-0.532369058691601,-0.704093257157625,-0.4699317722531491,0.6697909494887975,-0.010887454008309205,-0.7424698965804017,0.5176516872673306,-0.7100240478817488,0.4773914348822173
21:09:32.335378,,-0.7028569036093679,-1.0707064482313768,0.026543117981531597,-2.7148428871734693,-0.5617748373327685,-0.37883142617062304,,0.10932160787115139,0.5348795733607012,-0.4559526847547882,-0.28987531651086573,-0.754513465580487,-0.5887968504802388,0.7652957359307876,0.18669508518578806,-0.6160092383508755,0.5747127434152471,-0.6291695919425816,0.5233076410018545,,0.02260403449643099,0.2715092515258518,-0.11568950901473986,0.5455795351305915,0.5887968504802389,0.5963734062743237,-0.780585554940482,0.6160092383508756,0.10591888256885243,-0.30500682330883677,-0.5233076410018546,0.7956883501749455,,-0.011894601224190803,0.7814129309760394,1.1138799909996253,0.9988487260218782,-0.02573023679179401,-0.04048675634215548,0.0031252923638853767,-0.8072858965330064,0.5901522801841408,-0.047869145303745475,-0.5895993861712703,-0.8062760747748569,,0.1517934928479062,0.5917338775840016,-0.4530098712410455,0.961389972844595,-0.2747598237110933,0.015373984132878708,-0.24201050748746955,-0.817562505875281,0.5225155148439027,-0.1309970777518587,-0.5060618423287615,-0.8524911596956847,,0.0,0.0,0.045,1.0,0.0,0.0,0.0,1.0,0.0,0.0,0.0,1.0,,-0.004778288941558408,-0.15716988368721235,0.2612241015305524,True,,0.09999738047987636,0.5455985795639527,-0.4538790746089966,-0.532369058691601,-0.704093257157625,-0.4699317722531491,0.6697909494887975,-0.010887454008309205,-0.7424698965804017,0.5176516872673306,-0.7100240478817488,0.4773914348822173
21:09:32.342616,,-0.7028591999753225,-1.0707023987561004,0.026543056641785155,-2.7148453264152357,-0.5617706952634239,-0.3788306300456179,,0.10932149022303206,0.5348797014577069,-0.4559524812120771,-0.28987531651086573,-0.754513465580487,-0.5887968504802388,0.7652957359307876,0.18669508518578806,-0.6160092383508755,0.5747127434152471,-0.6291695919425816,0.5233076410018545,,0.02260403449643099,0.2715092515258518,-0.11568950901473986,0.5455795351305915,0.5887968504802389,0.5963734062743237,-0.780585554940482,0.6160092383508756,0.10591888256885243,-0.30500682330883677,-0.5233076410018546,0.7956883501749455,,-0.011894601224190803,0.7814129309760394,1.1138799909996253,0.9988487260218782,-0.02573023679179401,-0.04048675634215548,0.0031252923638853767,-0.8072858965330064,0.5901522801841408,-0.047869145303745475,-0.5895993861712703,-0.8062760747748569,,0.1517934928479062,0.5917338775840016,-0.4530098712410455,0.961389972844595,-0.2747598237110933,0.015373984132878708,-0.24201050748746955,-0.817562505875281,0.5225155148439027,-0.1309970777518587,-0.5060618423287615,-0.8524911596956847,,0.0,0.0,0.045,1.0,0.0,0.0,0.0,1.0,0.0,0.0,0.0,1.0,,-0.004778288941558408,-0.15716988368721235,0.2612241015305524,True,,0.09999714518363771,0.5455988357579639,-0.45387866752357453,-0.5323634166383195,-0.7040964421048402,-0.4699333919189833,0.6697956275317422,-0.010886675731020257,-0.7424656878475178,0.5176514367453596,-0.7100209014577201,0.4773963861704777
21:09:32.349494,,-0.7014016226303937,-1.0716137584304715,0.02652548390855393,-2.713670512548982,-0.5628513434242145,-0.37858803224875676,,0.10933888926655728,0.5348641917943129,-0.45597140251417045,-0.28986701607962023,-0.7545380119336925,-0.5887694808125231,0.7652979667004522,0.1866764685821427,-0.6160121088435309,0.5747139594209025,-0.6291456783804933,0.5233350554108698,,0.02256481688299016,0.2714920328019741,-0.11571425973243782,0.5455762225482996,0.5887694808125231,0.5964034572784438,-0.7805816369499733,0.6160121088435309,0.10593106161389276,-0.30502277529133565,-0.5233350554108698,0.7956642045056908,,-0.011894601224190803,0.7814129309760394,1.1138799909996253,0.9988487260218782,-0.02573023679179401,-0.04048675634215548,0.0031252923638853767,-0.8072858965330064,0.5901522801841408,-0.047869145303745475,-0.5895993861712703,-0.8062760747748569,,0.1517474511821054,0.5917358056341606,-0.4530029456262197,0.9613724526296615,-0.2748222145883775,0.01535440306782345,-0.2420512204635525,-0.8175402281430776,0.5225315129634477,-0.131050425397761,-0.5060639541960134,-0.8524817067049367,,0.0,0.0,0.045,1.0,0.0,0.0,0.0,1.0,0.0,0.0,0.0,1.0,,-0.004778288941558408,-0.15716988368721235,0.2612241015305524,True,,0.10007540318262492,0.5455845902286921,-0.4538875101766659,-0.5324402593785249,-0.704049724606901,-0.46991632816265944,0.6697699125662001,-0.010944130826541332,-0.7424880404568929,0.5176056746346529,-0.7100663428732549,0.4773784183481774
21:09:32.357520,,-0.7013901318139144,-1.0715996365051506,0.026525812938228907,-2.713665062462329,-0.562837239934655,-0.37856913974733186,,0.10933865857141062,0.5348638162253855,-0.4559704303729758,-0.2898708444331265,-0.7545328721692119,-0.5887741828270887,0.7652969378250735,0.18667858761032607,-0.616012744903366,0.5747133985763615,-0.6291512137347378,0.5233290167312669,,0.022563862016539177,0.2714909268864426,-0.11571365851129653,0.5455756039254263,0.5887741828270886,0.596399381319012,-0.7805818628567879,0.6160127449033659,0.10592569799461884,-0.30502330366782326,-0.5233290167312667,0.7956679737595653,,-0.011894601224190803,0.7814129309760394,1.1138799909996253,0.9988487260218782,-0.02573023679179401,-0.04048675634215548,0.0031252923638853767,-0.8072858965330064,0.5901522801841408,-0.047869145303745475,-0.5895993861712703,-0.8062760747748569,,0.1517474511821054,0.5917358056341606,-0.4530029456262197,0.9613724526296615,-0.2748222145883775,0.01535440306782345,-0.2420512204635525,-0.8175402281430776,0.5225315129634477,-0.131050425397761,-0.5060639541960134,-0.8524817067049367,,0.0,0.0,0.045,1.0,0.0,0.0,0.0,1.0,0.0,0.0,0.0,1.0,,-0.004778288941558408,-0.15716988368721235,0.2612241015305524,True,,0.10007516784652491,0.5455848464170943,-0.45388710311075636,-0.5324346175890872,-0.7040529097905369,-0.46991794837848144,0.6697745909403966,-0.010943352674076423,-0.7424838317181566,0.5176054243566112,-0.7100631966576845,0.47738336945151716
21:09:32.364264,,-0.7013901318139144,-1.0715996365051506,0.026525812938228907,-2.713665062462329,-0.562837239934655,-0.37856913974733186,,0.10933865857141062,0.5348638162253855,-0.4559704303729758,-0.2898708444331265,-0.7545328721692119,-0.5887741828270887,0.7652969378250735,0.18667858761032607,-0.616012744903366,0.5747133985763615,-0.6291512137347378,0.5233290167312669,,0.022563862016539177,0.2714909268864426,-0.11571365851129653,0.5455756039254263,0.5887741828270886,0.596399381319012,-0.7805818628567879,0.6160127449033659,0.10592569799461884,-0.30502330366782326,-0.5233290167312667,0.7956679737595653,,-0.011894601224190803,0.7814129309760394,1.1138799909996253,0.9988487260218782,-0.02573023679179401,-0.04048675634215548,0.0031252923638853767,-0.8072858965330064,0.5901522801841408,-0.047869145303745475,-0.5895993861712703,-0.8062760747748569,,0.1517474511821054,0.5917358056341606,-0.4530029456262197,0.9613724526296615,-0.2748222145883775,0.01535440306782345,-0.2420512204635525,-0.8175402281430776,0.5225315129634477,-0.131050425397761,-0.5060639541960134,-0.8524817067049367,,0.0,0.0,0.045,1.0,0.0,0.0,0.0,1.0,0.0,0.0,0.0,1.0,,-0.004778288941558408,-0.15716988368721235,0.2612241015305524,True,,0.10007516784652491,0.5455848464170943,-0.45388710311075636,-0.5324346175890872,-0.7040529097905369,-0.46991794837848144,0.6697745909403966,-0.010943352674076423,-0.7424838317181566,0.5176054243566112,-0.7100631966576845,0.47738336945151716
21:09:32.370537,,-0.7013953865053794,-1.0715869284112716,0.02652563302564061,-2.7136715591141303,-0.5628246338343635,-0.37856561039728304,,0.10933833007075744,0.5348641718615137,-0.45596975751374347,-0.2898708444331265,-0.7545328721692119,-0.5887741828270887,0.7652969378250735,0.18667858761032607,-0.616012744903366,0.5747133985763615,-0.6291512137347378,0.5233290167312669,,0.022563862016539177,0.2714909268864426,-0.11571365851129653,0.5455756039254263,0.5887741828270886,0.596399381319012,-0.7805818628567879,0.6160127449033659,0.10592569799461884,-0.30502330366782326,-0.5233290167312667,0.7956679737595653,,-0.011894601224190803,0.7814129309760394,1.1138799909996253,0.9988487260218782,-0.02573023679179401,-0.04048675634215548,0.0031252923638853767,-0.8072858965330064,0.5901522801841408,-0.047869145303745475,-0.5895993861712703,-0.8062760747748569,,0.1517474511821054,0.5917358056341606,-0.4530029456262197,0.9613724526296615,-0.2748222145883775,0.01535440306782345,-0.2420512204635525,-0.8175402281430776,0.5225315129634477,-0.131050425397761,-0.5060639541960134,-0.8524817067049367,,0.0,0.0,0.045,1.0,0.0,0.0,0.0,1.0,0.0,0.0,0.0,1.0,,-0.004778288941558408,-0.15716988368721235,0.2612241015305524,True,,0.10007451084521854,0.5455855576893507,-0.4538857573922917,-0.5323472768521559,-0.7041624306910342,-0.469852794001897,0.6697062502065535,-0.010833402833093642,-0.7425470865994516,0.5177836568127386,-0.7099562723058025,0.4773491134916644
21:09:32.377280,,-0.7014381806945872,-1.0715769066097098,0.026524145540487515,-2.7137022113074396,-0.5628105519102435,-0.3785887781819546,,0.10933786756823594,0.5348662803118402,-0.45596975108460797,-0.28986701607962023,-0.7545380119336925,-0.5887694808125231,0.7652979667004522,0.1866764685821427,-0.6160121088435309,0.5747139594209025,-0.6291456783804933,0.5233350554108698,,0.02256481688299016,0.2714920328019741,-0.11571425973243782,0.5455762225482996,0.5887694808125231,0.5964034572784438,-0.7805816369499733,0.6160121088435309,0.10593106161389276,-0.30502277529133565,-0.5233350554108698,0.7956642045056908,,-0.011894601224190803,0.7814129309760394,1.1138799909996253,0.9988487260218782,-0.02573023679179401,-0.04048675634215548,0.0031252923638853767,-0.8072858965330064,0.5901522801841408,-0.047869145303745475,-0.5895993861712703,-0.8062760747748569,,0.1517474511821054,0.5917358056341606,-0.4530029456262197,0.9613724526296615,-0.2748222145883775,0.01535440306782345,-0.2420512204635525,-0.8175402281430776,0.5225315129634477,-0.131050425397761,-0.5060639541960134,-0.8524817067049367,,0.0,0.0,0.045,1.0,0.0,0.0,0.0,1.0,0.0,0.0,0.0,1.0,,-0.004778288941558408,-0.15716988368721235,0.2612241015305524,True,,0.10007335978598222,0.5455887672637468,-0.45388420731754087,-0.5323160295402288,-0.7041637745577265,-0.4698861812132191,0.6697470372526941,-0.010823744493060894,-0.7425104394191289,0.5177630257036178,-0.7099550867172972,0.47737325444401524
21:09:32.384102,,-0.7014519838148917,-1.0715869800698714,0.026523754926892903,-2.7137101162856476,-0.5628205129907746,-0.3786068748890013,,0.10933798058960895,0.534866783971819,-0.4559705196957537,-0.28986318764773716,-0.7545431516690709,-0.5887647787665277,0.7652989955833782,0.18667434962716367,-0.6160114727424709,0.5747145202670323,-0.6291401429416033,0.5233410940616587,,0.022565771742865472,0.27149313871759573,-0.11571486096385701,0.5455768411734212,0.5887647787665276,0.5964075332012776,-0.7805814110389402,0.6160114727424708,0.10593642522810101,-0.3050222469192835,-0.5233410940616586,0.79566043520503,,-0.011894601224190803,0.7814129309760394,1.1138799909996253,0.9988487260218782,-0.02573023679179401,-0.04048675634215548,0.0031252923638853767,-0.8072858965330064,0.5901522801841408,-0.047869145303745475,-0.5895993861712703,-0.8062760747748569,,0.1517474511821054,0.5917358056341606,-0.4530029456262197,0.9613724526296615,-0.2748222145883775,0.01535440306782345,-0.2420512204635525,-0.8175402281430776,0.5225315129634477,-0.131050425397761,-0.5060639541960134,-0.8524817067049367,,0.0,0.0,0.045,1.0,0.0,0.0,0.0,1.0,0.0,0.0,0.0,1.0,,-0.004778288941558408,-0.15716988368721235,0.2612241015305524,True,,0.10007335978598222,0.5455887672637468,-0.45388420731754087,-0.5323160295402288,-0.7041637745577265,-0.4698861812132191,0.6697470372526941,-0.010823744493060894,-0.7425104394191289,0.5177630257036178,-0.7099550867172972,0.47737325444401524
21:09:32.390849,,-0.7014896374297289,-1.0715655002716271,0.02652325778967607,-2.7137384502775905,-0.5627934898922244,-0.37861572909616253,,0.10933683771753365,0.5348680536554351,-0.45596987070702377,-0.28986318764773716,-0.7545431516690709,-0.5887647787665277,0.7652989955833782,0.18667434962716367,-0.6160114727424709,0.5747145202670323,-0.6291401429416033,0.5233410940616587,,0.022565771742865472,0.27149313871759573,-0.11571486096385701,0.5455768411734212,0.5887647787665276,0.5964075332012776,-0.7805814110389402,0.6160114727424708,0.10593642522810101,-0.3050222469192835,-0.5233410940616586,0.79566043520503,,-0.011894601224190803,0.7814129309760394,1.1138799909996253,0.9988487260218782,-0.02573023679179401,-0.04048675634215548,0.0031252923638853767,-0.8072858965330064,0.5901522801841408,-0.047869145303745475,-0.5895993861712703,-0.8062760747748569,,0.1517474511821054,0.5917358056341606,-0.4530029456262197,0.9613724526296615,-0.2748222145883775,0.01535440306782345,-0.2420512204635525,-0.8175402281430776,0.5225315129634477,-0.131050425397761,-0.5060639541960134,-0.8524817067049367,,0.0,0.0,0.045,1.0,0.0,0.0,0.0,1.0,0.0,0.0,0.0,1.0,,-0.004778288941558408,-0.15716988368721235,0.2612241015305524,True,,0.10007107404183163,0.545591306630979,-0.45388290934008096,-0.532285431029446,-0.704160677773642,-0.46992548323235506,0.6697910008286416,-0.010812838945620795,-0.7424709406588941,0.5177376122349658,-0.7099583244045398,0.477396001749004
21:09:32.397348,,-0.7014929128080607,-1.071539794912106,0.026523355821910323,-2.7137449376351563,-0.5627659131926857,-0.37859875981933727,,0.10933610382432013,0.5348682342405435,-0.45596845463836455,-0.28986701607962023,-0.7545380119336925,-0.5887694808125231,0.7652979667004522,0.1866764685821427,-0.6160121088435309,0.5747139594209025,-0.6291456783804933,0.5233350554108698,,0.02256481688299016,0.2714920328019741,-0.11571425973243782,0.5455762225482996,0.5887694808125231,0.5964034572784438,-0.7805816369499733,0.6160121088435309,0.10593106161389276,-0.30502277529133565,-0.5233350554108698,0.7956642045056908,,-0.011894601224190803,0.7814129309760394,1.1138799909996253,0.9988487260218782,-0.02573023679179401,-0.04048675634215548,0.0031252923638853767,-0.8072858965330064,0.5901522801841408,-0.047869145303745475,-0.5895993861712703,-0.8062760747748569,,0.1517474511821054,0.5917358056341606,-0.4530029456262197,0.9613724526296615,-0.2748222145883775,0.01535440306782345,-0.2420512204635525,-0.8175402281430776,0.5225315129634477,-0.131050425397761,-0.5060639541960134,-0.8524817067049367,,0.0,0.0,0.045,1.0,0.0,0.0,0.0,1.0,0.0,0.0,0.0,1.0,,-0.004778288941558408,-0.15716988368721235,0.2612241015305524,True,,0.10006983229815061,0.5455926751211534,-0.45388161442505404,-0.5321937314959831,-0.7042644721959261,-0.4698737972679211,0.6697336735933648,-0.010699608331370292,-0.7425242924219329,0.5179060132992456,-0.7098570782799516,0.477363896628487
21:09:32.404968,,-0.7014929128080607,-1.071539794912106,0.026523355821910323,-2.7137449376351563,-0.5627659131926857,-0.37859875981933727,,0.10933610382432013,0.5348682342405435,-0.45596845463836455,-0.28986701607962023,-0.7545380119336925,-0.5887694808125231,0.7652979667004522,0.1866764685821427,-0.6160121088435309,0.5747139594209025,-0.6291456783804933,0.5233350554108698,,0.02256481688299016,0.2714920328019741,-0.11571425973243782,0.5455762225482996,0.5887694808125231,0.5964034572784438,-0.7805816369499733,0.6160121088435309,0.10593106161389276,-0.30502277529133565,-0.5233350554108698,0.7956642045056908,,-0.011894601224190803,0.7814129309760394,1.1138799909996253,0.9988487260218782,-0.02573023679179401,-0.04048675634215548,0.0031252923638853767,-0.8072858965330064,0.5901522801841408,-0.047869145303745475,-0.5895993861712703,-0.8062760747748569,,0.1517474511821054,0.5917358056341606,-0.4530029456262197,0.9613724526296615,-0.2748222145883775,0.01535440306782345,-0.2420512204635525,-0.8175402281430776,0.5225315129634477,-0.131050425397761,-0.5060639541960134,-0.8524817067049367,,0.0,0.0,0.045,1.0,0.0,0.0,0.0,1.0,0.0,0.0,0.0,1.0,,-0.004778288941558408,-0.15716988368721235,0.2612241015305524,True,,0.10006983229815061,0.5455926751211534,-0.45388161442505404,-0.5321937314959831,-0.7042644721959261,-0.4698737972679211,0.6697336735933648,-0.010699608331370292,-0.7425242924219329,0.5179060132992456,-0.7098570782799516,0.477363896628487
21:09:32.411750,,-0.7015132643434118,-1.0715268270578227,0.026523745247505177,-2.7137606065950144,-0.5627500714366418,-0.37860288037320894,,0.10933509606019577,0.5348683837192985,-0.4559680844799571,-0.28986701607962023,-0.7545380119336925,-0.5887694808125231,0.7652979667004522,0.1866764685821427,-0.6160121088435309,0.5747139594209025,-0.6291456783804933,0.5233350554108698,,0.02256481688299016,0.2714920328019741,-0.11571425973243782,0.5455762225482996,0.5887694808125231,0.5964034572784438,-0.7805816369499733,0.6160121088435309,0.10593106161389276,-0.30502277529133565,-0.5233350554108698,0.7956642045056908,,-0.011894601224190803,0.7814129309760394,1.1138799909996253,0.9988487260218782,-0.02573023679179401,-0.04048675634215548,0.0031252923638853767,-0.8072858965330064,0.5901522801841408,-0.047869145303745475,-0.5895993861712703,-0.8062760747748569,,0.1517474511821054,0.5917358056341606,-0.4530029456262197,0.9613724526296615,-0.2748222145883775,0.01535440306782345,-0.2420512204635525,-0.8175402281430776,0.5225315129634477,-0.131050425397761,-0.5060639541960134,-0.8524817067049367,,0.0,0.0,0.045,1.0,0.0,0.0,0.0,1.0,0.0,0.0,0.0,1.0,,-0.004778288941558408,-0.15716988368721235,0.2612241015305524,True,,0.1000678167699019,0.545592974078663,-0.4538808741082392,-0.5321781066199504,-0.7042651411728499,-0.46989049124576987,0.6697540655890691,-0.010694773509126232,-0.7425059686268535,0.517895698438709,-0.7098564874313503,0.4773759658699918
21:09:32.418070,,-0.7015303424696635,-1.0715111948602094,0.026523452628431084,-2.7137749981485353,-0.5627324556683657,-0.37860400847889736,,0.10933447521194728,0.5348690680356489,-0.4559674370539606,-0.28986701607962023,-0.7545380119336925,-0.5887694808125231,0.7652979667004522,0.1866764685821427,-0.6160121088435309,0.5747139594209025,-0.6291456783804933,0.5233350554108698,,0.02256481688299016,0.2714920328019741,-0.11571425973243782,0.5455762225482996,0.5887694808125231,0.5964034572784438,-0.7805816369499733,0.6160121088435309,0.10593106161389276,-0.30502277529133565,-0.5233350554108698,0.7956642045056908,,-0.011894601224190803,0.7814129309760394,1.1138799909996253,0.9988487260218782,-0.02573023679179401,-0.04048675634215548,0.0031252923638853767,-0.8072858965330064,0.5901522801841408,-0.047869145303745475,-0.5895993861712703,-0.8062760747748569,,0.1517474511821054,0.5917358056341606,-0.4530029456262197,0.9613724526296615,-0.2748222145883775,0.01535440306782345,-0.2420512204635525,-0.8175402281430776,0.5225315129634477,-0.131050425397761,-0.5060639541960134,-0.8524817067049367,,0.0,0.0,0.045,1.0,0.0,0.0,0.0,1.0,0.0,0.0,0.0,1.0,,-0.004778288941558408,-0.15716988368721235,0.2612241015305524,True,,0.10006657507340491,0.5455943427113641,-0.4538795792562461,-0.5320863845950982,-0.7043689125085412,-0.4698388174896285,0.6696967136385995,-0.010581544004182875,-0.7425593192925042,0.518064080081004,-0.7097552155623956,0.47734384138878394
21:09:32.424714,,-0.7015303424696635,-1.0715111948602094,0.026523452628431084,-2.7137749981485353,-0.5627324556683657,-0.37860400847889736,,0.10933447521194728,0.5348690680356489,-0.4559674370539606,-0.28986701607962023,-0.7545380119336925,-0.5887694808125231,0.7652979667004522,0.1866764685821427,-0.6160121088435309,0.5747139594209025,-0.6291456783804933,0.5233350554108698,,0.02256481688299016,0.2714920328019741,-0.11571425973243782,0.5455762225482996,0.5887694808125231,0.5964034572784438,-0.7805816369499733,0.6160121088435309,0.10593106161389276,-0.30502277529133565,-0.5233350554108698,0.7956642045056908,,-0.011894601224190803,0.7814129309760394,1.1138799909996253,0.9988487260218782,-0.02573023679179401,-0.04048675634215548,0.0031252923638853767,-0.8072858965330064,0.5901522801841408,-0.047869145303745475,-0.5895993861712703,-0.8062760747748569,,0.1517474511821054,0.5917358056341606,-0.4530029456262197,0.9613724526296615,-0.2748222145883775,0.01535440306782345,-0.2420512204635525,-0.8175402281430776,0.5225315129634477,-0.131050425397761,-0.5060639541960134,-0.8524817067049367,,0.0,0.0,0.045,1.0,0.0,0.0,0.0,1.0,0.0,0.0,0.0,1.0,,-0.004778288941558408,-0.15716988368721235,0.2612241015305524,True,,0.10006657507340491,0.5455943427113641,-0.4538795792562461,-0.5320863845950982,-0.7043689125085412,-0.4698388174896285,0.6696967136385995,-0.010581544004182875,-0.7425593192925042,0.518064080081004,-0.7097552155623956,0.47734384138878394
21:09:32.431106,,-0.7015514098499006,-1.0714920770268992,0.02652309351715094,-2.7137927074513764,-0.562710875862318,-0.37860548219741486,,0.10933371223907712,0.534869909212387,-0.45596664837781076,-0.28986701607962023,-0.7545380119336925,-0.5887694808125231,0.7652979667004522,0.1866764685821427,-0.6160121088435309,0.5747139594209025,-0.6291456783804933,0.5233350554108698,,0.02256481688299016,0.2714920328019741,-0.11571425973243782,0.5455762225482996,0.5887694808125231,0.5964034572784438,-0.7805816369499733,0.6160121088435309,0.10593106161389276,-0.30502277529133565,-0.5233350554108698,0.7956642045056908,,-0.011894601224190803,0.7814129309760394,1.1138799909996253,0.9988487260218782,-0.02573023679179401,-0.04048675634215548,0.0031252923638853767,-0.8072858965330064,0.5901522801841408,-0.047869145303745475,-0.5895993861712703,-0.8062760747748569,,0.1517474511821054,0.5917358056341606,-0.4530029456262197,0.9613724526296615,-0.2748222145883775,0.01535440306782345,-0.2420512204635525,-0.8175402281430776,0.5225315129634477,-0.131050425397761,-0.5060639541960134,-0.8524817067049367,,0.0,0.0,0.045,1.0,0.0,0.0,0.0,1.0,0.0,0.0,0.0,1.0,,-0.004778288941558408,-0.15716988368721235,0.2612241015305524,True,,0.10006504912766458,0.5455960250648402,-0.45387800190394645,-0.5320594722976592,-0.7043759428030796,-0.4698587544556443,0.6697264618392293,-0.010575140523473858,-0.7425325802382117,0.5180532639127408,-0.7097483339911279,0.4773658116645709
21:09:32.437529,,-0.7015820145942335,-1.0714691990351417,0.02652221472903313,-2.713819368427112,-0.5626875178796973,-0.3786160711957839,,0.1093329087668862,0.5348714094632394,-0.4559657266167404,-0.28986318764773716,-0.7545431516690709,-0.5887647787665277,0.7652989955833782,0.18667434962716367,-0.6160114727424709,0.5747145202670323,-0.6291401429416033,0.5233410940616587,,0.022565771742865472,0.27149313871759573,-0.11571486096385701,0.5455768411734212,0.5887647787665276,0.5964075332012776,-0.7805814110389402,0.6160114727424708,0.10593642522810101,-0.3050222469192835,-0.5233410940616586,0.79566043520503,,-0.011894601224190803,0.7814129309760394,1.1138799909996253,0.9988487260218782,-0.02573023679179401,-0.04048675634215548,0.0031252923638853767,-0.8072858965330064,0.5901522801841408,-0.047869145303745475,-0.5895993861712703,-0.8062760747748569,,0.1517474511821054,0.5917358056341606,-0.4530029456262197,0.9613724526296615,-0.2748222145883775,0.01535440306782345,-0.2420512204635525,-0.8175402281430776,0.5225315129634477,-0.131050425397761,-0.5060639541960134,-0.8524817067049367,,0.0,0.0,0.045,1.0,0.0,0.0,0.0,1.0,0.0,0.0,0.0,1.0,,-0.004778288941558408,-0.15716988368721235,0.2612241015305524,True,,0.10006321614053673,0.5455980182465878,-0.45387462115951427,-0.5319438393175342,-0.7044689297040344,-0.4698502728463335,0.6696814413869524,-0.010410123314174902,-0.7425755156174206,0.5182301794318966,-0.7096584787165136,0.4773073692200325
21:09:32.444909,,-0.7015820145942335,-1.0714691990351417,0.02652221472903313,-2.713819368427112,-0.5626875178796973,-0.3786160711957839,,0.1093329087668862,0.5348714094632394,-0.4559657266167404,-0.28986318764773716,-0.7545431516690709,-0.5887647787665277,0.7652989955833782,0.18667434962716367,-0.6160114727424709,0.5747145202670323,-0.6291401429416033,0.5233410940616587,,0.022565771742865472,0.27149313871759573,-0.11571486096385701,0.5455768411734212,0.5887647787665276,0.5964075332012776,-0.7805814110389402,0.6160114727424708,0.10593642522810101,-0.3050222469192835,-0.5233410940616586,0.79566043520503,,-0.011894601224190803,0.7814129309760394,1.1138799909996253,0.9988487260218782,-0.02573023679179401,-0.04048675634215548,0.0031252923638853767,-0.8072858965330064,0.5901522801841408,-0.047869145303745475,-0.5895993861712703,-0.8062760747748569,,0.1517474511821054,0.5917358056341606,-0.4530029456262197,0.9613724526296615,-0.2748222145883775,0.01535440306782345,-0.2420512204635525,-0.8175402281430776,0.5225315129634477,-0.131050425397761,-0.5060639541960134,-0.8524817067049367,,0.0,0.0,0.045,1.0,0.0,0.0,0.0,1.0,0.0,0.0,0.0,1.0,,-0.004778288941558408,-0.15716988368721235,0.2612241015305524,True,,0.10006321614053673,0.5455980182465878,-0.45387462115951427,-0.5319438393175342,-0.7044689297040344,-0.4698502728463335,0.6696814413869524,-0.010410123314174902,-0.7425755156174206,0.5182301794318966,-0.7096584787165136,0.4773073692200325
21:09:32.451304,,-0.7016022256797944,-1.0714475706192645,0.026522506316863537,-2.7138372167189155,-0.5626638235250974,-0.3786158744615363,,0.10933175317113017,0.5348717152634022,-0.45596483494179196,-0.28986318764773716,-0.7545431516690709,-0.5887647787665277,0.7652989955833782,0.18667434962716367,-0.6160114727424709,0.5747145202670323,-0.6291401429416033,0.5233410940616587,,0.022565771742865472,0.27149313871759573,-0.11571486096385701,0.5455768411734212,0.5887647787665276,0.5964075332012776,-0.7805814110389402,0.6160114727424708,0.10593642522810101,-0.3050222469192835,-0.5233410940616586,0.79566043520503,,-0.011894601224190803,0.7814129309760394,1.1138799909996253,0.9988487260218782,-0.02573023679179401,-0.04048675634215548,0.0031252923638853767,-0.8072858965330064,0.5901522801841408,-0.047869145303745475,-0.5895993861712703,-0.8062760747748569,,0.1517474511821054,0.5917358056341606,-0.4530029456262197,0.9613724526296615,-0.2748222145883775,0.01535440306782345,-0.2420512204635525,-0.8175402281430776,0.5225315129634477,-0.131050425397761,-0.5060639541960134,-0.8524817067049367,,0.0,0.0,0.045,1.0,0.0,0.0,0.0,1.0,0.0,0.0,0.0,1.0,,-0.004778288941558408,-0.15716988368721235,0.2612241015305524,True,,0.10006090494902467,0.5455986298469131,-0.45387283780961746,-0.5319162711134877,-0.7044803934387804,-0.46986429507365657,0.6697080103777071,-0.01040496125761231,-0.7425516262302312,0.5182241420087026,-0.7096471743349431,0.47733073083321925
21:09:32.458630,,-0.7016160828613889,-1.0714232792290592,0.02652213649584961,-2.7138519289031273,-0.5626389681087356,-0.37861109955723354,,0.10933104750678269,0.5348724843350554,-0.45596361382454814,-0.28986318764773716,-0.7545431516690709,-0.5887647787665277,0.7652989955833782,0.18667434962716367,-0.6160114727424709,0.5747145202670323,-0.6291401429416033,0.5233410940616587,,0.022565771742865472,0.27149313871759573,-0.11571486096385701,0.5455768411734212,0.5887647787665276,0.5964075332012776,-0.7805814110389402,0.6160114727424708,0.10593642522810101,-0.3050222469192835,-0.5233410940616586,0.79566043520503,,-0.011894601224190803,0.7814129309760394,1.1138799909996253,0.9988487260218782,-0.02573023679179401,-0.04048675634215548,0.0031252923638853767,-0.8072858965330064,0.5901522801841408,-0.047869145303745475,-0.5895993861712703,-0.8062760747748569,,0.1517474511821054,0.5917358056341606,-0.4530029456262197,0.9613724526296615,-0.2748222145883775,0.01535440306782345,-0.2420512204635525,-0.8175402281430776,0.5225315129634477,-0.131050425397761,-0.5060639541960134,-0.8524817067049367,,0.0,0.0,0.045,1.0,0.0,0.0,0.0,1.0,0.0,0.0,0.0,1.0,,-0.004778288941558408,-0.15716988368721235,0.2612241015305524,True,,0.1000594936203297,0.5456001679902198,-0.45387039557512976,-0.5318824028459626,-0.7044994773413313,-0.4698740213808341,0.6697360780095487,-0.010400262881383793,-0.7425263768677757,0.5182226310720067,-0.7096282977431139,0.4773604337259402
21:09:32.465361,,-0.7016160828613889,-1.0714232792290592,0.02652213649584961,-2.7138519289031273,-0.5626389681087356,-0.37861109955723354,,0.10933104750678269,0.5348724843350554,-0.45596361382454814,-0.28986318764773716,-0.7545431516690709,-0.5887647787665277,0.7652989955833782,0.18667434962716367,-0.6160114727424709,0.5747145202670323,-0.6291401429416033,0.5233410940616587,,0.022565771742865472,0.27149313871759573,-0.11571486096385701,0.5455768411734212,0.5887647787665276,0.5964075332012776,-0.7805814110389402,0.6160114727424708,0.10593642522810101,-0.3050222469192835,-0.5233410940616586,0.79566043520503,,-0.011894601224190803,0.7814129309760394,1.1138799909996253,0.9988487260218782,-0.02573023679179401,-0.04048675634215548,0.0031252923638853767,-0.8072858965330064,0.5901522801841408,-0.047869145303745475,-0.5895993861712703,-0.8062760747748569,,0.1517474511821054,0.5917358056341606,-0.4530029456262197,0.9613724526296615,-0.2748222145883775,0.01535440306782345,-0.2420512204635525,-0.8175402281430776,0.5225315129634477,-0.131050425397761,-0.5060639541960134,-0.8524817067049367,,0.0,0.0,0.045,1.0,0.0,0.0,0.0,1.0,0.0,0.0,0.0,1.0,,-0.004778288941558408,-0.15716988368721235,0.2612241015305524,True,,0.1000594936203297,0.5456001679902198,-0.45387039557512976,-0.5318824028459626,-0.7044994773413313,-0.4698740213808341,0.6697360780095487,-0.010400262881383793,-0.7425263768677757,0.5182226310720067,-0.7096282977431139,0.4773604337259402
21:09:32.472211,,-0.7016205616707643,-1.0714065227735179,0.026521915448313282,-2.713859013398855,-0.5626228316025176,-0.3786051892876503,,0.10933066451271531,0.5348728968360041,-0.4559626852617142,-0.28986318764773716,-0.7545431516690709,-0.5887647787665277,0.7652989955833782,0.18667434962716367,-0.6160114727424709,0.5747145202670323,-0.6291401429416033,0.5233410940616587,,0.022565771742865472,0.27149313871759573,-0.11571486096385701,0.5455768411734212,0.5887647787665276,0.5964075332012776,-0.7805814110389402,0.6160114727424708,0.10593642522810101,-0.3050222469192835,-0.5233410940616586,0.79566043520503,,-0.011894601224190803,0.7814129309760394,1.1138799909996253,0.9988487260218782,-0.02573023679179401,-0.04048675634215548,0.0031252923638853767,-0.8072858965330064,0.5901522801841408,-0.047869145303745475,-0.5895993861712703,-0.8062760747748569,,0.1517474511821054,0.5917358056341606,-0.4530029456262197,0.9613724526296615,-0.2748222145883775,0.01535440306782345,-0.2420512204635525,-0.8175402281430776,0.5225315129634477,-0.131050425397761,-0.5060639541960134,-0.8524817067049367,,0.0,0.0,0.045,1.0,0.0,0.0,0.0,1.0,0.0,0.0,0.0,1.0,,-0.004778288941558408,-0.15716988368721235,0.2612241015305524,True,,0.10005872763219496,0.5456009929921171,-0.45386853844946184,-0.5318591691145471,-0.7045166393418211,-0.46987458871414833,0.6697516110251746,-0.010398377871367714,-0.7425123926688548,0.5182264020271129,-0.7096112869932036,0.47738162680803126
21:09:32.478945,,-0.7016061809103299,-1.0713666992956277,0.02652238379058852,-2.7138563249622085,-0.5625823772634598,-0.37856615914579594,,0.10932982596810481,0.5348725591432264,-0.45596019267890076,-0.2898708444331265,-0.7545328721692119,-0.5887741828270887,0.7652969378250735,0.18667858761032607,-0.616012744903366,0.5747133985763615,-0.6291512137347378,0.5233290167312669,,0.022563862016539177,0.2714909268864426,-0.11571365851129653,0.5455756039254263,0.5887741828270886,0.596399381319012,-0.7805818628567879,0.6160127449033659,0.10592569799461884,-0.30502330366782326,-0.5233290167312667,0.7956679737595653,,-0.011894601224190803,0.7814129309760394,1.1138799909996253,0.9988487260218782,-0.02573023679179401,-0.04048675634215548,0.0031252923638853767,-0.8072858965330064,0.5901522801841408,-0.047869145303745475,-0.5895993861712703,-0.8062760747748569,,0.1517474511821054,0.5917358056341606,-0.4530029456262197,0.9613724526296615,-0.2748222145883775,0.01535440306782345,-0.2420512204635525,-0.8175402281430776,0.5225315129634477,-0.131050425397761,-0.5060639541960134,-0.8524817067049367,,0.0,0.0,0.045,1.0,0.0,0.0,0.0,1.0,0.0,0.0,0.0,1.0,,-0.004778288941558408,-0.15716988368721235,0.2612241015305524,True,,0.10005750263991328,0.5456023322527762,-0.4538666277226062,-0.5319014326963971,-0.7043679134824876,-0.4700496871096155,0.6698574368702925,-0.010399816920311555,-0.7424169031464644,0.5180462143140153,-0.7097588930505566,0.47735776265874896
21:09:32.485610,,-0.7016199834224651,-1.0713767707870205,0.026521993070817013,-2.71386423081554,-0.5625923370904797,-0.3785842550058866,,0.10932993899520146,0.5348730628063549,-0.45596096128714064,-0.28986701607962023,-0.7545380119336925,-0.5887694808125231,0.7652979667004522,0.1866764685821427,-0.6160121088435309,0.5747139594209025,-0.6291456783804933,0.5233350554108698,,0.02256481688299016,0.2714920328019741,-0.11571425973243782,0.5455762225482996,0.5887694808125231,0.5964034572784438,-0.7805816369499733,0.6160121088435309,0.10593106161389276,-0.30502277529133565,-0.5233350554108698,0.7956642045056908,,-0.011894601224190803,0.7814129309760394,1.1138799909996253,0.9988487260218782,-0.02573023679179401,-0.04048675634215548,0.0031252923638853767,-0.8072858965330064,0.5901522801841408,-0.047869145303745475,-0.5895993861712703,-0.8062760747748569,,0.1517474511821054,0.5917358056341606,-0.4530029456262197,0.9613724526296615,-0.2748222145883775,0.01535440306782345,-0.2420512204635525,-0.8175402281430776,0.5225315129634477,-0.131050425397761,-0.5060639541960134,-0.8524817067049367,,0.0,0.0,0.045,1.0,0.0,0.0,0.0,1.0,0.0,0.0,0.0,1.0,,-0.004778288941558408,-0.15716988368721235,0.2612241015305524,True,,0.10005750263991328,0.5456023322527762,-0.4538666277226062,-0.5319014326963971,-0.7043679134824876,-0.4700496871096155,0.6698574368702925,-0.010399816920311555,-0.7424169031464644,0.5180462143140153,-0.7097588930505566,0.47735776265874896
21:09:32.492506,,-0.7016284486192678,-1.0713565284325248,0.026521705504094908,-2.7138746304642782,-0.5625722366495884,-0.3785786896734553,,0.10932941397110316,0.5348736322105878,-0.45595989143706217,-0.28986701607962023,-0.7545380119336925,-0.5887694808125231,0.7652979667004522,0.1866764685821427,-0.6160121088435309,0.5747139594209025,-0.6291456783804933,0.5233350554108698,,0.02256481688299016,0.2714920328019741,-0.11571425973243782,0.5455762225482996,0.5887694808125231,0.5964034572784438,-0.7805816369499733,0.6160121088435309,0.10593106161389276,-0.30502277529133565,-0.5233350554108698,0.7956642045056908,,-0.011894601224190803,0.7814129309760394,1.1138799909996253,0.9988487260218782,-0.02573023679179401,-0.04048675634215548,0.0031252923638853767,-0.8072858965330064,0.5901522801841408,-0.047869145303745475,-0.5895993861712703,-0.8062760747748569,,0.1517474511821054,0.5917358056341606,-0.4530029456262197,0.9613724526296615,-0.2748222145883775,0.01535440306782345,-0.2420512204635525,-0.8175402281430776,0.5225315129634477,-0.131050425397761,-0.5060639541960134,-0.8524817067049367,,0.0,0.0,0.045,1.0,0.0,0.0,0.0,1.0,0.0,0.0,0.0,1.0,,-0.004778288941558408,-0.15716988368721235,0.2612241015305524,True,,0.10005645259171668,0.545603471061242,-0.4538644880224493,-0.5319430225956079,-0.7042883624531371,-0.4701218174313202,0.669960053320285,-0.010504817062539584,-0.7423228244999367,0.5178707827894231,-0.7098362848795217,0.4774330330020211
21:09:32.499102,,-0.7016306162376792,-1.0713438204644743,0.02652154607407264,-2.713879261351075,-0.5625602428526882,-0.3785735748648523,,0.10932914865777624,0.5348739165645089,-0.45595916637485373,-0.28986701607962023,-0.7545380119336925,-0.5887694808125231,0.7652979667004522,0.1866764685821427,-0.6160121088435309,0.5747139594209025,-0.6291456783804933,0.5233350554108698,,0.02256481688299016,0.2714920328019741,-0.11571425973243782,0.5455762225482996,0.5887694808125231,0.5964034572784438,-0.7805816369499733,0.6160121088435309,0.10593106161389276,-0.30502277529133565,-0.5233350554108698,0.7956642045056908,,-0.011894601224190803,0.7814129309760394,1.1138799909996253,0.9988487260218782,-0.02573023679179401,-0.04048675634215548,0.0031252923638853767,-0.8072858965330064,0.5901522801841408,-0.047869145303745475,-0.5895993861712703,-0.8062760747748569,,0.1517474511821054,0.5917358056341606,-0.4530029456262197,0.9613724526296615,-0.2748222145883775,0.01535440306782345,-0.2420512204635525,-0.8175402281430776,0.5225315129634477,-0.131050425397761,-0.5060639541960134,-0.8524817067049367,,0.0,0.0,0.045,1.0,0.0,0.0,0.0,1.0,0.0,0.0,0.0,1.0,,-0.004778288941558408,-0.15716988368721235,0.2612241015305524,True,,0.10005592196506281,0.545604039769084,-0.4538630378980324,-0.5319254382300574,-0.7043023491434407,-0.47012076018273485,0.6699709059384337,-0.010503719960909708,-0.742313045192537,0.5178748047161554,-0.7098224234680206,0.47744927875345056
21:09:32.506191,,-0.7016168141457088,-1.0713337491509776,0.02652193681341381,-2.7138713556336147,-0.5625502831364948,-0.37855547917669785,,0.10932903563067957,0.5348734129013804,-0.45595839776661384,-0.2898708444331265,-0.7545328721692119,-0.5887741828270887,0.7652969378250735,0.18667858761032607,-0.616012744903366,0.5747133985763615,-0.6291512137347378,0.5233290167312669,,0.022563862016539177,0.2714909268864426,-0.11571365851129653,0.5455756039254263,0.5887741828270886,0.596399381319012,-0.7805818628567879,0.6160127449033659,0.10592569799461884,-0.30502330366782326,-0.5233290167312667,0.7956679737595653,,-0.011894601224190803,0.7814129309760394,1.1138799909996253,0.9988487260218782,-0.02573023679179401,-0.04048675634215548,0.0031252923638853767,-0.8072858965330064,0.5901522801841408,-0.047869145303745475,-0.5895993861712703,-0.8062760747748569,,0.1517474511821054,0.5917358056341606,-0.4530029456262197,0.9613724526296615,-0.2748222145883775,0.01535440306782345,-0.2420512204635525,-0.8175402281430776,0.5225315129634477,-0.131050425397761,-0.5060639541960134,-0.8524817067049367,,0.0,0.0,0.045,1.0,0.0,0.0,0.0,1.0,0.0,0.0,0.0,1.0,,-0.004778288941558408,-0.15716988368721235,0.2612241015305524,True,,0.10005592196506281,0.545604039769084,-0.4538630378980324,-0.5319254382300574,-0.7043023491434407,-0.47012076018273485,0.6699709059384337,-0.010503719960909708,-0.742313045192537,0.5178748047161554,-0.7098224234680206,0.47744927875345056
21:09:32.513405,,-0.7016237399417177,-1.071321603353531,0.02652175186045662,-2.7138787087919596,-0.5625378555570792,-0.37855309154851724,,0.10932868290413314,0.5348737975174269,-0.45595778719750246,-0.2898708444331265,-0.7545328721692119,-0.5887741828270887,0.7652969378250735,0.18667858761032607,-0.616012744903366,0.5747133985763615,-0.6291512137347378,0.5233290167312669,,0.022563862016539177,0.2714909268864426,-0.11571365851129653,0.5455756039254263,0.5887741828270886,0.596399381319012,-0.7805818628567879,0.6160127449033659,0.10592569799461884,-0.30502330366782326,-0.5233290167312667,0.7956679737595653,,-0.011894601224190803,0.7814129309760394,1.1138799909996253,0.9988487260218782,-0.02573023679179401,-0.04048675634215548,0.0031252923638853767,-0.8072858965330064,0.5901522801841408,-0.047869145303745475,-0.5895993861712703,-0.8062760747748569,,0.1517474511821054,0.5917358056341606,-0.4530029456262197,0.9613724526296615,-0.2748222145883775,0.01535440306782345,-0.2420512204635525,-0.8175402281430776,0.5225315129634477,-0.131050425397761,-0.5060639541960134,-0.8524817067049367,,0.0,0.0,0.045,1.0,0.0,0.0,0.0,1.0,0.0,0.0,0.0,1.0,,-0.004778288941558408,-0.15716988368721235,0.2612241015305524,True,,0.10005521651196995,0.545604809001177,-0.45386181675980963,-0.5319085050852144,-0.7043118949470949,-0.4701256181639598,0.6699849360266678,-0.010501376144700703,-0.7423004153281944,0.5178740461882163,-0.7098129864514316,0.47746413116541575
21:09:32.520002,,-0.7020051962393346,-1.071104776340128,0.02651405494770439,-2.7140049959302965,-0.5620085736175341,-0.37881556918562675,,0.1093189221635282,0.5348871515992064,-0.455953312464041,-0.2901480655158277,-0.7545198677297376,-0.588654286723984,0.7652223983412338,0.18645617975321055,-0.6161726820532767,0.574672760059421,-0.6292327568022328,0.5232756029213949,,0.02256356958467819,0.2714921314428906,-0.11571357327445794,0.5457175473488858,0.588654286723984,0.5963878681168777,-0.78045099539632,0.6161726820532767,0.10595975498350718,-0.30510424825034793,-0.5232756029213949,0.7956720688115431,,-0.011894601224190803,0.7814129309760394,1.1138799909996253,0.9988487260218782,-0.02573023679179401,-0.04048675634215548,0.0031252923638853767,-0.8072858965330064,0.5901522801841408,-0.047869145303745475,-0.5895993861712703,-0.8062760747748569,,0.1517474511821054,0.5917358056341606,-0.4530029456262197,0.9613724526296615,-0.2748222145883775,0.01535440306782345,-0.2420512204635525,-0.8175402281430776,0.5225315129634477,-0.131050425397761,-0.5060639541960134,-0.8524817067049367,,0.0,0.0,0.045,1.0,0.0,0.0,0.0,1.0,0.0,0.0,0.0,1.0,,-0.004778288941558408,-0.15716988368721235,0.2612241015305524,True,,0.10005457135860231,0.5456055223500519,-0.45386123167025555,-0.5318978674731027,-0.7043138181351565,-0.47013477233814954,0.6699974668253312,-0.010498566845746349,-0.742289144836313,0.5178687604260419,-0.7098111197199318,0.47747263931740813
21:09:32.527792,,-0.7020374235773326,-1.0711168136429794,0.026513150179188445,-2.714025717719169,-0.5620201967241538,-0.37885017254254033,,0.10931891304277083,0.5348884153294686,-0.4559544426528832,-0.29014041312697403,-0.7545301473109498,-0.588644882309721,0.7652244568745966,0.18645193618377345,-0.616171409669664,0.5746738825381641,-0.6292216877160532,0.5232876803788469,,0.022565479304843452,0.27149434327309224,-0.11571477573470995,0.5457187829325304,0.5886448823097209,0.596396019843537,-0.7804505434753167,0.6161714096696639,0.10597048218622948,-0.3051031942535516,-0.5232876803788468,0.7956645300753361,,-0.011894601224190803,0.7814129309760394,1.1138799909996253,0.9988487260218782,-0.02573023679179401,-0.04048675634215548,0.0031252923638853767,-0.8072858965330064,0.5901522801841408,-0.047869145303745475,-0.5895993861712703,-0.8062760747748569,,0.1517474511821054,0.5917358056341606,-0.4530029456262197,0.9613724526296615,-0.2748222145883775,0.01535440306782345,-0.2420512204635525,-0.8175402281430776,0.5225315129634477,-0.131050425397761,-0.5060639541960134,-0.8524817067049367,,0.0,0.0,0.045,1.0,0.0,0.0,0.0,1.0,0.0,0.0,0.0,1.0,,-0.004778288941558408,-0.15716988368721235,0.2612241015305524,True,,0.10005410108113305,0.5456060351998347,-0.45386041758178286,-0.5318865784689932,-0.7043201818777839,-0.47013801063538074,0.6700068199086008,-0.010497004009937305,-0.742280724647205,0.517868254405029,-0.709804828320054,0.47748254080440206
21:09:32.535141,,-0.7024093984990036,-1.0709073681636605,0.026505610087257207,-2.7141443929217743,-0.5614994207527452,-0.37911132481868853,,0.10930947247567634,0.5349014105607923,-0.45595025912640597,-0.29041766635299004,-0.7545170338958799,-0.5885249566764753,0.7651498398018505,0.18622950272061553,-0.6163313191519921,0.5746331888442278,-0.6293032797287776,0.5232342500270009,,0.022565186643807546,0.27149554776597884,-0.11571469038629158,0.5458606995312544,0.5885249566764752,0.596384500197819,-0.7803196417179441,0.616331319151992,0.10600453660831907,-0.30518413041380243,-0.5232342500270007,0.795668628351183,,-0.011894601224190803,0.7814129309760394,1.1138799909996253,0.9988487260218782,-0.02573023679179401,-0.04048675634215548,0.0031252923638853767,-0.8072858965330064,0.5901522801841408,-0.047869145303745475,-0.5895993861712703,-0.8062760747748569,,0.1517474511821054,0.5917358056341606,-0.4530029456262197,0.9613724526296615,-0.2748222145883775,0.01535440306782345,-0.2420512204635525,-0.8175402281430776,0.5225315129634477,-0.131050425397761,-0.5060639541960134,-0.8524817067049367,,0.0,0.0,0.045,1.0,0.0,0.0,0.0,1.0,0.0,0.0,0.0,1.0,,-0.004778288941558408,-0.15716988368721235,0.2612241015305524,True,,0.10005410108113305,0.5456060351998347,-0.45386041758178286,-0.5318865784689932,-0.7043201818777839,-0.47013801063538074,0.6700068199086008,-0.010497004009937305,-0.742280724647205,0.517868254405029,-0.709804828320054,0.47748254080440206
21:09:32.541652,,-0.7024069432969061,-1.0709027570311003,0.02650557403621961,-2.714144114270414,-0.5614957123610175,-0.3791078013010827,,0.10930944234432664,0.534901438515788,-0.4559499410998098,-0.29041766635299004,-0.7545170338958799,-0.5885249566764753,0.7651498398018505,0.18622950272061553,-0.6163313191519921,0.5746331888442278,-0.6293032797287776,0.5232342500270009,,0.022565186643807546,0.27149554776597884,-0.11571469038629158,0.5458606995312544,0.5885249566764752,0.596384500197819,-0.7803196417179441,0.616331319151992,0.10600453660831907,-0.30518413041380243,-0.5232342500270007,0.795668628351183,,-0.011894601224190803,0.7814129309760394,1.1138799909996253,0.9988487260218782,-0.02573023679179401,-0.04048675634215548,0.0031252923638853767,-0.8072858965330064,0.5901522801841408,-0.047869145303745475,-0.5895993861712703,-0.8062760747748569,,0.1517474511821054,0.5917358056341606,-0.4530029456262197,0.9613724526296615,-0.2748222145883775,0.01535440306782345,-0.2420512204635525,-0.8175402281430776,0.5225315129634477,-0.131050425397761,-0.5060639541960134,-0.8524817067049367,,0.0,0.0,0.045,1.0,0.0,0.0,0.0,1.0,0.0,0.0,0.0,1.0,,-0.004778288941558408,-0.15716988368721235,0.2612241015305524,True,,0.10005404081843366,0.5456060911098259,-0.45385978152859047,-0.5318802827301835,-0.7043278042640946,-0.47013371394038506,0.6700083189210737,-0.010497469221129485,-0.7422793650078848,0.5178727811146453,-0.7097972578704931,0.47748888500164277
21:09:32.548064,,-0.70239788715239,-1.0708932521041792,0.026505939388996168,-2.7141389186494194,-0.5614853272196554,-0.3790924269362622,,0.10930924191772534,0.5349010351330652,-0.45594928697944037,-0.29042149038663895,-0.7545118940808624,-0.5885296590760001,0.7651488101450599,0.18623162726292955,-0.6163319554757813,0.5746326272108141,-0.6293088134592671,0.5232282112494384,,0.022564231790092405,0.27149444185130883,-0.11571408914718237,0.5458600825705304,0.5885296590760001,0.5963804244305653,-0.7803198677321004,0.6163319554757813,0.10599917302487469,-0.30518465603409917,-0.5232282112494384,0.795672397833469,,-0.011894601224190803,0.7814129309760394,1.1138799909996253,0.9988487260218782,-0.02573023679179401,-0.04048675634215548,0.0031252923638853767,-0.8072858965330064,0.5901522801841408,-0.047869145303745475,-0.5895993861712703,-0.8062760747748569,,0.1517474511821054,0.5917358056341606,-0.4530029456262197,0.9613724526296615,-0.2748222145883775,0.01535440306782345,-0.2420512204635525,-0.8175402281430776,0.5225315129634477,-0.131050425397761,-0.5060639541960134,-0.8524817067049367,,0.0,0.0,0.045,1.0,0.0,0.0,0.0,1.0,0.0,0.0,0.0,1.0,,-0.004778288941558408,-0.15716988368721235,0.2612241015305524,True,,0.10005386594701987,0.5456062916288631,-0.45386001053748304,-0.5318809339334182,-0.7043233637224148,-0.47013962971957424,0.670011496406285,-0.010496222549791545,-0.742276514511672,0.5178680013299972,-0.709801682603619,0.4774874915341193
21:09:32.556309,,-0.70239788715239,-1.0708932521041792,0.026505939388996168,-2.7141389186494194,-0.5614853272196554,-0.3790924269362622,,0.10930924191772534,0.5349010351330652,-0.45594928697944037,-0.29042149038663895,-0.7545118940808624,-0.5885296590760001,0.7651488101450599,0.18623162726292955,-0.6163319554757813,0.5746326272108141,-0.6293088134592671,0.5232282112494384,,0.022564231790092405,0.27149444185130883,-0.11571408914718237,0.5458600825705304,0.5885296590760001,0.5963804244305653,-0.7803198677321004,0.6163319554757813,0.10599917302487469,-0.30518465603409917,-0.5232282112494384,0.795672397833469,,-0.011894601224190803,0.7814129309760394,1.1138799909996253,0.9988487260218782,-0.02573023679179401,-0.04048675634215548,0.0031252923638853767,-0.8072858965330064,0.5901522801841408,-0.047869145303745475,-0.5895993861712703,-0.8062760747748569,,0.1517474511821054,0.5917358056341606,-0.4530029456262197,0.9613724526296615,-0.2748222145883775,0.01535440306782345,-0.2420512204635525,-0.8175402281430776,0.5225315129634477,-0.131050425397761,-0.5060639541960134,-0.8524817067049367,,0.0,0.0,0.045,1.0,0.0,0.0,0.0,1.0,0.0,0.0,0.0,1.0,,-0.004778288941558408,-0.15716988368721235,0.2612241015305524,True,,0.10005386594701987,0.5456062916288631,-0.45386001053748304,-0.5318809339334182,-0.7043233637224148,-0.47013962971957424,0.670011496406285,-0.010496222549791545,-0.742276514511672,0.5178680013299972,-0.709801682603619,0.4774874915341193
21:09:32.563090,,-0.7023931293893872,-1.0708926916119057,0.02650596487276708,-2.7141361947144182,-0.561485762584641,-0.3790897006129337,,0.10930932935343224,0.5349009348735466,-0.4559491724749941,-0.29042149038663895,-0.7545118940808624,-0.5885296590760001,0.7651488101450599,0.18623162726292955,-0.6163319554757813,0.5746326272108141,-0.6293088134592671,0.5232282112494384,,0.022564231790092405,0.27149444185130883,-0.11571408914718237,0.5458600825705304,0.5885296590760001,0.5963804244305653,-0.7803198677321004,0.6163319554757813,0.10599917302487469,-0.30518465603409917,-0.5232282112494384,0.795672397833469,,-0.011894601224190803,0.7814129309760394,1.1138799909996253,0.9988487260218782,-0.02573023679179401,-0.04048675634215548,0.0031252923638853767,-0.8072858965330064,0.5901522801841408,-0.047869145303745475,-0.5895993861712703,-0.8062760747748569,,0.1517474511821054,0.5917358056341606,-0.4530029456262197,0.9613724526296615,-0.2748222145883775,0.01535440306782345,-0.2420512204635525,-0.8175402281430776,0.5225315129634477,-0.131050425397761,-0.5060639541960134,-0.8524817067049367,,0.0,0.0,0.045,1.0,0.0,0.0,0.0,1.0,0.0,0.0,0.0,1.0,,-0.004778288941558408,-0.15716988368721235,0.2612241015305524,True,,0.10005404081843366,0.5456060911098259,-0.45385978152859047,-0.5318802827301835,-0.7043278042640946,-0.47013371394038506,0.6700083189210737,-0.010497469221129485,-0.7422793650078848,0.5178727811146453,-0.7097972578704931,0.47748888500164277
21:09:32.569481,,-0.7023954320476068,-1.0708886409713931,0.02650590334101847,-2.7141386400449496,-0.5614816188373208,-0.37908890344324825,,0.10930921178870005,0.5349010630885485,-0.4559489689518087,-0.29042149038663895,-0.7545118940808624,-0.5885296590760001,0.7651488101450599,0.18623162726292955,-0.6163319554757813,0.5746326272108141,-0.6293088134592671,0.5232282112494384,,0.022564231790092405,0.27149444185130883,-0.11571408914718237,0.5458600825705304,0.5885296590760001,0.5963804244305653,-0.7803198677321004,0.6163319554757813,0.10599917302487469,-0.30518465603409917,-0.5232282112494384,0.795672397833469,,-0.011894601224190803,0.7814129309760394,1.1138799909996253,0.9988487260218782,-0.02573023679179401,-0.04048675634215548,0.0031252923638853767,-0.8072858965330064,0.5901522801841408,-0.047869145303745475,-0.5895993861712703,-0.8062760747748569,,0.1517474511821054,0.5917358056341606,-0.4530029456262197,0.9613724526296615,-0.2748222145883775,0.01535440306782345,-0.2420512204635525,-0.8175402281430776,0.5225315129634477,-0.131050425397761,-0.5060639541960134,-0.8524817067049367,,0.0,0.0,0.045,1.0,0.0,0.0,0.0,1.0,0.0,0.0,0.0,1.0,,-0.004778288941558408,-0.15716988368721235,0.2612241015305524,True,,0.1000538056889693,0.5456063475398297,-0.45385937448221964,-0.5318746381921369,-0.7043309860741291,-0.4701353329668264,0.6700129954120544,-0.010496687751932576,-0.7422751548618647,0.5178725279708803,-0.7097941121213134,0.4774938357413282
21:09:32.576159,,-0.7024092459280554,-1.0708987063632278,0.026505512502318956,-2.7141465596032313,-0.561491568597267,-0.37910700411595943,,0.10930932477959446,0.5349015667307899,-0.4559497375766244,-0.29041766635299004,-0.7545170338958799,-0.5885249566764753,0.7651498398018505,0.18622950272061553,-0.6163313191519921,0.5746331888442278,-0.6293032797287776,0.5232342500270009,,0.022565186643807546,0.27149554776597884,-0.11571469038629158,0.5458606995312544,0.5885249566764752,0.596384500197819,-0.7803196417179441,0.616331319151992,0.10600453660831907,-0.30518413041380243,-0.5232342500270007,0.795668628351183,,-0.011894601224190803,0.7814129309760394,1.1138799909996253,0.9988487260218782,-0.02573023679179401,-0.04048675634215548,0.0031252923638853767,-0.8072858965330064,0.5901522801841408,-0.047869145303745475,-0.5895993861712703,-0.8062760747748569,,0.1517474511821054,0.5917358056341606,-0.4530029456262197,0.9613724526296615,-0.2748222145883775,0.01535440306782345,-0.2420512204635525,-0.8175402281430776,0.5225315129634477,-0.131050425397761,-0.5060639541960134,-0.8524817067049367,,0.0,0.0,0.045,1.0,0.0,0.0,0.0,1.0,0.0,0.0,0.0,1.0,,-0.004778288941558408,-0.15716988368721235,0.2612241015305524,True,,0.1000538056889693,0.5456063475398297,-0.45385937448221964,-0.5318746381921369,-0.7043309860741291,-0.4701353329668264,0.6700129954120544,-0.010496687751932576,-0.7422751548618647,0.5178725279708803,-0.7097941121213134,0.4774938357413282
21:09:32.582490,,-0.7024092459280554,-1.0708987063632278,0.026505512502318956,-2.7141465596032313,-0.561491568597267,-0.37910700411595943,,0.10930932477959446,0.5349015667307899,-0.4559497375766244,-0.29041766635299004,-0.7545170338958799,-0.5885249566764753,0.7651498398018505,0.18622950272061553,-0.6163313191519921,0.5746331888442278,-0.6293032797287776,0.5232342500270009,,0.022565186643807546,0.27149554776597884,-0.11571469038629158,0.5458606995312544,0.5885249566764752,0.596384500197819,-0.7803196417179441,0.616331319151992,0.10600453660831907,-0.30518413041380243,-0.5232342500270007,0.795668628351183,,-0.011894601224190803,0.7814129309760394,1.1138799909996253,0.9988487260218782,-0.02573023679179401,-0.04048675634215548,0.0031252923638853767,-0.8072858965330064,0.5901522801841408,-0.047869145303745475,-0.5895993861712703,-0.8062760747748569,,0.1517474511821054,0.5917358056341606,-0.4530029456262197,0.9613724526296615,-0.2748222145883775,0.01535440306782345,-0.2420512204635525,-0.8175402281430776,0.5225315129634477,-0.131050425397761,-0.5060639541960134,-0.8524817067049367,,0.0,0.0,0.045,1.0,0.0,0.0,0.0,1.0,0.0,0.0,0.0,1.0,,-0.004778288941558408,-0.15716988368721235,0.2612241015305524,True,,0.1000538056889693,0.5456063475398297,-0.45385937448221964,-0.5318746381921369,-0.7043309860741291,-0.4701353329668264,0.6700129954120544,-0.010496687751932576,-0.7422751548618647,0.5178725279708803,-0.7097941121213134,0.4774938357413282
21:09:32.589392,,-0.7023954320476068,-1.0708886409713931,0.02650590334101847,-2.7141386400449496,-0.5614816188373208,-0.37908890344324825,,0.10930921178870005,0.5349010630885485,-0.4559489689518087,-0.29042149038663895,-0.7545118940808624,-0.5885296590760001,0.7651488101450599,0.18623162726292955,-0.6163319554757813,0.5746326272108141,-0.6293088134592671,0.5232282112494384,,0.022564231790092405,0.27149444185130883,-0.11571408914718237,0.5458600825705304,0.5885296590760001,0.5963804244305653,-0.7803198677321004,0.6163319554757813,0.10599917302487469,-0.30518465603409917,-0.5232282112494384,0.795672397833469,,-0.011894601224190803,0.7814129309760394,1.1138799909996253,0.9988487260218782,-0.02573023679179401,-0.04048675634215548,0.0031252923638853767,-0.8072858965330064,0.5901522801841408,-0.047869145303745475,-0.5895993861712703,-0.8062760747748569,,0.1517474511821054,0.5917358056341606,-0.4530029456262197,0.9613724526296615,-0.2748222145883775,0.01535440306782345,-0.2420512204635525,-0.8175402281430776,0.5225315129634477,-0.131050425397761,-0.5060639541960134,-0.8524817067049367,,0.0,0.0,0.045,1.0,0.0,0.0,0.0,1.0,0.0,0.0,0.0,1.0,,-0.004778288941558408,-0.15716988368721235,0.2612241015305524,True,,0.1000538056889693,0.5456063475398297,-0.45385937448221964,-0.5318746381921369,-0.7043309860741291,-0.4701353329668264,0.6700129954120544,-0.010496687751932576,-0.7422751548618647,0.5178725279708803,-0.7097941121213134,0.4774938357413282
21:09:32.598159,,-0.7024140038365567,-1.0708992668311499,0.026505487019897783,-2.7141492836389083,-0.5614911332155402,-0.37910973049062874,,0.10930923734310366,0.5349016669911997,-0.455949852082085,-0.29041766635299004,-0.7545170338958799,-0.5885249566764753,0.7651498398018505,0.18622950272061553,-0.6163313191519921,0.5746331888442278,-0.6293032797287776,0.5232342500270009,,0.022565186643807546,0.27149554776597884,-0.11571469038629158,0.5458606995312544,0.5885249566764752,0.596384500197819,-0.7803196417179441,0.616331319151992,0.10600453660831907,-0.30518413041380243,-0.5232342500270007,0.795668628351183,,-0.011894601224190803,0.7814129309760394,1.1138799909996253,0.9988487260218782,-0.02573023679179401,-0.04048675634215548,0.0031252923638853767,-0.8072858965330064,0.5901522801841408,-0.047869145303745475,-0.5895993861712703,-0.8062760747748569,,0.1517474511821054,0.5917358056341606,-0.4530029456262197,0.9613724526296615,-0.2748222145883775,0.01535440306782345,-0.2420512204635525,-0.8175402281430776,0.5225315129634477,-0.131050425397761,-0.5060639541960134,-0.8524817067049367,,0.0,0.0,0.045,1.0,0.0,0.0,0.0,1.0,0.0,0.0,0.0,1.0,,-0.004778288941558408,-0.15716988368721235,0.2612241015305524,True,,0.10005363081598768,0.5456065480606495,-0.45385960349314086,-0.5318752893754966,-0.704326545549257,-0.47014124876081964,0.6700161728746686,-0.010495441061485034,-0.7422723043488203,0.5178677482119489,-0.7097985368761871,0.4774924422546498
21:09:32.606410,,-0.7024001898268416,-1.0708892014632796,0.026505877857019754,-2.7141413639836007,-0.5614811834673895,-0.3790916297870876,,0.10930912435220924,0.5349011633489584,-0.4559490834572693,-0.29042149038663895,-0.7545118940808624,-0.5885296590760001,0.7651488101450599,0.18623162726292955,-0.6163319554757813,0.5746326272108141,-0.6293088134592671,0.5232282112494384,,0.022564231790092405,0.27149444185130883,-0.11571408914718237,0.5458600825705304,0.5885296590760001,0.5963804244305653,-0.7803198677321004,0.6163319554757813,0.10599917302487469,-0.30518465603409917,-0.5232282112494384,0.795672397833469,,-0.011894601224190803,0.7814129309760394,1.1138799909996253,0.9988487260218782,-0.02573023679179401,-0.04048675634215548,0.0031252923638853767,-0.8072858965330064,0.5901522801841408,-0.047869145303745475,-0.5895993861712703,-0.8062760747748569,,0.1517474511821054,0.5917358056341606,-0.4530029456262197,0.9613724526296615,-0.2748222145883775,0.01535440306782345,-0.2420512204635525,-0.8175402281430776,0.5225315129634477,-0.131050425397761,-0.5060639541960134,-0.8524817067049367,,0.0,0.0,0.045,1.0,0.0,0.0,0.0,1.0,0.0,0.0,0.0,1.0,,-0.004778288941558408,-0.15716988368721235,0.2612241015305524,True,,0.10005363081598768,0.5456065480606495,-0.45385960349314086,-0.5318752893754966,-0.704326545549257,-0.47014124876081964,0.6700161728746686,-0.010495441061485034,-0.7422723043488203,0.5178677482119489,-0.7097985368761871,0.4774924422546498
21:09:32.612888,,-0.7024001898268416,-1.0708892014632796,0.026505877857019754,-2.7141413639836007,-0.5614811834673895,-0.3790916297870876,,0.10930912435220924,0.5349011633489584,-0.4559490834572693,-0.29042149038663895,-0.7545118940808624,-0.5885296590760001,0.7651488101450599,0.18623162726292955,-0.6163319554757813,0.5746326272108141,-0.6293088134592671,0.5232282112494384,,0.022564231790092405,0.27149444185130883,-0.11571408914718237,0.5458600825705304,0.5885296590760001,0.5963804244305653,-0.7803198677321004,0.6163319554757813,0.10599917302487469,-0.30518465603409917,-0.5232282112494384,0.795672397833469,,-0.011894601224190803,0.7814129309760394,1.1138799909996253,0.9988487260218782,-0.02573023679179401,-0.04048675634215548,0.0031252923638853767,-0.8072858965330064,0.5901522801841408,-0.047869145303745475,-0.5895993861712703,-0.8062760747748569,,0.1517474511821054,0.5917358056341606,-0.4530029456262197,0.9613724526296615,-0.2748222145883775,0.01535440306782345,-0.2420512204635525,-0.8175402281430776,0.5225315129634477,-0.131050425397761,-0.5060639541960134,-0.8524817067049367,,0.0,0.0,0.045,1.0,0.0,0.0,0.0,1.0,0.0,0.0,0.0,1.0,,-0.004778288941558408,-0.15716988368721235,0.2612241015305524,True,,0.10005363081598768,0.5456065480606495,-0.45385960349314086,-0.5318752893754966,-0.704326545549257,-0.47014124876081964,0.6700161728746686,-0.010495441061485034,-0.7422723043488203,0.5178677482119489,-0.7097985368761871,0.4774924422546498
21:09:32.619190,,-0.7024117011891814,-1.0709033174994087,0.026505548554025947,-2.7141468383024456,-0.5614952769842354,-0.37911052765524367,,0.10930935490861975,0.5349015387753066,-0.45595005560425605,-0.29041766635299004,-0.7545170338958799,-0.5885249566764753,0.7651498398018505,0.18622950272061553,-0.6163313191519921,0.5746331888442278,-0.6293032797287776,0.5232342500270009,,0.022565186643807546,0.27149554776597884,-0.11571469038629158,0.5458606995312544,0.5885249566764752,0.596384500197819,-0.7803196417179441,0.616331319151992,0.10600453660831907,-0.30518413041380243,-0.5232342500270007,0.795668628351183,,-0.011894601224190803,0.7814129309760394,1.1138799909996253,0.9988487260218782,-0.02573023679179401,-0.04048675634215548,0.0031252923638853767,-0.8072858965330064,0.5901522801841408,-0.047869145303745475,-0.5895993861712703,-0.8062760747748569,,0.1517474511821054,0.5917358056341606,-0.4530029456262197,0.9613724526296615,-0.2748222145883775,0.01535440306782345,-0.2420512204635525,-0.8175402281430776,0.5225315129634477,-0.131050425397761,-0.5060639541960134,-0.8524817067049367,,0.0,0.0,0.045,1.0,0.0,0.0,0.0,1.0,0.0,0.0,0.0,1.0,,-0.004778288941558408,-0.15716988368721235,0.2612241015305524,True,,0.10005386594701987,0.5456062916288631,-0.45386001053748304,-0.5318809339334182,-0.7043233637224148,-0.47013962971957424,0.670011496406285,-0.010496222549791545,-0.742276514511672,0.5178680013299972,-0.709801682603619,0.4774874915341193
21:09:32.625705,,-0.7024117011891814,-1.0709033174994087,0.026505548554025947,-2.7141468383024456,-0.5614952769842354,-0.37911052765524367,,0.10930935490861975,0.5349015387753066,-0.45595005560425605,-0.29041766635299004,-0.7545170338958799,-0.5885249566764753,0.7651498398018505,0.18622950272061553,-0.6163313191519921,0.5746331888442278,-0.6293032797287776,0.5232342500270009,,0.022565186643807546,0.27149554776597884,-0.11571469038629158,0.5458606995312544,0.5885249566764752,0.596384500197819,-0.7803196417179441,0.616331319151992,0.10600453660831907,-0.30518413041380243,-0.5232342500270007,0.795668628351183,,-0.011894601224190803,0.7814129309760394,1.1138799909996253,0.9988487260218782,-0.02573023679179401,-0.04048675634215548,0.0031252923638853767,-0.8072858965330064,0.5901522801841408,-0.047869145303745475,-0.5895993861712703,-0.8062760747748569,,0.1517474511821054,0.5917358056341606,-0.4530029456262197,0.9613724526296615,-0.2748222145883775,0.01535440306782345,-0.2420512204635525,-0.8175402281430776,0.5225315129634477,-0.131050425397761,-0.5060639541960134,-0.8524817067049367,,0.0,0.0,0.045,1.0,0.0,0.0,0.0,1.0,0.0,0.0,0.0,1.0,,-0.004778288941558408,-0.15716988368721235,0.2612241015305524,True,,0.10005386594701987,0.5456062916288631,-0.45386001053748304,-0.5318809339334182,-0.7043233637224148,-0.47013962971957424,0.670011496406285,-0.010496222549791545,-0.742276514511672,0.5178680013299972,-0.709801682603619,0.4774874915341193
21:09:32.631979,,-0.7024069432969061,-1.0709027570311003,0.02650557403621961,-2.714144114270414,-0.5614957123610175,-0.3791078013010827,,0.10930944234432664,0.534901438515788,-0.4559499410998098,-0.29041766635299004,-0.7545170338958799,-0.5885249566764753,0.7651498398018505,0.18622950272061553,-0.6163313191519921,0.5746331888442278,-0.6293032797287776,0.5232342500270009,,0.022565186643807546,0.27149554776597884,-0.11571469038629158,0.5458606995312544,0.5885249566764752,0.596384500197819,-0.7803196417179441,0.616331319151992,0.10600453660831907,-0.30518413041380243,-0.5232342500270007,0.795668628351183,,-0.011894601224190803,0.7814129309760394,1.1138799909996253,0.9988487260218782,-0.02573023679179401,-0.04048675634215548,0.0031252923638853767,-0.8072858965330064,0.5901522801841408,-0.047869145303745475,-0.5895993861712703,-0.8062760747748569,,0.1517474511821054,0.5917358056341606,-0.4530029456262197,0.9613724526296615,-0.2748222145883775,0.01535440306782345,-0.2420512204635525,-0.8175402281430776,0.5225315129634477,-0.131050425397761,-0.5060639541960134,-0.8524817067049367,,0.0,0.0,0.045,1.0,0.0,0.0,0.0,1.0,0.0,0.0,0.0,1.0,,-0.004778288941558408,-0.15716988368721235,0.2612241015305524,True,,0.10005404081843366,0.5456060911098259,-0.45385978152859047,-0.5318802827301835,-0.7043278042640946,-0.47013371394038506,0.6700083189210737,-0.010497469221129485,-0.7422793650078848,0.5178727811146453,-0.7097972578704931,0.47748888500164277
21:09:32.639135,,-0.7024069432969061,-1.0709027570311003,0.02650557403621961,-2.714144114270414,-0.5614957123610175,-0.3791078013010827,,0.10930944234432664,0.534901438515788,-0.4559499410998098,-0.29041766635299004,-0.7545170338958799,-0.5885249566764753,0.7651498398018505,0.18622950272061553,-0.6163313191519921,0.5746331888442278,-0.6293032797287776,0.5232342500270009,,0.022565186643807546,0.27149554776597884,-0.11571469038629158,0.5458606995312544,0.5885249566764752,0.596384500197819,-0.7803196417179441,0.616331319151992,0.10600453660831907,-0.30518413041380243,-0.5232342500270007,0.795668628351183,,-0.011894601224190803,0.7814129309760394,1.1138799909996253,0.9988487260218782,-0.02573023679179401,-0.04048675634215548,0.0031252923638853767,-0.8072858965330064,0.5901522801841408,-0.047869145303745475,-0.5895993861712703,-0.8062760747748569,,0.1517474511821054,0.5917358056341606,-0.4530029456262197,0.9613724526296615,-0.2748222145883775,0.01535440306782345,-0.2420512204635525,-0.8175402281430776,0.5225315129634477,-0.131050425397761,-0.5060639541960134,-0.8524817067049367,,0.0,0.0,0.045,1.0,0.0,0.0,0.0,1.0,0.0,0.0,0.0,1.0,,-0.004778288941558408,-0.15716988368721235,0.2612241015305524,True,,0.10005404081843366,0.5456060911098259,-0.45385978152859047,-0.5318802827301835,-0.7043278042640946,-0.47013371394038506,0.6700083189210737,-0.010497469221129485,-0.7422793650078848,0.5178727811146453,-0.7097972578704931,0.47748888500164277
21:09:32.645930,,-0.7024069432969061,-1.0709027570311003,0.02650557403621961,-2.714144114270414,-0.5614957123610175,-0.3791078013010827,,0.10930944234432664,0.534901438515788,-0.4559499410998098,-0.29041766635299004,-0.7545170338958799,-0.5885249566764753,0.7651498398018505,0.18622950272061553,-0.6163313191519921,0.5746331888442278,-0.6293032797287776,0.5232342500270009,,0.022565186643807546,0.27149554776597884,-0.11571469038629158,0.5458606995312544,0.5885249566764752,0.596384500197819,-0.7803196417179441,0.616331319151992,0.10600453660831907,-0.30518413041380243,-0.5232342500270007,0.795668628351183,,-0.011894601224190803,0.7814129309760394,1.1138799909996253,0.9988487260218782,-0.02573023679179401,-0.04048675634215548,0.0031252923638853767,-0.8072858965330064,0.5901522801841408,-0.047869145303745475,-0.5895993861712703,-0.8062760747748569,,0.1517474511821054,0.5917358056341606,-0.4530029456262197,0.9613724526296615,-0.2748222145883775,0.01535440306782345,-0.2420512204635525,-0.8175402281430776,0.5225315129634477,-0.131050425397761,-0.5060639541960134,-0.8524817067049367,,0.0,0.0,0.045,1.0,0.0,0.0,0.0,1.0,0.0,0.0,0.0,1.0,,-0.004778288941558408,-0.15716988368721235,0.2612241015305524,True,,0.10005404081843366,0.5456060911098259,-0.45385978152859047,-0.5318802827301835,-0.7043278042640946,-0.47013371394038506,0.6700083189210737,-0.010497469221129485,-0.7422793650078848,0.5178727811146453,-0.7097972578704931,0.47748888500164277
21:09:32.652298,,-0.702402185404324,-1.0709021965713248,0.0265055995182015,-2.7141413902392464,-0.5614961477528826,-0.3791050749490812,,0.10930952978114834,0.5349013382563682,-0.45594982659612826,-0.29041766635299004,-0.7545170338958799,-0.5885249566764753,0.7651498398018505,0.18622950272061553,-0.6163313191519921,0.5746331888442278,-0.6293032797287776,0.5232342500270009,,0.022565186643807546,0.27149554776597884,-0.11571469038629158,0.5458606995312544,0.5885249566764752,0.596384500197819,-0.7803196417179441,0.616331319151992,0.10600453660831907,-0.30518413041380243,-0.5232342500270007,0.795668628351183,,-0.011894601224190803,0.7814129309760394,1.1138799909996253,0.9988487260218782,-0.02573023679179401,-0.04048675634215548,0.0031252923638853767,-0.8072858965330064,0.5901522801841408,-0.047869145303745475,-0.5895993861712703,-0.8062760747748569,,0.1517474511821054,0.5917358056341606,-0.4530029456262197,0.9613724526296615,-0.2748222145883775,0.01535440306782345,-0.2420512204635525,-0.8175402281430776,0.5225315129634477,-0.131050425397761,-0.5060639541960134,-0.8524817067049367,,0.0,0.0,0.045,1.0,0.0,0.0,0.0,1.0,0.0,0.0,0.0,1.0,,-0.004778288941558408,-0.15716988368721235,0.2612241015305524,True,,0.10005421569207706,0.5456058905909864,-0.45385955252122745,-0.531879631484352,-0.7043322447729649,-0.47012779814125705,0.6700051414282661,-0.0104987159192107,-0.7422822154839339,0.5178775608884396,-0.7097928331119752,0.4774902784257671
21:09:32.659493,,-0.702402185404324,-1.0709021965713248,0.0265055995182015,-2.7141413902392464,-0.5614961477528826,-0.3791050749490812,,0.10930952978114834,0.5349013382563682,-0.45594982659612826,-0.29041766635299004,-0.7545170338958799,-0.5885249566764753,0.7651498398018505,0.18622950272061553,-0.6163313191519921,0.5746331888442278,-0.6293032797287776,0.5232342500270009,,0.022565186643807546,0.27149554776597884,-0.11571469038629158,0.5458606995312544,0.5885249566764752,0.596384500197819,-0.7803196417179441,0.616331319151992,0.10600453660831907,-0.30518413041380243,-0.5232342500270007,0.795668628351183,,-0.011894601224190803,0.7814129309760394,1.1138799909996253,0.9988487260218782,-0.02573023679179401,-0.04048675634215548,0.0031252923638853767,-0.8072858965330064,0.5901522801841408,-0.047869145303745475,-0.5895993861712703,-0.8062760747748569,,0.1517474511821054,0.5917358056341606,-0.4530029456262197,0.9613724526296615,-0.2748222145883775,0.01535440306782345,-0.2420512204635525,-0.8175402281430776,0.5225315129634477,-0.131050425397761,-0.5060639541960134,-0.8524817067049367,,0.0,0.0,0.045,1.0,0.0,0.0,0.0,1.0,0.0,0.0,0.0,1.0,,-0.004778288941558408,-0.15716988368721235,0.2612241015305524,True,,0.10005421569207706,0.5456058905909864,-0.45385955252122745,-0.531879631484352,-0.7043322447729649,-0.47012779814125705,0.6700051414282661,-0.0104987159192107,-0.7422822154839339,0.5178775608884396,-0.7097928331119752,0.4774902784257671
21:09:32.665782,,-0.7023745585751034,-1.0708820657295006,0.026506381211220724,-2.714125551786301,-0.5614762482922935,-0.37906887388073734,,0.10930930379363589,0.5349003309687355,-0.4559482893494025,-0.2904253143419818,-0.7545067542368012,-0.5885343614440949,0.7651477804958617,0.1862337518783831,-0.616332591758344,0.5746320655790257,-0.6293143471051239,0.523222172443059,,0.02256327692980161,0.2714933359367289,-0.11571348791835105,0.5458594656120392,0.5885343614440949,0.596376348626713,-0.7803200937420557,0.616332591758344,0.10599380943636308,-0.3051851816588226,-0.523222172443059,0.7956761672689696,,-0.011894601224190803,0.7814129309760394,1.1138799909996253,0.9988487260218782,-0.02573023679179401,-0.04048675634215548,0.0031252923638853767,-0.8072858965330064,0.5901522801841408,-0.047869145303745475,-0.5895993861712703,-0.8062760747748569,,0.1517474511821054,0.5917358056341606,-0.4530029456262197,0.9613724526296615,-0.2748222145883775,0.01535440306782345,-0.2420512204635525,-0.8175402281430776,0.5225315129634477,-0.131050425397761,-0.5060639541960134,-0.8524817067049367,,0.0,0.0,0.045,1.0,0.0,0.0,0.0,1.0,0.0,0.0,0.0,1.0,,-0.004778288941558408,-0.15716988368721235,0.2612241015305524,True,,0.10005421569207706,0.5456058905909864,-0.45385955252122745,-0.531879631484352,-0.7043322447729649,-0.47012779814125705,0.6700051414282661,-0.0104987159192107,-0.7422822154839339,0.5178775608884396,-0.7097928331119752,0.4774902784257671
21:09:32.672662,,-0.7023768612441633,-1.0708780151167372,0.02650631968185163,-2.714127997110896,-0.561472104566351,-0.3790680767059847,,0.10930918622968763,0.5349004591828461,-0.4559480858252028,-0.2904253143419818,-0.7545067542368012,-0.5885343614440949,0.7651477804958617,0.1862337518783831,-0.616332591758344,0.5746320655790257,-0.6293143471051239,0.523222172443059,,0.02256327692980161,0.2714933359367289,-0.11571348791835105,0.5458594656120392,0.5885343614440949,0.596376348626713,-0.7803200937420557,0.616332591758344,0.10599380943636308,-0.3051851816588226,-0.523222172443059,0.7956761672689696,,-0.011894601224190803,0.7814129309760394,1.1138799909996253,0.9988487260218782,-0.02573023679179401,-0.04048675634215548,0.0031252923638853767,-0.8072858965330064,0.5901522801841408,-0.047869145303745475,-0.5895993861712703,-0.8062760747748569,,0.1517474511821054,0.5917358056341606,-0.4530029456262197,0.9613724526296615,-0.2748222145883775,0.01535440306782345,-0.2420512204635525,-0.8175402281430776,0.5225315129634477,-0.131050425397761,-0.5060639541960134,-0.8524817067049367,,0.0,0.0,0.045,1.0,0.0,0.0,0.0,1.0,0.0,0.0,0.0,1.0,,-0.004778288941558408,-0.15716988368721235,0.2612241015305524,True,,0.10005398056418056,0.5456061470192076,-0.453859145472828,-0.5318739869661804,-0.704335426566192,-0.47012941715289464,0.6700098179418442,-0.01049793446912306,-0.7422780053547454,0.5178773077189586,-0.7097896873410482,0.4774952291846075
21:09:32.679095,,-0.702381466453889,-1.0708699138791888,0.026506196620422192,-2.7141328876274704,-0.5614638171139107,-0.37906648235297064,,0.10930895110641263,0.5349007156152042,-0.45594767877674003,-0.2904253143419818,-0.7545067542368012,-0.5885343614440949,0.7651477804958617,0.1862337518783831,-0.616332591758344,0.5746320655790257,-0.6293143471051239,0.523222172443059,,0.02256327692980161,0.2714933359367289,-0.11571348791835105,0.5458594656120392,0.5885343614440949,0.596376348626713,-0.7803200937420557,0.616332591758344,0.10599380943636308,-0.3051851816588226,-0.523222172443059,0.7956761672689696,,-0.011894601224190803,0.7814129309760394,1.1138799909996253,0.9988487260218782,-0.02573023679179401,-0.04048675634215548,0.0031252923638853767,-0.8072858965330064,0.5901522801841408,-0.047869145303745475,-0.5895993861712703,-0.8062760747748569,,0.1517474511821054,0.5917358056341606,-0.4530029456262197,0.9613724526296615,-0.2748222145883775,0.01535440306782345,-0.2420512204635525,-0.8175402281430776,0.5225315129634477,-0.131050425397761,-0.5060639541960134,-0.8524817067049367,,0.0,0.0,0.045,1.0,0.0,0.0,0.0,1.0,0.0,0.0,0.0,1.0,,-0.004778288941558408,-0.15716988368721235,0.2612241015305524,True,,0.10005351031763055,0.5456066598839239,-0.4538583313759024,-0.5318626978627996,-0.7043417900992791,-0.4701326550473257,0.6700191708810986,-0.01049637148446586,-0.7422695850144108,0.517876801250944,-0.7097833957662039,0.47750513067472583
