AlexandreBanks6/RCL_Autocam_Public/optimizationData/PreUserStudyData/Data_8.csv
System Time,q_des,q0,q1,q2,q3,q4,q5,T_des,Tx,Ty,Tz,R00,R01,R02,R10,R11,R12,R20,R21,R22,T_target,Tx,Ty,Tz,R00,R01,R02,R10,R11,R12,R20,R21,R22,worldFrame,Tx,Ty,Tz,R00,R01,R02,R10,R11,R12,R20,R21,R22,ECM_T_PSM_RCM,Tx,Ty,Tz,R00,R01,R02,R10,R11,R12,R20,R21,R22,psm3_T_cam,Tx,Ty,Tz,R00,R01,R02,R10,R11,R12,R20,R21,R22,offset,x,y,z,IK Trigered,ECM_T_PSM3,Tx,Ty,Tz,R00,R01,R02,R10,R11,R12,R20,R21,R22
21:29:12.034460,,0.3901138511414511,-0.7548508020582004,0.05508065839,-2.5144409398174483,-0.6843897720432723,0.8064270655745955,,0.15734329159878926,0.49641963898823377,-0.427558880701466,-0.1250767593083969,-0.6923233235777457,-0.7106646325174577,0.7975544205185148,0.35589475202254156,-0.4870789174191281,0.5901379081132523,-0.6277159716886911,0.5076513649096561,,0.04706234765631535,0.266677614993803,-0.09624484549038273,-0.8916953937209854,0.3720672329389745,-0.25776985663554997,-0.43273231724444194,-0.8677612729861942,0.2444035898214993,-0.13274813154629628,0.3294789026303731,0.9347842458516578,,-0.011885468134115583,0.7813151674948209,1.1139371938741927,0.9988488698858944,-0.02572247012548613,-0.04048814219392547,0.0031358336654012074,-0.8072434309011702,0.5902103098168745,-0.04786545387745728,-0.5896578650349298,-0.8062335272906689,,0.15181129408644534,0.5917506434297896,-0.452959793764911,0.9613873499747994,-0.2747687941282758,0.01537768128573537,-0.2420121560617169,-0.817529384679804,0.5225665713604538,-0.1310132803451301,-0.5061104770288344,-0.8524597969493073,,0.0,0.0,0.045,1.0,0.0,0.0,0.0,1.0,0.0,0.0,0.0,1.0,,-0.004778288941558408,-0.15716988368721235,0.2612241015305524,False,,0.15734329159878926,0.49641963898823377,-0.427558880701466,-0.173147891490379,-0.6416843570098184,-0.7471686514043081,0.7567402936689119,0.398870896765049,-0.5179248359093578,0.6303680953302804,-0.6550902179721065,0.416524754014612
21:29:14.048984,,0.38978177362785943,-0.7620638345627262,0.055416397500000006,-2.5723116619146476,-0.7322782762807181,0.7855794826692392,,0.15731838661105496,0.4963798740076971,-0.4276470971420254,-0.14193894363455173,-0.6822025342308349,-0.7171025534692889,0.7951655412765224,0.3527744973615937,-0.4929958920730782,0.5893624791837048,-0.6402600174331845,0.4924449327895818,,0.047061571903414645,0.26669058401288304,-0.09623857345503034,-0.8917018240302902,0.3720044733221284,-0.25783818345888876,-0.4327266454866746,-0.8677006876027841,0.24462863082539194,-0.13272342410781723,0.32970924852357714,0.9347065336944612,,-0.011885468134115583,0.7813151674948209,1.1139371938741927,0.9988488698858944,-0.02572247012548613,-0.04048814219392547,0.0031358336654012074,-0.8072434309011702,0.5902103098168745,-0.04786545387745728,-0.5896578650349298,-0.8062335272906689,,0.15176409585881417,0.591740160185384,-0.45295953686845114,0.9613648048612033,-0.274847015389848,0.015389285411398106,-0.24208718769367787,-0.8175182164103367,0.5225492889592597,-0.13104009130318398,-0.5060860440365399,-0.8524701815915317,,0.0,0.0,0.045,1.0,0.0,0.0,0.0,1.0,0.0,0.0,0.0,1.0,,-0.004778288941558408,-0.15716988368721235,0.2612241015305524,False,,0.15729348162332066,0.4963401090271604,-0.4277353135825849,-0.1253595912086825,-0.6825244814112291,-0.7200314612336918,0.7874009826109817,0.3730742482371176,-0.49072935298957865,0.6035599932693128,-0.6284711111711045,0.4906520120697608
21:29:14.064408,,0.38978177362785943,-0.7620715572956004,0.055416397500000006,-2.5723116619146476,-0.7322782762807181,0.7855794826692392,,0.15731015136066084,0.4963665439015335,-0.4276768012262293,-0.1475534216620928,-0.6788034671244518,-0.7192086256938919,0.7943838717842229,0.3517762208132156,-0.49498985971062476,0.589058111311423,-0.6444273038807866,0.48737172467021944,,0.0470626482584586,0.2666918504261228,-0.09623928825343546,-0.8917012802295817,0.372008849901004,-0.25783374959895644,-0.432729875789698,-0.8676980968802267,0.24463210596621507,-0.13271654544915515,0.3297111285136812,0.9347068472511996,,-0.011885468134115583,0.7813151674948209,1.1139371938741927,0.9988488698858944,-0.02572247012548613,-0.04048814219392547,0.0031358336654012074,-0.8072434309011702,0.5902103098168745,-0.04786545387745728,-0.5896578650349298,-0.8062335272906689,,0.15176409585881417,0.591740160185384,-0.45295953686845114,0.9613648048612033,-0.274847015389848,0.015389285411398106,-0.24208718769367787,-0.8175182164103367,0.5225492889592597,-0.13104009130318398,-0.5060860440365399,-0.8524701815915317,,0.0,0.0,0.045,1.0,0.0,0.0,0.0,1.0,0.0,0.0,0.0,1.0,,-0.004778288941558408,-0.15716988368721235,0.2612241015305524,False,,0.1572936808598726,0.49633988368920634,-0.4277362093946371,-0.12535626939086253,-0.6825285017336892,-0.7200282286449411,0.7873954703172844,0.3730796053224124,-0.49073412497634195,0.6035678744335458,-0.628463564905428,0.49065198311851654
21:29:14.078874,,0.38978177362785943,-0.7620715572956004,0.055416397500000006,-2.57210198538531,-0.7322782762807181,0.7855794826692392,,0.15730552880512005,0.49635985558181234,-0.4276916304352749,-0.15034655980695377,-0.677114874646508,-0.720242282762467,0.7939978508290854,0.351281804167387,-0.4959900143469933,0.5888980490927433,-0.6464937184424773,0.48485311918292484,,0.0470626482584586,0.2666918504261228,-0.09623928825343546,-0.8917012802295817,0.372008849901004,-0.25783374959895644,-0.432729875789698,-0.8676980968802267,0.24463210596621507,-0.13271654544915515,0.3297111285136812,0.9347068472511996,,-0.011885468134115583,0.7813151674948209,1.1139371938741927,0.9988488698858944,-0.02572247012548613,-0.04048814219392547,0.0031358336654012074,-0.8072434309011702,0.5902103098168745,-0.04786545387745728,-0.5896578650349298,-0.8062335272906689,,0.15176409585881417,0.591740160185384,-0.45295953686845114,0.9613648048612033,-0.274847015389848,0.015389285411398106,-0.24208718769367787,-0.8175182164103367,0.5225492889592597,-0.13104009130318398,-0.5060860440365399,-0.8524701815915317,,0.0,0.0,0.045,1.0,0.0,0.0,0.0,1.0,0.0,0.0,0.0,1.0,,-0.004778288941558408,-0.15716988368721235,0.2612241015305524,False,,0.15729166113849768,0.4963397906226487,-0.42773611806241163,-0.12551164215719118,-0.6824083060998125,-0.7201150820868774,0.7873842499938992,0.3730629340372512,-0.4907648012124165,0.6035502220565827,-0.6286039699313889,0.4904938108090127
21:29:14.092238,,0.389835832757979,-0.7620715572956004,0.05541899008000001,-2.568327807857232,-0.7322782762807181,0.7855794826692392,,0.15730199098005299,0.4963557169558072,-0.4277008354000845,-0.1519717982686869,-0.6761456523274317,-0.7208285144489645,0.7937749710278396,0.3509862963062135,-0.4965803389664225,0.5888021618283527,-0.6476864940053686,0.48340080428387755,,0.047061571903414645,0.26669058401288304,-0.09623857345503034,-0.8917018240302902,0.3720044733221284,-0.25783818345888876,-0.4327266454866746,-0.8677006876027841,0.24462863082539194,-0.13272342410781723,0.32970924852357714,0.9347065336944612,,-0.011885468134115583,0.7813151674948209,1.1139371938741927,0.9988488698858944,-0.02572247012548613,-0.04048814219392547,0.0031358336654012074,-0.8072434309011702,0.5902103098168745,-0.04786545387745728,-0.5896578650349298,-0.8062335272906689,,0.15176409585881417,0.591740160185384,-0.45295953686845114,0.9613648048612033,-0.274847015389848,0.015389285411398106,-0.24208718769367787,-0.8175182164103367,0.5225492889592597,-0.13104009130318398,-0.5060860440365399,-0.8524701815915317,,0.0,0.0,0.045,1.0,0.0,0.0,0.0,1.0,0.0,0.0,0.0,1.0,,-0.004778288941558408,-0.15716988368721235,0.2612241015305524,False,,0.15728783967978477,0.4963391624517869,-0.42773765525932306,-0.12612723334647324,-0.6819706613496347,-0.7204220555110081,0.7873251306558756,0.3729856569238939,-0.49091836222202945,0.6034990137904723,-0.6291245638086254,0.4898889910648474
21:29:14.103975,,0.38989761462097283,-0.7620715572956004,0.05542028637,-2.5645536303291534,-0.7322782762807181,0.7855794826692392,,0.15729645616600804,0.49635222498928067,-0.4277073598872063,-0.15847359716660558,-0.6722603259319938,-0.7231541532716942,0.7928883984216685,0.349818025517301,-0.4989539987681366,0.5883994076004947,-0.6524516529339177,0.4775905505078597,,0.047061571903414645,0.26669058401288304,-0.09623857345503034,-0.8917018240302902,0.3720044733221284,-0.25783818345888876,-0.4327266454866746,-0.8677006876027841,0.24462863082539194,-0.13272342410781723,0.32970924852357714,0.9347065336944612,,-0.011885468134115583,0.7813151674948209,1.1139371938741927,0.9988488698858944,-0.02572247012548613,-0.04048814219392547,0.0031358336654012074,-0.8072434309011702,0.5902103098168745,-0.04786545387745728,-0.5896578650349298,-0.8062335272906689,,0.15176409585881417,0.591740160185384,-0.45295953686845114,0.9613648048612033,-0.274847015389848,0.015389285411398106,-0.24208718769367787,-0.8175182164103367,0.5225492889592597,-0.13104009130318398,-0.5060860440365399,-0.8524701815915317,,0.0,0.0,0.045,1.0,0.0,0.0,0.0,1.0,0.0,0.0,0.0,1.0,,-0.004778288941558408,-0.15716988368721235,0.2612241015305524,False,,0.15726878209578324,0.496334765156648,-0.4277399823228153,-0.12828940442044334,-0.680375664841026,-0.7215474921344955,0.7871369410546523,0.3727306802921335,-0.49141354885278465,0.6032887076189748,-0.6309998372908627,0.487731422607086
21:29:14.116471,,0.3899825646825893,-0.7620715572956004,0.055422878950000004,-2.5588923640370362,-0.7322782762807181,0.7855794826692392,,0.15728442925554104,0.496348280181262,-0.42771358055948905,-0.1576578995600531,-0.6730095797500714,-0.7226336525808884,0.7930117294755875,0.34978587078207185,-0.49877805192973046,0.5884502418997729,-0.6516941412482635,0.47855863030796814,,0.047061571903414645,0.26669058401288304,-0.09623857345503034,-0.8917018240302902,0.3720044733221284,-0.25783818345888876,-0.4327266454866746,-0.8677006876027841,0.24462863082539194,-0.13272342410781723,0.32970924852357714,0.9347065336944612,,-0.011885468134115583,0.7813151674948209,1.1139371938741927,0.9988488698858944,-0.02572247012548613,-0.04048814219392547,0.0031358336654012074,-0.8072434309011702,0.5902103098168745,-0.04786545387745728,-0.5896578650349298,-0.8062335272906689,,0.15176409585881417,0.591740160185384,-0.45295953686845114,0.9613648048612033,-0.274847015389848,0.015389285411398106,-0.24208718769367787,-0.8175182164103367,0.5225492889592597,-0.13104009130318398,-0.5060860440365399,-0.8524701815915317,,0.0,0.0,0.045,1.0,0.0,0.0,0.0,1.0,0.0,0.0,0.0,1.0,,-0.004778288941558408,-0.15716988368721235,0.2612241015305524,False,,0.15721226779273897,0.49632461133314976,-0.42775090459318554,-0.13522736109476302,-0.6752628962848513,-0.7250748800726317,0.7865071407576103,0.3719078446742412,-0.4930426681404454,0.6025944559557741,-0.636949429680846,0.4808069734109624
21:29:14.128593,,0.39009840567570264,-0.7620638345627262,0.055424175240000005,-2.5502956263341914,-0.7322782762807181,0.7855106010251889,,0.15726885105710123,0.49634446093099516,-0.4277194573986127,-0.15632252540805808,-0.6742322732711435,-0.7217802307246157,0.7932119371217728,0.3497359472954504,-0.4984899013140439,0.5885326521041787,-0.6504523046190139,0.4801392595468961,,0.047061571903414645,0.26669058401288304,-0.09623857345503034,-0.8917018240302902,0.3720044733221284,-0.25783818345888876,-0.4327266454866746,-0.8677006876027841,0.24462863082539194,-0.13272342410781723,0.32970924852357714,0.9347065336944612,,-0.011885468134115583,0.7813151674948209,1.1139371938741927,0.9988488698858944,-0.02572247012548613,-0.04048814219392547,0.0031358336654012074,-0.8072434309011702,0.5902103098168745,-0.04786545387745728,-0.5896578650349298,-0.8062335272906689,,0.15176409585881417,0.591740160185384,-0.45295953686845114,0.9613648048612033,-0.274847015389848,0.015389285411398106,-0.24208718769367787,-0.8175182164103367,0.5225492889592597,-0.13104009130318398,-0.5060860440365399,-0.8524701815915317,,0.0,0.0,0.045,1.0,0.0,0.0,0.0,1.0,0.0,0.0,0.0,1.0,,-0.004778288941558408,-0.15716988368721235,0.2612241015305524,False,,0.15715980366802254,0.4963177261791272,-0.4277605952724785,-0.14154582513639274,-0.6705948500557837,-0.7281945663523719,0.7859302367013685,0.3711324841772146,-0.494544580626439,0.6018957072657927,-0.6423108486294706,0.47450851552727774
21:29:14.140382,,0.39024513760031293,-0.7620561118298519,0.05542676782000001,-2.5427472712780346,-0.7322782762807181,0.7854417193811387,,0.15725198209766564,0.4963406326568861,-0.427725134325236,-0.15452482885912067,-0.6758504019963866,-0.7206498267962721,0.7934802318650341,0.34968841000069123,-0.4980913561031901,0.5886417079850746,-0.6487928109239698,0.48224131883104226,,0.0470626482584586,0.2666918504261228,-0.09623928825343546,-0.8917012802295817,0.372008849901004,-0.25783374959895644,-0.432729875789698,-0.8676980968802267,0.24463210596621507,-0.13271654544915515,0.3297111285136812,0.9347068472511996,,-0.011885468134115583,0.7813151674948209,1.1139371938741927,0.9988488698858944,-0.02572247012548613,-0.04048814219392547,0.0031358336654012074,-0.8072434309011702,0.5902103098168745,-0.04786545387745728,-0.5896578650349298,-0.8062335272906689,,0.15176409585881417,0.591740160185384,-0.45295953686845114,0.9613648048612033,-0.274847015389848,0.015389285411398106,-0.24208718769367787,-0.8175182164103367,0.5225492889592597,-0.13104009130318398,-0.5060860440365399,-0.8524701815915317,,0.0,0.0,0.045,1.0,0.0,0.0,0.0,1.0,0.0,0.0,0.0,1.0,,-0.004778288941558408,-0.15716988368721235,0.2612241015305524,False,,0.15711703042218084,0.4963100064640138,-0.42777054973822215,-0.14708390036203056,-0.666496956091412,-0.7308543861640121,0.7854047836312654,0.3704488607836614,-0.4958900759172467,0.6012534009079845,-0.6469539775478392,0.46898283426114074
21:29:14.154088,,0.39056176964815614,-0.7620638345627262,0.05542806411000001,-2.5326827978698265,-0.7324124177491703,0.7851652940570992,,0.15723587867594396,0.4963372797721604,-0.4277305670454086,-0.15245707459230706,-0.6777022611458923,-0.71934944296355,0.7937888074212052,0.3496410902546013,-0.4976319650764644,0.5887642185688983,-0.6468832110132304,0.484650329299007,,0.0470626482584586,0.2666918504261228,-0.09623928825343546,-0.8917012802295817,0.372008849901004,-0.25783374959895644,-0.432729875789698,-0.8676980968802267,0.24463210596621507,-0.13271654544915515,0.3297111285136812,0.9347068472511996,,-0.011885468134115583,0.7813151674948209,1.1139371938741927,0.9988488698858944,-0.02572247012548613,-0.04048814219392547,0.0031358336654012074,-0.8072434309011702,0.5902103098168745,-0.04786545387745728,-0.5896578650349298,-0.8062335272906689,,0.15176409585881417,0.591740160185384,-0.45295953686845114,0.9613648048612033,-0.274847015389848,0.015389285411398106,-0.24208718769367787,-0.8175182164103367,0.5225492889592597,-0.13104009130318398,-0.5060860440365399,-0.8524701815915317,,0.0,0.0,0.045,1.0,0.0,0.0,0.0,1.0,0.0,0.0,0.0,1.0,,-0.004778288941558408,-0.15716988368721235,0.2612241015305524,False,,0.15709094788044897,0.4963071038096295,-0.42777946152696217,-0.15091237293647108,-0.6636244526700322,-0.7326854997289658,0.7851001862492232,0.3699235346540511,-0.49676380309004886,0.600702216781426,-0.6501993266125811,0.4651856429710911
21:29:14.167341,,0.39073166977138907,-0.7620638345627262,0.05542806411000001,-2.5293279734004233,-0.7322782762807181,0.7847529029406365,,0.15721948366944472,0.4963336950796747,-0.4277367461812783,-0.15001173372695592,-0.6797784513155427,-0.7179045774703047,0.7941512034934937,0.3496647033153277,-0.4970389388436089,0.5889054178861065,-0.6446899238114301,0.48739568771373415,,0.047061571903414645,0.26669058401288304,-0.09623857345503034,-0.8917018240302902,0.3720044733221284,-0.25783818345888876,-0.4327266454866746,-0.8677006876027841,0.24462863082539194,-0.13272342410781723,0.32970924852357714,0.9347065336944612,,-0.011885468134115583,0.7813151674948209,1.1139371938741927,0.9988488698858944,-0.02572247012548613,-0.04048814219392547,0.0031358336654012074,-0.8072434309011702,0.5902103098168745,-0.04786545387745728,-0.5896578650349298,-0.8062335272906689,,0.15176409585881417,0.591740160185384,-0.45295953686845114,0.9613648048612033,-0.274847015389848,0.015389285411398106,-0.24208718769367787,-0.8175182164103367,0.5225492889592597,-0.13104009130318398,-0.5060860440365399,-0.8524701815915317,,0.0,0.0,0.045,1.0,0.0,0.0,0.0,1.0,0.0,0.0,0.0,1.0,,-0.004778288941558408,-0.15716988368721235,0.2612241015305524,False,,0.15705553360445218,0.49629784815481776,-0.4277985375399753,-0.1568864661964559,-0.6597019289500332,-0.7349693882496018,0.7843852373763831,0.3689578157503012,-0.4986079918962014,0.6001053541757346,-0.654723983932445,0.4595759662485018
21:29:14.179204,,0.390901569894622,-0.7620638345627262,0.05542806411000001,-2.5282795907537348,-0.7322782762807181,0.784270731432285,,0.157206180017141,0.4963305907778768,-0.4277424150654387,-0.1480559435431319,-0.6813422612563499,-0.716830013909206,0.7944389980159617,0.34975122563610744,-0.49652176873816,0.5890154702946123,-0.6429929326404451,0.489503802397379,,0.0470626482584586,0.2666918504261228,-0.09623928825343546,-0.8917012802295817,0.372008849901004,-0.25783374959895644,-0.432729875789698,-0.8676980968802267,0.24463210596621507,-0.13271654544915515,0.3297111285136812,0.9347068472511996,,-0.011885468134115583,0.7813151674948209,1.1139371938741927,0.9988488698858944,-0.02572247012548613,-0.04048814219392547,0.0031358336654012074,-0.8072434309011702,0.5902103098168745,-0.04786545387745728,-0.5896578650349298,-0.8062335272906689,,0.15176409585881417,0.591740160185384,-0.45295953686845114,0.9613648048612033,-0.274847015389848,0.015389285411398106,-0.24208718769367787,-0.8175182164103367,0.5225492889592597,-0.13104009130318398,-0.5060860440365399,-0.8524701815915317,,0.0,0.0,0.045,1.0,0.0,0.0,0.0,1.0,0.0,0.0,0.0,1.0,,-0.004778288941558408,-0.15716988368721235,0.2612241015305524,False,,0.15705983984180025,0.49629644345809965,-0.4278047727912029,-0.15763933192516233,-0.65957706132424,-0.7349203638524846,0.7842724281334985,0.36860802108366464,-0.4990439712714413,0.6000554970165468,-0.6550467364758522,0.45918098124003415
21:29:14.190615,,0.39104057908635803,-0.7620792800284746,0.0554293604,-2.5278602376950596,-0.7322782762807181,0.7832375067715317,,0.1571953871403241,0.4963277703667972,-0.4277476538013923,-0.146577824939162,-0.6823800975691753,-0.7161487127608406,0.7946548340876868,0.349916704849678,-0.49606313049816164,0.5890969962651287,-0.6418039710223425,0.490967439737888,,0.047061571903414645,0.26669058401288304,-0.09623857345503034,-0.8917018240302902,0.3720044733221284,-0.25783818345888876,-0.4327266454866746,-0.8677006876027841,0.24462863082539194,-0.13272342410781723,0.32970924852357714,0.9347065336944612,,-0.011885468134115583,0.7813151674948209,1.1139371938741927,0.9988488698858944,-0.02572247012548613,-0.04048814219392547,0.0031358336654012074,-0.8072434309011702,0.5902103098168745,-0.04786545387745728,-0.5896578650349298,-0.8062335272906689,,0.15176409585881417,0.591740160185384,-0.45295953686845114,0.9613648048612033,-0.274847015389848,0.015389285411398106,-0.24208718769367787,-0.8175182164103367,0.5225492889592597,-0.13104009130318398,-0.5060860440365399,-0.8524701815915317,,0.0,0.0,0.045,1.0,0.0,0.0,0.0,1.0,0.0,0.0,0.0,1.0,,-0.004778288941558408,-0.15716988368721235,0.2612241015305524,False,,0.15706587261852123,0.4962939254338423,-0.42781051863283515,-0.15792861609304992,-0.6601928188697217,-0.7343051097001745,0.784202629764801,0.3680510891115795,-0.4995644415625985,0.6000706522476371,-0.654739518981886,0.459599145554541
21:29:14.204069,,0.39122592467533945,-0.76212561642572,0.05543065669,-2.5280699142243974,-0.7322782762807181,0.782066518822678,,0.157186429197644,0.49632516630292284,-0.42775255111312743,-0.1455266191609047,-0.6829734809030681,-0.7157988058100729,0.7948069217010618,0.35013468680894244,-0.4956675914457883,0.5891541930870577,-0.6410550899702251,0.4918784517455379,,0.0470626482584586,0.2666918504261228,-0.09623928825343546,-0.8917012802295817,0.372008849901004,-0.25783374959895644,-0.432729875789698,-0.8676980968802267,0.24463210596621507,-0.13271654544915515,0.3297111285136812,0.9347068472511996,,-0.011885468134115583,0.7813151674948209,1.1139371938741927,0.9988488698858944,-0.02572247012548613,-0.04048814219392547,0.0031358336654012074,-0.8072434309011702,0.5902103098168745,-0.04786545387745728,-0.5896578650349298,-0.8062335272906689,,0.15176409585881417,0.591740160185384,-0.45295953686845114,0.9613648048612033,-0.274847015389848,0.015389285411398106,-0.24208718769367787,-0.8175182164103367,0.5225492889592597,-0.13104009130318398,-0.5060860440365399,-0.8524701815915317,,0.0,0.0,0.045,1.0,0.0,0.0,0.0,1.0,0.0,0.0,0.0,1.0,,-0.004778288941558408,-0.15716988368721235,0.2612241015305524,False,,0.1570699759428031,0.4962913134725564,-0.42781621616568416,-0.15821745839673007,-0.6606382179028056,-0.7338422043632301,0.7841348487971957,0.367607257117996,-0.49999744340944685,0.6000831398733667,-0.6545395706604676,0.4598675631954626
21:29:14.215472,,0.39125681560683634,-0.7621565073572169,0.055431952980000004,-2.5310053856351247,-0.7322782762807181,0.7819287555345775,,0.15717921377486188,0.49632287900186545,-0.4277570269318109,-0.14482269212853127,-0.6832268298145463,-0.7157006035831914,0.7949080652532816,0.35038038976993185,-0.4953328349333307,0.5891921781075036,-0.6406516593199229,0.4923595188180079,,0.0470626482584586,0.2666918504261228,-0.09623928825343546,-0.8917012802295817,0.372008849901004,-0.25783374959895644,-0.432729875789698,-0.8676980968802267,0.24463210596621507,-0.13271654544915515,0.3297111285136812,0.9347068472511996,,-0.011885468134115583,0.7813151674948209,1.1139371938741927,0.9988488698858944,-0.02572247012548613,-0.04048814219392547,0.0031358336654012074,-0.8072434309011702,0.5902103098168745,-0.04786545387745728,-0.5896578650349298,-0.8062335272906689,,0.15176409585881417,0.591740160185384,-0.45295953686845114,0.9613648048612033,-0.274847015389848,0.015389285411398106,-0.24208718769367787,-0.8175182164103367,0.5225492889592597,-0.13104009130318398,-0.5060860440365399,-0.8524701815915317,,0.0,0.0,0.045,1.0,0.0,0.0,0.0,1.0,0.0,0.0,0.0,1.0,,-0.004778288941558408,-0.15716988368721235,0.2612241015305524,False,,0.15707819785591176,0.4962908567870621,-0.42781968839337947,-0.15774197594323297,-0.6612977395056546,-0.7333503724347836,0.7841499326838776,0.36749458743537317,-0.5000566080731011,0.6001885971071048,-0.653936562619354,0.4605872555468605
21:29:14.227384,,0.3912722610725848,-0.7622105664873364,0.055431952980000004,-2.5364569753979045,-0.7322782762807181,0.7819287555345775,,0.15717657531540324,0.49632099493590454,-0.4277609624368138,-0.14516238268677,-0.6826185837011532,-0.716211025483392,0.7948587187779489,0.3505979758129173,-0.49525665843479877,0.58917398196188,-0.6411797015869709,0.49169206871523324,,0.047061571903414645,0.26669058401288304,-0.09623857345503034,-0.8917018240302902,0.3720044733221284,-0.25783818345888876,-0.4327266454866746,-0.8677006876027841,0.24462863082539194,-0.13272342410781723,0.32970924852357714,0.9347065336944612,,-0.011885468134115583,0.7813151674948209,1.1139371938741927,0.9988488698858944,-0.02572247012548613,-0.04048814219392547,0.0031358336654012074,-0.8072434309011702,0.5902103098168745,-0.04786545387745728,-0.5896578650349298,-0.8062335272906689,,0.15176409585881417,0.591740160185384,-0.45295953686845114,0.9613648048612033,-0.274847015389848,0.015389285411398106,-0.24208718769367787,-0.8175182164103367,0.5225492889592597,-0.13104009130318398,-0.5060860440365399,-0.8524701815915317,,0.0,0.0,0.045,1.0,0.0,0.0,0.0,1.0,0.0,0.0,0.0,1.0,,-0.004778288941558408,-0.15716988368721235,0.2612241015305524,False,,0.1571369984235239,0.49629273394649076,-0.4278199950118572,-0.15155550831398945,-0.6662042565330417,-0.7302073790896291,0.7846661328353359,0.36816404732619606,-0.49875273857657487,0.6011073014703174,-0.6485577251360526,0.4669506283167647
21:29:14.238932,,0.3912490928739621,-0.7622723483503302,0.05543584185000001,-2.5396021233379695,-0.7322782762807181,0.7817909922464771,,0.15717531819552105,0.49631914239798375,-0.4277644892698773,-0.1457586137686196,-0.6818203429680675,-0.7168489990442881,0.7947725600405607,0.35079348100200136,-0.49525503783072455,0.5891417871128004,-0.6419205516300641,0.49076165404005473,,0.0470626482584586,0.2666918504261228,-0.09623928825343546,-0.8917012802295817,0.372008849901004,-0.25783374959895644,-0.432729875789698,-0.8676980968802267,0.24463210596621507,-0.13271654544915515,0.3297111285136812,0.9347068472511996,,-0.011885468134115583,0.7813151674948209,1.1139371938741927,0.9988488698858944,-0.02572247012548613,-0.04048814219392547,0.0031358336654012074,-0.8072434309011702,0.5902103098168745,-0.04786545387745728,-0.5896578650349298,-0.8062335272906689,,0.15176409585881417,0.591740160185384,-0.45295953686845114,0.9613648048612033,-0.274847015389848,0.015389285411398106,-0.24208718769367787,-0.8175182164103367,0.5225492889592597,-0.13104009130318398,-0.5060860440365399,-0.8524701815915317,,0.0,0.0,0.045,1.0,0.0,0.0,0.0,1.0,0.0,0.0,0.0,1.0,,-0.004778288941558408,-0.15716988368721235,0.2612241015305524,False,,0.15715520427740626,0.49628950179125086,-0.42782091859889404,-0.1492273694081575,-0.6680608179115769,-0.7289896678217299,0.7848529413368995,0.3684074585839382,-0.49827884255157895,0.6014458019591945,-0.6465065258998077,0.46935302201501017
21:29:14.250230,,0.391210479209591,-0.7623418529461983,0.05543843443,-2.5419085651606843,-0.7322782762807181,0.7815843473143266,,0.15717480107798865,0.49631734917671544,-0.4277677447120903,-0.1465256543533568,-0.6809440433547004,-0.7175247032485822,0.7946620489944011,0.35094086878482234,-0.49532715637290425,0.5890999217791782,-0.6427689894294835,0.48969946469590914,,0.047061571903414645,0.26669058401288304,-0.09623857345503034,-0.8917018240302902,0.3720044733221284,-0.25783818345888876,-0.4327266454866746,-0.8677006876027841,0.24462863082539194,-0.13272342410781723,0.32970924852357714,0.9347065336944612,,-0.011885468134115583,0.7813151674948209,1.1139371938741927,0.9988488698858944,-0.02572247012548613,-0.04048814219392547,0.0031358336654012074,-0.8072434309011702,0.5902103098168745,-0.04786545387745728,-0.5896578650349298,-0.8062335272906689,,0.15176409585881417,0.591740160185384,-0.45295953686845114,0.9613648048612033,-0.274847015389848,0.015389285411398106,-0.24208718769367787,-0.8175182164103367,0.5225492889592597,-0.13104009130318398,-0.5060860440365399,-0.8524701815915317,,0.0,0.0,0.045,1.0,0.0,0.0,0.0,1.0,0.0,0.0,0.0,1.0,,-0.004778288941558408,-0.15716988368721235,0.2612241015305524,False,,0.15716601007993813,0.4962868644151538,-0.42782308722971074,-0.14751332769616882,-0.669475242986995,-0.7280403266162572,0.7849827445660458,0.3685590173815001,-0.4979621887657144,0.6016991847140567,-0.6449551532736884,0.47115914655257657
21:29:14.262311,,0.3910637472849807,-0.7624885848708085,0.055442323300000006,-2.5448440365714116,-0.7322782762807181,0.7814465840262261,,0.1571747954413161,0.49631561225812987,-0.4277707236753815,-0.14746550581915102,-0.6799844701722331,-0.7182421670292288,0.7945270148245014,0.3510427411943705,-0.4954720800908582,0.5890479716358606,-0.6437288868460719,0.48850012582633867,,0.0470626482584586,0.2666918504261228,-0.09623928825343546,-0.8917012802295817,0.372008849901004,-0.25783374959895644,-0.432729875789698,-0.8676980968802267,0.24463210596621507,-0.13271654544915515,0.3297111285136812,0.9347068472511996,,-0.011885468134115583,0.7813151674948209,1.1139371938741927,0.9988488698858944,-0.02572247012548613,-0.04048814219392547,0.0031358336654012074,-0.8072434309011702,0.5902103098168745,-0.04786545387745728,-0.5896578650349298,-0.8062335272906689,,0.15176409585881417,0.591740160185384,-0.45295953686845114,0.9613648048612033,-0.274847015389848,0.015389285411398106,-0.24208718769367787,-0.8175182164103367,0.5225492889592597,-0.13104009130318398,-0.5060860440365399,-0.8524701815915317,,0.0,0.0,0.045,1.0,0.0,0.0,0.0,1.0,0.0,0.0,0.0,1.0,,-0.004778288941558408,-0.15716988368721235,0.2612241015305524,False,,0.15717469398121034,0.49628434772358954,-0.4278243450146239,-0.1458016630953926,-0.6707638097350301,-0.7271985881369449,0.7851190528065615,0.3687850509062602,-0.49757980178881345,0.6019384918401094,-0.6434854293438318,0.47285997320923573
21:29:14.273945,,0.39100196542198695,-0.7625580894666766,0.055442323300000006,-2.5442150069833986,-0.7322782762807181,0.7814465840262261,,0.15717458423632688,0.4963139253214906,-0.42777357585733505,-0.14840801900221212,-0.67906238934411,-0.7189217077922327,0.7943921347818509,0.3511173729659446,-0.4956377883687043,0.5889951500253341,-0.644662665617108,0.48733340893773336,,0.047061571903414645,0.26669058401288304,-0.09623857345503034,-0.8917018240302902,0.3720044733221284,-0.25783818345888876,-0.4327266454866746,-0.8677006876027841,0.24462863082539194,-0.13272342410781723,0.32970924852357714,0.9347065336944612,,-0.011885468134115583,0.7813151674948209,1.1139371938741927,0.9988488698858944,-0.02572247012548613,-0.04048814219392547,0.0031358336654012074,-0.8072434309011702,0.5902103098168745,-0.04786545387745728,-0.5896578650349298,-0.8062335272906689,,0.15176409585881417,0.591740160185384,-0.45295953686845114,0.9613648048612033,-0.274847015389848,0.015389285411398106,-0.24208718769367787,-0.8175182164103367,0.5225492889592597,-0.13104009130318398,-0.5060860440365399,-0.8524701815915317,,0.0,0.0,0.045,1.0,0.0,0.0,0.0,1.0,0.0,0.0,0.0,1.0,,-0.004778288941558408,-0.15716988368721235,0.2612241015305524,False,,0.1571705713415319,0.4962818735253437,-0.4278277673144523,-0.1453207277754468,-0.6710990486490531,-0.7269855246022102,0.785142387310978,0.3688823891030073,-0.4974708178951567,0.6020243497786723,-0.6430799716302739,0.47330205193044905
21:29:14.285531,,0.3909479062918674,-0.7626275940625445,0.05544491588000001,-2.5425375947486972,-0.7322782762807181,0.7814465840262261,,0.1571738357914227,0.4963123099373759,-0.4277763748862838,-0.14881499963651507,-0.6786646703130403,-0.7192134799776349,0.7943333643654937,0.3511492388224816,-0.49570998271131383,0.588972215616699,-0.6450644510223358,0.4868297976585581,,0.0470626482584586,0.2666918504261228,-0.09623928825343546,-0.8917012802295817,0.372008849901004,-0.25783374959895644,-0.432729875789698,-0.8676980968802267,0.24463210596621507,-0.13271654544915515,0.3297111285136812,0.9347068472511996,,-0.011885468134115583,0.7813151674948209,1.1139371938741927,0.9988488698858944,-0.02572247012548613,-0.04048814219392547,0.0031358336654012074,-0.8072434309011702,0.5902103098168745,-0.04786545387745728,-0.5896578650349298,-0.8062335272906689,,0.15176409585881417,0.591740160185384,-0.45295953686845114,0.9613648048612033,-0.274847015389848,0.015389285411398106,-0.24208718769367787,-0.8175182164103367,0.5225492889592597,-0.13104009130318398,-0.5060860440365399,-0.8524701815915317,,0.0,0.0,0.045,1.0,0.0,0.0,0.0,1.0,0.0,0.0,0.0,1.0,,-0.004778288941558408,-0.15716988368721235,0.2612241015305524,False,,0.1571588668933389,0.4962800022550823,-0.4278323554652576,-0.14576561940573568,-0.6706883594831579,-0.7272754008304234,0.7850828295170396,0.3689017566402779,-0.49755044442271024,0.601994464257589,-0.6434971782389632,0.47277272193064485
21:29:14.298625,,0.39091701536037043,-0.7627279895899095,0.05544750846,-2.541069859043333,-0.7321441348122658,0.7813786011300144,,0.15717157025884657,0.496310292274921,-0.4277795838508236,-0.1488123909917935,-0.6786503071717997,-0.7192275860202274,0.7943337565268214,0.35116069506595815,-0.49570125792894426,0.588972361965186,-0.6450733403621415,0.4868178612425132,,0.047061571903414645,0.26669058401288304,-0.09623857345503034,-0.8917018240302902,0.3720044733221284,-0.25783818345888876,-0.4327266454866746,-0.8677006876027841,0.24462863082539194,-0.13272342410781723,0.32970924852357714,0.9347065336944612,,-0.011885468134115583,0.7813151674948209,1.1139371938741927,0.9988488698858944,-0.02572247012548613,-0.04048814219392547,0.0031358336654012074,-0.8072434309011702,0.5902103098168745,-0.04786545387745728,-0.5896578650349298,-0.8062335272906689,,0.15176409585881417,0.591740160185384,-0.45295953686845114,0.9613648048612033,-0.274847015389848,0.015389285411398106,-0.24208718769367787,-0.8175182164103367,0.5225492889592597,-0.13104009130318398,-0.5060860440365399,-0.8524701815915317,,0.0,0.0,0.045,1.0,0.0,0.0,0.0,1.0,0.0,0.0,0.0,1.0,,-0.004778288941558408,-0.15716988368721235,0.2612241015305524,False,,0.1571239940747483,0.4962679213633695,-0.4278469721061595,-0.14803401773210717,-0.6688860946721693,-0.7284760270237479,0.7847329820607287,0.3688479331195706,-0.4981418965510701,0.6018970646714988,-0.6454011113932442,0.47029493825917273
21:29:14.310647,,0.39090929262749624,-0.7628052169186518,0.055448804750000004,-2.540231152925983,-0.7321441348122658,0.7813786011300144,,0.1571690795477242,0.4963082894974374,-0.42778281271798274,-0.1486166959328808,-0.678826051533232,-0.719101987325772,0.7943620233582394,0.3511560566471072,-0.4956589537699656,0.5889834057613821,-0.6448906995498809,0.4870461293326,,0.047061571903414645,0.26669058401288304,-0.09623857345503034,-0.8917018240302902,0.3720044733221284,-0.25783818345888876,-0.4327266454866746,-0.8677006876027841,0.24462863082539194,-0.13272342410781723,0.32970924852357714,0.9347065336944612,,-0.011885468134115583,0.7813151674948209,1.1139371938741927,0.9988488698858944,-0.02572247012548613,-0.04048814219392547,0.0031358336654012074,-0.8072434309011702,0.5902103098168745,-0.04786545387745728,-0.5896578650349298,-0.8062335272906689,,0.15176409585881417,0.591740160185384,-0.45295953686845114,0.9613648048612033,-0.274847015389848,0.015389285411398106,-0.24208718769367787,-0.8175182164103367,0.5225492889592597,-0.13104009130318398,-0.5060860440365399,-0.8524701815915317,,0.0,0.0,0.045,1.0,0.0,0.0,0.0,1.0,0.0,0.0,0.0,1.0,,-0.004778288941558408,-0.15716988368721235,0.2612241015305524,False,,0.15711428390303164,0.49626422839279627,-0.42785384779548463,-0.14862507178150858,-0.66839244094374,-0.7288087080484223,0.7846428403812281,0.36884864082890245,-0.4982833462972147,0.6018689235011391,-0.6459119328886411,0.46962918763173084
21:29:14.322382,,0.3909247380932447,-0.7629751170418847,0.055450101040000005,-2.539392446808632,-0.7321441348122658,0.7813097194859642,,0.15716654218610912,0.49630635317514943,-0.427786100253108,-0.1482503778034912,-0.679157388601207,-0.718864619653768,0.7944151426080357,0.35114580420089275,-0.4955809518006195,0.5890039737358499,-0.6445472365164113,0.4874755924381044,,0.0470626482584586,0.2666918504261228,-0.09623928825343546,-0.8917012802295817,0.372008849901004,-0.25783374959895644,-0.432729875789698,-0.8676980968802267,0.24463210596621507,-0.13271654544915515,0.3297111285136812,0.9347068472511996,,-0.011885468134115583,0.7813151674948209,1.1139371938741927,0.9988488698858944,-0.02572247012548613,-0.04048814219392547,0.0031358336654012074,-0.8072434309011702,0.5902103098168745,-0.04786545387745728,-0.5896578650349298,-0.8062335272906689,,0.15176409585881417,0.591740160185384,-0.45295953686845114,0.9613648048612033,-0.274847015389848,0.015389285411398106,-0.24208718769367787,-0.8175182164103367,0.5225492889592597,-0.13104009130318398,-0.5060860440365399,-0.8524701815915317,,0.0,0.0,0.045,1.0,0.0,0.0,0.0,1.0,0.0,0.0,0.0,1.0,,-0.004778288941558408,-0.15716988368721235,0.2612241015305524,False,,0.15710818286896272,0.4962618177625271,-0.4278617135609887,-0.14890394791038447,-0.6681453637389927,-0.7289783173804216,0.7845730916832594,0.36888778053923593,-0.4983641933118874,0.6018909187745511,-0.6461451681185317,0.4692800268643457
21:29:14.333684,,0.3909479062918674,-0.7630677898363754,0.055450101040000005,-2.539392446808632,-0.7321441348122658,0.7813097194859642,,0.15716396712009353,0.4963044245047983,-0.4277894299405107,-0.1478092030285426,-0.6795415125662616,-0.7185925554689933,0.7944792245095196,0.35114380158266256,-0.4954798492462251,0.5890285985408971,-0.6441435025562758,0.48797945324748426,,0.0470626482584586,0.2666918504261228,-0.09623928825343546,-0.8917012802295817,0.372008849901004,-0.25783374959895644,-0.432729875789698,-0.8676980968802267,0.24463210596621507,-0.13271654544915515,0.3297111285136812,0.9347068472511996,,-0.011885468134115583,0.7813151674948209,1.1139371938741927,0.9988488698858944,-0.02572247012548613,-0.04048814219392547,0.0031358336654012074,-0.8072434309011702,0.5902103098168745,-0.04786545387745728,-0.5896578650349298,-0.8062335272906689,,0.15176409585881417,0.591740160185384,-0.45295953686845114,0.9613648048612033,-0.274847015389848,0.015389285411398106,-0.24208718769367787,-0.8175182164103367,0.5225492889592597,-0.13104009130318398,-0.5060860440365399,-0.8524701815915317,,0.0,0.0,0.045,1.0,0.0,0.0,0.0,1.0,0.0,0.0,0.0,1.0,,-0.004778288941558408,-0.15716988368721235,0.2612241015305524,False,,0.15710216553571962,0.4962581364163703,-0.42786934243817665,-0.14918280822935542,-0.6679484002901858,-0.7291017928098826,0.78450334187914,0.36889263375918807,-0.4984703916369263,0.6019127813140908,-0.6463460058730085,0.46897531319115743
21:29:14.346150,,0.39097107449049,-0.7631527398979918,0.055450101040000005,-2.5396021233379695,-0.7322782762807181,0.7813777023821759,,0.1571614974773476,0.49630255194863343,-0.42779283479211494,-0.14739406389030585,-0.6798863340324175,-0.718351907804124,0.7945395253188372,0.3511534272068992,-0.4953767394488058,0.5890516389553478,-0.6437746065796421,0.4884386586739522,,0.047061571903414645,0.26669058401288304,-0.09623857345503034,-0.8917018240302902,0.3720044733221284,-0.25783818345888876,-0.4327266454866746,-0.8677006876027841,0.24462863082539194,-0.13272342410781723,0.32970924852357714,0.9347065336944612,,-0.011885468134115583,0.7813151674948209,1.1139371938741927,0.9988488698858944,-0.02572247012548613,-0.04048814219392547,0.0031358336654012074,-0.8072434309011702,0.5902103098168745,-0.04786545387745728,-0.5896578650349298,-0.8062335272906689,,0.15176409585881417,0.591740160185384,-0.45295953686845114,0.9613648048612033,-0.274847015389848,0.015389285411398106,-0.24208718769367787,-0.8175182164103367,0.5225492889592597,-0.13104009130318398,-0.5060860440365399,-0.8524701815915317,,0.0,0.0,0.045,1.0,0.0,0.0,0.0,1.0,0.0,0.0,0.0,1.0,,-0.004778288941558408,-0.15716988368721235,0.2612241015305524,False,,0.15709975640869883,0.4962557380445114,-0.42787795608222096,-0.14914955780265693,-0.6679482401015754,-0.72910874220001,0.7844540156861618,0.36897011449720835,-0.49849067381624335,0.6019853043730614,-0.6463019442591253,0.4689429497985309
21:29:14.358397,,0.3909942426891127,-0.7632222444938599,0.055451397330000006,-2.5398117998673073,-0.7322782762807181,0.7813777023821759,,0.15715918663155476,0.49630067341626183,-0.4277964728170472,-0.14721795211659017,-0.6800232638455375,-0.7182584461339544,0.7945649815034077,0.3511639495844295,-0.49532850808332884,0.5890613932200867,-0.6436242703475604,0.4886250442583595,,0.047061571903414645,0.26669058401288304,-0.09623857345503034,-0.8917018240302902,0.3720044733221284,-0.25783818345888876,-0.4327266454866746,-0.8677006876027841,0.24462863082539194,-0.13272342410781723,0.32970924852357714,0.9347065336944612,,-0.011885468134115583,0.7813151674948209,1.1139371938741927,0.9988488698858944,-0.02572247012548613,-0.04048814219392547,0.0031358336654012074,-0.8072434309011702,0.5902103098168745,-0.04786545387745728,-0.5896578650349298,-0.8062335272906689,,0.15176409585881417,0.591740160185384,-0.45295953686845114,0.9613648048612033,-0.274847015389848,0.015389285411398106,-0.24208718769367787,-0.8175182164103367,0.5225492889592597,-0.13104009130318398,-0.5060860440365399,-0.8524701815915317,,0.0,0.0,0.045,1.0,0.0,0.0,0.0,1.0,0.0,0.0,0.0,1.0,,-0.004778288941558408,-0.15716988368721235,0.2612241015305524,False,,0.15709910464094143,0.49625183157460095,-0.4278910614652873,-0.14877903289316452,-0.6681272237920444,-0.7290204470378802,0.7844800150172822,0.369091736593689,-0.498359705450531,0.6020431092620028,-0.6460474462500342,0.46921934293457024
21:29:14.370133,,0.39100196542198695,-0.7632917490897279,0.05545269362000001,-2.5404408294553202,-0.7322782762807181,0.7813777023821759,,0.15715711430006046,0.4962988351851934,-0.42780004210925676,-0.1471292076449831,-0.680074597708342,-0.7182280456872425,0.794577797725234,0.35118143587222056,-0.4952955786830343,0.5890663013804098,-0.6435605087734032,0.48870313271703275,,0.0470626482584586,0.2666918504261228,-0.09623928825343546,-0.8917012802295817,0.372008849901004,-0.25783374959895644,-0.432729875789698,-0.8676980968802267,0.24463210596621507,-0.13271654544915515,0.3297111285136812,0.9347068472511996,,-0.011885468134115583,0.7813151674948209,1.1139371938741927,0.9988488698858944,-0.02572247012548613,-0.04048814219392547,0.0031358336654012074,-0.8072434309011702,0.5902103098168745,-0.04786545387745728,-0.5896578650349298,-0.8062335272906689,,0.15176409585881417,0.591740160185384,-0.45295953686845114,0.9613648048612033,-0.274847015389848,0.015389285411398106,-0.24208718769367787,-0.8175182164103367,0.5225492889592597,-0.13104009130318398,-0.5060860440365399,-0.8524701815915317,,0.0,0.0,0.045,1.0,0.0,0.0,0.0,1.0,0.0,0.0,0.0,1.0,,-0.004778288941558408,-0.15716988368721235,0.2612241015305524,False,,0.15710116134971439,0.49624920294634733,-0.42789641299891357,-0.14829293786140346,-0.6684760639606063,-0.7287996682848925,0.7844868901953838,0.36920233466311425,-0.49826695173459146,0.6021540697296746,-0.6456232554602113,0.4696606097140242
21:29:14.382500,,0.39100196542198695,-0.7634307582814639,0.0554552862,-2.540860182513996,-0.7322782762807181,0.7813777023821759,,0.15715513817764337,0.49629698116682625,-0.42780354668702936,-0.14708002448818647,-0.6800875536287221,-0.7182258566743501,0.7945848923600245,0.35120181066009226,-0.49526975722532324,0.5890690202595213,-0.6435357045169463,0.48873252580743465,,0.047061571903414645,0.26669058401288304,-0.09623857345503034,-0.8917018240302902,0.3720044733221284,-0.25783818345888876,-0.4327266454866746,-0.8677006876027841,0.24462863082539194,-0.13272342410781723,0.32970924852357714,0.9347065336944612,,-0.011885468134115583,0.7813151674948209,1.1139371938741927,0.9988488698858944,-0.02572247012548613,-0.04048814219392547,0.0031358336654012074,-0.8072434309011702,0.5902103098168745,-0.04786545387745728,-0.5896578650349298,-0.8062335272906689,,0.15176409585881417,0.591740160185384,-0.45295953686845114,0.9613648048612033,-0.274847015389848,0.015389285411398106,-0.24208718769367787,-0.8175182164103367,0.5225492889592597,-0.13104009130318398,-0.5060860440365399,-0.8524701815915317,,0.0,0.0,0.045,1.0,0.0,0.0,0.0,1.0,0.0,0.0,0.0,1.0,,-0.004778288941558408,-0.15716988368721235,0.2612241015305524,False,,0.15709980674996485,0.49624506865254536,-0.4279016748646618,-0.14811561518660804,-0.6685820776596303,-0.7287384784476701,0.7844678782848611,0.36928019766312553,-0.4982391830768953,0.6022224775588684,-0.6454689311238888,0.46978500026782816
21:29:14.393951,,0.3909942426891127,-0.7634848174115835,0.05545658249,-2.540860182513996,-0.7322782762807181,0.7813777023821759,,0.15715324307249745,0.49629519771859465,-0.42780700889326984,-0.14707406188155692,-0.6800682606555154,-0.7182453451131822,0.7945857511650162,0.35121866704343174,-0.4952564250687459,0.5890693498844591,-0.6435468929109434,0.48871739508378853,,0.0470626482584586,0.2666918504261228,-0.09623928825343546,-0.8917012802295817,0.372008849901004,-0.25783374959895644,-0.432729875789698,-0.8676980968802267,0.24463210596621507,-0.13271654544915515,0.3297111285136812,0.9347068472511996,,-0.011885468134115583,0.7813151674948209,1.1139371938741927,0.9988488698858944,-0.02572247012548613,-0.04048814219392547,0.0031358336654012074,-0.8072434309011702,0.5902103098168745,-0.04786545387745728,-0.5896578650349298,-0.8062335272906689,,0.15176409585881417,0.591740160185384,-0.45295953686845114,0.9613648048612033,-0.274847015389848,0.015389285411398106,-0.24208718769367787,-0.8175182164103367,0.5225492889592597,-0.13104009130318398,-0.5060860440365399,-0.8524701815915317,,0.0,0.0,0.045,1.0,0.0,0.0,0.0,1.0,0.0,0.0,0.0,1.0,,-0.004778288941558408,-0.15716988368721235,0.2612241015305524,False,,0.1570982850232661,0.4962434777198791,-0.42790741287424394,-0.14793828820607186,-0.6686880609991849,-0.728677253631406,0.7844488449566792,0.3693580561374148,-0.49821143705511517,0.6022908537648483,-0.6453145771199822,0.46990937852704046
21:29:14.405530,,0.39098651995623845,-0.7635234310759546,0.05545658249,-2.540860182513996,-0.7322782762807181,0.7813777023821759,,0.15715138042379256,0.4962934461112077,-0.4278103811963929,-0.147075820608002,-0.6800448711082867,-0.7182671319117131,0.7945854990093881,0.35123374693180515,-0.49524613708047033,0.5890692525241545,-0.6435633805682547,0.48869580255520445,,0.0470626482584586,0.2666918504261228,-0.09623928825343546,-0.8917012802295817,0.372008849901004,-0.25783374959895644,-0.432729875789698,-0.8676980968802267,0.24463210596621507,-0.13271654544915515,0.3297111285136812,0.9347068472511996,,-0.011885468134115583,0.7813151674948209,1.1139371938741927,0.9988488698858944,-0.02572247012548613,-0.04048814219392547,0.0031358336654012074,-0.8072434309011702,0.5902103098168745,-0.04786545387745728,-0.5896578650349298,-0.8062335272906689,,0.15176409585881417,0.591740160185384,-0.45295953686845114,0.9613648048612033,-0.274847015389848,0.015389285411398106,-0.24208718769367787,-0.8175182164103367,0.5225492889592597,-0.13104009130318398,-0.5060860440365399,-0.8524701815915317,,0.0,0.0,0.045,1.0,0.0,0.0,0.0,1.0,0.0,0.0,0.0,1.0,,-0.004778288941558408,-0.15716988368721235,0.2612241015305524,False,,0.15709550096264577,0.4962408978895974,-0.42791155029008465,-0.14792091206989338,-0.668672776250774,-0.7286948072228134,0.7844251381006202,0.3694066343112174,-0.49821274696928564,0.6023259968557175,-0.645302608725504,0.46988076858265365
21:29:14.416872,,0.39097879722336426,-0.7635620447403257,0.05545658249,-2.540860182513996,-0.7322782762807181,0.7813777023821759,,0.15714956543858938,0.4962917750708783,-0.4278136382808508,-0.14706990123795827,-0.6800300548000131,-0.7182823727470141,0.7945863529850059,0.3512474900914099,-0.4952350216160049,0.5890695799991518,-0.6435715372464108,0.4886846679060506,,0.047061571903414645,0.26669058401288304,-0.09623857345503034,-0.8917018240302902,0.3720044733221284,-0.25783818345888876,-0.4327266454866746,-0.8677006876027841,0.24462863082539194,-0.13272342410781723,0.32970924852357714,0.9347065336944612,,-0.011885468134115583,0.7813151674948209,1.1139371938741927,0.9988488698858944,-0.02572247012548613,-0.04048814219392547,0.0031358336654012074,-0.8072434309011702,0.5902103098168745,-0.04786545387745728,-0.5896578650349298,-0.8062335272906689,,0.15176409585881417,0.591740160185384,-0.45295953686845114,0.9613648048612033,-0.274847015389848,0.015389285411398106,-0.24208718769367787,-0.8175182164103367,0.5225492889592597,-0.13104009130318398,-0.5060860440365399,-0.8524701815915317,,0.0,0.0,0.045,1.0,0.0,0.0,0.0,1.0,0.0,0.0,0.0,1.0,,-0.004778288941558408,-0.15716988368721235,0.2612241015305524,False,,0.15709330089729104,0.4962399728206679,-0.42791460789904495,-0.14790871193366173,-0.6686602812119693,-0.7287087492706913,0.7844087337273336,0.36944168769317376,-0.4982125829871227,0.6023503560108571,-0.6452954886902198,0.4698593203179481
21:29:14.428968,,0.39097879722336426,-0.7635929356718226,0.055457878780000004,-2.540860182513996,-0.7322782762807181,0.7813777023821759,,0.1571477558586782,0.4962901155414702,-0.42781686328134577,-0.1470276461700893,-0.6800521171379356,-0.7182701339104824,0.7945924399211314,0.3512574550144081,-0.4952181849921024,0.5890719155686801,-0.6435427835838893,0.48871971518983487,,0.0470626482584586,0.2666918504261228,-0.09623928825343546,-0.8917012802295817,0.372008849901004,-0.25783374959895644,-0.432729875789698,-0.8676980968802267,0.24463210596621507,-0.13271654544915515,0.3297111285136812,0.9347068472511996,,-0.011885468134115583,0.7813151674948209,1.1139371938741927,0.9988488698858944,-0.02572247012548613,-0.04048814219392547,0.0031358336654012074,-0.8072434309011702,0.5902103098168745,-0.04786545387745728,-0.5896578650349298,-0.8062335272906689,,0.15176409585881417,0.591740160185384,-0.45295953686845114,0.9613648048612033,-0.274847015389848,0.015389285411398106,-0.24208718769367787,-0.8175182164103367,0.5225492889592597,-0.13104009130318398,-0.5060860440365399,-0.8524701815915317,,0.0,0.0,0.045,1.0,0.0,0.0,0.0,1.0,0.0,0.0,0.0,1.0,,-0.004778288941558408,-0.15716988368721235,0.2612241015305524,False,,0.1570898493015206,0.4962370106004107,-0.42792006329718435,-0.14788616375600216,-0.6686422028214095,-0.7287299137373642,0.7843777176502457,0.36950378737964584,-0.49821536223393303,0.6023962803863621,-0.6452786651658574,0.4698235473648005
21:29:14.440698,,0.39097107449049,-0.7636161038704453,0.055457878780000004,-2.540860182513996,-0.7322782762807181,0.7813777023821759,,0.1571460076487341,0.49628853769327075,-0.42781994975590576,-0.14698159069607547,-0.6800801405643231,-0.7182530258810251,0.7945990735705926,0.3512655745475522,-0.49520178028690565,0.5890744596890907,-0.64350873601574,0.4887614780178747,,0.047065363494147215,0.2666960452203217,-0.09624112524856258,-0.8917750665824007,0.37186563185069066,-0.2577851478852912,-0.43259671084156437,-0.8677190440061824,0.24479327286111635,-0.13265487699671968,0.329817544283629,0.9346780574570592,,-0.011885468134115583,0.7813151674948209,1.1139371938741927,0.9988488698858944,-0.02572247012548613,-0.04048814219392547,0.0031358336654012074,-0.8072434309011702,0.5902103098168745,-0.04786545387745728,-0.5896578650349298,-0.8062335272906689,,0.15176409585881417,0.591740160185384,-0.45295953686845114,0.9613648048612033,-0.274847015389848,0.015389285411398106,-0.24208718769367787,-0.8175182164103367,0.5225492889592597,-0.13104009130318398,-0.5060860440365399,-0.8524701815915317,,0.0,0.0,0.045,1.0,0.0,0.0,0.0,1.0,0.0,0.0,0.0,1.0,,-0.004778288941558408,-0.15716988368721235,0.2612241015305524,False,,0.1570883167205786,0.4962364687026895,-0.4279218034163863,-0.14787913984518342,-0.6686324974576493,-0.7287402440802865,0.7843686159036719,0.3695253160002609,-0.4982137244398893,0.6024098558157952,-0.6452763936317943,0.4698092606979336
21:29:14.452982,,0.39097107449049,-0.7636547175348164,0.055460471360000006,-2.540860182513996,-0.7324124177491703,0.7815145669224377,,0.15714431186596667,0.49628703036199795,-0.4278228780907707,-0.14694574456506276,-0.6801156131152541,-0.7182267729190644,0.7946042373723647,0.35126247574222375,-0.49519569411696046,0.5890764385805579,-0.6434729382957435,0.48880622293188997,,0.04706643981901649,0.2666973116331771,-0.09624184009262449,-0.8917745227867183,0.37187000908095824,-0.2577807146678141,-0.4325999410499253,-0.8677164532022528,0.24479674802926604,-0.13264799852286535,0.32981942512264323,0.9346783699752804,,-0.011885468134115583,0.7813151674948209,1.1139371938741927,0.9988488698858944,-0.02572247012548613,-0.04048814219392547,0.0031358336654012074,-0.8072434309011702,0.5902103098168745,-0.04786545387745728,-0.5896578650349298,-0.8062335272906689,,0.15176409585881417,0.591740160185384,-0.45295953686845114,0.9613648048612033,-0.274847015389848,0.015389285411398106,-0.24208718769367787,-0.8175182164103367,0.5225492889592597,-0.13104009130318398,-0.5060860440365399,-0.8524701815915317,,0.0,0.0,0.045,1.0,0.0,0.0,0.0,1.0,0.0,0.0,0.0,1.0,,-0.004778288941558408,-0.15716988368721235,0.2612241015305524,False,,0.15708665525187335,0.49623578109872174,-0.42792244147617964,-0.14786587840392862,-0.668559277542354,-0.7288101086125797,0.7844418641015168,0.3695066061247906,-0.4981122663366926,0.6023177266599181,-0.6453629679817277,0.46980846704699086
21:29:14.466206,,0.39097107449049,-0.7636701630005649,0.05546176765000001,-2.540860182513996,-0.7324124177491703,0.7815145669224377,,0.15714270882736875,0.49628555991853573,-0.4278256803120422,-0.14690433466157965,-0.6801461794518571,-0.7182062990514807,0.7946102003527098,0.3512660747194027,-0.4951835732424831,0.5890787238694072,-0.6434386655236141,0.4888485836699597,,0.0470658923295715,0.26670280593848994,-0.09624168379466166,-0.8918442831415736,0.37172512111615785,-0.25774834424079307,-0.4324710750218952,-0.8677344973717158,0.24496042811128071,-0.13259918512984492,0.32993526092588743,0.9346444135074407,,-0.011885468134115583,0.7813151674948209,1.1139371938741927,0.9988488698858944,-0.02572247012548613,-0.04048814219392547,0.0031358336654012074,-0.8072434309011702,0.5902103098168745,-0.04786545387745728,-0.5896578650349298,-0.8062335272906689,,0.15176409585881417,0.591740160185384,-0.45295953686845114,0.9613648048612033,-0.274847015389848,0.015389285411398106,-0.24208718769367787,-0.8175182164103367,0.5225492889592597,-0.13104009130318398,-0.5060860440365399,-0.8524701815915317,,0.0,0.0,0.045,1.0,0.0,0.0,0.0,1.0,0.0,0.0,0.0,1.0,,-0.004778288941558408,-0.15716988368721235,0.2612241015305524,False,,0.1570866024764413,0.4962340943973602,-0.4279237580565445,-0.14785996700820658,-0.6685118015235803,-0.7288548561819629,0.7844327029997717,0.3695531970290042,-0.49809212905858524,0.6023311087938298,-0.6453854706989767,0.46976039593590313
21:29:14.479706,,0.39097107449049,-0.7636856084663133,0.05546176765000001,-2.540860182513996,-0.7324124177491703,0.7815145669224377,,0.1571411586108677,0.49628411390203747,-0.4278283958722645,-0.14686135953306978,-0.6801741613856254,-0.7181885888654171,0.7946163874610137,0.3512723884454784,-0.49516916686245377,0.5890810943932474,-0.6434056397143327,0.488889194940207,,0.047064816020038425,0.26670153952654024,-0.09624096892872369,-0.891844826826547,0.37172074319383797,-0.2577527767884324,-0.4324678448290469,-0.8677370882733514,0.2449569530015544,-0.13260606340452952,0.3299333792060256,0.9346441019094097,,-0.011885468134115583,0.7813151674948209,1.1139371938741927,0.9988488698858944,-0.02572247012548613,-0.04048814219392547,0.0031358336654012074,-0.8072434309011702,0.5902103098168745,-0.04786545387745728,-0.5896578650349298,-0.8062335272906689,,0.15176409585881417,0.591740160185384,-0.45295953686845114,0.9613648048612033,-0.274847015389848,0.015389285411398106,-0.24208718769367787,-0.8175182164103367,0.5225492889592597,-0.13104009130318398,-0.5060860440365399,-0.8524701815915317,,0.0,0.0,0.045,1.0,0.0,0.0,0.0,1.0,0.0,0.0,0.0,1.0,,-0.004778288941558408,-0.15716988368721235,0.2612241015305524,False,,0.15708535081683053,0.49623205730809755,-0.4279261560402675,-0.14784961779840006,-0.6685062177392799,-0.7288620770494169,0.7844180930643464,0.36958024465432626,-0.49809506927347025,0.602352675589776,-0.6453757662053723,0.46974607460272316
21:29:14.491804,,0.39097879722336426,-0.763708776664936,0.05546176765000001,-2.541069859043333,-0.7324124177491703,0.7815145669224377,,0.15713971662087187,0.4962827315272964,-0.42783102172476706,-0.14683699340348805,-0.6801817709615474,-0.7181863645157921,0.7946198948414331,0.3512816600948868,-0.4951569613362449,0.5890824377343015,-0.6433925334421955,0.48890482491014503,,0.04706479854611684,0.26670408898023956,-0.09624104416182247,-0.8918420097931707,0.3717264750465239,-0.25775425761287357,-0.4324748489285589,-0.8677317697467276,0.24496342750792774,-0.1326021666953361,0.32994090913631435,0.9346419966307978,,-0.011885468134115583,0.7813151674948209,1.1139371938741927,0.9988488698858944,-0.02572247012548613,-0.04048814219392547,0.0031358336654012074,-0.8072434309011702,0.5902103098168745,-0.04786545387745728,-0.5896578650349298,-0.8062335272906689,,0.15176409585881417,0.591740160185384,-0.45295953686845114,0.9613648048612033,-0.274847015389848,0.015389285411398106,-0.24208718769367787,-0.8175182164103367,0.5225492889592597,-0.13104009130318398,-0.5060860440365399,-0.8524701815915317,,0.0,0.0,0.045,1.0,0.0,0.0,0.0,1.0,0.0,0.0,0.0,1.0,,-0.004778288941558408,-0.15716988368721235,0.2612241015305524,False,,0.1570863629910265,0.49623158366187736,-0.42792817826736074,-0.14768709317104772,-0.6686260858798974,-0.7287850710542955,0.784419070364988,0.36961626533197095,-0.4980668011921435,0.6023912719806076,-0.6452309460053619,0.46989550089207227
21:29:14.503597,,0.39097879722336426,-0.7637242221306845,0.05546306394000001,-2.541069859043333,-0.7324124177491703,0.7815145669224377,,0.15713835071522064,0.4962813874374562,-0.4278335068307471,-0.14681606428175964,-0.6801845090368914,-0.718188050028118,0.7946229068884092,0.3512922422271336,-0.4951446199519702,0.5890835911695066,-0.6433838609146247,0.48891484779822536,,0.04706262844556954,0.2667041056094364,-0.09623968967476271,-0.8918402800894499,0.3717234509681174,-0.25776460348605884,-0.4324753926330939,-0.8677316330539178,0.244962951820132,-0.13261202651653725,0.329944675662352,0.9346392680736471,,-0.011885468134115583,0.7813151674948209,1.1139371938741927,0.9988488698858944,-0.02572247012548613,-0.04048814219392547,0.0031358336654012074,-0.8072434309011702,0.5902103098168745,-0.04786545387745728,-0.5896578650349298,-0.8062335272906689,,0.15176409585881417,0.591740160185384,-0.45295953686845114,0.9613648048612033,-0.274847015389848,0.015389285411398106,-0.24208718769367787,-0.8175182164103367,0.5225492889592597,-0.13104009130318398,-0.5060860440365399,-0.8524701815915317,,0.0,0.0,0.045,1.0,0.0,0.0,0.0,1.0,0.0,0.0,0.0,1.0,,-0.004778288941558408,-0.15716988368721235,0.2612241015305524,False,,0.1570864463004737,0.49623031202352896,-0.42792794085798624,-0.14768709317104772,-0.6686260858798974,-0.7287850710542955,0.784419070364988,0.36961626533197095,-0.4980668011921435,0.6023912719806076,-0.6452309460053619,0.46989550089207227
21:29:14.516512,,0.39097879722336426,-0.7637396675964329,0.05546306394000001,-2.541069859043333,-0.7324124177491703,0.7815145669224377,,0.15713703641690144,0.49628010098509845,-0.4278359006253587,-0.14678319599174894,-0.6801832834727818,-0.7181959297306522,0.7946276365051733,0.35131267093637686,-0.4951225361108035,0.5890854028913741,-0.6433740026973246,0.4889256384938031,,0.04706370475459255,0.2667053720207332,-0.09624040454026311,-0.891839736415112,0.3717278289366561,-0.2577601709827646,-0.4324786228395573,-0.8677290420931136,0.2449664268730879,-0.1326051482327284,0.3299465573425613,0.9346395797097234,,-0.011885468134115583,0.7813151674948209,1.1139371938741927,0.9988488698858944,-0.02572247012548613,-0.04048814219392547,0.0031358336654012074,-0.8072434309011702,0.5902103098168745,-0.04786545387745728,-0.5896578650349298,-0.8062335272906689,,0.15176409585881417,0.591740160185384,-0.45295953686845114,0.9613648048612033,-0.274847015389848,0.015389285411398106,-0.24208718769367787,-0.8175182164103367,0.5225492889592597,-0.13104009130318398,-0.5060860440365399,-0.8524701815915317,,0.0,0.0,0.045,1.0,0.0,0.0,0.0,1.0,0.0,0.0,0.0,1.0,,-0.004778288941558408,-0.15716988368721235,0.2612241015305524,False,,0.1570857787824531,0.49622992934314736,-0.42792925861521197,-0.14768191854535978,-0.6686232936695273,-0.7287886813729166,0.7844117635055734,0.36962978787153955,-0.49806827362533035,0.602402055282714,-0.6452260929941951,0.4698883406838356
21:29:14.529608,,0.39097879722336426,-0.7637628357950556,0.05546436023,-2.541069859043333,-0.7324124177491703,0.7815145669224377,,0.15713574755933146,0.49627882293888004,-0.427838252212168,-0.146758179236822,-0.680183896462295,-0.7182004614267316,0.7946312351762681,0.35132715321222596,-0.49510648397202295,0.5890867812830626,-0.6433654462141019,0.488935236722,,0.04706370475459255,0.2667053720207332,-0.09624040454026311,-0.891839736415112,0.3717278289366561,-0.2577601709827646,-0.4324786228395573,-0.8677290420931136,0.2449664268730879,-0.1326051482327284,0.3299465573425613,0.9346395797097234,,-0.011885468134115583,0.7813151674948209,1.1139371938741927,0.9988488698858944,-0.02572247012548613,-0.04048814219392547,0.0031358336654012074,-0.8072434309011702,0.5902103098168745,-0.04786545387745728,-0.5896578650349298,-0.8062335272906689,,0.15176409585881417,0.591740160185384,-0.45295953686845114,0.9613648048612033,-0.274847015389848,0.015389285411398106,-0.24208718769367787,-0.8175182164103367,0.5225492889592597,-0.13104009130318398,-0.5060860440365399,-0.8524701815915317,,0.0,0.0,0.045,1.0,0.0,0.0,0.0,1.0,0.0,0.0,0.0,1.0,,-0.004778288941558408,-0.15716988368721235,0.2612241015305524,False,,0.15708419325653222,0.49622770109014225,-0.42793231568454054,-0.14766898221934832,-0.6686163127441137,-0.7287977072019144,0.7843934955491579,0.36966359384289055,-0.49807195416659605,0.602429013104843,-0.6452139596441044,0.4698704400682181
21:29:14.541506,,0.39097879722336426,-0.7637705585279297,0.05546436023,-2.541069859043333,-0.7324124177491703,0.7815145669224377,,0.15713451212910043,0.4962776011971231,-0.42784050750666236,-0.14673903138453265,-0.6801815021235899,-0.7182066414354993,0.7946339892240751,0.35134021186507475,-0.4950927970201855,0.5890878362375134,-0.6433608463843095,0.48894001830644146,,0.04706370475459255,0.2667053720207332,-0.09624040454026311,-0.891839736415112,0.3717278289366561,-0.2577601709827646,-0.4324786228395573,-0.8677290420931136,0.2449664268730879,-0.1326051482327284,0.3299465573425613,0.9346395797097234,,-0.011885468134115583,0.7813151674948209,1.1139371938741927,0.9988488698858944,-0.02572247012548613,-0.04048814219392547,0.0031358336654012074,-0.8072434309011702,0.5902103098168745,-0.04786545387745728,-0.5896578650349298,-0.8062335272906689,,0.15176409585881417,0.591740160185384,-0.45295953686845114,0.9613648048612033,-0.274847015389848,0.015389285411398106,-0.24208718769367787,-0.8175182164103367,0.5225492889592597,-0.13104009130318398,-0.5060860440365399,-0.8524701815915317,,0.0,0.0,0.045,1.0,0.0,0.0,0.0,1.0,0.0,0.0,0.0,1.0,,-0.004778288941558408,-0.15716988368721235,0.2612241015305524,False,,0.15708385948962822,0.49622750978508845,-0.4279329745809294,-0.14766639499498296,-0.6686149164905477,-0.7287995123732754,0.7843898418193824,0.36967035497243206,-0.4980726901819861,0.6024344045950151,-0.6452115328331434,0.46986685992880545
21:29:14.553755,,0.39097879722336426,-0.7638091721923009,0.05546565652,-2.541069859043333,-0.7325465592176226,0.7815825498186493,,0.1571333251673779,0.4962763926097072,-0.42784270385144757,-0.1467181863922638,-0.6801925375294477,-0.7182004488662648,0.7946369872548287,0.35134502360605935,-0.49508457050741883,0.5890889842366964,-0.6433465515235136,0.48895744433894134,,0.0470658923295715,0.26670280593848994,-0.09624168379466166,-0.8918442831415736,0.37172512111615785,-0.25774834424079307,-0.4324710750218952,-0.8677344973717158,0.24496042811128071,-0.13259918512984492,0.32993526092588743,0.9346444135074407,,-0.011885468134115583,0.7813151674948209,1.1139371938741927,0.9988488698858944,-0.02572247012548613,-0.04048814219392547,0.0031358336654012074,-0.8072434309011702,0.5902103098168745,-0.04786545387745728,-0.5896578650349298,-0.8062335272906689,,0.15176409585881417,0.591740160185384,-0.45295953686845114,0.9613648048612033,-0.274847015389848,0.015389285411398106,-0.24208718769367787,-0.8175182164103367,0.5225492889592597,-0.13104009130318398,-0.5060860440365399,-0.8524701815915317,,0.0,0.0,0.045,1.0,0.0,0.0,0.0,1.0,0.0,0.0,0.0,1.0,,-0.004778288941558408,-0.15716988368721235,0.2612241015305524,False,,0.1570834727750324,0.49622563193823876,-0.42793495033242906,-0.14765789560947962,-0.6686162459326194,-0.7288000147771342,0.7843770244700742,0.3696893944756253,-0.4980787438706036,0.6024531760623831,-0.645199246192381,0.46985966347956565
21:29:14.566607,,0.39097879722336426,-0.7638323403909236,0.055466952810000004,-2.541069859043333,-0.7325465592176226,0.7815136681745991,,0.15713216009481148,0.49627525658585775,-0.42784480528989416,-0.1467163581921893,-0.6802108704309118,-0.7181834590042895,0.7946372504092196,0.35133347444707613,-0.49509234370564076,0.5890890843512717,-0.6433334751755815,0.48897452818895704,,0.047064816020038425,0.26670153952654024,-0.09624096892872369,-0.891844826826547,0.37172074319383797,-0.2577527767884324,-0.4324678448290469,-0.8677370882733514,0.2449569530015544,-0.13260606340452952,0.3299333792060256,0.9346441019094097,,-0.011885468134115583,0.7813151674948209,1.1139371938741927,0.9988488698858944,-0.02572247012548613,-0.04048814219392547,0.0031358336654012074,-0.8072434309011702,0.5902103098168745,-0.04786545387745728,-0.5896578650349298,-0.8062335272906689,,0.15176409585881417,0.591740160185384,-0.45295953686845114,0.9613648048612033,-0.274847015389848,0.015389285411398106,-0.24208718769367787,-0.8175182164103367,0.5225492889592597,-0.13104009130318398,-0.5060860440365399,-0.8524701815915317,,0.0,0.0,0.045,1.0,0.0,0.0,0.0,1.0,0.0,0.0,0.0,1.0,,-0.004778288941558408,-0.15716988368721235,0.2612241015305524,False,,0.15708206197445468,0.49622640756033115,-0.42793516714309787,-0.14764723237446015,-0.6685444354300334,-0.7288680488453997,0.7844539231474057,0.3696639014397839,-0.49797654807326175,0.6023556567600291,-0.6452882594839732,0.46986245321512793
21:29:14.577949,,0.39097107449049,-0.7638555085895462,0.055468249100000006,-2.541069859043333,-0.7325465592176226,0.7815136681745991,,0.15713102640157214,0.49627413004115495,-0.42784685198557215,-0.14671057747167104,-0.6802252833399041,-0.718170989020045,0.7946380819990326,0.3513269826585126,-0.4950956160176714,0.5890894025542992,-0.6433217812791403,0.48898953019160496,,0.0470658923295715,0.26670280593848994,-0.09624168379466166,-0.8918442831415736,0.37172512111615785,-0.25774834424079307,-0.4324710750218952,-0.8677344973717158,0.24496042811128071,-0.13259918512984492,0.32993526092588743,0.9346444135074407,,-0.011885468134115583,0.7813151674948209,1.1139371938741927,0.9988488698858944,-0.02572247012548613,-0.04048814219392547,0.0031358336654012074,-0.8072434309011702,0.5902103098168745,-0.04786545387745728,-0.5896578650349298,-0.8062335272906689,,0.15176409585881417,0.591740160185384,-0.45295953686845114,0.9613648048612033,-0.274847015389848,0.015389285411398106,-0.24208718769367787,-0.8175182164103367,0.5225492889592597,-0.13104009130318398,-0.5060860440365399,-0.8524701815915317,,0.0,0.0,0.045,1.0,0.0,0.0,0.0,1.0,0.0,0.0,0.0,1.0,,-0.004778288941558408,-0.15716988368721235,0.2612241015305524,False,,0.15708114389904212,0.49622456207423077,-0.42793690659540123,-0.1476394700758279,-0.6685904509716367,-0.7288274114941562,0.7844429631153387,0.3696498830886353,-0.49800421840721965,0.6023718324212679,-0.6452486131733269,0.4698961616180135
21:29:14.589736,,0.3909633517576158,-0.7638863995210432,0.055468249100000006,-2.541069859043333,-0.7325465592176226,0.7815136681745991,,0.15712986991567524,0.49627299713364614,-0.427848894532826,-0.14670333069164232,-0.6802434435927187,-0.7181552679285774,0.7946391237104371,0.3513187808160624,-0.4950997636386959,0.589089801705271,-0.6433070575825387,0.4890084189784559,,0.0470658923295715,0.26670280593848994,-0.09624168379466166,-0.8918442831415736,0.37172512111615785,-0.25774834424079307,-0.4324710750218952,-0.8677344973717158,0.24496042811128071,-0.13259918512984492,0.32993526092588743,0.9346444135074407,,-0.011885468134115583,0.7813151674948209,1.1139371938741927,0.9988488698858944,-0.02572247012548613,-0.04048814219392547,0.0031358336654012074,-0.8072434309011702,0.5902103098168745,-0.04786545387745728,-0.5896578650349298,-0.8062335272906689,,0.15176409585881417,0.591740160185384,-0.45295953686845114,0.9613648048612033,-0.274847015389848,0.015389285411398106,-0.24208718769367787,-0.8175182164103367,0.5225492889592597,-0.13104009130318398,-0.5060860440365399,-0.8524701815915317,,0.0,0.0,0.045,1.0,0.0,0.0,0.0,1.0,0.0,0.0,0.0,1.0,,-0.004778288941558408,-0.15716988368721235,0.2612241015305524,False,,0.1570778280503139,0.4962220162957512,-0.42794080915924937,-0.14762283322055664,-0.6685696398158135,-0.7288498719410528,0.7844210993840236,0.369699698658968,-0.49800167836326414,0.6024043807552328,-0.6452416365424829,0.4698640149222782
21:29:14.601707,,0.3909633517576158,-0.7639095677196658,0.055468249100000006,-2.5412795355726714,-0.7325465592176226,0.7815136681745991,,0.15712877287633603,0.4962719030485182,-0.42785088816978073,-0.1467045039287056,-0.6802520095755891,-0.7181469146526374,0.7946389550977002,0.35131217651898455,-0.4951047209433843,0.5890897373049075,-0.6433016066570671,0.48901566774917193,,0.047066968631428174,0.2667040723503735,-0.09624239867227394,-0.8918437394091423,0.3717294990412167,-0.2577439117016811,-0.4324743051819738,-0.8677319064486474,0.2449639032354867,-0.132592306843523,0.3299371426098643,0.9346447250652791,,-0.011885468134115583,0.7813151674948209,1.1139371938741927,0.9988488698858944,-0.02572247012548613,-0.04048814219392547,0.0031358336654012074,-0.8072434309011702,0.5902103098168745,-0.04786545387745728,-0.5896578650349298,-0.8062335272906689,,0.15176409585881417,0.591740160185384,-0.45295953686845114,0.9613648048612033,-0.274847015389848,0.015389285411398106,-0.24208718769367787,-0.8175182164103367,0.5225492889592597,-0.13104009130318398,-0.5060860440365399,-0.8524701815915317,,0.0,0.0,0.045,1.0,0.0,0.0,0.0,1.0,0.0,0.0,0.0,1.0,,-0.004778288941558408,-0.15716988368721235,0.2612241015305524,False,,0.15707830906673245,0.4962215751326347,-0.4279425954696987,-0.14746105891002875,-0.6686839750005339,-0.7287777285857593,0.7844239038578723,0.3697369535034889,-0.4979696017532942,0.6024403498783166,-0.6451017956814602,0.4700098914353262
21:29:14.614179,,0.39097879722336426,-0.7639636268497854,0.05546954539000001,-2.5414892121020087,-0.7325465592176226,0.7815136681745991,,0.15712771348695903,0.49627081543303325,-0.4278528399055623,-0.1466986910255757,-0.6802592725117055,-0.7181412223959698,0.7946397909971329,0.35131063284576974,-0.49510447473708763,0.5890900573822015,-0.6432947695283242,0.48902427637294715,,0.0470658923295715,0.26670280593848994,-0.09624168379466166,-0.8918442831415736,0.37172512111615785,-0.25774834424079307,-0.4324710750218952,-0.8677344973717158,0.24496042811128071,-0.13259918512984492,0.32993526092588743,0.9346444135074407,,-0.011885468134115583,0.7813151674948209,1.1139371938741927,0.9988488698858944,-0.02572247012548613,-0.04048814219392547,0.0031358336654012074,-0.8072434309011702,0.5902103098168745,-0.04786545387745728,-0.5896578650349298,-0.8062335272906689,,0.15176409585881417,0.591740160185384,-0.45295953686845114,0.9613648048612033,-0.274847015389848,0.015389285411398106,-0.24208718769367787,-0.8175182164103367,0.5225492889592597,-0.13104009130318398,-0.5060860440365399,-0.8524701815915317,,0.0,0.0,0.045,1.0,0.0,0.0,0.0,1.0,0.0,0.0,0.0,1.0,,-0.004778288941558408,-0.15716988368721235,0.2612241015305524,False,,0.1570779221862408,0.4962196975052385,-0.4279445714872961,-0.14745255960277703,-0.6686853033493981,-0.7287782294711561,0.784411084938449,0.3697559908475021,-0.49797565910199626,0.6024591210134304,-0.6450895072134607,0.47000269700377206
21:29:14.626800,,0.39097879722336426,-0.7639945177812822,0.05546954539000001,-2.5414892121020087,-0.7325465592176226,0.7815136681745991,,0.15712671118528532,0.4962697586455204,-0.42785476671272854,-0.146683558097793,-0.6802526422911093,-0.7181505940568108,0.7946419670960256,0.35132422042560413,-0.49509134063980054,0.5890908904557469,-0.643294360384669,0.48902381126459404,,0.047066968631428174,0.2667040723503735,-0.09624239867227394,-0.8918437394091423,0.3717294990412167,-0.2577439117016811,-0.4324743051819738,-0.8677319064486474,0.2449639032354867,-0.132592306843523,0.3299371426098643,0.9346447250652791,,-0.011885468134115583,0.7813151674948209,1.1139371938741927,0.9988488698858944,-0.02572247012548613,-0.04048814219392547,0.0031358336654012074,-0.8072434309011702,0.5902103098168745,-0.04786545387745728,-0.5896578650349298,-0.8062335272906689,,0.15176409585881417,0.591740160185384,-0.45295953686845114,0.9613648048612033,-0.274847015389848,0.015389285411398106,-0.24208718769367787,-0.8175182164103367,0.5225492889592597,-0.13104009130318398,-0.5060860440365399,-0.8524701815915317,,0.0,0.0,0.045,1.0,0.0,0.0,0.0,1.0,0.0,0.0,0.0,1.0,,-0.004778288941558408,-0.15716988368721235,0.2612241015305524,False,,0.1570786007049473,0.49621903284490454,-0.42794725345671286,-0.147287455119111,-0.6688037296547837,-0.7287029413721254,0.7844083674413733,0.36979876120442523,-0.497948179331577,0.6025030445172005,-0.6449422047063782,0.47014852327321066
21:29:14.638083,,0.39098651995623845,-0.7640176859799049,0.05546954539000001,-2.5414892121020087,-0.7325465592176226,0.7815136681745991,,0.15712572227210114,0.4962687288355861,-0.427856669164362,-0.14667147631190225,-0.6802525934354718,-0.7181531080340218,0.7946437043119295,0.35133145257091797,-0.49508342029394115,0.5890915554071587,-0.6432904623704965,0.4890281380342557,,0.0470658923295715,0.26670280593848994,-0.09624168379466166,-0.8918442831415736,0.37172512111615785,-0.25774834424079307,-0.4324710750218952,-0.8677344973717158,0.24496042811128071,-0.13259918512984492,0.32993526092588743,0.9346444135074407,,-0.011885468134115583,0.7813151674948209,1.1139371938741927,0.9988488698858944,-0.02572247012548613,-0.04048814219392547,0.0031358336654012074,-0.8072434309011702,0.5902103098168745,-0.04786545387745728,-0.5896578650349298,-0.8062335272906689,,0.15176409585881417,0.591740160185384,-0.45295953686845114,0.9613648048612033,-0.274847015389848,0.015389285411398106,-0.24208718769367787,-0.8175182164103367,0.5225492889592597,-0.13104009130318398,-0.5060860440365399,-0.8524701815915317,,0.0,0.0,0.045,1.0,0.0,0.0,0.0,1.0,0.0,0.0,0.0,1.0,,-0.004778288941558408,-0.15716988368721235,0.2612241015305524,False,,0.15707726552607712,0.49621826814880393,-0.42794988929440014,-0.14727710615486006,-0.668798142848193,-0.7287101605751483,0.7843937449423418,0.3698258006648383,-0.4979511321986725,0.6025246110309341,-0.6449324935878324,0.47013420617585583
21:29:14.650039,,0.3909942426891127,-0.7640408541785276,0.05547084168000001,-2.5414892121020087,-0.7325465592176226,0.7815136681745991,,0.15712475533254697,0.49626769072048194,-0.42785857915610476,-0.14665763897790024,-0.6802486302610594,-0.7181596877376272,0.7946456935401903,0.35134242888671846,-0.49507243766547626,0.5890923168752785,-0.6432886582444615,0.48902959369202065,,0.0470658923295715,0.26670280593848994,-0.09624168379466166,-0.8918442831415736,0.37172512111615785,-0.25774834424079307,-0.4324710750218952,-0.8677344973717158,0.24496042811128071,-0.13259918512984492,0.32993526092588743,0.9346444135074407,,-0.011885468134115583,0.7813151674948209,1.1139371938741927,0.9988488698858944,-0.02572247012548613,-0.04048814219392547,0.0031358336654012074,-0.8072434309011702,0.5902103098168745,-0.04786545387745728,-0.5896578650349298,-0.8062335272906689,,0.15176409585881417,0.591740160185384,-0.45295953686845114,0.9613648048612033,-0.274847015389848,0.015389285411398106,-0.24208718769367787,-0.8175182164103367,0.5225492889592597,-0.13104009130318398,-0.5060860440365399,-0.8524701815915317,,0.0,0.0,0.045,1.0,0.0,0.0,0.0,1.0,0.0,0.0,0.0,1.0,,-0.004778288941558408,-0.15716988368721235,0.2612241015305524,False,,0.157076408354837,0.49621578496527324,-0.427954078743246,-0.14726010610677148,-0.6688007963548126,-0.7287111608481038,0.7843681006923713,0.36986386904872753,-0.49796325264877517,0.6025621492972029,-0.6449079106100919,0.4701198177771931
21:29:14.661535,,0.3909942426891127,-0.7640717451100245,0.05547084168000001,-2.5414892121020087,-0.7325465592176226,0.7815136681745991,,0.15712379990518333,0.4962666778314408,-0.4278604663772907,-0.1466306961619671,-0.6802578405378409,-0.718156464700518,0.7946495661724603,0.35135213190212605,-0.4950593346772159,0.5890937993106645,-0.6432736184983188,0.48904759054625957,,0.0470658923295715,0.26670280593848994,-0.09624168379466166,-0.8918442831415736,0.37172512111615785,-0.25774834424079307,-0.4324710750218952,-0.8677344973717158,0.24496042811128071,-0.13259918512984492,0.32993526092588743,0.9346444135074407,,-0.011885468134115583,0.7813151674948209,1.1139371938741927,0.9988488698858944,-0.02572247012548613,-0.04048814219392547,0.0031358336654012074,-0.8072434309011702,0.5902103098168745,-0.04786545387745728,-0.5896578650349298,-0.8062335272906689,,0.15176409585881417,0.591740160185384,-0.45295953686845114,0.9613648048612033,-0.274847015389848,0.015389285411398106,-0.24208718769367787,-0.8175182164103367,0.5225492889592597,-0.13104009130318398,-0.5060860440365399,-0.8524701815915317,,0.0,0.0,0.045,1.0,0.0,0.0,0.0,1.0,0.0,0.0,0.0,1.0,,-0.004778288941558408,-0.15716988368721235,0.2612241015305524,False,,0.15707507310963903,0.4962150204903426,-0.42795671465777296,-0.14724975730069884,-0.6687952087240332,-0.7287183802832627,0.7843534763361435,0.3698909076480861,-0.49796620427362503,0.6025837146275129,-0.6448981975684625,0.47010550054073624
21:29:14.672815,,0.39098651995623845,-0.7640949133086472,0.05547213797000001,-2.5414892121020087,-0.7325465592176226,0.7815136681745991,,0.15712285318135716,0.4962656689620162,-0.4278623107533658,-0.14660429925864815,-0.6802682737047081,-0.718151970528418,0.7946533595686345,0.3513606666025636,-0.49504718728121,0.5890952513043336,-0.6432579228424405,0.48906648539361763,,0.0470658923295715,0.26670280593848994,-0.09624168379466166,-0.8918442831415736,0.37172512111615785,-0.25774834424079307,-0.4324710750218952,-0.8677344973717158,0.24496042811128071,-0.13259918512984492,0.32993526092588743,0.9346444135074407,,-0.011885468134115583,0.7813151674948209,1.1139371938741927,0.9988488698858944,-0.02572247012548613,-0.04048814219392547,0.0031358336654012074,-0.8072434309011702,0.5902103098168745,-0.04786545387745728,-0.5896578650349298,-0.8062335272906689,,0.15176409585881417,0.591740160185384,-0.45295953686845114,0.9613648048612033,-0.274847015389848,0.015389285411398106,-0.24208718769367787,-0.8175182164103367,0.5225492889592597,-0.13104009130318398,-0.5060860440365399,-0.8524701815915317,,0.0,0.0,0.045,1.0,0.0,0.0,0.0,1.0,0.0,0.0,0.0,1.0,,-0.004778288941558408,-0.15716988368721235,0.2612241015305524,False,,0.15707362354239643,0.4962132077519368,-0.42795821830927144,-0.14724273469442012,-0.6687855005013338,-0.7287287090535743,0.7843443621531546,0.36991243146443287,-0.49796457163801544,0.6025972939188073,-0.6448959197942346,0.4700912188017116
21:29:14.684507,,0.39097879722336426,-0.7641412497058926,0.05547343426,-2.5414892121020087,-0.7326807006860748,0.7815127694267603,,0.1571219229760556,0.4962646868423658,-0.42786412343022145,-0.1465686557576137,-0.6802857712856119,-0.7181426715493511,0.7946584822288811,0.35136984062570137,-0.49503245336508306,0.5890972109383901,-0.6432344072337101,0.48909505372636974,,0.0470658923295715,0.26670280593848994,-0.09624168379466166,-0.8918442831415736,0.37172512111615785,-0.25774834424079307,-0.4324710750218952,-0.8677344973717158,0.24496042811128071,-0.13259918512984492,0.32993526092588743,0.9346444135074407,,-0.011885468134115583,0.7813151674948209,1.1139371938741927,0.9988488698858944,-0.02572247012548613,-0.04048814219392547,0.0031358336654012074,-0.8072434309011702,0.5902103098168745,-0.04786545387745728,-0.5896578650349298,-0.8062335272906689,,0.15176409585881417,0.591740160185384,-0.45295953686845114,0.9613648048612033,-0.274847015389848,0.015389285411398106,-0.24208718769367787,-0.8175182164103367,0.5225492889592597,-0.13104009130318398,-0.5060860440365399,-0.8524701815915317,,0.0,0.0,0.045,1.0,0.0,0.0,0.0,1.0,0.0,0.0,0.0,1.0,,-0.004778288941558408,-0.15716988368721235,0.2612241015305524,False,,0.15707262209507095,0.49621263450089487,-0.4279601953035717,-0.14723497350046127,-0.6688315041178395,-0.7286880551222087,0.784333392989825,0.36989840834361903,-0.49799226514668515,0.6026134675058196,-0.6448562526674654,0.4701249006128975
21:29:14.696325,,0.39097879722336426,-0.7641721406373895,0.05547343426,-2.5414892121020087,-0.7326807006860748,0.7815127694267603,,0.1571209963979634,0.49626372794814866,-0.42786588180763924,-0.14654696525636657,-0.6803047076353598,-0.7181291603035023,0.794661599466837,0.3513697101386214,-0.49502754293554824,0.5890984030209674,-0.6432144515643017,0.4891198626020794,,0.0470658923295715,0.26670280593848994,-0.09624168379466166,-0.8918442831415736,0.37172512111615785,-0.25774834424079307,-0.4324710750218952,-0.8677344973717158,0.24496042811128071,-0.13259918512984492,0.32993526092588743,0.9346444135074407,,-0.011885468134115583,0.7813151674948209,1.1139371938741927,0.9988488698858944,-0.02572247012548613,-0.04048814219392547,0.0031358336654012074,-0.8072434309011702,0.5902103098168745,-0.04786545387745728,-0.5896578650349298,-0.8062335272906689,,0.15176409585881417,0.591740160185384,-0.45295953686845114,0.9613648048612033,-0.274847015389848,0.015389285411398106,-0.24208718769367787,-0.8175182164103367,0.5225492889592597,-0.13104009130318398,-0.5060860440365399,-0.8524701815915317,,0.0,0.0,0.045,1.0,0.0,0.0,0.0,1.0,0.0,0.0,0.0,1.0,,-0.004778288941558408,-0.15716988368721235,0.2612241015305524,False,,0.15707096118098549,0.49621194766042387,-0.4279608341881984,-0.14722174629842066,-0.6687583452805008,-0.7287578699640436,0.7844066417030979,0.36987967684278933,-0.49789079637079203,0.6025213505502616,-0.6449428659008177,0.4701241557873075
21:29:14.707767,,0.39097879722336426,-0.7641875861031379,0.055474730550000004,-2.5414892121020087,-0.7326807006860748,0.7815127694267603,,0.15712007906790762,0.4962627896534482,-0.42786762445799414,-0.14653235236597972,-0.6803233278591051,-0.7181145023585115,0.7946636989679999,0.35136558067073664,-0.4950271037824289,0.5890992059656811,-0.64319701298081,0.4891418273261604,,0.0470658923295715,0.26670280593848994,-0.09624168379466166,-0.8918442831415736,0.37172512111615785,-0.25774834424079307,-0.4324710750218952,-0.8677344973717158,0.24496042811128071,-0.13259918512984492,0.32993526092588743,0.9346444135074407,,-0.011885468134115583,0.7813151674948209,1.1139371938741927,0.9988488698858944,-0.02572247012548613,-0.04048814219392547,0.0031358336654012074,-0.8072434309011702,0.5902103098168745,-0.04786545387745728,-0.5896578650349298,-0.8062335272906689,,0.15176409585881417,0.591740160185384,-0.45295953686845114,0.9613648048612033,-0.274847015389848,0.015389285411398106,-0.24208718769367787,-0.8175182164103367,0.5225492889592597,-0.13104009130318398,-0.5060860440365399,-0.8524701815915317,,0.0,0.0,0.045,1.0,0.0,0.0,0.0,1.0,0.0,0.0,0.0,1.0,,-0.004778288941558408,-0.15716988368721235,0.2612241015305524,False,,0.15706962591484042,0.4962111834449231,-0.427963470227514,-0.14721139737190297,-0.6687527573585068,-0.7287650883578369,0.7843920177927619,0.3699067156961036,-0.49789374780762385,0.6025429170663377,-0.6449331525114183,0.47010984023403785
21:29:14.720375,,0.39097107449049,-0.7642107543017606,0.055474730550000004,-2.5414892121020087,-0.7326807006860748,0.7815127694267603,,0.15711915677983185,0.4962618457795291,-0.4278693554703737,-0.14651582056410184,-0.6803432487084977,-0.7180990022456415,0.7946660735258795,0.3513616977846705,-0.49502604747813633,0.589100114306881,-0.6431780624614243,0.48916565093736775,,0.047064816020038425,0.26670153952654024,-0.09624096892872369,-0.891844826826547,0.37172074319383797,-0.2577527767884324,-0.4324678448290469,-0.8677370882733514,0.2449569530015544,-0.13260606340452952,0.3299333792060256,0.9346441019094097,,-0.011885468134115583,0.7813151674948209,1.1139371938741927,0.9988488698858944,-0.02572247012548613,-0.04048814219392547,0.0031358336654012074,-0.8072434309011702,0.5902103098168745,-0.04786545387745728,-0.5896578650349298,-0.8062335272906689,,0.15176409585881417,0.591740160185384,-0.45295953686845114,0.9613648048612033,-0.274847015389848,0.015389285411398106,-0.24208718769367787,-0.8175182164103367,0.5225492889592597,-0.13104009130318398,-0.5060860440365399,-0.8524701815915317,,0.0,0.0,0.045,1.0,0.0,0.0,0.0,1.0,0.0,0.0,0.0,1.0,,-0.004778288941558408,-0.15716988368721235,0.2612241015305524,False,,0.1570675086475902,0.49620898884005515,-0.4279662921636291,-0.1471992000639316,-0.6687402543778981,-0.7287790252711192,0.7843755912011731,0.36994175862974,-0.4978935901874467,0.6025672804163437,-0.6449260169946,0.4700884014471449
21:29:14.731751,,0.39097107449049,-0.7642339225003832,0.055476026840000005,-2.5414892121020087,-0.7326807006860748,0.7815127694267603,,0.15711825045920366,0.49626090264623995,-0.42787105679749876,-0.1464984587441519,-0.6803624891896916,-0.7180843147591089,0.7946685669508957,0.35135877842316005,-0.4950241163206684,0.5891010681535571,-0.6431593040160856,0.4891891652231747,,0.047064816020038425,0.26670153952654024,-0.09624096892872369,-0.891844826826547,0.37172074319383797,-0.2577527767884324,-0.4324678448290469,-0.8677370882733514,0.2449569530015544,-0.13260606340452952,0.3299333792060256,0.9346441019094097,,-0.011885468134115583,0.7813151674948209,1.1139371938741927,0.9988488698858944,-0.02572247012548613,-0.04048814219392547,0.0031358336654012074,-0.8072434309011702,0.5902103098168745,-0.04786545387745728,-0.5896578650349298,-0.8062335272906689,,0.15176409585881417,0.591740160185384,-0.45295953686845114,0.9613648048612033,-0.274847015389848,0.015389285411398106,-0.24208718769367787,-0.8175182164103367,0.5225492889592597,-0.13104009130318398,-0.5060860440365399,-0.8524701815915317,,0.0,0.0,0.045,1.0,0.0,0.0,0.0,1.0,0.0,0.0,0.0,1.0,,-0.004778288941558408,-0.15716988368721235,0.2612241015305524,False,,0.15706659018339839,0.4962071440487613,-0.4279680324436287,-0.14719143886136732,-0.6687360628211835,-0.7287844390547471,0.7843646220952442,0.36996203721821125,-0.49789580297762637,0.6025834547440752,-0.644918730771384,0.4700776646139678
21:29:14.743143,,0.39097107449049,-0.7642570906990059,0.055476026840000005,-2.5414892121020087,-0.7326807006860748,0.7815127694267603,,0.15711735788699863,0.4962599817721017,-0.42787273396327974,-0.14647714471156198,-0.6803854108109924,-0.718066944487042,0.7946716278270116,0.3513556762694575,-0.4950214041960723,0.5891022389502243,-0.6431367501869574,0.48921740622656057,,0.047063722236838745,0.26670282256861627,-0.09624032929610318,-0.8918425534728267,0.3717220971010947,-0.2577586901383405,-0.43247161872890316,-0.867734360677948,0.2449599524265867,-0.13260904497458292,0.32993902743627906,0.9346416850137447,,-0.011885468134115583,0.7813151674948209,1.1139371938741927,0.9988488698858944,-0.02572247012548613,-0.04048814219392547,0.0031358336654012074,-0.8072434309011702,0.5902103098168745,-0.04786545387745728,-0.5896578650349298,-0.8062335272906689,,0.15176409585881417,0.591740160185384,-0.45295953686845114,0.9613648048612033,-0.274847015389848,0.015389285411398106,-0.24208718769367787,-0.8175182164103367,0.5225492889592597,-0.13104009130318398,-0.5060860440365399,-0.8524701815915317,,0.0,0.0,0.045,1.0,0.0,0.0,0.0,1.0,0.0,0.0,0.0,1.0,,-0.004778288941558408,-0.15716988368721235,0.2612241015305524,False,,0.15706558869910606,0.4962065710720835,-0.427970009578577,-0.1471836777814009,-0.6687318710590782,-0.7287898528551048,0.7843536525738533,0.3699823156123337,-0.4978980154893075,0.6025996288488701,-0.6449114441254397,0.47006692773183273
21:29:14.754960,,0.39097879722336426,-0.764295704363377,0.055476026840000005,-2.5414892121020087,-0.7326807006860748,0.7815127694267603,,0.1571164839395528,0.4962590852278358,-0.42787437719181604,-0.14643983987527331,-0.6804036472227707,-0.7180572736605497,0.7946769849721139,0.35136533158599575,-0.4950059509022689,0.589104287004008,-0.6431121820638919,0.4892472365053121,,0.04706262844556954,0.2667041056094364,-0.09623968967476271,-0.8918402800894499,0.3717234509681174,-0.25776460348605884,-0.4324753926330939,-0.8677316330539178,0.244962951820132,-0.13261202651653725,0.329944675662352,0.9346392680736471,,-0.011885468134115583,0.7813151674948209,1.1139371938741927,0.9988488698858944,-0.02572247012548613,-0.04048814219392547,0.0031358336654012074,-0.8072434309011702,0.5902103098168745,-0.04786545387745728,-0.5896578650349298,-0.8062335272906689,,0.15176409585881417,0.591740160185384,-0.45295953686845114,0.9613648048612033,-0.274847015389848,0.015389285411398106,-0.24208718769367787,-0.8175182164103367,0.5225492889592597,-0.13104009130318398,-0.5060860440365399,-0.8524701815915317,,0.0,0.0,0.045,1.0,0.0,0.0,0.0,1.0,0.0,0.0,0.0,1.0,,-0.004778288941558408,-0.15716988368721235,0.2612241015305524,False,,0.1570649210402495,0.49620618911614905,-0.4279713276754584,-0.14717850379620173,-0.6687290764369033,-0.728793462064636,0.7843463393287836,0.3699958344337712,-0.49789949034237246,0.6026104114615415,-0.6449065861266298,0.4700597697832138
21:29:14.766338,,0.39097879722336426,-0.7643111498291255,0.055477323130000006,-2.5414892121020087,-0.7326807006860748,0.7815127694267603,,0.15711563093581002,0.49625820815731775,-0.42787600282999183,-0.1464062037282352,-0.6804205939611491,-0.7180480746134822,0.7946818144404767,0.35137369029649324,-0.494992264785725,0.589106133001655,-0.6430896855911052,0.4892745844399188,,0.04706479854611684,0.26670408898023956,-0.09624104416182247,-0.8918420097931707,0.3717264750465239,-0.25775425761287357,-0.4324748489285589,-0.8677317697467276,0.24496342750792774,-0.1326021666953361,0.32994090913631435,0.9346419966307978,,-0.011885468134115583,0.7813151674948209,1.1139371938741927,0.9988488698858944,-0.02572247012548613,-0.04048814219392547,0.0031358336654012074,-0.8072434309011702,0.5902103098168745,-0.04786545387745728,-0.5896578650349298,-0.8062335272906689,,0.15176409585881417,0.591740160185384,-0.45295953686845114,0.9613648048612033,-0.274847015389848,0.015389285411398106,-0.24208718769367787,-0.8175182164103367,0.5225492889592597,-0.13104009130318398,-0.5060860440365399,-0.8524701815915317,,0.0,0.0,0.045,1.0,0.0,0.0,0.0,1.0,0.0,0.0,0.0,1.0,,-0.004778288941558408,-0.15716988368721235,0.2612241015305524,False,,0.15706445071124187,0.49620558392623215,-0.42797354112053615,-0.14717000384524265,-0.66873040201903,-0.7287939622305182,0.7843335147652909,0.37001486765451813,-0.49790554860388425,0.6026291791675182,-0.6448942914385861,0.4700525771504794
21:29:14.777778,,0.39097879722336426,-0.7643343180277482,0.055477323130000006,-2.5414892121020087,-0.7326807006860748,0.7814438877827101,,0.15711479601756262,0.49625733270702344,-0.42787759346987253,-0.1463701494880877,-0.680432284949141,-0.7180443465334493,0.7946869897320267,0.3513871126790426,-0.4949744276673875,0.5891081109103887,-0.6430699816449987,0.48929810036174914,,0.047064781055939225,0.2667066384319638,-0.0962411194174378,-0.8918391926933157,0.3717322069079333,-0.2577557384879972,-0.4324818530132507,-0.8677264511108762,0.2449699019405233,-0.13259826993728213,0.3299484389868848,0.9346398913056077,,-0.011885468134115583,0.7813151674948209,1.1139371938741927,0.9988488698858944,-0.02572247012548613,-0.04048814219392547,0.0031358336654012074,-0.8072434309011702,0.5902103098168745,-0.04786545387745728,-0.5896578650349298,-0.8062335272906689,,0.15176409585881417,0.591740160185384,-0.45295953686845114,0.9613648048612033,-0.274847015389848,0.015389285411398106,-0.24208718769367787,-0.8175182164103367,0.5225492889592597,-0.13104009130318398,-0.5060860440365399,-0.8524701815915317,,0.0,0.0,0.045,1.0,0.0,0.0,0.0,1.0,0.0,0.0,0.0,1.0,,-0.004778288941558408,-0.15716988368721235,0.2612241015305524,False,,0.15706386600447161,0.4962039302390735,-0.4279746225025944,-0.14716482989961394,-0.6687276071908123,-0.7287975714980589,0.7843262010559463,0.37002838626059725,-0.4979070231464158,0.602639961484272,-0.6448894329590373,0.47004541916713355
21:29:14.791033,,0.39097879722336426,-0.7643497634934966,0.055477323130000006,-2.5414892121020087,-0.7326807006860748,0.7814438877827101,,0.15711396110927603,0.49625646989552313,-0.4278791859201749,-0.14633428386431258,-0.6804428051012222,-0.7180416875520251,0.794692136887346,0.35140122964667225,-0.49495614157508117,0.5891100776985604,-0.6430511359911031,0.48932049984157544,,0.04706370475459255,0.2667053720207332,-0.09624040454026311,-0.891839736415112,0.3717278289366561,-0.2577601709827646,-0.4324786228395573,-0.8677290420931136,0.2449664268730879,-0.1326051482327284,0.3299465573425613,0.9346395797097234,,-0.011885468134115583,0.7813151674948209,1.1139371938741927,0.9988488698858944,-0.02572247012548613,-0.04048814219392547,0.0031358336654012074,-0.8072434309011702,0.5902103098168745,-0.04786545387745728,-0.5896578650349298,-0.8062335272906689,,0.15176409585881417,0.591740160185384,-0.45295953686845114,0.9613648048612033,-0.274847015389848,0.015389285411398106,-0.24208718769367787,-0.8175182164103367,0.5225492889592597,-0.13104009130318398,-0.5060860440365399,-0.8524701815915317,,0.0,0.0,0.045,1.0,0.0,0.0,0.0,1.0,0.0,0.0,0.0,1.0,,-0.004778288941558408,-0.15716988368721235,0.2612241015305524,False,,0.15706219679550776,0.49620297558250304,-0.4279779178389186,-0.1471518952739566,-0.6687708195308721,-0.7287605303947848,0.784307915974785,0.3700278846117056,-0.4979361982715014,0.6026669168426058,-0.6448449081397727,0.470071943206182
21:29:14.803278,,0.39097879722336426,-0.7643574862263709,0.05547861942000001,-2.5414892121020087,-0.7326807006860748,0.7814438877827101,,0.15711314837147172,0.49625561119197314,-0.42788073520638636,-0.14630329291037375,-0.6804509507988316,-0.7180402835959457,0.794696583643299,0.3514140788898756,-0.494939879106188,0.5891117765375676,-0.6430354947753235,0.48933900930725366,,0.04706370475459255,0.2667053720207332,-0.09624040454026311,-0.891839736415112,0.3717278289366561,-0.2577601709827646,-0.4324786228395573,-0.8677290420931136,0.2449664268730879,-0.1326051482327284,0.3299465573425613,0.9346395797097234,,-0.011885468134115583,0.7813151674948209,1.1139371938741927,0.9988488698858944,-0.02572247012548613,-0.04048814219392547,0.0031358336654012074,-0.8072434309011702,0.5902103098168745,-0.04786545387745728,-0.5896578650349298,-0.8062335272906689,,0.15176409585881417,0.591740160185384,-0.45295953686845114,0.9613648048612033,-0.274847015389848,0.015389285411398106,-0.24208718769367787,-0.8175182164103367,0.5225492889592597,-0.13104009130318398,-0.5060860440365399,-0.8524701815915317,,0.0,0.0,0.045,1.0,0.0,0.0,0.0,1.0,0.0,0.0,0.0,1.0,,-0.004778288941558408,-0.15716988368721235,0.2612241015305524,False,,0.1570619458898007,0.49620151286832526,-0.42797834023771153,-0.14714930838969786,-0.6687694220927402,-0.7287623351368921,0.7843042588200743,0.37003464372356265,-0.49793693580720644,0.6026723078399467,-0.6448424788412427,0.4700683640118254
21:29:14.815491,,0.39098651995623845,-0.764396099890742,0.05547991571000001,-2.5414892121020087,-0.732814842154527,0.7815118706789217,,0.1571123534039173,0.4962547696022296,-0.42788227087655095,-0.14627395962692852,-0.6804603300102205,-0.7180373715113694,0.7947007917486513,0.35142509013988993,-0.49492530394368806,0.5891133839921153,-0.643019551936072,0.48935802384226484,,0.04706370475459255,0.2667053720207332,-0.09624040454026311,-0.891839736415112,0.3717278289366561,-0.2577601709827646,-0.4324786228395573,-0.8677290420931136,0.2449664268730879,-0.1326051482327284,0.3299465573425613,0.9346395797097234,,-0.011885468134115583,0.7813151674948209,1.1139371938741927,0.9988488698858944,-0.02572247012548613,-0.04048814219392547,0.0031358336654012074,-0.8072434309011702,0.5902103098168745,-0.04786545387745728,-0.5896578650349298,-0.8062335272906689,,0.15176409585881417,0.591740160185384,-0.45295953686845114,0.9613648048612033,-0.274847015389848,0.015389285411398106,-0.24208718769367787,-0.8175182164103367,0.5225492889592597,-0.13104009130318398,-0.5060860440365399,-0.8524701815915317,,0.0,0.0,0.045,1.0,0.0,0.0,0.0,1.0,0.0,0.0,0.0,1.0,,-0.004778288941558408,-0.15716988368721235,0.2612241015305524,False,,0.15706147548043445,0.4962009078586408,-0.4279805537670852,-0.1471408081880891,-0.6687707470749091,-0.7287628355114059,0.7842914327120418,0.3700536757863411,-0.4979429943392225,0.6026910743824313,-0.6448301829892006,0.47006117045110757
21:29:14.827791,,0.39097879722336426,-0.7644115453564905,0.05547991571000001,-2.5414892121020087,-0.732814842154527,0.7815118706789217,,0.15711157046618932,0.4962539455176659,-0.42788376329236927,-0.1462567567934892,-0.6804707041017832,-0.7180310448306702,0.7947032595560113,0.35142818875397513,-0.49491914166791096,0.5891143265381105,-0.6430068805210983,0.4893735395985614,,0.04706370475459255,0.2667053720207332,-0.09624040454026311,-0.891839736415112,0.3717278289366561,-0.2577601709827646,-0.4324786228395573,-0.8677290420931136,0.2449664268730879,-0.1326051482327284,0.3299465573425613,0.9346395797097234,,-0.011885468134115583,0.7813151674948209,1.1139371938741927,0.9988488698858944,-0.02572247012548613,-0.04048814219392547,0.0031358336654012074,-0.8072434309011702,0.5902103098168745,-0.04786545387745728,-0.5896578650349298,-0.8062335272906689,,0.15176409585881417,0.591740160185384,-0.45295953686845114,0.9613648048612033,-0.274847015389848,0.015389285411398106,-0.24208718769367787,-0.8175182164103367,0.5225492889592597,-0.13104009130318398,-0.5060860440365399,-0.8524701815915317,,0.0,0.0,0.045,1.0,0.0,0.0,0.0,1.0,0.0,0.0,0.0,1.0,,-0.004778288941558408,-0.15716988368721235,0.2612241015305524,False,,0.15706067951387,0.496200380021025,-0.4279807703205607,-0.14712941750678038,-0.6687045053450505,-0.7288259181967577,0.7843664912299678,0.37002693953262605,-0.49784462581784217,0.6025961682086142,-0.6449142179789105,0.47006755845191656
21:29:14.838987,,0.39097107449049,-0.7644269908222389,0.05548121200000001,-2.5414892121020087,-0.732814842154527,0.7815118706789217,,0.1571107930065735,0.49625314081660776,-0.4278852273062795,-0.14624784204883218,-0.6804833274098103,-0.7180208974701089,0.7947045382468401,0.3514247989332394,-0.4949194954485596,0.5891148147656656,-0.6429953741687828,0.4893880701566094,,0.04706370475459255,0.2667053720207332,-0.09624040454026311,-0.891839736415112,0.3717278289366561,-0.2577601709827646,-0.4324786228395573,-0.8677290420931136,0.2449664268730879,-0.1326051482327284,0.3299465573425613,0.9346395797097234,,-0.011885468134115583,0.7813151674948209,1.1139371938741927,0.9988488698858944,-0.02572247012548613,-0.04048814219392547,0.0031358336654012074,-0.8072434309011702,0.5902103098168745,-0.04786545387745728,-0.5896578650349298,-0.8062335272906689,,0.15176409585881417,0.591740160185384,-0.45295953686845114,0.9613648048612033,-0.274847015389848,0.015389285411398106,-0.24208718769367787,-0.8175182164103367,0.5225492889592597,-0.13104009130318398,-0.5060860440365399,-0.8524701815915317,,0.0,0.0,0.045,1.0,0.0,0.0,0.0,1.0,0.0,0.0,0.0,1.0,,-0.004778288941558408,-0.15716988368721235,0.2612241015305524,False,,0.15705948067192926,0.4962000305467742,-0.42798185222435076,-0.14712498204566543,-0.6686961925560623,-0.7288344405412579,0.784361031859084,0.3700417029727521,-0.4978422538937195,0.6026043572353388,-0.6449143665030663,0.4700568566875
21:29:14.851090,,0.39097879722336426,-0.7644501590208616,0.05548121200000001,-2.5414892121020087,-0.732814842154527,0.7815118706789217,,0.15711001508423061,0.49625232704566474,-0.42788669324489603,-0.14623672549024114,-0.6804996432767936,-0.7180076981853759,0.7947061323326541,0.3514201756402861,-0.4949202182384934,0.5891154236532764,-0.6429806332141897,0.48940670404144815,,0.04706262844556954,0.2667041056094364,-0.09623968967476271,-0.8918402800894499,0.3717234509681174,-0.25776460348605884,-0.4324753926330939,-0.8677316330539178,0.244962951820132,-0.13261202651653725,0.329944675662352,0.9346392680736471,,-0.011885468134115583,0.7813151674948209,1.1139371938741927,0.9988488698858944,-0.02572247012548613,-0.04048814219392547,0.0031358336654012074,-0.8072434309011702,0.5902103098168745,-0.04786545387745728,-0.5896578650349298,-0.8062335272906689,,0.15176409585881417,0.591740160185384,-0.45295953686845114,0.9613648048612033,-0.274847015389848,0.015389285411398106,-0.24208718769367787,-0.8175182164103367,0.5225492889592597,-0.13104009130318398,-0.5060860440365399,-0.8524701815915317,,0.0,0.0,0.045,1.0,0.0,0.0,0.0,1.0,0.0,0.0,0.0,1.0,,-0.004778288941558408,-0.15716988368721235,0.2612241015305524,False,,0.15705789428725733,0.4961978043924781,-0.427984911132205,-0.14711204678620016,-0.6686892048330546,-0.7288434626379742,0.7843427473215914,0.3700754994302668,-0.4978459394686845,0.602631313834913,-0.6449022189922871,0.4700389638364366
