AlexandreBanks6/RCL_Autocam_Public/optimizationData/Data_59.csv
System Time,q_des,q0,q1,q2,q3,q4,q5,T_des,Tx,Ty,Tz,R00,R01,R02,R10,R11,R12,R20,R21,R22,T_target,Tx,Ty,Tz,R00,R01,R02,R10,R11,R12,R20,R21,R22,worldFrame,Tx,Ty,Tz,R00,R01,R02,R10,R11,R12,R20,R21,R22,ECM_T_PSM_RCM,Tx,Ty,Tz,R00,R01,R02,R10,R11,R12,R20,R21,R22,psm3_T_cam,Tx,Ty,Tz,R00,R01,R02,R10,R11,R12,R20,R21,R22,offset,x,y,z,IK Trigered,ECM_T_PSM3,Tx,Ty,Tz,R00,R01,R02,R10,R11,R12,R20,R21,R22,solverSuccess,q_solverOutput,q0,q1,q2,q3,q4,q5
10:15:45.299279,,-0.18736122226156082,-0.3261078410798784,0.12969640708000002,-2.9052779905028823,-0.11871519958022266,1.2835717431232068,,0.16753751043086781,0.5407546470415425,-0.3532717736660137,-0.07251415566152812,-0.32465452189007293,-0.9430488527351187,0.752991681085012,0.6022146808688038,-0.265218789611242,0.6540223432310728,-0.7293400575605407,0.20079306509967895,,-0.025526190822843686,0.30243095705025747,-0.09156507411568998,0.3692883829941807,-0.85921889983303,0.35407481180572664,0.918778581333498,0.3947731530150765,-0.0002759372026669704,-0.139542139400068,0.32541825368017163,0.9352170611699722,,0.053760382454458404,0.7043618139362147,1.1529369854851188,0.9922617208217355,-0.0768032718529755,-0.09755990377489436,0.0046369851568879294,-0.7622647314724931,0.6472487756047307,-0.12407729752272777,-0.642692567707023,-0.7560099785410312,,0.0,0.0,0.0,1.0,0.0,0.0,0.0,1.0,0.0,0.0,0.0,1.0,,0.0,0.0,0.045,1.0,0.0,0.0,0.0,1.0,0.0,0.0,0.0,1.0,,-0.0005789313634909996,-0.18285425070962588,0.23380443500249326,True,,0.16753751043086781,0.5407546470415425,-0.3532717736660137,-0.25036834130504027,-0.18264660371369212,-0.9507659605938867,0.5684438592544887,0.7672142056934548,-0.2970756493858492,0.7837010096637784,-0.614835409466643,-0.08826180781039786,False,,0.0,0.0,0.0,0.0,0.0,0.0
10:15:45.778640,,-0.18790953629563076,-0.342055284465152,0.13026807097,-3.0665192415635576,-0.3615112574787571,1.1614021324474024,,0.16746659129783062,0.5406433440114022,-0.3535060237703598,-0.13063418146551775,-0.2765423682513594,-0.9520814194147283,0.7447330598488634,0.6065381677138533,-0.27835969656987114,0.6544519693613758,-0.7454097998203747,0.12671562701879194,,-0.02552673680850233,0.30243040929425286,-0.0915648635916834,0.3692906105063731,-0.8592189758228543,0.35407230415594587,0.9187781031151694,0.394774264232389,-0.0002784392429370508,-0.13953939307760505,0.3254167049772434,0.9352180098211498,,0.053760382454458404,0.7043618139362147,1.1529369854851188,0.9922617208217355,-0.0768032718529755,-0.09755990377489436,0.0046369851568879294,-0.7622647314724931,0.6472487756047307,-0.12407729752272777,-0.642692567707023,-0.7560099785410312,,0.1790848308425335,0.694859516026312,-0.4364195207033381,0.993018439526397,0.005066047999930115,-0.1178503878577497,0.08447698224224075,-0.7278404888452268,0.6805232268400437,-0.08232872057674515,-0.6857277579004687,-0.7231869909041455,,0.0,0.0,0.045,1.0,0.0,0.0,0.0,1.0,0.0,0.0,0.0,1.0,,-0.0005789313634909996,-0.18285425070962588,0.23380443500249326,False,,0.16746659129783062,0.5406433440114022,-0.3535060237703598,-0.07362380923481962,-0.3068730227958344,-0.9488985628579603,0.7428456810151655,0.6179654349336171,-0.2574859518972262,0.665402005490568,-0.7238422957436605,0.1824623303086891,False,,0.0,0.0,0.0,0.0,0.0,0.0
10:15:45.790147,,-0.18792498176137923,-0.3422560755198818,0.13026936726000002,-3.0665192415635576,-0.3615112574787571,1.161539895735503,,0.16746488594924835,0.5406255692910207,-0.35353657744551426,-0.13040758648583411,-0.27667299815898405,-0.9520745314714908,0.7447703857605408,0.6065329121376541,-0.2782712687071952,0.6544546843602198,-0.7453656006172646,0.12696136237229597,,-0.02552691465283908,0.3024294475296292,-0.09156477687038322,0.36929321719462366,-0.8592182105107783,0.3540714425567155,0.9187776180604671,0.39477538998490486,-0.0002828195426196056,-0.13953568811838743,0.325417359958585,0.9352183346964524,,0.053760382454458404,0.7043618139362147,1.1529369854851188,0.9922617208217355,-0.0768032718529755,-0.09755990377489436,0.0046369851568879294,-0.7622647314724931,0.6472487756047307,-0.12407729752272777,-0.642692567707023,-0.7560099785410312,,0.1790848308425335,0.694859516026312,-0.4364195207033381,0.993018439526397,0.005066047999930115,-0.1178503878577497,0.08447698224224075,-0.7278404888452268,0.6805232268400437,-0.08232872057674515,-0.6857277579004687,-0.7231869909041455,,0.0,0.0,0.045,1.0,0.0,0.0,0.0,1.0,0.0,0.0,0.0,1.0,,-0.0005789313634909996,-0.18285425070962588,0.23380443500249326,False,,0.16746488594924835,0.5406255692910207,-0.35353657744551426,-0.07363739821930831,-0.3067279273931315,-0.9489444199428148,0.7427123126961778,0.6181458485244962,-0.25743762452568175,0.6655493626719107,-0.7237497416296912,0.18229195631724732,False,,0.0,0.0,0.0,0.0,0.0,0.0
10:15:45.801958,,-0.18793270449425345,-0.34251864843760543,0.13027325613000001,-3.0663095650342194,-0.3613771160103049,1.1616785577714417,,0.1674655158726955,0.540609970208819,-0.3535590128824141,-0.13020760175566587,-0.2767241430643492,-0.9520870386106196,0.7448032947181639,0.606547042012817,-0.27815236472564797,0.6544570517780413,-0.7453351155492431,0.12712801778990587,,-0.025527006688206677,0.3024295510318108,-0.09156474591973444,0.3692931223989429,-0.8592184208363541,0.3540710310429529,0.9187776197687333,0.3947753863529107,-0.0002823499769530058,-0.13953592777646479,0.32541680903863957,0.9352184906395775,,0.053760382454458404,0.7043618139362147,1.1529369854851188,0.9922617208217355,-0.0768032718529755,-0.09755990377489436,0.0046369851568879294,-0.7622647314724931,0.6472487756047307,-0.12407729752272777,-0.642692567707023,-0.7560099785410312,,0.1790848308425335,0.694859516026312,-0.4364195207033381,0.993018439526397,0.005066047999930115,-0.1178503878577497,0.08447698224224075,-0.7278404888452268,0.6805232268400437,-0.08232872057674515,-0.6857277579004687,-0.7231869909041455,,0.0,0.0,0.045,1.0,0.0,0.0,0.0,1.0,0.0,0.0,0.0,1.0,,-0.0005789313634909996,-0.18285425070962588,0.23380443500249326,False,,0.1674655158726955,0.540609970208819,-0.3535590128824141,-0.07366051868894055,-0.30673636973581886,-0.9489398966571947,0.742524466391885,0.6183409550841497,-0.25751093195254515,0.6657563704508751,-0.7235794792190509,0.1822119437829595,False,,0.0,0.0,0.0,0.0,0.0,0.0
10:15:45.813769,,-0.18793270449425345,-0.34258043030059926,0.13027455242000002,-3.0648418293288557,-0.3613771160103049,1.1619540843476428,,0.16746390755773038,0.5405992320328803,-0.35357647995188046,-0.13002457239448215,-0.27683572991690053,-0.9520796128554633,0.7448333859577301,0.606541065355234,-0.2780848129626658,0.6544591948596759,-0.7452985406393298,0.12733125140557675,,-0.025527059418938354,0.3024291456255383,-0.09156471742139911,0.3692941840328473,-0.8592180726480926,0.354070768703877,0.918777425402464,0.3947758373806477,-0.00028419600955686963,-0.13953439786116134,0.32541718121735574,0.9352185893994075,,0.053760382454458404,0.7043618139362147,1.1529369854851188,0.9922617208217355,-0.0768032718529755,-0.09755990377489436,0.0046369851568879294,-0.7622647314724931,0.6472487756047307,-0.12407729752272777,-0.642692567707023,-0.7560099785410312,,0.1790848308425335,0.694859516026312,-0.4364195207033381,0.993018439526397,0.005066047999930115,-0.1178503878577497,0.08447698224224075,-0.7278404888452268,0.6805232268400437,-0.08232872057674515,-0.6857277579004687,-0.7231869909041455,,0.0,0.0,0.045,1.0,0.0,0.0,0.0,1.0,0.0,0.0,0.0,1.0,,-0.0005789313634909996,-0.18285425070962588,0.23380443500249326,False,,0.16746390755773038,0.5405992320328803,-0.35357647995188046,-0.07386307874928288,-0.3065223719678337,-0.9489932987544699,0.7424493472791683,0.6184209274899548,-0.25753547943380817,0.665817702019415,-0.7236018186307145,0.1818988613265855,False,,0.0,0.0,0.0,0.0,0.0,0.0
10:15:45.825418,,-0.18793270449425345,-0.34261132123209614,0.13027584871,-3.0616966813887907,-0.3613771160103049,1.162574019144095,,0.1674586041648161,0.5405929849264524,-0.3535861082381486,-0.12959943516665778,-0.27710347534261504,-0.9520596884426564,0.7449031795971622,0.6065247707060515,-0.27793336529824825,0.6544640856689702,-0.7452122962438398,0.12780999216204686,,-0.025527056926739553,0.30242867811804947,-0.09156470749183251,0.3692953025511482,-0.859217598268807,0.35407075327471704,0.9187772300122407,0.3947762905943232,-0.0002863237802493701,-0.13953272415593607,0.32541788395147575,0.9352185945969284,,0.053760382454458404,0.7043618139362147,1.1529369854851188,0.9922617208217355,-0.0768032718529755,-0.09755990377489436,0.0046369851568879294,-0.7622647314724931,0.6472487756047307,-0.12407729752272777,-0.642692567707023,-0.7560099785410312,,0.1790848308425335,0.694859516026312,-0.4364195207033381,0.993018439526397,0.005066047999930115,-0.1178503878577497,0.08447698224224075,-0.7278404888452268,0.6805232268400437,-0.08232872057674515,-0.6857277579004687,-0.7231869909041455,,0.0,0.0,0.045,1.0,0.0,0.0,0.0,1.0,0.0,0.0,0.0,1.0,,-0.0005789313634909996,-0.18285425070962588,0.23380443500249326,False,,0.1674586041648161,0.5405929849264524,-0.3535861082381486,-0.07523006193280365,-0.30572776375575794,-0.949142229726657,0.7424209651472221,0.618263940896974,-0.2579938175546274,0.6656962883263313,-0.7240719811285661,0.18046666687535315,False,,0.0,0.0,0.0,0.0,0.0,0.0
10:15:45.837886,,-0.18792498176137923,-0.3426190439649704,0.13027584871,-3.057503150802037,-0.3613771160103049,1.1634005988726974,,0.1674324428709671,0.540588762537672,-0.3535948966958076,-0.12778054034038808,-0.27835591257840364,-0.9519401869040734,0.7452001771304306,0.6064252761872131,-0.27735370991936814,0.6544836357886217,-0.744826402817399,0.12994152589145794,,-0.02552727532239666,0.30242845901620347,-0.09156462328425824,0.36929619354894194,-0.85921762866245,0.35406975020696885,0.9187770387133243,0.39477673508381794,-0.00028732459386271447,-0.13953162562345361,0.3254172644742807,0.9352189740475966,,0.053760382454458404,0.7043618139362147,1.1529369854851188,0.9922617208217355,-0.0768032718529755,-0.09755990377489436,0.0046369851568879294,-0.7622647314724931,0.6472487756047307,-0.12407729752272777,-0.642692567707023,-0.7560099785410312,,0.1790848308425335,0.694859516026312,-0.4364195207033381,0.993018439526397,0.005066047999930115,-0.1178503878577497,0.08447698224224075,-0.7278404888452268,0.6805232268400437,-0.08232872057674515,-0.6857277579004687,-0.7231869909041455,,0.0,0.0,0.045,1.0,0.0,0.0,0.0,1.0,0.0,0.0,0.0,1.0,,-0.0005789313634909996,-0.18285425070962588,0.23380443500249326,False,,0.1674324428709671,0.540588762537672,-0.3535948966958076,-0.08204313361472676,-0.3016837392446331,-0.9498714890457827,0.7424454500592349,0.617313889013793,-0.2601890007609978,0.664863653626077,-0.7265744861375485,0.17333735368044928,False,,0.0,0.0,0.0,0.0,0.0,0.0
10:15:45.849375,,-0.187917259028505,-0.3425958757663477,0.13027584871,-3.052261237568595,-0.3613771160103049,1.16415829695725,,0.16741395700668546,0.5405907230284098,-0.35359384597561716,-0.12653434950766684,-0.27915384844022845,-0.9518729890566711,0.7454021591014194,0.6063759653371706,-0.2769184173513142,0.6544957445252139,-0.7445678730394054,0.13135449301779423,,-0.02552727532239666,0.30242845901620347,-0.09156462328425823,0.36929619354894194,-0.85921762866245,0.35406975020696885,0.9187770387133243,0.39477673508381794,-0.00028732459386274223,-0.1395316256234536,0.32541726447428077,0.9352189740475966,,0.053760382454458404,0.7043618139362147,1.1529369854851188,0.9922617208217355,-0.0768032718529755,-0.09755990377489436,0.0046369851568879294,-0.7622647314724931,0.6472487756047307,-0.12407729752272777,-0.642692567707023,-0.7560099785410312,,0.1790848308425335,0.694859516026312,-0.4364195207033381,0.993018439526397,0.005066047999930115,-0.1178503878577497,0.08447698224224075,-0.7278404888452268,0.6805232268400437,-0.08232872057674515,-0.6857277579004687,-0.7231869909041455,,0.0,0.0,0.045,1.0,0.0,0.0,0.0,1.0,0.0,0.0,0.0,1.0,,-0.0005789313634909996,-0.18285425070962588,0.23380443500249326,False,,0.16741395700668546,0.5405907230284098,-0.35359384597561716,-0.08690271632377708,-0.2990463905346059,-0.9502732102946884,0.7424825446788299,0.6165362596318512,-0.26192119312193085,0.6642044781110698,-0.7283229344647815,0.16845804934704398,False,,0.0,0.0,0.0,0.0,0.0,0.0
10:15:45.862566,,-0.18790181356275654,-0.3425340939033539,0.130277145,-3.035277438692243,-0.3613771160103049,1.1657425747704049,,0.16738684234922324,0.5405926388898393,-0.3535940993360386,-0.12472069326285697,-0.28021554601195164,-0.9518003973760761,0.7456939350201804,0.6063349824601442,-0.27622173035294584,0.654511500239798,-0.744202349377023,0.13333251379752925,,-0.02552749371807991,0.3024282399143746,-0.09156453907670789,0.36929708454584353,-0.8592176590560949,0.35406874713842856,0.9187768474139448,0.3947771795742815,-0.0002883254069570851,-0.13953052709032832,0.3254166449977811,0.9352193534975394,,0.053760382454458404,0.7043618139362147,1.1529369854851188,0.9922617208217355,-0.0768032718529755,-0.09755990377489436,0.0046369851568879294,-0.7622647314724931,0.6472487756047307,-0.12407729752272777,-0.642692567707023,-0.7560099785410312,,0.1790848308425335,0.694859516026312,-0.4364195207033381,0.993018439526397,0.005066047999930115,-0.1178503878577497,0.08447698224224075,-0.7278404888452268,0.6805232268400437,-0.08232872057674515,-0.6857277579004687,-0.7231869909041455,,0.0,0.0,0.045,1.0,0.0,0.0,0.0,1.0,0.0,0.0,0.0,1.0,,-0.0005789313634909996,-0.18285425070962588,0.23380443500249326,False,,0.16738684234922324,0.5405926388898393,-0.3535940993360386,-0.09389582908958691,-0.29554458354086,-0.9507034092813798,0.7425085820965719,0.6153485082553105,-0.26462656499471526,0.6632228726397464,-0.7307527711392025,0.16166573130957293,False,,0.0,0.0,0.0,0.0,0.0,0.0
10:15:45.874034,,-0.18790181356275654,-0.34248775750610855,0.13027844129000002,-3.027938760165424,-0.3613771160103049,1.1667757994311583,,0.16735253793147448,0.5405945608348515,-0.3535926220539136,-0.12245035203204552,-0.28149165477906535,-0.9517186346693919,0.7460555403824743,0.6063019371589713,-0.2753163483374952,0.6545281063115947,-0.7437475440544474,0.1357665229765254,,-0.02552727532183524,0.3024284590167694,-0.09156462328447589,0.3692961935531974,-0.8592176286601051,0.35406975020821996,0.9187770387110886,0.39477673508902156,-0.0002873245925591461,-0.13953162562691074,0.3254172644741585,0.935218974047123,,0.053760382454458404,0.7043618139362147,1.1529369854851188,0.9922617208217355,-0.0768032718529755,-0.09755990377489436,0.0046369851568879294,-0.7622647314724931,0.6472487756047307,-0.12407729752272777,-0.642692567707023,-0.7560099785410312,,0.1790848308425335,0.694859516026312,-0.4364195207033381,0.993018439526397,0.005066047999930115,-0.1178503878577497,0.08447698224224075,-0.7278404888452268,0.6805232268400437,-0.08232872057674515,-0.6857277579004687,-0.7231869909041455,,0.0,0.0,0.045,1.0,0.0,0.0,0.0,1.0,0.0,0.0,0.0,1.0,,-0.0005789313634909996,-0.18285425070962588,0.23380443500249326,False,,0.16735253793147448,0.5405945608348515,-0.3535926220539136,-0.10262713478890476,-0.2912514869559351,-0.9511257764097117,0.7425132359282172,0.613843066794808,-0.2680872690363211,0.6619227792397148,-0.7337365063112927,0.15326112889337076,False,,0.0,0.0,0.0,0.0,0.0,0.0
10:15:45.885487,,-0.18790181356275654,-0.34246458930748586,0.130277145,-3.0229065234613204,-0.3613771160103049,1.1678779057359616,,0.16732479480366763,0.5405970967730069,-0.3535890851608905,-0.12069670991412924,-0.28257940139131765,-0.9516202951415176,0.746332080437431,0.6062491295263616,-0.2746823959748142,0.6545385625964603,-0.7433780161249411,0.1377257972070094,,-0.025526838533038637,0.3024288972230311,-0.09156479170575041,0.3692944115586222,-0.8592175678527586,0.3540717563390913,0.9187774212875485,0.3947758461143457,-0.0002853229622014064,-0.13953382269565073,0.3254185034231771,0.9352182151273819,,0.053760382454458404,0.7043618139362147,1.1529369854851188,0.9922617208217355,-0.0768032718529755,-0.09755990377489436,0.0046369851568879294,-0.7622647314724931,0.6472487756047307,-0.12407729752272777,-0.642692567707023,-0.7560099785410312,,0.1790848308425335,0.694859516026312,-0.4364195207033381,0.993018439526397,0.005066047999930115,-0.1178503878577497,0.08447698224224075,-0.7278404888452268,0.6805232268400437,-0.08232872057674515,-0.6857277579004687,-0.7231869909041455,,0.0,0.0,0.045,1.0,0.0,0.0,0.0,1.0,0.0,0.0,0.0,1.0,,-0.0005789313634909996,-0.18285425070962588,0.23380443500249326,False,,0.16732479480366763,0.5405970967730069,-0.3535890851608905,-0.10940919517230466,-0.28751367026073515,-0.9515069718215152,0.7425016684415059,0.61278067605938,-0.270538565475958,0.6608486213750686,-0.7360949208229943,0.14643553928353928,False,,0.0,0.0,0.0,0.0,0.0,0.0
10:15:45.898627,,-0.18790181356275654,-0.34246458930748586,0.130277145,-3.019761375521255,-0.36124297454185267,1.1687742658564533,,0.16729439195406162,0.5405988126273242,-0.35359193954003987,-0.11868666203473825,-0.2840444162644952,-0.9514369373973316,0.7466460882127929,0.6061282476789095,-0.2740951774880921,0.6545480083321513,-0.7429181091847583,0.14014131380059675,,-0.02552596246215777,0.3024293061261482,-0.09156511861475808,0.36929196607688514,-0.8592169718705328,0.35407575316739887,0.9187779910655812,0.3947745213807325,-0.0002834474698978906,-0.1395365431165732,0.32542168406331756,0.9352167024903004,,0.053760382454458404,0.7043618139362147,1.1529369854851188,0.9922617208217355,-0.0768032718529755,-0.09755990377489436,0.0046369851568879294,-0.7622647314724931,0.6472487756047307,-0.12407729752272777,-0.642692567707023,-0.7560099785410312,,0.1790848308425335,0.694859516026312,-0.4364195207033381,0.993018439526397,0.005066047999930115,-0.1178503878577497,0.08447698224224075,-0.7278404888452268,0.6805232268400437,-0.08232872057674515,-0.6857277579004687,-0.7231869909041455,,0.0,0.0,0.045,1.0,0.0,0.0,0.0,1.0,0.0,0.0,0.0,1.0,,-0.0005789313634909996,-0.18285425070962588,0.23380443500249326,False,,0.16729439195406162,0.5405988126273242,-0.35359193954003987,-0.11697503168677462,-0.28253445440081143,-0.9520982743594875,0.742352773490486,0.6119564787471681,-0.2728032767588214,0.6597190323560942,-0.7387039665493904,0.13815660733868665,False,,0.0,0.0,0.0,0.0,0.0,0.0
10:15:45.909954,,-0.18790181356275654,-0.3424723120403601,0.130277145,-3.016825904110527,-0.36124297454185267,1.1698074905172064,,0.16728347653892925,0.5405980330274627,-0.35359494376340783,-0.11795080474093854,-0.28465747337749214,-0.9513452215212453,0.7467602513600815,0.6060626389298126,-0.2739291964761324,0.6545507884416555,-0.7427369659198161,0.14108531038571348,,-0.025525307277561488,0.30242996343513756,-0.0915653712442416,0.3692892930729179,-0.8592168806644062,0.35407876235457675,0.918778564934062,0.3947731879393732,-0.0002804450150519222,-0.13953983870897496,0.3254235424996608,0.9352155641067792,,0.053760382454458404,0.7043618139362147,1.1529369854851188,0.9922617208217355,-0.0768032718529755,-0.09755990377489436,0.0046369851568879294,-0.7622647314724931,0.6472487756047307,-0.12407729752272777,-0.642692567707023,-0.7560099785410312,,0.1790848308425335,0.694859516026312,-0.4364195207033381,0.993018439526397,0.005066047999930115,-0.1178503878577497,0.08447698224224075,-0.7278404888452268,0.6805232268400437,-0.08232872057674515,-0.6857277579004687,-0.7231869909041455,,0.0,0.0,0.045,1.0,0.0,0.0,0.0,1.0,0.0,0.0,0.0,1.0,,-0.0005789313634909996,-0.18285425070962588,0.23380443500249326,False,,0.16728347653892925,0.5405980330274627,-0.35359494376340783,-0.11968455318170904,-0.28043562876000083,-0.9523819957620356,0.7423139343016057,0.6117309487705395,-0.2734140984989022,0.6592765964838783,-0.7396898704445527,0.13495652963215568,False,,0.0,0.0,0.0,0.0,0.0,0.0
10:15:45.921339,,-0.18790181356275654,-0.342503202971857,0.130277145,-3.0149388153464884,-0.36124297454185267,1.1707718335339095,,0.16727658407337478,0.5405953643924896,-0.35360089396244043,-0.11744867750555715,-0.28514446277612915,-0.9512615011132892,0.7468379094208769,0.6059983472001529,-0.27385970905289636,0.6545524770437048,-0.7426026114543334,0.14178299001345193,,-0.025524431207088867,0.30243037233863684,-0.09156569815374727,0.36928684757409463,-0.8592162846733639,0.3540827591705136,0.9187791347137938,0.3947718632254777,-0.00027856951116783657,-0.13954255911468438,0.32542672314747184,0.9352140514546063,,0.053760382454458404,0.7043618139362147,1.1529369854851188,0.9922617208217355,-0.0768032718529755,-0.09755990377489436,0.0046369851568879294,-0.7622647314724931,0.6472487756047307,-0.12407729752272777,-0.642692567707023,-0.7560099785410312,,0.1790848308425335,0.694859516026312,-0.4364195207033381,0.993018439526397,0.005066047999930115,-0.1178503878577497,0.08447698224224075,-0.7278404888452268,0.6805232268400437,-0.08232872057674515,-0.6857277579004687,-0.7231869909041455,,0.0,0.0,0.045,1.0,0.0,0.0,0.0,1.0,0.0,0.0,0.0,1.0,,-0.0005789313634909996,-0.18285425070962588,0.23380443500249326,False,,0.16727658407337478,0.5405953643924896,-0.35360089396244043,-0.12142753843705847,-0.2787988202599385,-0.9526418900776845,0.7422698065451871,0.611688590315619,-0.2736285854384761,0.6590075016268686,-0.7403433570306128,0.1326681065673109,False,,0.0,0.0,0.0,0.0,0.0,0.0
10:15:45.934709,,-0.18790181356275654,-0.3425958757663477,0.13027584871,-3.0147291388171507,-0.3609746916049482,1.1715313291141392,,0.16727665976657086,0.5405910015771589,-0.35360799450845415,-0.11727284511590122,-0.2853523002399896,-0.9512208705375259,0.7468650566443253,0.6059651426214089,-0.27385914827057434,0.6545530283805053,-0.7425498708339815,0.1420564055660529,,-0.02552421530664618,0.3024310589492384,-0.09156579229509551,0.36928483803350054,-0.8592167286561438,0.35408377764483245,0.9187795213734966,0.39477096553852453,-0.0002754409171730199,-0.1395453313389201,0.32542663990590104,0.9352136667822468,,0.053760382454458404,0.7043618139362147,1.1529369854851188,0.9922617208217355,-0.0768032718529755,-0.09755990377489436,0.0046369851568879294,-0.7622647314724931,0.6472487756047307,-0.12407729752272777,-0.642692567707023,-0.7560099785410312,,0.1790848308425335,0.694859516026312,-0.4364195207033381,0.993018439526397,0.005066047999930115,-0.1178503878577497,0.08447698224224075,-0.7278404888452268,0.6805232268400437,-0.08232872057674515,-0.6857277579004687,-0.7231869909041455,,0.0,0.0,0.045,1.0,0.0,0.0,0.0,1.0,0.0,0.0,0.0,1.0,,-0.0005789313634909996,-0.18285425070962588,0.23380443500249326,False,,0.16727665976657086,0.5405910015771589,-0.35360799450845415,-0.12183256391247874,-0.278135665378233,-0.9527840143574617,0.7421482157263062,0.6118849562191506,-0.27351933432016945,0.6590696869563737,-0.7404305180077981,0.13187037475465066,False,,0.0,0.0,0.0,0.0,0.0,0.0
10:15:45.946395,,-0.18790181356275654,-0.3426653803622157,0.13027584871,-3.0153581684051636,-0.360840550136496,1.1715322278619777,,0.16727667033252216,0.5405866570333595,-0.3536178174283016,-0.11724340082489126,-0.2854220705122828,-0.9512035673963251,0.7468696002586539,0.6059495172918464,-0.27388132959962164,0.6545531186790666,-0.7425358066506014,0.1421294855730087,,-0.02552443370014998,0.3024308398456656,-0.09156570808323514,0.36928572904237633,-0.8592167590632985,0.3540827745893043,0.9187793300922608,0.3947714100155175,-0.0002764417385699991,-0.13954423281280814,0.32542602042488816,0.93521404625335,,0.053760382454458404,0.7043618139362147,1.1529369854851188,0.9922617208217355,-0.0768032718529755,-0.09755990377489436,0.0046369851568879294,-0.7622647314724931,0.6472487756047307,-0.12407729752272777,-0.642692567707023,-0.7560099785410312,,0.1790848308425335,0.694859516026312,-0.4364195207033381,0.993018439526397,0.005066047999930115,-0.1178503878577497,0.08447698224224075,-0.7278404888452268,0.6805232268400437,-0.08232872057674515,-0.6857277579004687,-0.7231869909041455,,0.0,0.0,0.045,1.0,0.0,0.0,0.0,1.0,0.0,0.0,0.0,1.0,,-0.0005789313634909996,-0.18285425070962588,0.23380443500249326,False,,0.16727667033252216,0.5405866570333595,-0.3536178174283016,-0.12165801072155519,-0.27802544585837163,-0.9528384857270027,0.7420257714709263,0.6121103785175983,-0.27334710348569513,0.6592397764851956,-0.7402855773053372,0.13183391495913727,False,,0.0,0.0,0.0,0.0,0.0,0.0
10:15:45.958609,,-0.18790181356275654,-0.342742607690958,0.13027455242000002,-3.0157775214638387,-0.360840550136496,1.1716011095060281,,0.16728152380916675,0.5405745808302872,-0.35364135655736273,-0.11731266957216355,-0.28539512342599255,-0.9512031124226386,0.7468589101632563,0.6059467766408465,-0.27391654237800406,0.6545529053236303,-0.7425484007142095,0.14206465686145958,,-0.025524872980928655,0.3024308691466221,-0.09156554959119335,0.36928639252972495,-0.8592172942597028,0.354080783894161,0.9187791429000135,0.3947718457632059,-0.00027631560643343045,-0.139543709460458,0.32542407873947066,0.935214799985687,,0.053760382454458404,0.7043618139362147,1.1529369854851188,0.9922617208217355,-0.0768032718529755,-0.09755990377489436,0.0046369851568879294,-0.7622647314724931,0.6472487756047307,-0.12407729752272777,-0.642692567707023,-0.7560099785410312,,0.1790848308425335,0.694859516026312,-0.4364195207033381,0.993018439526397,0.005066047999930115,-0.1178503878577497,0.08447698224224075,-0.7278404888452268,0.6805232268400437,-0.08232872057674515,-0.6857277579004687,-0.7231869909041455,,0.0,0.0,0.045,1.0,0.0,0.0,0.0,1.0,0.0,0.0,0.0,1.0,,-0.0005789313634909996,-0.18285425070962588,0.23380443500249326,False,,0.16728152380916675,0.5405745808302872,-0.35364135655736273,-0.12071631395090435,-0.2783729725015535,-0.9528567886764286,0.7418517500625714,0.6125090059260101,-0.2729261779101282,0.6596086358403798,-0.7398251184166298,0.132571647363277,False,,0.0,0.0,0.0,0.0,0.0,0.0
10:15:45.969943,,-0.18790181356275654,-0.34280438955395176,0.13027455242000002,-3.016406551051852,-0.360840550136496,1.1716011095060281,,0.16728415818586334,0.5405694689461329,-0.3536505066695246,-0.11739662207651456,-0.2853514813813887,-0.9512058479627167,0.7468459489182255,0.6059466210253589,-0.27395222403255853,0.6545526424279862,-0.7425652998500514,0.1419775114204496,,-0.02552531226173073,0.30243089844761195,-0.09156539109921895,0.36928705601676604,-0.8592178294538502,0.3540787931983085,0.9187789557098434,0.3947722815114949,-0.00027618947328800214,-0.13954318610697516,0.32542213705356576,0.9352155537159819,,0.053760382454458404,0.7043618139362147,1.1529369854851188,0.9922617208217355,-0.0768032718529755,-0.09755990377489436,0.0046369851568879294,-0.7622647314724931,0.6472487756047307,-0.12407729752272777,-0.642692567707023,-0.7560099785410312,,0.1790848308425335,0.694859516026312,-0.4364195207033381,0.993018439526397,0.005066047999930115,-0.1178503878577497,0.08447698224224075,-0.7278404888452268,0.6805232268400437,-0.08232872057674515,-0.6857277579004687,-0.7231869909041455,,0.0,0.0,0.045,1.0,0.0,0.0,0.0,1.0,0.0,0.0,0.0,1.0,,-0.0005789313634909996,-0.18285425070962588,0.23380443500249326,False,,0.16728415818586334,0.5405694689461329,-0.3536505066695246,-0.12014020701739148,-0.2786121731667374,-0.9528596893672888,0.7418184877036518,0.6126627696696835,-0.27267134422549666,0.6597512121693186,-0.7396077255031752,0.1330742289744129,False,,0.0,0.0,0.0,0.0,0.0,0.0
10:15:45.981668,,-0.18790181356275654,-0.34286617141694553,0.13027584871,-3.01661622758119,-0.360840550136496,1.1716011095060281,,0.16728514746833906,0.5405631837913552,-0.35365933180837134,-0.11737514751034331,-0.28534921048819073,-0.9512091793189821,0.7468492648553261,0.6059505293897243,-0.2739345387448833,0.6545527101250014,-0.7425629831913783,0.14198931530906345,,-0.025525530655295933,0.30243067934410706,-0.09156530688743716,0.3692879470225042,-0.8592178598591274,0.3540777901409196,0.9187787644293595,0.3947727259921502,-0.00027719029262820993,-0.13954208757803377,0.32542151757359217,0.935215933184704,,0.053760382454458404,0.7043618139362147,1.1529369854851188,0.9922617208217355,-0.0768032718529755,-0.09755990377489436,0.0046369851568879294,-0.7622647314724931,0.6472487756047307,-0.12407729752272777,-0.642692567707023,-0.7560099785410312,,0.1790848308425335,0.694859516026312,-0.4364195207033381,0.993018439526397,0.005066047999930115,-0.1178503878577497,0.08447698224224075,-0.7278404888452268,0.6805232268400437,-0.08232872057674515,-0.6857277579004687,-0.7231869909041455,,0.0,0.0,0.045,1.0,0.0,0.0,0.0,1.0,0.0,0.0,0.0,1.0,,-0.0005789313634909996,-0.18285425070962588,0.23380443500249326,False,,0.16728514746833906,0.5405631837913552,-0.35365933180837134,-0.11995101276212905,-0.27869190179323244,-0.9528602092711246,0.7417799825861257,0.6127437950693192,-0.27259401871386624,0.6598289262921618,-0.7395105580577737,0.13322883527680285,False,,0.0,0.0,0.0,0.0,0.0,0.0
10:15:45.993837,,-0.18790953629563076,-0.34295112147856205,0.13027455242000002,-3.016825904110527,-0.360840550136496,1.1716011095060281,,0.16728614692774332,0.5405593373104441,-0.3536663588215384,-0.11737662528226551,-0.2853485187246755,-0.951209204486048,0.7468490366807408,0.6059505046623578,-0.2739352155318547,0.65455270547634,-0.7425632691973578,0.14198784100244694,,-0.025525746555919174,0.3024299927336432,-0.09156521274620706,0.3692899565538712,-0.8592174158771132,0.3540767716611292,0.9187783777651547,0.3947736236891042,-0.00028031888245153014,-0.1395393153478342,0.325421600820998,0.9352163178534838,,0.053760382454458404,0.7043618139362147,1.1529369854851188,0.9922617208217355,-0.0768032718529755,-0.09755990377489436,0.0046369851568879294,-0.7622647314724931,0.6472487756047307,-0.12407729752272777,-0.642692567707023,-0.7560099785410312,,0.1790848308425335,0.694859516026312,-0.4364195207033381,0.993018439526397,0.005066047999930115,-0.1178503878577497,0.08447698224224075,-0.7278404888452268,0.6805232268400437,-0.08232872057674515,-0.6857277579004687,-0.7231869909041455,,0.0,0.0,0.045,1.0,0.0,0.0,0.0,1.0,0.0,0.0,0.0,1.0,,-0.0005789313634909996,-0.18285425070962588,0.23380443500249326,False,,0.16728614692774332,0.5405593373104441,-0.3536663588215384,-0.11976074221719035,-0.2787716074298152,-0.9528608269388477,0.7417517209536895,0.6128136575230003,-0.2725138631620838,0.6598952561473885,-0.739422620728011,0.13338830109830613,False,,0.0,0.0,0.0,0.0,0.0,0.0
10:15:46.005161,,-0.18790953629563076,-0.34298201241005893,0.13027455242000002,-3.01661622758119,-0.360840550136496,1.1716011095060281,,0.16728512899579515,0.5405573355705917,-0.35367298284246207,-0.11733736877348211,-0.28537857217980284,-0.9512050317517948,0.7468550974802616,0.6059477992828013,-0.2739246756173653,0.6545528284692266,-0.7425539273917733,0.14203612096219853,,-0.02552618334686394,0.30242955452815734,-0.09156504432847101,0.3692917385529596,-0.8592174766741918,0.3540747655339557,0.918777995182366,0.3947745126493801,-0.0002823205179948718,-0.13953711828385684,0.3254203618611434,0.935217076769323,,0.053760382454458404,0.7043618139362147,1.1529369854851188,0.9922617208217355,-0.0768032718529755,-0.09755990377489436,0.0046369851568879294,-0.7622647314724931,0.6472487756047307,-0.12407729752272777,-0.642692567707023,-0.7560099785410312,,0.1790848308425335,0.694859516026312,-0.4364195207033381,0.993018439526397,0.005066047999930115,-0.1178503878577497,0.08447698224224075,-0.7278404888452268,0.6805232268400437,-0.08232872057674515,-0.6857277579004687,-0.7231869909041455,,0.0,0.0,0.045,1.0,0.0,0.0,0.0,1.0,0.0,0.0,0.0,1.0,,-0.0005789313634909996,-0.18285425070962588,0.23380443500249326,False,,0.16728512899579515,0.5405573355705917,-0.35367298284246207,-0.11976319842199473,-0.2787642288136552,-0.9528626769045273,0.7417266595910399,0.6128430613209161,-0.2725159530059207,0.6599229794117275,-0.7394010325423785,0.13337081509690524,False,,0.0,0.0,0.0,0.0,0.0,0.0
10:15:46.017509,,-0.18790953629563076,-0.3429974578758074,0.13027455242000002,-3.01661622758119,-0.360840550136496,1.1716011095060281,,0.16728449327020098,0.5405547545520307,-0.35367788497586566,-0.11725253955303801,-0.2854182449253495,-0.9512035888452568,0.746868190113763,0.6059492334529817,-0.2738858029798842,0.6545530907149972,-0.7425375087774875,0.14212072155026367,,-0.025526399250732593,0.3024288679181618,-0.09156495019100896,0.36929374807096416,-0.8592170326895651,0.35407374704037414,0.9187776084997094,0.3947754103407848,-0.00028544910647773647,-0.13953434604650855,0.32542044511335866,0.9352174614211228,,0.053760382454458404,0.7043618139362147,1.1529369854851188,0.9922617208217355,-0.0768032718529755,-0.09755990377489436,0.0046369851568879294,-0.7622647314724931,0.6472487756047307,-0.12407729752272777,-0.642692567707023,-0.7560099785410312,,0.1790848308425335,0.694859516026312,-0.4364195207033381,0.993018439526397,0.005066047999930115,-0.1178503878577497,0.08447698224224075,-0.7278404888452268,0.6805232268400437,-0.08232872057674515,-0.6857277579004687,-0.7231869909041455,,0.0,0.0,0.045,1.0,0.0,0.0,0.0,1.0,0.0,0.0,0.0,1.0,,-0.0005789313634909996,-0.18285425070962588,0.23380443500249326,False,,0.16728449327020098,0.5405547545520307,-0.35367788497586566,-0.11995881987113169,-0.2786845681659168,-0.9528613713449097,0.7417035858136151,0.612829003284352,-0.2726103510960891,0.6599133824422345,-0.7394427119119398,0.13318709950278654,False,,0.0,0.0,0.0,0.0,0.0,0.0
10:15:46.029907,,-0.187917259028505,-0.3430129033415558,0.13027455242000002,-3.016825904110527,-0.360840550136496,1.1716011095060281,,0.16728413742147824,0.5405522533804781,-0.3536825987439245,-0.11727180939547692,-0.28541399796308825,-0.9512024876375362,0.7468652164801799,0.6059475352301728,-0.27389766877520627,0.6545530315666752,-0.7425405270523656,0.14210522352000368,,-0.02552617836356621,0.3024286195135833,-0.09156502447122386,0.3692939755944941,-0.8592165279074768,0.35407473467670186,0.9187776044020921,0.39477541906691366,-0.00028657606150306325,-0.13953377087611957,0.3254217673225109,0.9352170871588734,,0.053760382454458404,0.7043618139362147,1.1529369854851188,0.9922617208217355,-0.0768032718529755,-0.09755990377489436,0.0046369851568879294,-0.7622647314724931,0.6472487756047307,-0.12407729752272777,-0.642692567707023,-0.7560099785410312,,0.1790848308425335,0.694859516026312,-0.4364195207033381,0.993018439526397,0.005066047999930115,-0.1178503878577497,0.08447698224224075,-0.7278404888452268,0.6805232268400437,-0.08232872057674515,-0.6857277579004687,-0.7231869909041455,,0.0,0.0,0.045,1.0,0.0,0.0,0.0,1.0,0.0,0.0,0.0,1.0,,-0.0005789313634909996,-0.18285425070962588,0.23380443500249326,False,,0.16728413742147824,0.5405522533804781,-0.3536825987439245,-0.11976726085805417,-0.2787568640503495,-0.9528643208617762,0.7416861940980077,0.6128892022781829,-0.27252232058168235,0.6599677209613903,-0.7393655634905022,0.1333460566098636,False,,0.0,0.0,0.0,0.0,0.0,0.0
10:15:46.041713,,-0.187917259028505,-0.3430129033415558,0.13027455242000002,-3.01661622758119,-0.360840550136496,1.1716011095060281,,0.1672833561803471,0.5405522431427658,-0.3536827291315684,-0.11722030555285523,-0.2854383717162672,-0.9512015222433474,0.7468731636665183,0.6059483249316445,-0.27387425017204564,0.6545531890999091,-0.7425305134905233,0.14215681191781995,,-0.02552639675854472,0.30242840041064695,-0.09156494026148838,0.36929486659248045,-0.8592165583104688,0.3540737316108829,0.9187774131096761,0.3947758635508656,-0.00028757687795955,-0.13953267234319866,0.325421147847035,0.9352174666172486,,0.053760382454458404,0.7043618139362147,1.1529369854851188,0.9922617208217355,-0.0768032718529755,-0.09755990377489436,0.0046369851568879294,-0.7622647314724931,0.6472487756047307,-0.12407729752272777,-0.642692567707023,-0.7560099785410312,,0.1790848308425335,0.694859516026312,-0.4364195207033381,0.993018439526397,0.005066047999930115,-0.1178503878577497,0.08447698224224075,-0.7278404888452268,0.6805232268400437,-0.08232872057674515,-0.6857277579004687,-0.7231869909041455,,0.0,0.0,0.045,1.0,0.0,0.0,0.0,1.0,0.0,0.0,0.0,1.0,,-0.0005789313634909996,-0.18285425070962588,0.23380443500249326,False,,0.1672833561803471,0.5405522431427658,-0.3536827291315684,-0.11996074145302901,-0.27867718476067693,-0.9528632888320879,0.7416836586469432,0.6128528277129468,-0.2726110086924771,0.6599354294217913,-0.7394257489823497,0.13317203436069844,False,,0.0,0.0,0.0,0.0,0.0,0.0
10:15:46.054455,,-0.18794042722712767,-0.3430129033415558,0.13027455242000002,-3.014519462287813,-0.360840550136496,1.1716699911500783,,0.16727738665364056,0.5405522393684417,-0.3536835868707666,-0.1169092173448553,-0.28560336882574244,-0.9511902809717939,0.746921121274413,0.605948008997629,-0.2737441305050811,0.6545541028012788,-0.7424673232588732,0.14248228099948712,,-0.02552639675854472,0.30242840041064695,-0.09156494026148838,0.36929486659248045,-0.8592165583104688,0.3540737316108829,0.9187774131096761,0.3947758635508656,-0.00028757687795955,-0.13953267234319866,0.325421147847035,0.9352174666172486,,0.053760382454458404,0.7043618139362147,1.1529369854851188,0.9922617208217355,-0.0768032718529755,-0.09755990377489436,0.0046369851568879294,-0.7622647314724931,0.6472487756047307,-0.12407729752272777,-0.642692567707023,-0.7560099785410312,,0.1790848308425335,0.694859516026312,-0.4364195207033381,0.993018439526397,0.005066047999930115,-0.1178503878577497,0.08447698224224075,-0.7278404888452268,0.6805232268400437,-0.08232872057674515,-0.6857277579004687,-0.7231869909041455,,0.0,0.0,0.045,1.0,0.0,0.0,0.0,1.0,0.0,0.0,0.0,1.0,,-0.0005789313634909996,-0.18285425070962588,0.23380443500249326,False,,0.16727738665364056,0.5405522393684417,-0.3536835868707666,-0.12112127311265822,-0.2781257632985617,-0.9528775876203412,0.7416686667149297,0.6126550374360804,-0.27309594269687243,0.6597402716318501,-0.7397971782142638,0.132071605931575,False,,0.0,0.0,0.0,0.0,0.0,0.0
10:15:46.065843,,-0.18794042722712767,-0.3430129033415558,0.13027455242000002,-3.015987197993177,-0.360840550136496,1.1716699911500783,,0.16727169733926966,0.5405523143990154,-0.35368425815769544,-0.11670204498575523,-0.2857056207236872,-0.9511850140656315,0.7469530170914022,0.6059500251533713,-0.2736526215381102,0.6545546752977891,-0.7424263366176617,0.14269306830496176,,-0.025525959967409084,0.302428838616063,-0.09156510867909437,0.369293084597819,-0.8592164975096114,0.3540757377438405,0.918777795699525,0.3947749745862858,-0.0002855752445294346,-0.13953486940923,0.325422386800623,0.9352167077053508,,0.053760382454458404,0.7043618139362147,1.1529369854851188,0.9922617208217355,-0.0768032718529755,-0.09755990377489436,0.0046369851568879294,-0.7622647314724931,0.6472487756047307,-0.12407729752272777,-0.642692567707023,-0.7560099785410312,,0.1790848308425335,0.694859516026312,-0.4364195207033381,0.993018439526397,0.005066047999930115,-0.1178503878577497,0.08447698224224075,-0.7278404888452268,0.6805232268400437,-0.08232872057674515,-0.6857277579004687,-0.7231869909041455,,0.0,0.0,0.045,1.0,0.0,0.0,0.0,1.0,0.0,0.0,0.0,1.0,,-0.0005789313634909996,-0.18285425070962588,0.23380443500249326,False,,0.16727169733926966,0.5405523143990154,-0.35368425815769544,-0.12189453924341115,-0.27779174081551417,-0.9528764190792648,0.741659129201075,0.6125127925069291,-0.2734406975709114,0.6596085637522754,-0.7400404230513693,0.13136481596915778,False,,0.0,0.0,0.0,0.0,0.0,0.0
10:15:46.077468,,-0.18794042722712767,-0.3430129033415558,0.13027455242000002,-3.01745493369854,-0.360840550136496,1.1716699911500783,,0.1672763836298731,0.540552379167341,-0.3536834692046737,-0.11701118551089305,-0.2855610182013776,-0.9511904579783841,0.7469054101295894,0.6059447293757679,-0.2737942535205539,0.6545538104575401,-0.7424862893182069,0.1423847582783872,,-0.0255255256704707,0.3024297443290056,-0.09156528702807017,0.36929018406897257,-0.8592169110888531,0.35407775929555807,0.9187783736681766,0.394773632410309,-0.00028144583776842924,-0.13953874017094237,0.32542292302637343,0.9352159435868306,,0.053760382454458404,0.7043618139362147,1.1529369854851188,0.9922617208217355,-0.0768032718529755,-0.09755990377489436,0.0046369851568879294,-0.7622647314724931,0.6472487756047307,-0.12407729752272777,-0.642692567707023,-0.7560099785410312,,0.1790848308425335,0.694859516026312,-0.4364195207033381,0.993018439526397,0.005066047999930115,-0.1178503878577497,0.08447698224224075,-0.7278404888452268,0.6805232268400437,-0.08232872057674515,-0.6857277579004687,-0.7231869909041455,,0.0,0.0,0.045,1.0,0.0,0.0,0.0,1.0,0.0,0.0,0.0,1.0,,-0.0005789313634909996,-0.18285425070962588,0.23380443500249326,False,,0.1672763836298731,0.540552379167341,-0.3536834692046737,-0.12073394201158574,-0.27827047842125585,-0.9528844925202365,0.7416751695933005,0.6127307063696166,-0.2729084540290755,0.6598039542584543,-0.7396800810559904,0.1324089107043465,False,,0.0,0.0,0.0,0.0,0.0,0.0
10:15:46.089860,,-0.18794042722712767,-0.3430129033415558,0.13027455242000002,-3.0178742867572157,-0.360840550136496,1.1716699911500783,,0.16728419614579437,0.540552481040529,-0.35368216592442087,-0.11753102524684053,-0.28532439213144156,-0.9511973766570478,0.7468251872113452,0.6059340565448454,-0.27403660132516433,0.6545522117074891,-0.7425859616057464,0.14187139167183438,,-0.025525307276836193,0.3024299634324928,-0.09156537123981083,0.3692892930645562,-0.8592168806816888,0.3540787623550469,0.9187785649517278,0.3947731879284709,-0.0002804450189658747,-0.13953983870026804,0.32542354250390926,0.9352155641193545,,0.053760382454458404,0.7043618139362147,1.1529369854851188,0.9922617208217355,-0.0768032718529755,-0.09755990377489436,0.0046369851568879294,-0.7622647314724931,0.6472487756047307,-0.12407729752272777,-0.642692567707023,-0.7560099785410312,,0.1790848308425335,0.694859516026312,-0.4364195207033381,0.993018439526397,0.005066047999930115,-0.1178503878577497,0.08447698224224075,-0.7278404888452268,0.6805232268400437,-0.08232872057674515,-0.6857277579004687,-0.7231869909041455,,0.0,0.0,0.045,1.0,0.0,0.0,0.0,1.0,0.0,0.0,0.0,1.0,,-0.0005789313634909996,-0.18285425070962588,0.23380443500249326,False,,0.16728419614579437,0.540552481040529,-0.35368216592442087,-0.11879911015435043,-0.2790672014573371,-0.9528946785963834,0.7417003993005514,0.6130944372464332,-0.272021559246473,0.6601267220041449,-0.7390782827875879,0.13414918116713584,False,,0.0,0.0,0.0,0.0,0.0,0.0
10:15:46.101552,,-0.18794042722712767,-0.3430129033415558,0.13027455242000002,-3.0178742867572157,-0.360840550136496,1.1716699911500783,,0.16728419614579437,0.540552481040529,-0.35368216592442087,-0.11753102524684078,-0.2853243921314418,-0.9511973766570478,0.7468251872113452,0.6059340565448454,-0.27403660132516466,0.6545522117074891,-0.7425859616057465,0.14187139167183438,,-0.025525307276836193,0.30242996343249273,-0.09156537123981083,0.3692892930645562,-0.8592168806816888,0.3540787623550469,0.9187785649517278,0.3947731879284709,-0.0002804450189658747,-0.13953983870026804,0.32542354250390926,0.9352155641193545,,0.053760382454458404,0.7043618139362147,1.1529369854851188,0.9922617208217355,-0.0768032718529755,-0.09755990377489436,0.0046369851568879294,-0.7622647314724931,0.6472487756047307,-0.12407729752272777,-0.642692567707023,-0.7560099785410312,,0.1790848308425335,0.694859516026312,-0.4364195207033381,0.993018439526397,0.005066047999930115,-0.1178503878577497,0.08447698224224075,-0.7278404888452268,0.6805232268400437,-0.08232872057674515,-0.6857277579004687,-0.7231869909041455,,0.0,0.0,0.045,1.0,0.0,0.0,0.0,1.0,0.0,0.0,0.0,1.0,,-0.0005789313634909996,-0.18285425070962588,0.23380443500249326,False,,0.16728419614579437,0.540552481040529,-0.35368216592442087,-0.11879911015435043,-0.2790672014573371,-0.9528946785963834,0.7417003993005514,0.6130944372464332,-0.272021559246473,0.6601267220041449,-0.7390782827875879,0.13414918116713584,False,,0.0,0.0,0.0,0.0,0.0,0.0
10:15:46.113731,,-0.1879481499600019,-0.3430360715401785,0.13027455242000002,-3.018922669403904,-0.360840550136496,1.1716699911500783,,0.1672850139323944,0.5405518481719565,-0.35368322936413243,-0.11757362852042179,-0.28530338796974497,-0.9511984118413608,0.7468186031880241,0.6059336523854879,-0.27405543752874395,0.6545520726487928,-0.7425943614920382,0.1418280595347821,,-0.02552508888202304,0.3024301825355235,-0.09156545544968656,0.36928840206144975,-0.8592168502796503,0.3540797654158553,0.9187787562402953,0.3947727434499557,-0.00027944419964601175,-0.13954093722978322,0.3254241619840812,0.9352151846567298,,0.053760382454458404,0.7043618139362147,1.1529369854851188,0.9922617208217355,-0.0768032718529755,-0.09755990377489436,0.0046369851568879294,-0.7622647314724931,0.6472487756047307,-0.12407729752272777,-0.642692567707023,-0.7560099785410312,,0.1790848308425335,0.694859516026312,-0.4364195207033381,0.993018439526397,0.005066047999930115,-0.1178503878577497,0.08447698224224075,-0.7278404888452268,0.6805232268400437,-0.08232872057674515,-0.6857277579004687,-0.7231869909041455,,0.0,0.0,0.045,1.0,0.0,0.0,0.0,1.0,0.0,0.0,0.0,1.0,,-0.0005789313634909996,-0.18285425070962588,0.23380443500249326,False,,0.1672850139323944,0.5405518481719565,-0.35368322936413243,-0.11860612810937016,-0.27914679782870144,-0.9528954043529045,0.741697683415252,0.6131364238916296,-0.271934315807756,0.6601644740451822,-0.7390133902436178,0.13432079604172192,False,,0.0,0.0,0.0,0.0,0.0,0.0
10:15:46.125046,,-0.1879481499600019,-0.34305923973880115,0.13027455242000002,-3.0193420224625798,-0.360840550136496,1.1716699911500783,,0.16728692992579308,0.5405506604304453,-0.3536851709588359,-0.11776498729831121,-0.28522053489385985,-0.9511995869645282,0.7467890125588762,0.6059285378963055,-0.27414736490468805,0.6545514330348436,-0.742630361241517,0.14164239504585735,,-0.025525088882023032,0.3024301825355235,-0.09156545544968654,0.3692884020614501,-0.8592168502796506,0.3540797654158554,0.9187787562402955,0.39477274344995605,-0.00027944419964606726,-0.13954093722978328,0.3254241619840813,0.9352151846567301,,0.053760382454458404,0.7043618139362147,1.1529369854851188,0.9922617208217355,-0.0768032718529755,-0.09755990377489436,0.0046369851568879294,-0.7622647314724931,0.6472487756047307,-0.12407729752272777,-0.642692567707023,-0.7560099785410312,,0.1790848308425335,0.694859516026312,-0.4364195207033381,0.993018439526397,0.005066047999930115,-0.1178503878577497,0.08447698224224075,-0.7278404888452268,0.6805232268400437,-0.08232872057674515,-0.6857277579004687,-0.7231869909041455,,0.0,0.0,0.045,1.0,0.0,0.0,0.0,1.0,0.0,0.0,0.0,1.0,,-0.0005789313634909996,-0.18285425070962588,0.23380443500249326,False,,0.16728692992579308,0.5405506604304453,-0.3536851709588359,-0.11783285014310169,-0.27945762682014386,-0.9529002330985161,0.741697498787143,0.6132947880673201,-0.27157747186089776,0.6603031422915153,-0.7387644670268826,0.13500674997360967,False,,0.0,0.0,0.0,0.0,0.0,0.0
10:15:46.136353,,-0.1879558726928761,-0.3430669624716754,0.13027455242000002,-3.019551698991917,-0.360840550136496,1.1716699911500783,,0.1672886021857457,0.5405487513055289,-0.3536884924487108,-0.11784453204955203,-0.28518517344666156,-0.951200338053041,0.7467767037727491,0.6059266826472227,-0.274184992219559,0.6545511599320025,-0.7426454551818986,0.14156449741845828,,-0.025525086387861058,0.30242971502804783,-0.09156544551837141,0.36928952059338876,-0.8592163758976713,0.3540797499960266,0.9187785608627074,0.3947731966640455,-0.00028157197143899304,-0.13953926353191548,0.3254248647122626,0.935215189861696,,0.053760382454458404,0.7043618139362147,1.1529369854851188,0.9922617208217355,-0.0768032718529755,-0.09755990377489436,0.0046369851568879294,-0.7622647314724931,0.6472487756047307,-0.12407729752272777,-0.642692567707023,-0.7560099785410312,,0.1790848308425335,0.694859516026312,-0.4364195207033381,0.993018439526397,0.005066047999930115,-0.1178503878577497,0.08447698224224075,-0.7278404888452268,0.6805232268400437,-0.08232872057674515,-0.6857277579004687,-0.7231869909041455,,0.0,0.0,0.045,1.0,0.0,0.0,0.0,1.0,0.0,0.0,0.0,1.0,,-0.0005789313634909996,-0.18285425070962588,0.23380443500249326,False,,0.1672886021857457,0.5405487513055289,-0.3536884924487108,-0.1174473542485866,-0.27961666382628214,-0.9529011702640872,0.7416867181984285,0.6133844004121496,-0.27140447560619296,0.660383926990998,-0.7386298793317853,0.13534759078114583,False,,0.0,0.0,0.0,0.0,0.0,0.0
10:15:46.149373,,-0.18796359542575033,-0.3430901306702981,0.13027455242000002,-3.019551698991917,-0.360840550136496,1.1716699911500783,,0.167286964187958,0.5405463086246672,-0.35369328054093707,-0.11786478132633978,-0.28518714136660467,-0.9511972391265853,0.7467735696002115,0.6059230486932683,-0.27420155872790586,0.654551089732079,-0.7426476644152321,0.1415532319275983,,-0.025525741572482864,0.3024290577190336,-0.09156519288887771,0.3692921935980491,-0.8592164671066236,0.35407674080807516,0.9187779869910153,0.39477453010427177,-0.0002845744270351114,-0.13953596794086542,0.32542300627748977,0.9352163282455253,,0.053760382454458404,0.7043618139362147,1.1529369854851188,0.9922617208217355,-0.0768032718529755,-0.09755990377489436,0.0046369851568879294,-0.7622647314724931,0.6472487756047307,-0.12407729752272777,-0.642692567707023,-0.7560099785410312,,0.1790848308425335,0.694859516026312,-0.4364195207033381,0.993018439526397,0.005066047999930115,-0.1178503878577497,0.08447698224224075,-0.7278404888452268,0.6805232268400437,-0.08232872057674515,-0.6857277579004687,-0.7231869909041455,,0.0,0.0,0.045,1.0,0.0,0.0,0.0,1.0,0.0,0.0,0.0,1.0,,-0.0005789313634909996,-0.18285425070962588,0.23380443500249326,False,,0.167286964187958,0.5405463086246672,-0.35369328054093707,-0.11725550391869527,-0.27968137334945387,-0.9529058065738379,0.7416696467353487,0.613446166329231,-0.2713115112328133,0.6604371899826934,-0.7385540809022271,0.1355012460106209,False,,0.0,0.0,0.0,0.0,0.0,0.0
10:15:46.160755,,-0.18797131815862456,-0.3431132988689207,0.13027455242000002,-3.019551698991917,-0.360840550136496,1.1716699911500783,,0.1672857908494228,0.5405444402006842,-0.3536969319071718,-0.11783809570196276,-0.2852020201471718,-0.9511960843618457,0.7467776999200105,0.6059228012909844,-0.2741908564811471,0.6545511821878514,-0.7426421524392879,0.14158171957151705,,-0.0255261808546659,0.3024290870222388,-0.09156503440120026,0.3692928570808285,-0.8592170022828274,0.3540747501076454,0.9187777997861206,0.39477496586783234,-0.00028444828714530024,-0.13953544458615164,0.3254210645898089,0.9352170819611783,,0.053760382454458404,0.7043618139362147,1.1529369854851188,0.9922617208217355,-0.0768032718529755,-0.09755990377489436,0.0046369851568879294,-0.7622647314724931,0.6472487756047307,-0.12407729752272777,-0.642692567707023,-0.7560099785410312,,0.1790848308425335,0.694859516026312,-0.4364195207033381,0.993018439526397,0.005066047999930115,-0.1178503878577497,0.08447698224224075,-0.7278404888452268,0.6805232268400437,-0.08232872057674515,-0.6857277579004687,-0.7231869909041455,,0.0,0.0,0.045,1.0,0.0,0.0,0.0,1.0,0.0,0.0,0.0,1.0,,-0.0005789313634909996,-0.18285425070962588,0.23380443500249326,False,,0.1672857908494228,0.5405444402006842,-0.3536969319071718,-0.11725689515214571,-0.27967398870701,-0.9529078027700215,0.7416548306979142,0.6134643940694174,-0.27131079836875494,0.6604535809894041,-0.7385417369720916,0.13548863461013555,False,,0.0,0.0,0.0,0.0,0.0,0.0
10:15:46.172683,,-0.18797904089149878,-0.3431364670675434,0.13027455242000002,-3.019551698991917,-0.360840550136496,1.1716699911500783,,0.16728461753750432,0.5405425718654748,-0.3537005833239733,-0.11781360891260913,-0.285218614154235,-0.9511941419578468,0.7467814894200238,0.6059217268537862,-0.2741829097265845,0.6545512666052962,-0.7426366561559313,0.14161015612921,,-0.02552661764578451,0.3024286488168393,-0.09156486598360106,0.3692946390750281,-0.8592170630818012,0.3540727439752035,0.9187774171984129,0.39477585483316774,-0.00028644992007531567,-0.13953324751921928,0.32541982563517396,0.9352178408728711,,0.053760382454458404,0.7043618139362147,1.1529369854851188,0.9922617208217355,-0.0768032718529755,-0.09755990377489436,0.0046369851568879294,-0.7622647314724931,0.6472487756047307,-0.12407729752272777,-0.642692567707023,-0.7560099785410312,,0.1790848308425335,0.694859516026312,-0.4364195207033381,0.993018439526397,0.005066047999930115,-0.1178503878577497,0.08447698224224075,-0.7278404888452268,0.6805232268400437,-0.08232872057674515,-0.6857277579004687,-0.7231869909041455,,0.0,0.0,0.045,1.0,0.0,0.0,0.0,1.0,0.0,0.0,0.0,1.0,,-0.0005789313634909996,-0.18285425070962588,0.23380443500249326,False,,0.16728461753750432,0.5405425718654748,-0.3537005833239733,-0.11725828673152236,-0.2796666040621612,-0.952909798860903,0.7416400142796575,0.6134826214484629,-0.2713100853267192,0.6604699716202529,-0.7385293926128198,0.1354760230995947,False,,0.0,0.0,0.0,0.0,0.0,0.0
10:15:46.185606,,-0.18798676362437303,-0.34317508073191455,0.13027455242000002,-3.019551698991917,-0.360840550136496,1.1716699911500783,,0.1672834078241563,0.540541346097161,-0.35370304173870293,-0.11779633536246552,-0.2852308929469106,-0.9511925993634945,0.7467841623388481,0.6059208040089287,-0.2741776689466856,0.6545513259134371,-0.7426326931787216,0.14163066323038975,,-0.025527275323039993,0.302428459017243,-0.0915646232863648,0.369296193550995,-0.8592176286549807,0.3540697502061083,0.918777038705609,0.3947767350866673,-0.00028732459255742526,-0.13953162562607863,0.3254172644722177,0.9352189740415453,,0.053760382454458404,0.7043618139362147,1.1529369854851188,0.9922617208217355,-0.0768032718529755,-0.09755990377489436,0.0046369851568879294,-0.7622647314724931,0.6472487756047307,-0.12407729752272777,-0.642692567707023,-0.7560099785410312,,0.1790848308425335,0.694859516026312,-0.4364195207033381,0.993018439526397,0.005066047999930115,-0.1178503878577497,0.08447698224224075,-0.7278404888452268,0.6805232268400437,-0.08232872057674515,-0.6857277579004687,-0.7231869909041455,,0.0,0.0,0.045,1.0,0.0,0.0,0.0,1.0,0.0,0.0,0.0,1.0,,-0.0005789313634909996,-0.18285425070962588,0.23380443500249326,False,,0.1672834078241563,0.540541346097161,-0.35370304173870293,-0.11725914275676125,-0.2796592142958715,-0.952911862293342,0.7416303348439873,0.6134952761893353,-0.27130792935807524,0.6604806884982669,-0.7385216787290586,0.13546582656916967,False,,0.0,0.0,0.0,0.0,0.0,0.0
10:15:46.197578,,-0.18799448635724725,-0.343190526197663,0.13027455242000002,-3.019551698991917,-0.360840550136496,1.1716699911500783,,0.16728351711032896,0.5405394186904176,-0.3537066209114234,-0.11777022112558252,-0.2852418700456719,-0.9511925412811433,0.746788202826715,0.6059215958215569,-0.2741649135755761,0.6545514151958398,-0.7426278309421928,0.14165574317766816,,-0.02552749371807991,0.3024282399143746,-0.09156453907670789,0.36929708454584353,-0.8592176590560949,0.35406874713842856,0.9187768474139448,0.3947771795742815,-0.00028832540695711284,-0.13953052709032832,0.32541664499778117,0.9352193534975394,,0.053760382454458404,0.7043618139362147,1.1529369854851188,0.9922617208217355,-0.0768032718529755,-0.09755990377489436,0.0046369851568879294,-0.7622647314724931,0.6472487756047307,-0.12407729752272777,-0.642692567707023,-0.7560099785410312,,0.1790848308425335,0.694859516026312,-0.4364195207033381,0.993018439526397,0.005066047999930115,-0.1178503878577497,0.08447698224224075,-0.7278404888452268,0.6805232268400437,-0.08232872057674515,-0.6857277579004687,-0.7231869909041455,,0.0,0.0,0.045,1.0,0.0,0.0,0.0,1.0,0.0,0.0,0.0,1.0,,-0.0005789313634909996,-0.18285425070962588,0.23380443500249326,False,,0.16728351711032896,0.5405394186904176,-0.3537066209114234,-0.1172607504563028,-0.27965922966475276,-0.9529116599484665,0.7416149226220027,0.6135119929133703,-0.27131225754806176,0.6604977085098674,-0.7385077858863656,0.13545858126539068,False,,0.0,0.0,0.0,0.0,0.0,0.0
10:15:46.209759,,-0.1880099318229957,-0.34320597166341144,0.13027455242000002,-3.019551698991917,-0.360840550136496,1.1716699911500783,,0.1672798152259397,0.5405370266271148,-0.3537116102220269,-0.1177374512278556,-0.28526912791604153,-0.9511884236240417,0.7467932723463991,0.6059187038020127,-0.2741574962700189,0.654551526586353,-0.7426197203420534,0.14169774169888924,,-0.02552727532183524,0.3024284590167694,-0.09156462328447589,0.3692961935531974,-0.8592176286601051,0.35406975020821996,0.9187770387110886,0.39477673508902156,-0.00028732459255911835,-0.13953162562691074,0.3254172644741584,0.935218974047123,,0.053760382454458404,0.7043618139362147,1.1529369854851188,0.9922617208217355,-0.0768032718529755,-0.09755990377489436,0.0046369851568879294,-0.7622647314724931,0.6472487756047307,-0.12407729752272777,-0.642692567707023,-0.7560099785410312,,0.1790848308425335,0.694859516026312,-0.4364195207033381,0.993018439526397,0.005066047999930115,-0.1178503878577497,0.08447698224224075,-0.7278404888452268,0.6805232268400437,-0.08232872057674515,-0.6857277579004687,-0.7231869909041455,,0.0,0.0,0.045,1.0,0.0,0.0,0.0,1.0,0.0,0.0,0.0,1.0,,-0.0005789313634909996,-0.18285425070962588,0.23380443500249326,False,,0.1672798152259397,0.5405370266271148,-0.3537116102220269,-0.11726224828144471,-0.27963705003921835,-0.9529179845995901,0.7415961579195937,0.6135388113796765,-0.271302903577737,0.6605185112371021,-0.738493904630348,0.13543282149074742,False,,0.0,0.0,0.0,0.0,0.0,0.0
10:15:46.221071,,-0.1880176545558699,-0.3432214171291599,0.13027455242000002,-3.019551698991917,-0.360840550136496,1.1716699911500783,,0.16727860558379315,0.5405358010492125,-0.35371406875139155,-0.1177197212503103,-0.2852791550082568,-0.9511876108037385,0.746796014832178,0.6059185000232599,-0.2741504761264156,0.6545515865533647,-0.7426160347362141,0.14171677915171305,,-0.025526838531751916,0.3024288972209522,-0.09156479170153728,0.3692944115545164,-0.8592175678676965,0.35407175634081256,0.9187774213029787,0.39477584610864763,-0.0002853229648119848,-0.139533822690401,0.32541850342730316,0.9352182151394839,,0.053760382454458404,0.7043618139362147,1.1529369854851188,0.9922617208217355,-0.0768032718529755,-0.09755990377489436,0.0046369851568879294,-0.7622647314724931,0.6472487756047307,-0.12407729752272777,-0.642692567707023,-0.7560099785410312,,0.1790848308425335,0.694859516026312,-0.4364195207033381,0.993018439526397,0.005066047999930115,-0.1178503878577497,0.08447698224224075,-0.7278404888452268,0.6805232268400437,-0.08232872057674515,-0.6857277579004687,-0.7231869909041455,,0.0,0.0,0.045,1.0,0.0,0.0,0.0,1.0,0.0,0.0,0.0,1.0,,-0.0005789313634909996,-0.18285425070962588,0.23380443500249326,False,,0.16727860558379315,0.5405358010492125,-0.35371406875139155,-0.11726310528062381,-0.2796296602173848,-0.9529200476780072,0.7415864777331947,0.6135514653191825,-0.2713007472307405,0.6605292273497211,-0.7384861898041115,0.1354226247175361,False,,0.0,0.0,0.0,0.0,0.0,0.0
10:15:46.234586,,-0.18803310002161835,-0.3432368625949083,0.13027455242000002,-3.019551698991917,-0.360840550136496,1.1716699911500783,,0.1672773595069601,0.540535217901134,-0.35371533420588397,-0.11771140397178564,-0.2852865810939951,-0.9511864128669473,0.7467973012699994,0.6059176198847576,-0.2741489170670501,0.6545516146117407,-0.7426139000590348,0.14172783512166282,,-0.025526620135585674,0.30242911632339836,-0.09156487590937708,0.3692935205591947,-0.8592175374717127,0.3540727594082275,0.9187776125987334,0.3947754016262947,-0.0002843221488572911,-0.13953492122505512,0.3254191229057668,0.9352178356868917,,0.053760382454458404,0.7043618139362147,1.1529369854851188,0.9922617208217355,-0.0768032718529755,-0.09755990377489436,0.0046369851568879294,-0.7622647314724931,0.6472487756047307,-0.12407729752272777,-0.642692567707023,-0.7560099785410312,,0.1790848308425335,0.694859516026312,-0.4364195207033381,0.993018439526397,0.005066047999930115,-0.1178503878577497,0.08447698224224075,-0.7278404888452268,0.6805232268400437,-0.08232872057674515,-0.6857277579004687,-0.7231869909041455,,0.0,0.0,0.045,1.0,0.0,0.0,0.0,1.0,0.0,0.0,0.0,1.0,,-0.0005789313634909996,-0.18285425070962588,0.23380443500249326,False,,0.1672773595069601,0.540535217901134,-0.35371533420588397,-0.11726342631525152,-0.2796222652398134,-0.952922178160926,0.7415819351700449,0.6135585471567607,-0.27129714823480333,0.6605342703283906,-0.7384831060986033,0.13541484308856275,False,,0.0,0.0,0.0,0.0,0.0,0.0
10:15:46.247477,,-0.1880485454873668,-0.3432368625949083,0.13027455242000002,-3.019551698991917,-0.360840550136496,1.1716699911500783,,0.1672761134381308,0.540534634768765,-0.3537165996721592,-0.11770308652825523,-0.28529400739124644,-0.9511852147549211,0.7467985876791535,0.6059167397655315,-0.2741473580254435,0.6545516426242804,-0.7426117652034288,0.14173889134356818,,-0.025526401740006983,0.3024293354252957,-0.09156496011702314,0.36929262955872577,-0.8592175070780758,0.3540737624735994,0.918777803896261,0.39477495713970745,-0.00028332133368730306,-0.13953601975560953,0.3254197423850482,0.9352174562340478,,0.053760382454458404,0.7043618139362147,1.1529369854851188,0.9922617208217355,-0.0768032718529755,-0.09755990377489436,0.0046369851568879294,-0.7622647314724931,0.6472487756047307,-0.12407729752272777,-0.642692567707023,-0.7560099785410312,,0.1790848308425335,0.694859516026312,-0.4364195207033381,0.993018439526397,0.005066047999930115,-0.1178503878577497,0.08447698224224075,-0.7278404888452268,0.6805232268400437,-0.08232872057674515,-0.6857277579004687,-0.7231869909041455,,0.0,0.0,0.045,1.0,0.0,0.0,0.0,1.0,0.0,0.0,0.0,1.0,,-0.0005789313634909996,-0.18285425070962588,0.23380443500249326,False,,0.1672761134381308,0.540534634768765,-0.3537165996721592,-0.1172637474611598,-0.2796148702425023,-0.952924308573684,0.7415773925670877,0.6135656289192166,-0.271293549208907,0.6605393132620987,-0.7384800223081425,0.13540706143698872,False,,0.0,0.0,0.0,0.0,0.0,0.0
10:15:46.259973,,-0.1880485454873668,-0.34325230806065676,0.13027455242000002,-3.019551698991917,-0.360840550136496,1.1716699911500783,,0.16727362132448492,0.5405334685511549,-0.3537191306400582,-0.117687513283602,-0.2853104476297713,-0.951182210562425,0.7468009961538745,0.6059143612333423,-0.27414605412949383,0.6545516949490717,-0.7426073897588753,0.14176157206664688,,-0.025526401740006983,0.3024293354252957,-0.09156496011702314,0.3692926295587259,-0.8592175070780755,0.35407376247359934,0.9187778038962607,0.39477495713970756,-0.00028332133368730306,-0.13953601975560956,0.32541974238504817,0.9352174562340477,,0.053760382454458404,0.7043618139362147,1.1529369854851188,0.9922617208217355,-0.0768032718529755,-0.09755990377489436,0.0046369851568879294,-0.7622647314724931,0.6472487756047307,-0.12407729752272777,-0.642692567707023,-0.7560099785410312,,0.1790848308425335,0.694859516026312,-0.4364195207033381,0.993018439526397,0.005066047999930115,-0.1178503878577497,0.08447698224224075,-0.7278404888452268,0.6805232268400437,-0.08232872057674515,-0.6857277579004687,-0.7231869909041455,,0.0,0.0,0.045,1.0,0.0,0.0,0.0,1.0,0.0,0.0,0.0,1.0,,-0.0005789313634909996,-0.18285425070962588,0.23380443500249326,False,,0.16727362132448492,0.5405334685511549,-0.3537191306400582,-0.1172643900868168,-0.2796000801886681,-0.952928569188718,0.7415683072417553,0.6135797922187641,-0.271286351067237,0.6605493989946284,-0.738473854472363,0.13539149806604048,False,,0.0,0.0,0.0,0.0,0.0,0.0
10:15:46.271266,,-0.18805626822024105,-0.343260030793531,0.13027455242000002,-3.019551698991917,-0.360840550136496,1.1716699911500783,,0.16727237527966882,0.5405328854659139,-0.3537203961416816,-0.11767972646801264,-0.2853186680414138,-0.9511807081966536,0.7468022003498821,0.6059131719875931,-0.2741454022312031,0.6545517210511239,-0.7426052017586513,0.1417729127513596,,-0.025526401740006983,0.3024293354252957,-0.09156496011702314,0.3692926295587259,-0.8592175070780755,0.35407376247359934,0.9187778038962607,0.39477495713970756,-0.00028332133368730306,-0.13953601975560956,0.32541974238504817,0.9352174562340477,,0.053760382454458404,0.7043618139362147,1.1529369854851188,0.9922617208217355,-0.0768032718529755,-0.09755990377489436,0.0046369851568879294,-0.7622647314724931,0.6472487756047307,-0.12407729752272777,-0.642692567707023,-0.7560099785410312,,0.1790848308425335,0.694859516026312,-0.4364195207033381,0.993018439526397,0.005066047999930115,-0.1178503878577497,0.08447698224224075,-0.7278404888452268,0.6805232268400437,-0.08232872057674515,-0.6857277579004687,-0.7231869909041455,,0.0,0.0,0.045,1.0,0.0,0.0,0.0,1.0,0.0,0.0,0.0,1.0,,-0.0005789313634909996,-0.18285425070962588,0.23380443500249326,False,,0.16727237527966882,0.5405328854659139,-0.3537203961416816,-0.1172647115665646,-0.27959268513214874,-0.9529306993909924,0.7415637645193828,0.6135868737558541,-0.27128275195146356,0.6605544417934469,-0.7384707704270448,0.13538371634666835,False,,0.0,0.0,0.0,0.0,0.0,0.0
10:15:46.282593,,-0.18805626822024105,-0.3432677535264052,0.13027455242000002,-3.019551698991917,-0.360840550136496,1.1716699911500783,,0.16727241174691507,0.5405322431153683,-0.3537215892618132,-0.11767084409352083,-0.28532206317759484,-0.9511807886592322,0.7468035739111576,0.6059135395291692,-0.27414084812146483,0.654551750775934,-0.7426035974053146,0.14178117885264271,,-0.025526401740006983,0.3024293354252957,-0.09156496011702314,0.3692926295587259,-0.8592175070780755,0.35407376247359934,0.9187778038962607,0.39477495713970756,-0.00028332133368730306,-0.13953601975560956,0.32541974238504817,0.9352174562340477,,0.053760382454458404,0.7043618139362147,1.1529369854851188,0.9922617208217355,-0.0768032718529755,-0.09755990377489436,0.0046369851568879294,-0.7622647314724931,0.6472487756047307,-0.12407729752272777,-0.642692567707023,-0.7560099785410312,,0.1790848308425335,0.694859516026312,-0.4364195207033381,0.993018439526397,0.005066047999930115,-0.1178503878577497,0.08447698224224075,-0.7278404888452268,0.6805232268400437,-0.08232872057674515,-0.6857277579004687,-0.7231869909041455,,0.0,0.0,0.045,1.0,0.0,0.0,0.0,1.0,0.0,0.0,0.0,1.0,,-0.0005789313634909996,-0.18285425070962588,0.23380443500249326,False,,0.16727241174691507,0.5405322431153683,-0.3537215892618132,-0.11726524799544405,-0.2795926902746782,-0.9529306318707227,0.7415586265645364,0.613592445531969,-0.2712841944415785,0.660560114584801,-0.7384661389197649,0.13538130110413685,False,,0.0,0.0,0.0,0.0,0.0,0.0
10:15:46.295338,,-0.18805626822024105,-0.3432831989921537,0.13027455242000002,-3.019551698991917,-0.360840550136496,1.1716699911500783,,0.16727244821483797,0.5405316007740295,-0.3537227823868808,-0.11766196172580624,-0.28532545834627376,-0.951180869016153,0.7468049474095855,0.6059139070953407,-0.27413629404554485,0.6545517804478125,-0.7426019930002531,0.14178944496911916,,-0.025526401740006983,0.3024293354252957,-0.09156496011702314,0.36929262955872577,-0.8592175070780758,0.3540737624735994,0.918777803896261,0.39477495713970745,-0.0002833213336872753,-0.13953601975560953,0.3254197423850482,0.9352174562340478,,0.053760382454458404,0.7043618139362147,1.1529369854851188,0.9922617208217355,-0.0768032718529755,-0.09755990377489436,0.0046369851568879294,-0.7622647314724931,0.6472487756047307,-0.12407729752272777,-0.642692567707023,-0.7560099785410312,,0.1790848308425335,0.694859516026312,-0.4364195207033381,0.993018439526397,0.005066047999930115,-0.1178503878577497,0.08447698224224075,-0.7278404888452268,0.6805232268400437,-0.08232872057674515,-0.6857277579004687,-0.7231869909041455,,0.0,0.0,0.045,1.0,0.0,0.0,0.0,1.0,0.0,0.0,0.0,1.0,,-0.0005789313634909996,-0.18285425070962588,0.23380443500249326,False,,0.16727244821483797,0.5405316007740295,-0.3537227823868808,-0.11726578442410598,-0.27959269542112525,-0.9529305643490239,0.7415534885657638,0.6135980172724013,-0.27128563691305874,0.6605657873363903,-0.7384615073695637,0.1353788858505162,False,,0.0,0.0,0.0,0.0,0.0,0.0
10:15:46.306714,,-0.18805626822024105,-0.3432909217250279,0.13027455242000002,-3.019551698991917,-0.360840550136496,1.1716699911500783,,0.1672724846834375,0.5405309584418976,-0.3537239755168844,-0.11765474766259643,-0.28532977495405476,-0.951180466513647,0.7468060628892456,0.6059137563053182,-0.27413358851451197,0.654551804507722,-0.7426004574767295,0.14179737575511395,,-0.025526180853379224,0.30242908702015975,-0.09156503439698713,0.36929285707672244,-0.8592170022977657,0.35407475010936657,0.9187777998015512,0.3947749658621338,-0.00028444828975593417,-0.13953544458090167,0.32542106459393505,0.9352170819732806,,0.053760382454458404,0.7043618139362147,1.1529369854851188,0.9922617208217355,-0.0768032718529755,-0.09755990377489436,0.0046369851568879294,-0.7622647314724931,0.6472487756047307,-0.12407729752272777,-0.642692567707023,-0.7560099785410312,,0.1790848308425335,0.694859516026312,-0.4364195207033381,0.993018439526397,0.005066047999930115,-0.1178503878577497,0.08447698224224075,-0.7278404888452268,0.6805232268400437,-0.08232872057674515,-0.6857277579004687,-0.7231869909041455,,0.0,0.0,0.045,1.0,0.0,0.0,0.0,1.0,0.0,0.0,0.0,1.0,,-0.0005789313634909996,-0.18285425070962588,0.23380443500249326,False,,0.1672724846834375,0.5405309584418976,-0.3537239755168844,-0.11726632085255115,-0.279592700571489,-0.9529304968258956,0.7415483505230646,0.6136035889771504,-0.2712870793659041,0.6605714600482135,-0.7384568757764409,0.13537647058580535,False,,0.0,0.0,0.0,0.0,0.0,0.0
10:15:46.318340,,-0.18805626822024105,-0.34329864445790215,0.13027455242000002,-3.0193420224625798,-0.360840550136496,1.1716699911500783,,0.1672725211527137,0.5405303161189726,-0.3537251686518238,-0.11764639644660095,-0.28533396367182307,-0.9511802429500184,0.7468073541510548,0.6059138147450036,-0.27412994160992066,0.654551832316609,-0.742598800346785,0.14180592559722435,,-0.02552639924952784,0.3024288679176882,-0.09156495018912,0.3692937480731668,-0.8592170326946895,0.3540737470424859,0.9187776085051891,0.39477541034313973,-0.0002854491064795128,-0.13953434604734077,0.32542044511529944,0.9352174614267006,,0.053760382454458404,0.7043618139362147,1.1529369854851188,0.9922617208217355,-0.0768032718529755,-0.09755990377489436,0.0046369851568879294,-0.7622647314724931,0.6472487756047307,-0.12407729752272777,-0.642692567707023,-0.7560099785410312,,0.1790848308425335,0.694859516026312,-0.4364195207033381,0.993018439526397,0.005066047999930115,-0.1178503878577497,0.08447698224224075,-0.7278404888452268,0.6805232268400437,-0.08232872057674515,-0.6857277579004687,-0.7231869909041455,,0.0,0.0,0.045,1.0,0.0,0.0,0.0,1.0,0.0,0.0,0.0,1.0,,-0.0005789313634909996,-0.18285425070962588,0.23380443500249326,False,,0.1672725211527137,0.5405303161189726,-0.3537251686518238,-0.11726685728077857,-0.27959270572577033,-0.9529304293013383,0.7415432124364394,0.6136091606462171,-0.27128852180011465,0.6605771327202719,-0.7384522441403969,0.13537405531000557,False,,0.0,0.0,0.0,0.0,0.0,0.0
10:15:46.330878,,-0.18806399095311527,-0.34330636719077634,0.13027455242000002,-3.0193420224625798,-0.360840550136496,1.1716699911500783,,0.16727053005344192,0.5405290816343242,-0.3537277559203592,-0.11757826254030448,-0.2853700192297482,-0.9511778510367114,0.746817886948526,0.6059137507588797,-0.2741013870359739,0.6545520574497813,-0.7425849976710539,0.14187714869611265,,-0.025526617645702597,0.3024286488152338,-0.09156486598127685,0.36929463906871945,-0.8592170630916149,0.354072743974813,0.9187774172083636,0.3947758548251145,-0.0002864499226842565,-0.13953324751313712,0.3254198256373593,0.9352178408793952,,0.053760382454458404,0.7043618139362147,1.1529369854851188,0.9922617208217355,-0.0768032718529755,-0.09755990377489436,0.0046369851568879294,-0.7622647314724931,0.6472487756047307,-0.12407729752272777,-0.642692567707023,-0.7560099785410312,,0.1790848308425335,0.694859516026312,-0.4364195207033381,0.993018439526397,0.005066047999930115,-0.1178503878577497,0.08447698224224075,-0.7278404888452268,0.6805232268400437,-0.08232872057674515,-0.6857277579004687,-0.7231869909041455,,0.0,0.0,0.045,1.0,0.0,0.0,0.0,1.0,0.0,0.0,0.0,1.0,,-0.0005789313634909996,-0.18285425070962588,0.23380443500249326,False,,0.16727053005344192,0.5405290816343242,-0.3537277559203592,-0.11746127325682518,-0.2795058234998941,-0.9529319723435308,0.7415312660837452,0.613585368359793,-0.27137497518197073,0.6605560011877294,-0.7385049020584924,0.13518978855835692,False,,0.0,0.0,0.0,0.0,0.0,0.0
10:15:46.342231,,-0.18806399095311527,-0.3433140899236506,0.13027455242000002,-3.0193420224625798,-0.360840550136496,1.1716699911500783,,0.16727056652810005,0.5405284393395369,-0.3537289490702634,-0.11757211094971896,-0.2853759231377801,-0.9511768401407211,0.7468188377418593,0.6059129818809224,-0.27410049613612075,0.6545520776231066,-0.7425833561839567,0.14188564690568825,,-0.02552683354978491,0.3024279622052994,-0.09156477184397817,0.36929664858357464,-0.8592166191113341,0.35407172547475685,0.9187770305179751,0.3947767525193219,-0.0002895785093140757,-0.1395304752745965,0.32541990889622874,0.9352182255262449,,0.053760382454458404,0.7043618139362147,1.1529369854851188,0.9922617208217355,-0.0768032718529755,-0.09755990377489436,0.0046369851568879294,-0.7622647314724931,0.6472487756047307,-0.12407729752272777,-0.642692567707023,-0.7560099785410312,,0.1790848308425335,0.694859516026312,-0.4364195207033381,0.993018439526397,0.005066047999930115,-0.1178503878577497,0.08447698224224075,-0.7278404888452268,0.6805232268400437,-0.08232872057674515,-0.6857277579004687,-0.7231869909041455,,0.0,0.0,0.045,1.0,0.0,0.0,0.0,1.0,0.0,0.0,0.0,1.0,,-0.0005789313634909996,-0.18285425070962588,0.23380443500249326,False,,0.16727056652810005,0.5405284393395369,-0.3537289490702634,-0.11746180973167084,-0.2795058286265553,-0.952931904712159,0.7415261280321419,0.6135909404200945,-0.27137641621932374,0.6605616736537326,-0.7385002705471182,0.13518737256716282,False,,0.0,0.0,0.0,0.0,0.0,0.0
10:15:46.354799,,-0.1880794364188637,-0.34332953538939903,0.13027455242000002,-3.0193420224625798,-0.360840550136496,1.1716699911500783,,0.1672693205239015,0.5405278563448846,-0.35373021462871745,-0.11756318614075507,-0.2853840165736701,-0.9511755150069378,0.7468202171127033,0.605912002462342,-0.27409890292339667,0.6545521068457185,-0.7425810449751287,0.14189760768764567,,-0.02552727283205611,0.30242799150863153,-0.0915646133564373,0.36929731206074007,-0.8592171542828388,0.35406973477165565,0.9187768433161183,0.3947771882896162,-0.0002894523655795622,-0.13952995191441636,0.32541796720940774,0.9352189792377588,,0.053760382454458404,0.7043618139362147,1.1529369854851188,0.9922617208217355,-0.0768032718529755,-0.09755990377489436,0.0046369851568879294,-0.7622647314724931,0.6472487756047307,-0.12407729752272777,-0.642692567707023,-0.7560099785410312,,0.1790848308425335,0.694859516026312,-0.4364195207033381,0.993018439526397,0.005066047999930115,-0.1178503878577497,0.08447698224224075,-0.7278404888452268,0.6805232268400437,-0.08232872057674515,-0.6857277579004687,-0.7231869909041455,,0.0,0.0,0.045,1.0,0.0,0.0,0.0,1.0,0.0,0.0,0.0,1.0,,-0.0005789313634909996,-0.18285425070962588,0.23380443500249326,False,,0.1672693205239015,0.5405278563448846,-0.35373021462871745,-0.11746213160841701,-0.2794984333510133,-0.9529340341242599,0.7415215861728786,0.6135980216717091,-0.27137281558811854,0.6605667149332194,-0.7384971858814995,0.13517959005501134,False,,0.0,0.0,0.0,0.0,0.0,0.0
10:15:46.366207,,-0.1880794364188637,-0.3433372581222732,0.13027455242000002,-3.0193420224625798,-0.360840550136496,1.1716699911500783,,0.16726807452770956,0.5405272733659418,-0.35373148019895306,-0.11755539816663114,-0.2853922382879525,-0.9511740107293077,0.7468214207294467,0.6059108138053528,-0.27409825109508795,0.6545521323023367,-0.7425788550980479,0.14190894989300973,,-0.02552727283205611,0.3024279915086315,-0.0915646133564373,0.36929731206074007,-0.8592171542828388,0.35406973477165565,0.9187768433161183,0.3947771882896162,-0.0002894523655795067,-0.13952995191441642,0.32541796720940774,0.9352189792377588,,0.053760382454458404,0.7043618139362147,1.1529369854851188,0.9922617208217355,-0.0768032718529755,-0.09755990377489436,0.0046369851568879294,-0.7622647314724931,0.6472487756047307,-0.12407729752272777,-0.642692567707023,-0.7560099785410312,,0.1790848308425335,0.694859516026312,-0.4364195207033381,0.993018439526397,0.005066047999930115,-0.1178503878577497,0.08447698224224075,-0.7278404888452268,0.6805232268400437,-0.08232872057674515,-0.6857277579004687,-0.7231869909041455,,0.0,0.0,0.045,1.0,0.0,0.0,0.0,1.0,0.0,0.0,0.0,1.0,,-0.0005789313634909996,-0.18285425070962588,0.23380443500249326,False,,0.16726807452770956,0.5405272733659418,-0.35373148019895306,-0.11746245359642804,-0.27949103805574416,-0.9529361634661734,0.7415170442738183,0.6136051028481992,-0.27136921492695376,0.6605717561677363,-0.7384941011309254,0.13517180752027858,False,,0.0,0.0,0.0,0.0,0.0,0.0
10:15:46.377617,,-0.18808715915173793,-0.3433449808551475,0.13027455242000002,-3.0193420224625798,-0.360840550136496,1.1716699911500783,,0.1672681110110068,0.5405266310984826,-0.3537326733633041,-0.11754431611270234,-0.2853939190499495,-0.9511748759922689,0.7468231333581262,0.6059120094393384,-0.2740909416568403,0.6545521684562258,-0.7425772335498133,0.1419172680922184,,-0.02552727532239666,0.30242845901620347,-0.09156462328425823,0.36929619354894183,-0.8592176286624502,0.35406975020696885,0.9187770387133245,0.39477673508381783,-0.0002873245938626867,-0.1395316256234536,0.32541726447428077,0.9352189740475967,,0.053760382454458404,0.7043618139362147,1.1529369854851188,0.9922617208217355,-0.0768032718529755,-0.09755990377489436,0.0046369851568879294,-0.7622647314724931,0.6472487756047307,-0.12407729752272777,-0.642692567707023,-0.7560099785410312,,0.1790848308425335,0.694859516026312,-0.4364195207033381,0.993018439526397,0.005066047999930115,-0.1178503878577497,0.08447698224224075,-0.7278404888452268,0.6805232268400437,-0.08232872057674515,-0.6857277579004687,-0.7231869909041455,,0.0,0.0,0.045,1.0,0.0,0.0,0.0,1.0,0.0,0.0,0.0,1.0,,-0.0005789313634909996,-0.18285425070962588,0.23380443500249326,False,,0.1672681110110068,0.5405266310984826,-0.3537326733633041,-0.11746299018880874,-0.2794910431872018,-0.9529360958186197,0.7415119060956823,0.6136106748011436,-0.27137065590891185,0.6605774285080075,-0.7384894694904015,0.1351693914964976,False,,0.0,0.0,0.0,0.0,0.0,0.0
10:15:46.391020,,-0.18808715915173793,-0.3433527035880217,0.13027455242000002,-3.0193420224625798,-0.360840550136496,1.1716699911500783,,0.16726690151475868,0.5405254058951184,-0.3537351321241184,-0.11752544575390539,-0.2854038218314696,-0.9511742364489992,0.7468260493757528,0.6059120165859095,-0.2740829803738312,0.6545522298290269,-0.7425734217171976,0.141936928898231,,-0.02552727781279464,0.3024289265237758,-0.09156463321213301,0.3692950750377603,-0.8592181030435715,0.3540697656405416,0.9187772341083251,0.3947762818771096,-0.00028519682213729025,-0.13953329933316033,0.32541656174076034,0.9352189688558028,,0.053760382454458404,0.7043618139362147,1.1529369854851188,0.9922617208217355,-0.0768032718529755,-0.09755990377489436,0.0046369851568879294,-0.7622647314724931,0.6472487756047307,-0.12407729752272777,-0.642692567707023,-0.7560099785410312,,0.1790848308425335,0.694859516026312,-0.4364195207033381,0.993018439526397,0.005066047999930115,-0.1178503878577497,0.08447698224224075,-0.7278404888452268,0.6805232268400437,-0.08232872057674515,-0.6857277579004687,-0.7231869909041455,,0.0,0.0,0.045,1.0,0.0,0.0,0.0,1.0,0.0,0.0,0.0,1.0,,-0.0005789313634909996,-0.18285425070962588,0.23380443500249326,False,,0.16726690151475868,0.5405254058951184,-0.3537351321241184,-0.11746384899800053,-0.279483653008465,-0.9529381574266081,0.7415022258521606,0.613623327748094,-0.2713684961443509,0.660588141912089,-0.7384817528852011,0.13515919288281705,False,,0.0,0.0,0.0,0.0,0.0,0.0
10:15:46.402983,,-0.18808715915173793,-0.3433604263208959,0.13027455242000002,-3.0193420224625798,-0.360840550136496,1.1716699911500783,,0.16726693800339124,0.5405247636551345,-0.35373632530309546,-0.11751603181769989,-0.2854064242492979,-0.951174618702082,0.7468275039975988,0.6059126938665522,-0.27407751947960673,0.654552260357061,-0.7425718688508254,0.14194491203581294,,-0.02552705941661077,0.30242914562619655,-0.09156471741994547,0.36929418404356157,-0.8592180726485273,0.3540707687084909,0.9187774254034723,0.3947758373934103,-0.00028419600695156477,-0.1395343978689078,0.32541718121905205,0.9352185894040386,,0.053760382454458404,0.7043618139362147,1.1529369854851188,0.9922617208217355,-0.0768032718529755,-0.09755990377489436,0.0046369851568879294,-0.7622647314724931,0.6472487756047307,-0.12407729752272777,-0.642692567707023,-0.7560099785410312,,0.1790766554840742,0.6948840336468001,-0.4364597538875623,0.9930136959399173,0.005071133121713298,-0.11789013226138623,0.08451565482846994,-0.7277758665262203,0.6805875345544642,-0.08234624317271674,-0.6857963048244508,-0.723119993171582,,0.0,0.0,0.045,1.0,0.0,0.0,0.0,1.0,0.0,0.0,0.0,1.0,,-0.0005789313634909996,-0.18285425070962588,0.23380443500249326,False,,0.16726693800339124,0.5405247636551345,-0.35373632530309546,-0.11746438564882175,-0.2794836581482016,-0.9529380897688183,0.7414970875448756,0.6136288995938334,-0.27136993707064977,0.6605938141298419,-0.7384771211157193,0.135156776826127,False,,0.0,0.0,0.0,0.0,0.0,0.0
10:15:46.415412,,-0.18809488188461215,-0.34336814905377017,0.13027455242000002,-3.0193420224625798,-0.360840550136496,1.1716699911500783,,0.16728225869589727,0.5405058047835343,-0.3537274080481314,-0.1174739806339666,-0.28527686570348115,-0.9512186782062306,0.7468340008115155,0.6059563897474124,-0.27396318905310535,0.6545523959973532,-0.742585997456645,0.1418703537580844,,-0.025533102196224594,0.30242405491172863,-0.09156607503728095,0.36930437242424896,-0.8592094572343759,0.35408104801924495,0.9187727946050558,0.3947866103123213,-0.0002892590349516666,-0.1395379226626714,0.32542685871971677,0.9352146957901538,,0.053760382454458404,0.7043618139362147,1.1529369854851188,0.9922617208217355,-0.0768032718529755,-0.09755990377489436,0.0046369851568879294,-0.7622647314724931,0.6472487756047307,-0.12407729752272777,-0.642692567707023,-0.7560099785410312,,0.1790766554840742,0.6948840336468001,-0.4364597538875623,0.9930136959399173,0.005071133121713298,-0.11789013226138623,0.08451565482846994,-0.7277758665262203,0.6805875345544642,-0.08234624317271674,-0.6857963048244508,-0.723119993171582,,0.0,0.0,0.045,1.0,0.0,0.0,0.0,1.0,0.0,0.0,0.0,1.0,,-0.0005789313634909996,-0.18285425070962588,0.23380443500249326,False,,0.16728225869589727,0.5405058047835343,-0.3537274080481314,-0.11748407704341648,-0.279466780707314,-0.9529406120647532,0.7415183010011722,0.6136037214645781,-0.2713689044182389,0.6605664999995016,-0.7385044288871329,0.1351410655296831,False,,0.0,0.0,0.0,0.0,0.0,0.0
10:15:46.426840,,-0.18810260461748637,-0.3433835945195186,0.13027455242000002,-3.0193420224625798,-0.360840550136496,1.1716699911500783,,0.16728101276240845,0.5405052218173113,-0.3537286736692672,-0.11749058412163335,-0.2852865127794342,-0.9512137342726436,0.7468314357752439,0.6059510958104902,-0.27398188995616807,0.6545523425828106,-0.742586611185669,0.14186738775045898,,-0.025539584259659368,0.3024189934969631,-0.09156727416566132,0.3693152242435945,-0.8592013768840314,0.3540893365799358,0.9187679765796952,0.39479781893708604,-0.0002941960292084933,-0.1395409242146806,0.325434594504388,0.93521155593064,,0.053760382454458404,0.7043618139362147,1.1529369854851188,0.9922617208217355,-0.0768032718529755,-0.09755990377489436,0.0046369851568879294,-0.7622647314724931,0.6472487756047307,-0.12407729752272777,-0.642692567707023,-0.7560099785410312,,0.1790766554840742,0.6948840336468001,-0.4364597538875623,0.9930136959399173,0.005071133121713298,-0.11789013226138623,0.08451565482846994,-0.7277758665262203,0.6805875345544642,-0.08234624317271674,-0.6857963048244508,-0.723119993171582,,0.0,0.0,0.045,1.0,0.0,0.0,0.0,1.0,0.0,0.0,0.0,1.0,,-0.0005789313634909996,-0.18285425070962588,0.23380443500249326,False,,0.16728101276240845,0.5405052218173113,-0.3537286736692672,-0.11748439954453549,-0.27945938547876603,-0.952942741056088,0.7415137590625446,0.6136108025106584,-0.271365303904461,0.660571541155532,-0.7385013438783008,0.13513328274466319,False,,0.0,0.0,0.0,0.0,0.0,0.0
10:15:46.438192,,-0.18810260461748637,-0.3433835945195186,0.13027584871,-3.0193420224625798,-0.360840550136496,1.1716699911500783,,0.1672798033672867,0.5405039966151994,-0.35373113247363314,-0.11749997335522427,-0.2853004754080132,-0.951208386734202,0.7468299851576319,0.6059456514415491,-0.2739978846059361,0.6545523122951845,-0.7425856894871044,0.14187235191533581,,-0.025545845438964404,0.3024136836728419,-0.09156854757303341,0.3693263035458621,-0.8591927916289541,0.35409861270069604,0.9187631544464283,0.3948090362062138,-0.0003002601074057476,-0.13954335073861912,0.32544365247662826,0.9352080418398216,,0.053760382454458404,0.7043618139362147,1.1529369854851188,0.9922617208217355,-0.0768032718529755,-0.09755990377489436,0.0046369851568879294,-0.7622647314724931,0.6472487756047307,-0.12407729752272777,-0.642692567707023,-0.7560099785410312,,0.1790766554840742,0.6948840336468001,-0.4364597538875623,0.9930136959399173,0.005071133121713298,-0.11789013226138623,0.08451565482846994,-0.7277758665262203,0.6805875345544642,-0.08234624317271674,-0.6857963048244508,-0.723119993171582,,0.0,0.0,0.045,1.0,0.0,0.0,0.0,1.0,0.0,0.0,0.0,1.0,,-0.0005789313634909996,-0.18285425070962588,0.23380443500249326,False,,0.1672798033672867,0.5405039966151994,-0.35373113247363314,-0.1174852590533916,-0.27945199551443956,-0.952944802235762,0.7415040788341462,0.6136234553716479,-0.2713631443105051,0.6605822545130032,-0.7384936270684788,0.13512308389672315,False,,0.0,0.0,0.0,0.0,0.0,0.0
10:15:46.449806,,-0.1881103273503606,-0.3433913172523928,0.13027584871,-3.0193420224625798,-0.360840550136496,1.1716699911500783,,0.16727972027968802,0.5405028436379671,-0.35373054586668073,-0.1175230325860084,-0.28529616355308257,-0.9512068312799696,0.7468264222600544,0.6059433997728769,-0.2740125750507345,0.6545522376602458,-0.7425891834208064,0.14185440719408346,,-0.025552106620473775,0.30240837384472286,-0.09156982097932542,0.36933738281113687,-0.8591842062539637,0.3541078887546584,0.9187583322967418,0.3948202534027914,-0.00030632430674909505,-0.13954577739883467,0.32545271042505897,0.9352045277817325,,0.053760382454458404,0.7043618139362147,1.1529369854851188,0.9922617208217355,-0.0768032718529755,-0.09755990377489436,0.0046369851568879294,-0.7622647314724931,0.6472487756047307,-0.12407729752272777,-0.642692567707023,-0.7560099785410312,,0.1790766554840742,0.6948840336468001,-0.4364597538875623,0.9930136959399173,0.005071133121713298,-0.11789013226138623,0.08451565482846994,-0.7277758665262203,0.6805875345544642,-0.08234624317271674,-0.6857963048244508,-0.723119993171582,,0.0,0.0,0.045,1.0,0.0,0.0,0.0,1.0,0.0,0.0,0.0,1.0,,-0.0005789313634909996,-0.18285425070962588,0.23380443500249326,False,,0.16727972027968802,0.5405028436379671,-0.35373054586668073,-0.1174852590533916,-0.27945199551443956,-0.952944802235762,0.7415040788341462,0.6136234553716479,-0.2713631443105051,0.6605822545130032,-0.7384936270684788,0.13512308389672315,False,,0.0,0.0,0.0,0.0,0.0,0.0
10:15:46.461515,,-0.18811805008323484,-0.34339903998526705,0.13027584871,-3.0193420224625798,-0.360840550136496,1.1717388727941287,,0.16727722844247744,0.540501677793913,-0.35373307719621366,-0.11752980066369416,-0.2853310843673982,-0.9511955205159858,0.7468253764406656,0.6059323140922613,-0.27403993840872054,0.6545522156865795,-0.7425848120130939,0.14187739040195108,,-0.025558591151186257,0.30240377992652245,-0.09157103003250072,0.3693471159219097,-0.8591766000093257,0.35411619272075123,0.9187537096667322,0.394831008661082,-0.00030913386773151474,-0.1395504529703968,0.3254597434192829,0.9352013828473893,,0.053760382454458404,0.7043618139362147,1.1529369854851188,0.9922617208217355,-0.0768032718529755,-0.09755990377489436,0.0046369851568879294,-0.7622647314724931,0.6472487756047307,-0.12407729752272777,-0.642692567707023,-0.7560099785410312,,0.1790766554840742,0.6948840336468001,-0.4364597538875623,0.9930136959399173,0.005071133121713298,-0.11789013226138623,0.08451565482846994,-0.7277758665262203,0.6805875345544642,-0.08234624317271674,-0.6857963048244508,-0.723119993171582,,0.0,0.0,0.045,1.0,0.0,0.0,0.0,1.0,0.0,0.0,0.0,1.0,,-0.0005789313634909996,-0.18285425070962588,0.23380443500249326,False,,0.16727722844247744,0.540501677793913,-0.35373307719621366,-0.11748590472969686,-0.2793715635988465,-0.9529683056860709,0.741494994675326,0.6136563070042194,-0.27131367408477935,0.6605923365141948,-0.7384967612158359,0.13505664964168881,False,,0.0,0.0,0.0,0.0,0.0,0.0
10:15:46.473338,,-0.1881334955489833,-0.34340676271814125,0.13027584871,-3.0193420224625798,-0.360840550136496,1.1717388727941287,,0.16727470009073162,0.5405011542326033,-0.3537344153734894,-0.11752090867993192,-0.2853424150871421,-0.9511932202109519,0.7468267504436538,0.6059303972330471,-0.2740404322919781,0.6545522445495207,-0.7425820223121746,0.14189185774365473,,-0.02555859361314919,0.30240424743422417,-0.09157103996129115,0.3693459973390047,-0.8591770744518464,0.35411620828720725,0.918753905129103,0.39483055548293894,-0.00030700609698411374,-0.13955212662430316,0.3254590407087915,0.9352013776514843,,0.053760382454458404,0.7043618139362147,1.1529369854851188,0.9922617208217355,-0.0768032718529755,-0.09755990377489436,0.0046369851568879294,-0.7622647314724931,0.6472487756047307,-0.12407729752272777,-0.642692567707023,-0.7560099785410312,,0.1790766554840742,0.6948840336468001,-0.4364597538875623,0.9930136959399173,0.005071133121713298,-0.11789013226138623,0.08451565482846994,-0.7277758665262203,0.6805875345544642,-0.08234624317271674,-0.6857963048244508,-0.723119993171582,,0.0,0.0,0.045,1.0,0.0,0.0,0.0,1.0,0.0,0.0,0.0,1.0,,-0.0005789313634909996,-0.18285425070962588,0.23380443500249326,False,,0.16727470009073162,0.5405011542326033,-0.3537344153734894,-0.11748601371908299,-0.27935676738160353,-0.9529726297740665,0.7414910487725326,0.6136648960065866,-0.27130503128293604,0.6605967462609917,-0.7384952213300543,0.13504350003634016,False,,0.0,0.0,0.0,0.0,0.0,0.0
10:15:46.485650,,-0.18814894101473173,-0.34342220818388974,0.13027584871,-3.0193420224625798,-0.360840550136496,1.1717388727941287,,0.16727341764629908,0.5405012135765519,-0.3537344878755334,-0.11752086547984532,-0.28534711242532057,-0.9511918164110748,0.7468267571188464,0.6059290504604081,-0.27404339192816873,0.6545522446896167,-0.7425813162466989,0.14189555219634098,,-0.025559032886388056,0.3024042767661097,-0.09157088145417507,0.3693466608342995,-0.85917760968283,0.35411421762814815,0.9187537178827186,0.39483099128310256,-0.0003068798267681361,-0.13955160329920413,0.3254570990441676,0.9352021314531529,,0.053760382454458404,0.7043618139362147,1.1529369854851188,0.9922617208217355,-0.0768032718529755,-0.09755990377489436,0.0046369851568879294,-0.7622647314724931,0.6472487756047307,-0.12407729752272777,-0.642692567707023,-0.7560099785410312,,0.1790766554840742,0.6948840336468001,-0.4364597538875623,0.9930136959399173,0.005071133121713298,-0.11789013226138623,0.08451565482846994,-0.7277758665262203,0.6805875345544642,-0.08234624317271674,-0.6857963048244508,-0.723119993171582,,0.0,0.0,0.045,1.0,0.0,0.0,0.0,1.0,0.0,0.0,0.0,1.0,,-0.0005789313634909996,-0.18285425070962588,0.23380443500249326,False,,0.16727341764629908,0.5405012135765519,-0.3537344878755334,-0.11748579969671555,-0.2793493666012539,-0.9529748256114124,0.7414916450077254,0.6136664045081142,-0.2712999896089596,0.660596115075892,-0.7384967673304754,0.13503813309238596,False,,0.0,0.0,0.0,0.0,0.0,0.0
10:15:46.497406,,-0.18815666374760595,-0.34342220818388974,0.13027584871,-3.0193420224625798,-0.360840550136496,1.1717388727941287,,0.1672722083096316,0.5404999884960988,-0.353736946787757,-0.11750306151702987,-0.2853586000673601,-0.9511905697081534,0.7468295080277847,0.6059284391625176,-0.2740372466528084,0.6545523023205266,-0.7425774006672109,0.1419157762379727,,-0.025559472159650334,0.30240430609802854,-0.09157072294712637,0.3693473243292869,-0.8591781449115566,0.35411222696837974,0.9187535306384113,0.3948314270838665,-0.000306753555543271,-0.13955107997297217,0.3254551573790562,0.9352028852527796,,0.053760382454458404,0.7043618139362147,1.1529369854851188,0.9922617208217355,-0.0768032718529755,-0.09755990377489436,0.0046369851568879294,-0.7622647314724931,0.6472487756047307,-0.12407729752272777,-0.642692567707023,-0.7560099785410312,,0.1790766554840742,0.6948840336468001,-0.4364597538875623,0.9930136959399173,0.005071133121713298,-0.11789013226138623,0.08451565482846994,-0.7277758665262203,0.6805875345544642,-0.08234624317271674,-0.6857963048244508,-0.723119993171582,,0.0,0.0,0.045,1.0,0.0,0.0,0.0,1.0,0.0,0.0,0.0,1.0,,-0.0005789313634909996,-0.18285425070962588,0.23380443500249326,False,,0.1672722083096316,0.5404999884960988,-0.353736946787757,-0.11748666016774167,-0.2793419763750431,-0.9529768858254195,0.7414819643780093,0.6136790566260373,-0.27129782889051235,0.6606068279882962,-0.7384890491357756,0.13502793459791884,False,,0.0,0.0,0.0,0.0,0.0,0.0
10:15:46.508997,,-0.18816438648048017,-0.34342993091676394,0.13027584871,-3.0193420224625798,-0.360840550136496,1.1717388727941287,,0.1672709258732534,0.5405000478533435,-0.35373701930385215,-0.11750468615095606,-0.2853642189456167,-0.9511886833210977,0.7468292570141897,0.6059265741170001,-0.27404205452169034,0.654552297070447,-0.7425767632537351,0.14191913569144732,,-0.025559690566480275,0.3024040870098423,-0.0915706387299362,0.36934821536026163,-0.8591781753038785,0.35411122385246285,0.9187533392845455,0.3948318715698944,-0.0003077543055685361,-0.13954998147720385,0.32545453790155354,0.9352032647481507,,0.053760382454458404,0.7043618139362147,1.1529369854851188,0.9922617208217355,-0.0768032718529755,-0.09755990377489436,0.0046369851568879294,-0.7622647314724931,0.6472487756047307,-0.12407729752272777,-0.642692567707023,-0.7560099785410312,,0.1790766554840742,0.6948840336468001,-0.4364597538875623,0.9930136959399173,0.005071133121713298,-0.11789013226138623,0.08451565482846994,-0.7277758665262203,0.6805875345544642,-0.08234624317271674,-0.6857963048244508,-0.723119993171582,,0.0,0.0,0.045,1.0,0.0,0.0,0.0,1.0,0.0,0.0,0.0,1.0,,-0.0005789313634909996,-0.18285425070962588,0.23380443500249326,False,,0.1672709258732534,0.5405000478533435,-0.35373701930385215,-0.11748644625015095,-0.27933457555439,-0.9529790815371338,0.7414825606162291,0.6136805650489883,-0.2712927871933841,0.6606061967992055,-0.7384905950525054,0.1350225676303264,False,,0.0,0.0,0.0,0.0,0.0,0.0
10:15:46.521645,,-0.18816438648048017,-0.3434376536496382,0.13027584871,-3.0193420224625798,-0.360840550136496,1.1717388727941287,,0.16726971656057266,0.5404988228224297,-0.3537394782491454,-0.1174902177611437,-0.2853775497036774,-0.951186471127278,0.7468314923757994,0.6059249264615573,-0.27403960569285,0.6545523437634115,-0.7425729847076862,0.14193868977887292,,-0.025559688104575706,0.3024036195021844,-0.09157062880114081,0.36934933393862984,-0.8591777008630554,0.3541112082842383,0.9187531438189178,0.39483232475281566,-0.0003098820749889153,-0.1395483078209977,0.3254552406149265,0.9352032699442059,,0.053760382454458404,0.7043618139362147,1.1529369854851188,0.9922617208217355,-0.0768032718529755,-0.09755990377489436,0.0046369851568879294,-0.7622647314724931,0.6472487756047307,-0.12407729752272777,-0.642692567707023,-0.7560099785410312,,0.1790766554840742,0.6948840336468001,-0.4364597538875623,0.9930136959399173,0.005071133121713298,-0.11789013226138623,0.08451565482846994,-0.7277758665262203,0.6805875345544642,-0.08234624317271674,-0.6857963048244508,-0.723119993171582,,0.0,0.0,0.045,1.0,0.0,0.0,0.0,1.0,0.0,0.0,0.0,1.0,,-0.0005789313634909996,-0.18285425070962588,0.23380443500249326,False,,0.16726971656057266,0.5404988228224297,-0.3537394782491454,-0.11748730706145127,-0.27932718528967987,-0.9529811415959883,0.7414728798243466,0.6136932169449711,-0.2712906263782855,0.6606169095356538,-0.73848287660167,0.1350123690692242,False,,0.0,0.0,0.0,0.0,0.0,0.0
10:15:46.533045,,-0.18816438648048017,-0.34345309911538663,0.13027584871,-3.0193420224625798,-0.360840550136496,1.1717388727941287,,0.16726978968625922,0.5404975384643067,-0.35374186469087676,-0.11747412471966984,-0.28538526162571753,-0.9511861450148275,0.7468339785529611,0.6059251440217855,-0.2740323490410097,0.6545523955346148,-0.7425698433743451,0.1419548844207132,,-0.02555946723703415,0.3024033710831689,-0.09157070309143725,0.36934956148575826,-0.8591771960244091,0.35411219583017794,0.918753139702538,0.39483233344526103,-0.0003110090949112465,-0.13954773266078144,0.3254565628030298,0.9352028956389253,,0.053760382454458404,0.7043618139362147,1.1529369854851188,0.9922617208217355,-0.0768032718529755,-0.09755990377489436,0.0046369851568879294,-0.7622647314724931,0.6472487756047307,-0.12407729752272777,-0.642692567707023,-0.7560099785410312,,0.1790766554840742,0.6948840336468001,-0.4364597538875623,0.9930136959399173,0.005071133121713298,-0.11789013226138623,0.08451565482846994,-0.7277758665262203,0.6805875345544642,-0.08234624317271674,-0.6857963048244508,-0.723119993171582,,0.0,0.0,0.045,1.0,0.0,0.0,0.0,1.0,0.0,0.0,0.0,1.0,,-0.0005789313634909996,-0.18285425070962588,0.23380443500249326,False,,0.16726978968625922,0.5404975384643067,-0.35374186469087676,-0.11748838179617027,-0.27932719587799837,-0.9529810059942705,0.7414626026196702,0.6137043603143878,-0.2712935071975978,0.660628253300888,-0.7384736121040768,0.13500753744356386,False,,0.0,0.0,0.0,0.0,0.0,0.0
10:15:46.545071,,-0.1881721092133544,-0.34345309911538663,0.13027584871,-3.0193420224625798,-0.360840550136496,1.1717388727941287,,0.16726850726454723,0.5404975978345539,-0.3537419372206623,-0.11747635466988593,-0.28539021569351397,-0.9511843832190923,0.7468336340651602,0.6059233787408123,-0.27403719113351155,0.6545523883712453,-0.7425693798438824,0.14195734216929567,,-0.02555902796374816,0.3024033417512152,-0.09157086159851142,0.36934889799464704,-0.8591766607949287,0.354114186490665,0.918753326948569,0.3948318976403106,-0.0003111353671942374,-0.13954825598912102,0.32545850446647867,0.9352021418385266,,0.053760382454458404,0.7043618139362147,1.1529369854851188,0.9922617208217355,-0.0768032718529755,-0.09755990377489436,0.0046369851568879294,-0.7622647314724931,0.6472487756047307,-0.12407729752272777,-0.642692567707023,-0.7560099785410312,,0.1790766554840742,0.6948840336468001,-0.4364597538875623,0.9930136959399173,0.005071133121713298,-0.11789013226138623,0.08451565482846994,-0.7277758665262203,0.6805875345544642,-0.08234624317271674,-0.6857963048244508,-0.723119993171582,,0.0,0.0,0.045,1.0,0.0,0.0,0.0,1.0,0.0,0.0,0.0,1.0,,-0.0005789313634909996,-0.18285425070962588,0.23380443500249326,False,,0.16726850726454723,0.5404975978345539,-0.3537419372206623,-0.11748816810154356,-0.27931979501010207,-0.9529832015684527,0.7414631988661662,0.6137058686584533,-0.2712884654778479,0.6606276221013587,-0.7384751579367365,0.13500217045298396,False,,0.0,0.0,0.0,0.0,0.0,0.0
10:15:46.557919,,-0.18818755467910286,-0.34346854458113507,0.13027584871,-3.0193420224625798,-0.360840550136496,1.1717388727941287,,0.16726726141402867,0.5404970150460521,-0.3537432029855605,-0.11746917274355909,-0.28539777205370753,-0.9511830029819309,0.7468347435316091,0.6059222904416928,-0.2740365738363561,0.6545524114301463,-0.7425673637136722,0.1419677816911551,,-0.025558370284852545,0.3024035315080047,-0.09157110432476957,0.3693473434682354,-0.8591760951619796,0.3541171802644869,0.9187537055488821,0.39483101735005677,-0.00031026088692209797,-0.13954987780881883,0.32546106560360305,0.9352010085340005,,0.053760382454458404,0.7043618139362147,1.1529369854851188,0.9922617208217355,-0.0768032718529755,-0.09755990377489436,0.0046369851568879294,-0.7622647314724931,0.6472487756047307,-0.12407729752272777,-0.642692567707023,-0.7560099785410312,,0.1790766554840742,0.6948840336468001,-0.4364597538875623,0.9930136959399173,0.005071133121713298,-0.11789013226138623,0.08451565482846994,-0.7277758665262203,0.6805875345544642,-0.08234624317271674,-0.6857963048244508,-0.723119993171582,,0.0,0.0,0.045,1.0,0.0,0.0,0.0,1.0,0.0,0.0,0.0,1.0,,-0.0005789313634909996,-0.18285425070962588,0.23380443500249326,False,,0.16726726141402867,0.5404970150460521,-0.3537432029855605,-0.11748849188542948,-0.2793123994186322,-0.9529853292708624,0.741458656448583,0.6137129485942528,-0.27128486412848474,0.6606326627195706,-0.7384720714141834,0.13499438762147004,False,,0.0,0.0,0.0,0.0,0.0,0.0
