AlexandreBanks6/RCL_Autocam_Public/optimizationData/Data_58.csv
System Time,q_des,q0,q1,q2,q3,q4,q5,T_des,Tx,Ty,Tz,R00,R01,R02,R10,R11,R12,R20,R21,R22,T_target,Tx,Ty,Tz,R00,R01,R02,R10,R11,R12,R20,R21,R22,worldFrame,Tx,Ty,Tz,R00,R01,R02,R10,R11,R12,R20,R21,R22,ECM_T_PSM_RCM,Tx,Ty,Tz,R00,R01,R02,R10,R11,R12,R20,R21,R22,psm3_T_cam,Tx,Ty,Tz,R00,R01,R02,R10,R11,R12,R20,R21,R22,offset,x,y,z,IK Trigered,ECM_T_PSM3,Tx,Ty,Tz,R00,R01,R02,R10,R11,R12,R20,R21,R22,solverSuccess,q_solverOutput,q0,q1,q2,q3,q4,q5
10:14:49.859335,,-0.31311820438543275,-0.30886297857173506,0.13188065573000002,-0.05137074968773139,0.12569055593973857,-1.1361182899681284,,0.14663156380206732,0.5421621546996005,-0.3515441503251629,-0.17819095197625018,-0.33038256008619266,-0.9268739658792293,0.7359985914033781,0.5804530869791912,-0.3483967383150578,0.6531110610654525,-0.7442590797613562,0.13972961070130446,,-0.025511635620136287,0.3024150336868589,-0.09157551740568691,0.3692201768072389,-0.8592138920966373,0.3541580842880473,0.9187869039099782,0.3947538468409128,-0.00016002442985638132,-0.13966777094930746,0.32545489400598904,0.9351855568418508,,0.0537273472211149,0.704355358925087,1.1529405304705909,0.9922653582786767,-0.07675626316805109,-0.09755990377489436,0.00467309759675804,-0.7622645109389707,0.6472487756047308,-0.12404684969373843,-0.6426984451727332,-0.7560099785410312,,0.17914215568654193,0.6948748974441302,-0.436441188598113,0.9930156557530702,0.005115227505816694,-0.11787171788373939,0.0845312356880108,-0.7278063992322344,0.6805529482925389,-0.08230660740401151,-0.6857635741887819,-0.7231555452967701,,0.0,0.0,0.045,1.0,0.0,0.0,0.0,1.0,0.0,0.0,0.0,1.0,,-0.0005789313634909996,-0.18285425070962588,0.23380443500249326,False,,0.14663156380206732,0.5421621546996005,-0.3515441503251629,-0.009640114651335907,0.24778010943553078,-0.9687683343078599,-0.5857407452778859,-0.7866019343773025,-0.19535909539919705,-0.8104411437672792,0.5655638020612724,0.15271783879816375,False,,0.0,0.0,0.0,0.0,0.0,0.0
10:14:50.311756,,-0.31254672215274015,-0.3128633542005833,0.13201028473,-1.2685430024929587,-0.07015598800051577,-0.21992696306360304,,0.14606758754531102,0.5409794201679874,-0.35353507376155524,-0.10362568330547144,-0.09910756146780632,-0.9896663119553878,0.7488983213461647,0.6470256296514859,-0.14321012135667854,0.6545326745429678,-0.755999686398085,0.007173013427163865,,-0.025512181581419904,0.3024144859093147,-0.0915753068627153,0.3692224046280575,-0.8592139682281752,0.3541555769923899,0.9187864260991692,0.39475495790876086,-0.00016252665540522626,-0.13966502471677078,0.32545334535166504,0.9351865059242563,,0.0537273472211149,0.704355358925087,1.1529405304705909,0.9922653582786767,-0.07675626316805109,-0.09755990377489436,0.00467309759675804,-0.7622645109389707,0.6472487756047308,-0.12404684969373843,-0.6426984451727332,-0.7560099785410312,,0.17914215568654193,0.6948748974441302,-0.436441188598113,0.9930156557530702,0.005115227505816694,-0.11787171788373939,0.0845312356880108,-0.7278063992322344,0.6805529482925389,-0.08230660740401151,-0.6857635741887819,-0.7231555452967701,,0.0,0.0,0.045,1.0,0.0,0.0,0.0,1.0,0.0,0.0,0.0,1.0,,-0.0005789313634909996,-0.18285425070962588,0.23380443500249326,False,,0.14606758754531102,0.5409794201679874,-0.35353507376155524,-0.9024657405894327,0.2913634725600812,-0.31727419359301495,0.039177850886249393,-0.6779719023248648,-0.734043047550986,-0.42897631993188384,-0.6748788235792669,0.6004314202487768,False,,0.0,0.0,0.0,0.0,0.0,0.0
10:14:50.323324,,-0.31252355395411746,-0.31299464065944516,0.1320141736,-1.3287201664128725,-0.07565578820705715,-0.1895181250547898,,0.1460033081311905,0.5409911030567797,-0.3535393812716955,-0.09674393959104945,-0.09888015015586277,-0.9903854431773306,0.7498685105746291,0.6470655965070303,-0.13785256858538536,0.6544752302425132,-0.7559952577378743,0.011547435942849968,,-0.025511999594307215,0.30241466850181753,-0.09157537704368922,0.36922166202173723,-0.8592139428509943,0.3541564127581592,0.9187865853697602,0.3947545875521383,-0.00016169258058254532,-0.13966594012806272,0.3254538615692901,0.9351861895639579,,0.0537273472211149,0.704355358925087,1.1529405304705909,0.9922653582786767,-0.07675626316805109,-0.09755990377489436,0.00467309759675804,-0.7622645109389707,0.6472487756047308,-0.12404684969373843,-0.6426984451727332,-0.7560099785410312,,0.17914215568654193,0.6948748974441302,-0.436441188598113,0.9930156557530702,0.005115227505816694,-0.11787171788373939,0.0845312356880108,-0.7278063992322344,0.6805529482925389,-0.08230660740401151,-0.6857635741887819,-0.7231555452967701,,0.0,0.0,0.045,1.0,0.0,0.0,0.0,1.0,0.0,0.0,0.0,1.0,,-0.0005789313634909996,-0.18285425070962588,0.23380443500249326,False,,0.1460033081311905,0.5409911030567797,-0.3535393812716955,-0.9206480467178965,0.24486511045927276,-0.30405304102128367,0.0740610601463936,-0.6551456205918332,-0.751863800956885,-0.3833042309243592,-0.7147204303076204,0.5850235662401777,False,,0.0,0.0,0.0,0.0,0.0,0.0
10:14:50.336249,,-0.31245404935824944,-0.31324949084429454,0.13202065505000002,-1.4423648453138949,-0.08665538862013993,-0.13462427042548228,,0.1459460861832642,0.5410063928459306,-0.35353694881287634,-0.09062110491280143,-0.09914856852822598,-0.990937625031559,0.7507007345877645,0.6470357728116741,-0.13339083848372107,0.6543976027109005,-0.755985628210486,0.015795806577162296,,-0.025512181581419904,0.3024144859093147,-0.09157530686271528,0.3692224046280575,-0.8592139682281752,0.3541555769923899,0.9187864260991692,0.39475495790876086,-0.00016252665540522626,-0.13966502471677078,0.32545334535166504,0.9351865059242563,,0.0537273472211149,0.704355358925087,1.1529405304705909,0.9922653582786767,-0.07675626316805109,-0.09755990377489436,0.00467309759675804,-0.7622645109389707,0.6472487756047308,-0.12404684969373843,-0.6426984451727332,-0.7560099785410312,,0.17914215568654193,0.6948748974441302,-0.436441188598113,0.9930156557530702,0.005115227505816694,-0.11787171788373939,0.0845312356880108,-0.7278063992322344,0.6805529482925389,-0.08230660740401151,-0.6857635741887819,-0.7231555452967701,,0.0,0.0,0.045,1.0,0.0,0.0,0.0,1.0,0.0,0.0,0.0,1.0,,-0.0005789313634909996,-0.18285425070962588,0.23380443500249326,False,,0.1459460861832642,0.5410063928459306,-0.35353694881287634,-0.9343966714364491,0.20030831548901834,-0.29458350115788295,0.10621835562978404,-0.6326623677691438,-0.7671088510348745,-0.3400301770957826,-0.7480741321250806,0.569881190696375,False,,0.0,0.0,0.0,0.0,0.0,0.0
10:14:50.348502,,-0.31243088115962675,-0.3133885000360306,0.13202584021000002,-1.5025420092338087,-0.09336246204275138,-0.1060144438925224,,0.1458827174318991,0.5410239004639387,-0.3535321854902157,-0.0844749810656593,-0.09993927728571562,-0.9914010885759433,0.7515068445936404,0.6469404751848183,-0.1292496966981025,0.6542946126194733,-0.7559630694837217,0.02045476653211088,,-0.02551229077369624,0.3024143763538187,-0.09157526475413892,0.36922285019155243,-0.8592139834544843,0.3541550755326643,0.9187863305366601,0.3947551801230571,-0.0001630271001259176,-0.13966447546978134,0.3254530356213218,0.9351866957401933,,0.0537273472211149,0.704355358925087,1.1529405304705909,0.9922653582786767,-0.07675626316805109,-0.09755990377489436,0.00467309759675804,-0.7622645109389707,0.6472487756047308,-0.12404684969373843,-0.6426984451727332,-0.7560099785410312,,0.17914215568654193,0.6948748974441302,-0.436441188598113,0.9930156557530702,0.005115227505816694,-0.11787171788373939,0.0845312356880108,-0.7278063992322344,0.6805529482925389,-0.08230660740401151,-0.6857635741887819,-0.7231555452967701,,0.0,0.0,0.045,1.0,0.0,0.0,0.0,1.0,0.0,0.0,0.0,1.0,,-0.0005789313634909996,-0.18285425070962588,0.23380443500249326,False,,0.1458827174318991,0.5410239004639387,-0.3535321854902157,-0.9454495782835461,0.152327826553851,-0.2879606365127793,0.14016131628238473,-0.6077368610619192,-0.7816717425649947,-0.2940746509671556,-0.7793921612153832,0.5532340903221349,False,,0.0,0.0,0.0,0.0,0.0,0.0
10:14:50.361231,,-0.31239999022812986,-0.31355840015926356,0.13203102537000003,-1.5643965853884239,-0.10020367693381506,-0.07582123829424614,,0.14573951759343035,0.5410725209645497,-0.35350463765418677,-0.07190260475979326,-0.10319861741870931,-0.9920584966581475,0.753064625453849,0.6465668993114639,-0.12183970865367828,0.6540058755996089,-0.7558447526295501,0.03122538396181814,,-0.0255125091582685,0.3024141572428395,-0.09157518053700414,0.36922374131787333,-0.8592140139071042,0.3541540726126187,0.9187861394112947,0.39475562455237684,-0.00016402798917825034,-0.13966337697532033,0.32545241616115683,0.9351870753715237,,0.0537273472211149,0.704355358925087,1.1529405304705909,0.9922653582786767,-0.07675626316805109,-0.09755990377489436,0.00467309759675804,-0.7622645109389707,0.6472487756047308,-0.12404684969373843,-0.6426984451727332,-0.7560099785410312,,0.17914215568654193,0.6948748974441302,-0.436441188598113,0.9930156557530702,0.005115227505816694,-0.11787171788373939,0.0845312356880108,-0.7278063992322344,0.6805529482925389,-0.08230660740401151,-0.6857635741887819,-0.7231555452967701,,0.0,0.0,0.045,1.0,0.0,0.0,0.0,1.0,0.0,0.0,0.0,1.0,,-0.0005789313634909996,-0.18285425070962588,0.23380443500249326,False,,0.14573951759343035,0.5410725209645497,-0.35350463765418677,-0.9576159812784876,0.049427501242197344,-0.2837755354518634,0.2114786250014949,-0.5482444276895508,-0.8091383309884866,-0.19557204188614566,-0.8348562568660004,0.5145547656024325,False,,0.0,0.0,0.0,0.0,0.0,0.0
10:14:50.373232,,-0.3123845447623814,-0.31375919121399337,0.13203880311000002,-1.629186632953767,-0.10811802357249657,-0.04136456074756528,,0.14565904950073272,0.5411023019959011,-0.3534829719201834,-0.06483005128436406,-0.10602739938936033,-0.9922475774871893,0.7538872286220689,0.6462631009584139,-0.11831335875610714,0.6537974540872755,-0.7557130374145625,0.038035432305323996,,-0.025512067371771176,0.30241366044396795,-0.09157532909668946,0.36922419607928625,-0.8592130042640858,0.35415604796365263,0.9187861315267138,0.3947556419364596,-0.00016628185135830753,-0.139662226532177,0.32545506055208606,0.9351863268981518,,0.0537273472211149,0.704355358925087,1.1529405304705909,0.9922653582786767,-0.07675626316805109,-0.09755990377489436,0.00467309759675804,-0.7622645109389707,0.6472487756047308,-0.12404684969373843,-0.6426984451727332,-0.7560099785410312,,0.17914215568654193,0.6948748974441302,-0.436441188598113,0.9930156557530702,0.005115227505816694,-0.11787171788373939,0.0845312356880108,-0.7278063992322344,0.6805529482925389,-0.08230660740401151,-0.6857635741887819,-0.7231555452967701,,0.0,0.0,0.045,1.0,0.0,0.0,0.0,1.0,0.0,0.0,0.0,1.0,,-0.0005789313634909996,-0.18285425070962588,0.23380443500249326,False,,0.14565904950073272,0.5411023019959011,-0.3534829719201834,-0.9578942471068076,-0.004709543290618165,-0.28708262149018426,0.2491563686178127,-0.5105265454539107,-0.8229725088750419,-0.1426874743517007,-0.8598490952422351,0.4902038535897519,False,,0.0,0.0,0.0,0.0,0.0,0.0
10:14:50.384988,,-0.312369099296633,-0.3139831504673459,0.13204658085,-1.6902025029910315,-0.11549580433736917,-0.00497560217612375,,0.14558894400149644,0.5411312518367546,-0.35345875371823077,-0.057537268019555596,-0.10957860355016738,-0.9923114392330872,0.7546950162972993,0.6459031306268612,-0.11508509122574825,0.6535479287434587,-0.7555141795429221,0.04553492445058113,,-0.025511625584208185,0.30241316364622695,-0.09157547765695682,0.36922465085339556,-0.8592119946148773,0.35415802331545876,0.9187861236392569,0.39475565932645357,-0.00016853571097266706,-0.13966107609759104,0.32545770494222714,0.9351855784193861,,0.0537273472211149,0.704355358925087,1.1529405304705909,0.9922653582786767,-0.07675626316805109,-0.09755990377489436,0.00467309759675804,-0.7622645109389707,0.6472487756047308,-0.12404684969373843,-0.6426984451727332,-0.7560099785410312,,0.17914215568654193,0.6948748974441302,-0.436441188598113,0.9930156557530702,0.005115227505816694,-0.11787171788373939,0.0845312356880108,-0.7278063992322344,0.6805529482925389,-0.08230660740401151,-0.6857635741887819,-0.7231555452967701,,0.0,0.0,0.045,1.0,0.0,0.0,0.0,1.0,0.0,0.0,0.0,1.0,,-0.0005789313634909996,-0.18285425070962588,0.23380443500249326,False,,0.14558894400149644,0.5411312518367546,-0.35345875371823077,-0.9543776296166674,-0.05423157130681547,-0.2936363001416298,0.2838970797731186,-0.46959060770321026,-0.8359946825508076,-0.0925515433883575,-0.8812171116305696,0.4635629557955526,False,,0.0,0.0,0.0,0.0,0.0,0.0
10:14:50.398060,,-0.31235365383088454,-0.314469682638422,0.13206602520000002,-1.8002826808933132,-0.12595883887664303,0.06679785023684215,,0.14553787616113442,0.5411535214488737,-0.3534337785252488,-0.050674636349907216,-0.11343718573364098,-0.9922520275230664,0.7554177178606317,0.6455347099310589,-0.11237886730368378,0.6532810672084718,-0.7552595204080882,0.05298022329044043,,-0.02551096541207901,0.30241288595951327,-0.09157571043452598,0.36922421450398285,-0.8592109545058978,0.35416100158712627,0.9187863068851844,0.3947552322848978,-0.00016978868007389014,-0.13966102415640633,0.3254609687888488,0.9351844503042293,,0.0537273472211149,0.704355358925087,1.1529405304705909,0.9922653582786767,-0.07675626316805109,-0.09755990377489436,0.00467309759675804,-0.7622645109389707,0.6472487756047308,-0.12404684969373843,-0.6426984451727332,-0.7560099785410312,,0.17914215568654193,0.6948748974441302,-0.436441188598113,0.9930156557530702,0.005115227505816694,-0.11787171788373939,0.0845312356880108,-0.7278063992322344,0.6805529482925389,-0.08230660740401151,-0.6857635741887819,-0.7231555452967701,,0.0,0.0,0.045,1.0,0.0,0.0,0.0,1.0,0.0,0.0,0.0,1.0,,-0.0005789313634909996,-0.18285425070962588,0.23380443500249326,False,,0.14553787616113442,0.5411535214488737,-0.3534337785252488,-0.9483591856982174,-0.09686028821402252,-0.3020479092278419,0.31361486154563684,-0.42905351725726953,-0.8470884239244904,-0.04754548895032179,-0.8980708011600548,0.43727367012457136,False,,0.0,0.0,0.0,0.0,0.0,0.0
10:14:50.409857,,-0.3123382083651361,-0.31475542375476834,0.13207509923000002,-1.857314696873162,-0.12944651705640098,0.10479715030875897,,0.14550264098190493,0.5411715556345655,-0.35340458377402345,-0.04388432568926626,-0.11776824152405294,-0.9920709688561251,0.7560971137424448,0.6451437065922168,-0.11003068860459037,0.6529864627610155,-0.7549306187543251,0.060732530970386285,,-0.025510523625735994,0.3024123891606542,-0.09157585899465823,0.36922466927748965,-0.8592099448564939,0.35416297693348375,0.9187862990075312,0.3947552496562463,-0.00017204254187430656,-0.1396598737172925,0.32546361317710076,0.9351837018173139,,0.0537273472211149,0.704355358925087,1.1529405304705909,0.9922653582786767,-0.07675626316805109,-0.09755990377489436,0.00467309759675804,-0.7622645109389707,0.6472487756047308,-0.12404684969373843,-0.6426984451727332,-0.7560099785410312,,0.17914215568654193,0.6948748974441302,-0.436441188598113,0.9930156557530702,0.005115227505816694,-0.11787171788373939,0.0845312356880108,-0.7278063992322344,0.6805529482925389,-0.08230660740401151,-0.6857635741887819,-0.7231555452967701,,0.0,0.0,0.045,1.0,0.0,0.0,0.0,1.0,0.0,0.0,0.0,1.0,,-0.0005789313634909996,-0.18285425070962588,0.23380443500249326,False,,0.14550264098190493,0.5411715556345655,-0.35340458377402345,-0.939630743124944,-0.13969900988477946,-0.312375180210717,0.34218936811907524,-0.38549502392268664,-0.8569130777839228,-0.0007091690444508691,-0.9120733376039777,0.41002649171877525,False,,0.0,0.0,0.0,0.0,0.0,0.0
10:14:50.423160,,-0.3123459310980103,-0.31509522400123424,0.13208417326000002,-1.9162338016170497,-0.13306833670461116,0.14679068698774989,,0.1454719362159721,0.541198186676987,-0.35334868759941507,-0.03025145321736495,-0.12871933517227782,-0.9912195429525409,0.7573540826646747,0.6442162734315675,-0.10677165596305414,0.6523033366842351,-0.7539341654274268,0.07799763555302702,,-0.025510521118587093,0.3024119216501078,-0.09157584905814148,0.3692257877888576,-0.8592094704921079,0.35416296168134087,0.9187861039337991,0.39475570275977523,-0.00017417036539607578,-0.13965820000407284,0.32546431591472125,0.9351837072021276,,0.0537273472211149,0.704355358925087,1.1529405304705909,0.9922653582786767,-0.07675626316805109,-0.09755990377489436,0.00467309759675804,-0.7622645109389707,0.6472487756047308,-0.12404684969373843,-0.6426984451727332,-0.7560099785410312,,0.17914215568654193,0.6948748974441302,-0.436441188598113,0.9930156557530702,0.005115227505816694,-0.11787171788373939,0.0845312356880108,-0.7278063992322344,0.6805529482925389,-0.08230660740401151,-0.6857635741887819,-0.7231555452967701,,0.0,0.0,0.045,1.0,0.0,0.0,0.0,1.0,0.0,0.0,0.0,1.0,,-0.0005789313634909996,-0.18285425070962588,0.23380443500249326,False,,0.1454719362159721,0.541198186676987,-0.35334868759941507,-0.9126714901493678,-0.2236734072659763,-0.34205402782391137,0.3970279090948481,-0.28669431715662214,-0.87188027154528,0.09695148512686891,-0.9315452621274647,0.3504623148636207,False,,0.0,0.0,0.0,0.0,0.0,0.0
10:14:50.435000,,-0.31236137656375873,-0.315465915179197,0.13209454358,-1.9680239043634562,-0.1368242978212736,0.18651023066524502,,0.14545741487071173,0.5412040431471321,-0.3533324334373117,-0.02416346591643338,-0.13506285359548312,-0.9905423527005549,0.7578692878760885,0.6436952621682656,-0.10625700897502383,0.6519587942570418,-0.753269165067025,0.08680608014494866,,-0.025511181290747274,0.3024121993384376,-0.09157561628269703,0.3692262241376406,-0.859210510594469,0.35415998341161004,0.9187859206739939,0.3947561298167205,-0.00017291739335889567,-0.13965825194868106,0.32546105206794795,0.9351848353168063,,0.0537273472211149,0.704355358925087,1.1529405304705909,0.9922653582786767,-0.07675626316805109,-0.09755990377489436,0.00467309759675804,-0.7622645109389707,0.6472487756047308,-0.12404684969373843,-0.6426984451727332,-0.7560099785410312,,0.17914215568654193,0.6948748974441302,-0.436441188598113,0.9930156557530702,0.005115227505816694,-0.11787171788373939,0.0845312356880108,-0.7278063992322344,0.6805529482925389,-0.08230660740401151,-0.6857635741887819,-0.7231555452967701,,0.0,0.0,0.045,1.0,0.0,0.0,0.0,1.0,0.0,0.0,0.0,1.0,,-0.0005789313634909996,-0.18285425070962588,0.23380443500249326,False,,0.14545741487071173,0.5412040431471321,-0.3533324334373117,-0.8963748413490491,-0.25732298656645763,-0.3609667912439948,0.4207240943578801,-0.23730176072809683,-0.8756021418327428,0.1396545030538171,-0.936735157309612,0.3209733086051356,False,,0.0,0.0,0.0,0.0,0.0,0.0
10:14:50.446683,,-0.3124077129610041,-0.3162768021309906,0.13211398793,-2.0724428159736203,-0.14715319089209522,0.26785913034903003,,0.14544382334355857,0.5412110789385578,-0.3533183260881613,-0.018772429264723868,-0.1419737324321383,-0.9896924043351998,0.758301760583944,0.6431222059809091,-0.10664083678188137,0.6516333599462136,-0.7524874002091574,0.09558596513961447,,-0.025511402184056453,0.302412447737347,-0.09157554200129442,0.36922599674779344,-0.8592110154220063,0.35415899573853504,0.9187859246201362,0.3947561211272125,-0.0001717904632668188,-0.13965882716450176,0.32545972987379984,0.9351852095627654,,0.0537273472211149,0.704355358925087,1.1529405304705909,0.9922653582786767,-0.07675626316805109,-0.09755990377489436,0.00467309759675804,-0.7622645109389707,0.6472487756047308,-0.12404684969373843,-0.6426984451727332,-0.7560099785410312,,0.17914215568654193,0.6948748974441302,-0.436441188598113,0.9930156557530702,0.005115227505816694,-0.11787171788373939,0.0845312356880108,-0.7278063992322344,0.6805529482925389,-0.08230660740401151,-0.6857635741887819,-0.7231555452967701,,0.0,0.0,0.045,1.0,0.0,0.0,0.0,1.0,0.0,0.0,0.0,1.0,,-0.0005789313634909996,-0.18285425070962588,0.23380443500249326,False,,0.14544382334355857,0.5412110789385578,-0.3533183260881613,-0.8779902684972047,-0.2875683476484269,-0.3826715744015491,0.4434257562187039,-0.18750202952366746,-0.8764796561508869,0.18029610962546427,-0.9392270408986635,0.2921401692658224,False,,0.0,0.0,0.0,0.0,0.0,0.0
10:14:50.458566,,-0.31246177209112364,-0.31668610697332444,0.13212824712000001,-2.1200393881332738,-0.1522505666932799,0.30288573475272385,,0.1454179107358756,0.5412251183568842,-0.35329810710763615,-0.014598815018719593,-0.14930207599558964,-0.9886838547804128,0.7586212545324481,0.6424807379092242,-0.10822335047129718,0.6513683034748189,-0.7516165189237299,0.1038842707502459,,-0.02551184397154533,0.3024129445351059,-0.09157539344088711,0.36922554196903606,-0.8592120250708315,0.3541570203889749,0.9187859325081382,0.39475610374246967,-0.00016953660311183616,-0.13965997759654278,0.3254570854831552,0.9351859580457718,,0.0537273472211149,0.704355358925087,1.1529405304705909,0.9922653582786767,-0.07675626316805109,-0.09755990377489436,0.00467309759675804,-0.7622645109389707,0.6472487756047308,-0.12404684969373843,-0.6426984451727332,-0.7560099785410312,,0.17914215568654193,0.6948748974441302,-0.436441188598113,0.9930156557530702,0.005115227505816694,-0.11787171788373939,0.0845312356880108,-0.7278063992322344,0.6805529482925389,-0.08230660740401151,-0.6857635741887819,-0.7231555452967701,,0.0,0.0,0.045,1.0,0.0,0.0,0.0,1.0,0.0,0.0,0.0,1.0,,-0.0005789313634909996,-0.18285425070962588,0.23380443500249326,False,,0.1454179107358756,0.5412251183568842,-0.35329810710763615,-0.8568249539572879,-0.3158359722553478,-0.40755200515469325,0.4664291868603642,-0.13789419742658626,-0.8737442440215888,0.21976080615266994,-0.9387400220218574,0.2654663050813263,False,,0.0,0.0,0.0,0.0,0.0,0.0
10:14:50.470615,,-0.31252355395411746,-0.3172035300758975,0.13213991373,-2.1718294908796807,-0.1573479424944646,0.34108089478272774,,0.14539697534120952,0.5412334913124228,-0.35327826836220855,-0.011566454630814014,-0.15669720116560507,-0.9875789610325543,0.7588450024163673,0.6417908656190241,-0.11071922649516278,0.6511685491752321,-0.7506999879811173,0.11148564306749828,,-0.025512067373353098,0.3024136604449738,-0.09157532909817948,0.36922419607708423,-0.8592130042589614,0.35415604796154043,0.918786131521234,0.3947556419341053,-0.00016628185135725282,-0.13966222653134405,0.325455060550145,0.9351863268925745,,0.0537273472211149,0.704355358925087,1.1529405304705909,0.9922653582786767,-0.07675626316805109,-0.09755990377489436,0.00467309759675804,-0.7622645109389707,0.6472487756047308,-0.12404684969373843,-0.6426984451727332,-0.7560099785410312,,0.17914215568654193,0.6948748974441302,-0.436441188598113,0.9930156557530702,0.005115227505816694,-0.11787171788373939,0.0845312356880108,-0.7278063992322344,0.6805529482925389,-0.08230660740401151,-0.6857635741887819,-0.7231555452967701,,0.0,0.0,0.045,1.0,0.0,0.0,0.0,1.0,0.0,0.0,0.0,1.0,,-0.0005789313634909996,-0.18285425070962588,0.23380443500249326,False,,0.14539697534120952,0.5412334913124228,-0.35327826836220855,-0.8331787441590991,-0.3428886837546118,-0.43386695061331493,0.4885922189031724,-0.08895938372195833,-0.8679653631770591,0.25901896438048955,-0.935154307374371,0.2416518104430826,False,,0.0,0.0,0.0,0.0,0.0,0.0
10:14:50.482800,,-0.3125930585499855,-0.3176746167812252,0.13215028405,-2.217329297745957,-0.16271360123255377,0.37527912196214175,,0.1453734066410015,0.541241909119218,-0.3532604830407031,-0.008008489446920692,-0.17193941073455676,-0.9850749733563594,0.7590985395714985,0.6402071771703912,-0.11791597652539473,0.6509264715136392,-0.7487133024968722,0.12539186316117412,,-0.02551119132401784,0.3024140693814008,-0.09157565603181594,0.3692217500958186,-0.8592124080562747,0.3541600444016889,0.9187867009499654,0.39475431736764977,-0.0001644061049820844,-0.13966494680465633,0.32545824112169314,0.9351848137519738,,0.0537273472211149,0.704355358925087,1.1529405304705909,0.9922653582786767,-0.07675626316805109,-0.09755990377489436,0.00467309759675804,-0.7622645109389707,0.6472487756047308,-0.12404684969373843,-0.6426984451727332,-0.7560099785410312,,0.17914215568654193,0.6948748974441302,-0.436441188598113,0.9930156557530702,0.005115227505816694,-0.11787171788373939,0.0845312356880108,-0.7278063992322344,0.6805529482925389,-0.08230660740401151,-0.6857635741887819,-0.7231555452967701,,0.0,0.0,0.045,1.0,0.0,0.0,0.0,1.0,0.0,0.0,0.0,1.0,,-0.0005789313634909996,-0.18285425070962588,0.23380443500249326,False,,0.1453734066410015,0.541241909119218,-0.3532604830407031,-0.782132652880698,-0.38678712596573495,-0.4885327343023885,0.5278620139281596,0.005324137894995695,-0.8493134567445535,0.3311045266218946,-0.922153660049583,0.20000604917764192,False,,0.0,0.0,0.0,0.0,0.0,0.0
10:14:50.496596,,-0.31273979047459577,-0.3187094629863713,0.13217232098,-2.3095869706545358,-0.17706673835694228,0.4433757835531257,,0.14535691358181652,0.5412528543748938,-0.3532486628999704,-0.007917262739616751,-0.17976216094580022,-0.98367824131817,0.7591049126244903,0.6392556875764172,-0.12293045810769251,0.6509201553033036,-0.7476882581619818,0.1313971842416144,,-0.02551031527573764,0.30241447831639223,-0.09157598296278403,0.36921930409562254,-0.859211811859738,0.3541640408341787,0.9187872703935367,0.39475299279780096,-0.00016253035635710456,-0.13966766706035277,0.3254614216985309,0.9351833006101172,,0.0537273472211149,0.704355358925087,1.1529405304705909,0.9922653582786767,-0.07675626316805109,-0.09755990377489436,0.00467309759675804,-0.7622645109389707,0.6472487756047308,-0.12404684969373843,-0.6426984451727332,-0.7560099785410312,,0.17914215568654193,0.6948748974441302,-0.436441188598113,0.9930156557530702,0.005115227505816694,-0.11787171788373939,0.0845312356880108,-0.7278063992322344,0.6805529482925389,-0.08230660740401151,-0.6857635741887819,-0.7231555452967701,,0.0,0.0,0.045,1.0,0.0,0.0,0.0,1.0,0.0,0.0,0.0,1.0,,-0.0005789313634909996,-0.18285425070962588,0.23380443500249326,False,,0.14535691358181652,0.5412528543748938,-0.3532486628999704,-0.7543592215360431,-0.40382558808025165,-0.5175587496073986,0.5466491029106488,0.05011396412051228,-0.8358608430158161,0.36347891709219926,-0.9134623610263133,0.1829469644943999,False,,0.0,0.0,0.0,0.0,0.0,0.0
10:14:50.509758,,-0.312817017803338,-0.3192654997533155,0.13218139501,-2.355086777520812,-0.18578593380633715,0.4787225299854276,,0.14533726173053868,0.5412685108722948,-0.3532311723685406,-0.009052130636351078,-0.18747896467071645,-0.9822269069501909,0.7590251770866202,0.6381922511401702,-0.12880772932268736,0.650998340611992,-0.7467009363799125,0.13652425473077895,,-0.025509875997964476,0.3024144490302698,-0.0915761414637565,0.3692186403552414,-0.8592112765592277,0.3541660314268944,0.918787457572078,0.3947525570786375,-0.00016265638865520238,-0.1396681903349885,0.3254633633488202,0.9351825467229433,,0.0537273472211149,0.704355358925087,1.1529405304705909,0.9922653582786767,-0.07675626316805109,-0.09755990377489436,0.00467309759675804,-0.7622645109389707,0.6472487756047308,-0.12404684969373843,-0.6426984451727332,-0.7560099785410312,,0.17914215568654193,0.6948748974441302,-0.436441188598113,0.9930156557530702,0.005115227505816694,-0.11787171788373939,0.0845312356880108,-0.7278063992322344,0.6805529482925389,-0.08230660740401151,-0.6857635741887819,-0.7231555452967701,,0.0,0.0,0.045,1.0,0.0,0.0,0.0,1.0,0.0,0.0,0.0,1.0,,-0.0005789313634909996,-0.18285425070962588,0.23380443500249326,False,,0.14533726173053868,0.5412685108722948,-0.3532311723685406,-0.7253682544899374,-0.41802551444276215,-0.5468963015536729,0.5648803503686927,0.0925541405849597,-0.8199658046698793,0.3933841445019929,-0.9037081389118081,0.16899856365955201,False,,0.0,0.0,0.0,0.0,0.0,0.0
10:14:50.523295,,-0.31287107693345756,-0.31973658645864317,0.13219046904,-2.392199523213581,-0.19316371457120976,0.5101520101852532,,0.1453182157916437,0.5412905230139169,-0.35321275623070625,-0.011019933560197488,-0.19593048146260117,-0.9805558665869897,0.7588845781950643,0.6369100165728983,-0.1357933274016435,0.6511319052557847,-0.7456251586574476,0.14166991471384432,,-0.02550943421036808,0.30241395223264234,-0.09157629002429134,0.3692190951323931,-0.8592102668945828,0.3541680067797129,0.9187874497020013,0.39475257446717366,-0.0001649102448273987,-0.13966703989655982,0.3254660077308172,0.9351817982360726,,0.0537273472211149,0.704355358925087,1.1529405304705909,0.9922653582786767,-0.07675626316805109,-0.09755990377489436,0.00467309759675804,-0.7622645109389707,0.6472487756047308,-0.12404684969373843,-0.6426984451727332,-0.7560099785410312,,0.17914215568654193,0.6948748974441302,-0.436441188598113,0.9930156557530702,0.005115227505816694,-0.11787171788373939,0.0845312356880108,-0.7278063992322344,0.6805529482925389,-0.08230660740401151,-0.6857635741887819,-0.7231555452967701,,0.0,0.0,0.045,1.0,0.0,0.0,0.0,1.0,0.0,0.0,0.0,1.0,,-0.0005789313634909996,-0.18285425070962588,0.23380443500249326,False,,0.1453182157916437,0.5412905230139169,-0.35321275623070625,-0.6945170454473439,-0.42835768991077966,-0.5780620754533135,0.5829750152368476,0.13581109570720068,-0.8010589727931438,0.42164701492206624,-0.8933448582586178,0.15539870987302623,False,,0.0,0.0,0.0,0.0,0.0,0.0
10:14:50.535234,,-0.3129405815293256,-0.32026173229409044,0.13220602452000002,-2.436860623962507,-0.20040735386763012,0.5458530510640313,,0.14531405870289466,0.5413178873338481,-0.3531717132278057,-0.016304444931562558,-0.21219273322730192,-0.9770918119813514,0.7584923018815556,0.634098247140742,-0.15036236550233342,0.6514780065834093,-0.7435681925274676,0.15060793471640851,,-0.025509434210368075,0.3024139522326423,-0.09157629002429134,0.3692190951323934,-0.859210266894583,0.35416800677971294,0.9187874497020015,0.394752574467174,-0.0001649102448274542,-0.13966703989655987,0.32546600773081724,0.9351817982360728,,0.0537273472211149,0.704355358925087,1.1529405304705909,0.9922653582786767,-0.07675626316805109,-0.09755990377489436,0.00467309759675804,-0.7622645109389707,0.6472487756047308,-0.12404684969373843,-0.6426984451727332,-0.7560099785410312,,0.17914215568654193,0.6948748974441302,-0.436441188598113,0.9930156557530702,0.005115227505816694,-0.11787171788373939,0.0845312356880108,-0.7278063992322344,0.6805529482925389,-0.08230660740401151,-0.6857635741887819,-0.7231555452967701,,0.0,0.0,0.045,1.0,0.0,0.0,0.0,1.0,0.0,0.0,0.0,1.0,,-0.0005789313634909996,-0.18285425070962588,0.23380443500249326,False,,0.14531405870289466,0.5413178873338481,-0.3531717132278057,-0.6357890286892959,-0.43877525759204494,-0.6350185700618183,0.6122061083200694,0.21438365138239873,-0.7610803708909761,0.4700808355314194,-0.8726487972517838,0.13231811939828192,False,,0.0,0.0,0.0,0.0,0.0,0.0
10:14:50.547062,,-0.3131104816525585,-0.32125024210199116,0.13222676516,-2.5150699694054612,-0.20966311519083392,0.6124684689037784,,0.14533349130667922,0.5413209807009591,-0.35316024182677175,-0.019569127298333343,-0.22025122468666553,-0.9752468647890162,0.758239253443316,0.6325255875970826,-0.15806522569081508,0.6516826557416612,-0.7425636532035416,0.1546251504332529,,-0.025510094382340358,0.30241422991754136,-0.09157605724413698,0.3692195314817592,-0.8592113070263582,0.3541650285099231,0.91878726645409,0.39475300149220066,-0.00016365728467784835,-0.13966709184055626,0.3254627438892862,0.9351829263656632,,0.0537273472211149,0.704355358925087,1.1529405304705909,0.9922653582786767,-0.07675626316805109,-0.09755990377489436,0.00467309759675804,-0.7622645109389707,0.6472487756047308,-0.12404684969373843,-0.6426984451727332,-0.7560099785410312,,0.17914215568654193,0.6948748974441302,-0.436441188598113,0.9930156557530702,0.005115227505816694,-0.11787171788373939,0.0845312356880108,-0.7278063992322344,0.6805529482925389,-0.08230660740401151,-0.6857635741887819,-0.7231555452967701,,0.0,0.0,0.045,1.0,0.0,0.0,0.0,1.0,0.0,0.0,0.0,1.0,,-0.0005789313634909996,-0.18285425070962588,0.23380443500249326,False,,0.14533349130667922,0.5413209807009591,-0.35316024182677175,-0.6058263652890619,-0.4415843721850684,-0.6617988042921834,0.6237731624139117,0.25269761121505535,-0.73962893341077,0.4938435551597211,-0.8608990414259527,0.12235760499079629,False,,0.0,0.0,0.0,0.0,0.0,0.0
10:14:50.559557,,-0.3132031544470492,-0.3217290515401931,0.13223843177000003,-2.5528117446862435,-0.21355321777594857,0.6462632924451159,,0.14535783349636427,0.5413128682288566,-0.35315941547346874,-0.02290457540298475,-0.22848080078536753,-0.9732789446495215,0.7579722731708829,0.6308297501865175,-0.16592727136845345,0.6518845093494502,-0.741518947803826,0.15873322436759554,,-0.025510752044899155,0.3024140400931155,-0.09157581452845326,0.36922108635388345,-0.8592118727748386,0.3541620349979047,0.9187868881406458,0.39475388163949315,-0.00016453214243494774,-0.13966547007736385,0.32546018277625294,0.9351840598806,,0.0537273472211149,0.704355358925087,1.1529405304705909,0.9922653582786767,-0.07675626316805109,-0.09755990377489436,0.00467309759675804,-0.7622645109389707,0.6472487756047308,-0.12404684969373843,-0.6426984451727332,-0.7560099785410312,,0.17914215568654193,0.6948748974441302,-0.436441188598113,0.9930156557530702,0.005115227505816694,-0.11787171788373939,0.0845312356880108,-0.7278063992322344,0.6805529482925389,-0.08230660740401151,-0.6857635741887819,-0.7231555452967701,,0.0,0.0,0.045,1.0,0.0,0.0,0.0,1.0,0.0,0.0,0.0,1.0,,-0.0005789313634909996,-0.18285425070962588,0.23380443500249326,False,,0.14535783349636427,0.5413128682288566,-0.35315941547346874,-0.5770916482471768,-0.44086578724521897,-0.687460971372201,0.633566691788284,0.28947969380981636,-0.7174919887554319,0.515323661963825,-0.8496110077608625,0.11226156471279586,False,,0.0,0.0,0.0,0.0,0.0,0.0
10:14:50.571059,,-0.3132803817757915,-0.3221538018482754,0.13224620951000002,-2.5884567546736488,-0.21717503742415875,0.6775112926522725,,0.14538750843441448,0.5413040741667767,-0.35315624278775015,-0.026873752707535,-0.23684641925211888,-0.9711753575451055,0.7576434400972528,0.6289500640078524,-0.17435089521456099,0.6521151885158133,-0.7404901016704868,0.16254288737135622,,-0.025511630601495992,0.3024140986671082,-0.09157549753143181,0.36922241383333915,-0.8592129433503917,0.35415805380648524,0.9187865137767921,0.3947547530907077,-0.0001642800691282198,-0.13966442352556768,0.32545629947077265,0.9351855676334082,,0.0537273472211149,0.704355358925087,1.1529405304705909,0.9922653582786767,-0.07675626316805109,-0.09755990377489436,0.00467309759675804,-0.7622645109389707,0.6472487756047308,-0.12404684969373843,-0.6426984451727332,-0.7560099785410312,,0.17914215568654193,0.6948748974441302,-0.436441188598113,0.9930156557530702,0.005115227505816694,-0.11787171788373939,0.0845312356880108,-0.7278063992322344,0.6805529482925389,-0.08230660740401151,-0.6857635741887819,-0.7231555452967701,,0.0,0.0,0.045,1.0,0.0,0.0,0.0,1.0,0.0,0.0,0.0,1.0,,-0.0005789313634909996,-0.18285425070962588,0.23380443500249326,False,,0.14538750843441448,0.5413040741667767,-0.35315624278775015,-0.5476444764539463,-0.4381378549553106,-0.7128258886043928,0.6423916758926413,0.3257005113397194,-0.6937233682505506,0.5361142249123099,-0.8378271880096781,0.10308802490332572,False,,0.0,0.0,0.0,0.0,0.0,0.0
10:14:50.583256,,-0.3133807773031564,-0.3226557794851,0.13226046870000002,-2.628714648306483,-0.22321140350450905,0.7145291734985524,,0.14545218227722612,0.541300526162524,-0.35313452603002515,-0.03766968238809465,-0.25384225171989616,-0.9665118241752415,0.7566878280025296,0.6244833943816196,-0.19350457641726346,0.6526902220667888,-0.7386369889082074,0.16855525098620475,,-0.02551250915947329,0.302414157243313,-0.09157518053889305,0.3692237413156713,-0.8592140139019797,0.35415407261050663,0.918786139405815,0.3947556245500225,-0.0001640279891772234,-0.13966337697448744,0.32545241615921594,0.9351870753659461,,0.0537273472211149,0.704355358925087,1.1529405304705909,0.9922653582786767,-0.07675626316805109,-0.09755990377489436,0.00467309759675804,-0.7622645109389707,0.6472487756047308,-0.12404684969373843,-0.6426984451727332,-0.7560099785410312,,0.17914215568654193,0.6948748974441302,-0.436441188598113,0.9930156557530702,0.005115227505816694,-0.11787171788373939,0.0845312356880108,-0.7278063992322344,0.6805529482925389,-0.08230660740401151,-0.6857635741887819,-0.7231555452967701,,0.0,0.0,0.045,1.0,0.0,0.0,0.0,1.0,0.0,0.0,0.0,1.0,,-0.0005789313634909996,-0.18285425070962588,0.23380443500249326,False,,0.14545218227722612,0.541300526162524,-0.35313452603002515,-0.4855277528503872,-0.4263274836854124,-0.7632219060447087,0.6594253182813864,0.3945709137304708,-0.6399000262911338,0.5739521328661006,-0.8139770701268962,0.08955600753767617,False,,0.0,0.0,0.0,0.0,0.0,0.0
10:14:50.595026,,-0.31346572736477285,-0.32308052979318236,0.13227343160000002,-2.661004833824486,-0.22911362811640712,0.7461063032127034,,0.1454751601723274,0.5413050665751571,-0.3531176504219847,-0.04347751461753283,-0.2618405838648047,-0.9641313263057167,0.7561366903517838,0.6221147432530755,-0.20305307614269372,0.6529678485396757,-0.7378433132234092,0.17093926963974382,,-0.025512727544071707,0.30241393813235096,-0.09157509632178222,0.36922463244110026,-0.8592140443546014,0.3541530696896688,0.9187859482799862,0.394756068980311,-0.00016502887771074892,-0.13966227847938356,0.3254517966997463,0.935187454996551,,0.0537273472211149,0.704355358925087,1.1529405304705909,0.9922653582786767,-0.07675626316805109,-0.09755990377489436,0.00467309759675804,-0.7622645109389707,0.6472487756047308,-0.12404684969373843,-0.6426984451727332,-0.7560099785410312,,0.17914215568654193,0.6948748974441302,-0.436441188598113,0.9930156557530702,0.005115227505816694,-0.11787171788373939,0.0845312356880108,-0.7278063992322344,0.6805529482925389,-0.08230660740401151,-0.6857635741887819,-0.7231555452967701,,0.0,0.0,0.045,1.0,0.0,0.0,0.0,1.0,0.0,0.0,0.0,1.0,,-0.0005789313634909996,-0.18285425070962588,0.23380443500249326,False,,0.1454751601723274,0.5413050665751571,-0.3531176504219847,-0.4577128811049362,-0.4165898389460072,-0.7854628091498403,0.6671150544768205,0.4230941832504616,-0.6131466514546204,0.5877554104906288,-0.8046391850926506,0.08425769550864687,False,,0.0,0.0,0.0,0.0,0.0,0.0
10:14:50.607060,,-0.31366651841950266,-0.32382963488198213,0.13229157966000002,-2.7245368222138024,-0.24158878468246442,0.8043654721742467,,0.1454982571449821,0.5413185901965263,-0.3530931432915385,-0.050055738478184446,-0.2693392585358645,-0.9617436180483625,0.7554811107143101,0.6196314395793413,-0.21285011261144648,0.6532554740675932,-0.7372335063575068,0.17246461290519918,,-0.02551329431419946,0.3024138790820148,-0.09157488015188003,0.36922552350519927,-0.8592184260412038,0.35414150963157853,0.9187857570215753,0.39475651535601436,-0.00016117944424670627,-0.13966117995759553,0.3254396866330208,0.93519183319659,,0.0537273472211149,0.704355358925087,1.1529405304705909,0.9922653582786767,-0.07675626316805109,-0.09755990377489436,0.00467309759675804,-0.7622645109389707,0.6472487756047308,-0.12404684969373843,-0.6426984451727332,-0.7560099785410312,,0.17914215568654193,0.6948748974441302,-0.436441188598113,0.9930156557530702,0.005115227505816694,-0.11787171788373939,0.0845312356880108,-0.7278063992322344,0.6805529482925389,-0.08230660740401151,-0.6857635741887819,-0.7231555452967701,,0.0,0.0,0.045,1.0,0.0,0.0,0.0,1.0,0.0,0.0,0.0,1.0,,-0.0005789313634909996,-0.18285425070962588,0.23380443500249326,False,,0.1454982571449821,0.5413185901965263,-0.3530931432915385,-0.42962329801983573,-0.4064586313206211,-0.8063592269103934,0.6746559239689012,0.44906854274603375,-0.5858129634701015,0.6002192983004031,-0.7956939266708787,0.08128941509723592,False,,0.0,0.0,0.0,0.0,0.0,0.0
10:14:50.618953,,-0.3138055276112387,-0.3242312169914418,0.13231102401,-2.7572463607904805,-0.24682030195210136,0.8305743273916739,,0.14552525937841546,0.5413331877402412,-0.35306942811493347,-0.057096653140561913,-0.27623831636979124,-0.9593916639044398,0.7547425073942499,0.6171006446951346,-0.22259950999292388,0.6535317281757536,-0.7368033569997033,0.17325441807232703,,-0.02551342431591702,0.3024142582529382,-0.09157483241760213,0.3692246323340004,-0.8592227468008309,0.35413195539132597,0.9187859481048637,0.39475607279636227,-0.00015532825385491944,-0.13966227842297113,0.3254288154756044,0.9351954520929174,,0.0537273472211149,0.704355358925087,1.1529405304705909,0.9922653582786767,-0.07675626316805109,-0.09755990377489436,0.00467309759675804,-0.7622645109389707,0.6472487756047308,-0.12404684969373843,-0.6426984451727332,-0.7560099785410312,,0.17914215568654193,0.6948748974441302,-0.436441188598113,0.9930156557530702,0.005115227505816694,-0.11787171788373939,0.0845312356880108,-0.7278063992322344,0.6805529482925389,-0.08230660740401151,-0.6857635741887819,-0.7231555452967701,,0.0,0.0,0.045,1.0,0.0,0.0,0.0,1.0,0.0,0.0,0.0,1.0,,-0.0005789313634909996,-0.18285425070962588,0.23380443500249326,False,,0.14552525937841546,0.5413331877402412,-0.35306942811493347,-0.4014090108792204,-0.39660120515060915,-0.8255775493907588,0.6813830455751493,0.47302564240135864,-0.5585372743456932,0.6120359067797413,-0.7867364397966238,0.08036058180745947,False,,0.0,0.0,0.0,0.0,0.0,0.0
10:14:50.630379,,-0.31396770500159743,-0.3246019081694046,0.1323252832,-2.788278487132457,-0.2521859606901905,0.8562312307088605,,0.1455558128860837,0.541328514539569,-0.353051417001098,-0.06460963320927919,-0.28227604795749905,-0.9571550700101097,0.7539122446207799,0.6145947247462998,-0.23214144766688496,0.6537904272069297,-0.73660950106791,0.17310262918010472,,-0.02551333342348077,0.3024143890248727,-0.09157485896218012,0.36922396859762296,-0.8592265627353644,0.3541233888267744,0.9187861353148594,0.3947556389499546,-0.00015060399774738387,-0.13966280169527062,0.3254192665137553,0.9351986967567071,,0.0537273472211149,0.704355358925087,1.1529405304705909,0.9922653582786767,-0.07675626316805109,-0.09755990377489436,0.00467309759675804,-0.7622645109389707,0.6472487756047308,-0.12404684969373843,-0.6426984451727332,-0.7560099785410312,,0.17914215568654193,0.6948748974441302,-0.436441188598113,0.9930156557530702,0.005115227505816694,-0.11787171788373939,0.0845312356880108,-0.7278063992322344,0.6805529482925389,-0.08230660740401151,-0.6857635741887819,-0.7231555452967701,,0.0,0.0,0.045,1.0,0.0,0.0,0.0,1.0,0.0,0.0,0.0,1.0,,-0.0005789313634909996,-0.18285425070962588,0.23380443500249326,False,,0.1455558128860837,0.541328514539569,-0.353051417001098,-0.3721511540063702,-0.38811760226641234,-0.8431300287516146,0.6870536023573663,0.49556795472393345,-0.5313847473709645,0.6240679979453307,-0.7770309704649545,0.08223141053635372,False,,0.0,0.0,0.0,0.0,0.0,0.0
10:14:50.643933,,-0.31410671419333347,-0.3249494311487447,0.13233565352,-2.8151170828876797,-0.2582223267705408,0.8794039011010464,,0.14560604318972148,0.541342835643999,-0.35301352806186165,-0.07946713811279815,-0.2934607527161739,-0.952662458888466,0.7521420052686358,0.6095332094352831,-0.25050283532526885,0.6541921566868842,-0.7364441955849609,0.17228629927705552,,-0.025512933259127818,0.3024148696790919,-0.09157499628316432,0.36922174997622953,-0.8592341638400174,0.35410725845486907,0.9187867007394404,0.39475432658401116,-0.00014015464545083511,-0.1396649467282738,0.32540078793564187,0.9352048060836933,,0.0537273472211149,0.704355358925087,1.1529405304705909,0.9922653582786767,-0.07675626316805109,-0.09755990377489436,0.00467309759675804,-0.7622645109389707,0.6472487756047308,-0.12404684969373843,-0.6426984451727332,-0.7560099785410312,,0.17914215568654193,0.6948748974441302,-0.436441188598113,0.9930156557530702,0.005115227505816694,-0.11787171788373939,0.0845312356880108,-0.7278063992322344,0.6805529482925389,-0.08230660740401151,-0.6857635741887819,-0.7231555452967701,,0.0,0.0,0.045,1.0,0.0,0.0,0.0,1.0,0.0,0.0,0.0,1.0,,-0.0005789313634909996,-0.18285425070962588,0.23380443500249326,False,,0.14560604318972148,0.541342835643999,-0.35301352806186165,-0.31889523624172533,-0.3680637480095567,-0.8734042052243003,0.6973031994130772,0.5330247271355432,-0.47922112677798945,0.6419299622159884,-0.7618488811196332,0.08667298279246236,False,,0.0,0.0,0.0,0.0,0.0,0.0
10:14:50.656122,,-0.31426116885081795,-0.3252428949979652,0.13234861642,-2.8415363255842276,-0.26479525872470006,0.9013331069089735,,0.14562653271435855,0.5413604713905197,-0.3529817242510864,-0.08708078474055535,-0.29825384260843457,-0.950505961211329,0.751168652945997,0.6070491517144668,-0.2593009491576201,0.6543413419311555,-0.7365704126368705,0.171176620680761,,-0.025513539162494946,0.3024153205698096,-0.09157475898448217,0.36922108616126553,-0.8592466805485041,0.3540775768659726,0.9187868876761457,0.39475389569376046,-0.00012572982015707224,-0.13966546998912577,0.3253682571179663,0.9352160459977898,,0.0537273472211149,0.704355358925087,1.1529405304705909,0.9922653582786767,-0.07675626316805109,-0.09755990377489436,0.00467309759675804,-0.7622645109389707,0.6472487756047308,-0.12404684969373843,-0.6426984451727332,-0.7560099785410312,,0.17914215568654193,0.6948748974441302,-0.436441188598113,0.9930156557530702,0.005115227505816694,-0.11787171788373939,0.0845312356880108,-0.7278063992322344,0.6805529482925389,-0.08230660740401151,-0.6857635741887819,-0.7231555452967701,,0.0,0.0,0.045,1.0,0.0,0.0,0.0,1.0,0.0,0.0,0.0,1.0,,-0.0005789313634909996,-0.18285425070962588,0.23380443500249326,False,,0.14562653271435855,0.5413604713905197,-0.3529817242510864,-0.2938798891106452,-0.3579853177832669,-0.8862737291762225,0.7024087195484149,0.5479759186211847,-0.45425145383765686,0.6482720119507482,-0.756021762162229,0.09041290648157926,False,,0.0,0.0,0.0,0.0,0.0,0.0
10:14:50.668563,,-0.3145855236315354,-0.3258916045594001,0.13237324593000002,-2.892278045683946,-0.2767338494169484,0.943133157933869,,0.14565108859224815,0.5413743469889415,-0.3529585580200479,-0.09454106061199623,-0.3026389189730323,-0.9484048041744586,0.7501712849743561,0.6046240729473875,-0.26771771254893734,0.6544501746185741,-0.7367763671124002,0.16986922560125867,,-0.025514017576178112,0.30241585979879876,-0.09157457936385066,0.3692201949465727,-0.8592553507611254,0.3540574646873683,0.9187870785803864,0.394753454033079,-0.00011502838534765969,-0.1396665684628589,0.3253458946816235,0.9352236614502867,,0.0537273472211149,0.704355358925087,1.1529405304705909,0.9922653582786767,-0.07675626316805109,-0.09755990377489436,0.00467309759675804,-0.7622645109389707,0.6472487756047308,-0.12404684969373843,-0.6426984451727332,-0.7560099785410312,,0.17914215568654193,0.6948748974441302,-0.436441188598113,0.9930156557530702,0.005115227505816694,-0.11787171788373939,0.0845312356880108,-0.7278063992322344,0.6805529482925389,-0.08230660740401151,-0.6857635741887819,-0.7231555452967701,,0.0,0.0,0.045,1.0,0.0,0.0,0.0,1.0,0.0,0.0,0.0,1.0,,-0.0005789313634909996,-0.18285425070962588,0.23380443500249326,False,,0.14565108859224815,0.5413743469889415,-0.3529585580200479,-0.2695911369012516,-0.3482668976211475,-0.8977921735711621,0.7067520164718956,0.5616959786109907,-0.4301153506039408,0.6540811922974089,-0.7504717154121017,0.09471007469755918,False,,0.0,0.0,0.0,0.0,0.0,0.0
10:14:50.680126,,-0.31472453282327145,-0.3261773456757464,0.13238361625,-2.914923110852415,-0.28196536668658534,0.9619027955938723,,0.14567366383481234,0.5413796402698807,-0.35294130191218476,-0.10153013568146112,-0.3067173426307511,-0.9463699611029687,0.7491976577720462,0.6022945419570096,-0.2755796696377941,0.6545185261987501,-0.736997799493544,0.16864086813192627,,-0.025514493480991576,0.30241593151912755,-0.0915743898087503,0.36922042236800917,-0.8592635464271102,0.3540373372428491,0.9187870747384367,0.3947534656403771,-0.00010645473424886198,-0.1396659932628117,0.3253242349111568,0.9352312821861206,,0.0537273472211149,0.704355358925087,1.1529405304705909,0.9922653582786767,-0.07675626316805109,-0.09755990377489436,0.00467309759675804,-0.7622645109389707,0.6472487756047308,-0.12404684969373843,-0.6426984451727332,-0.7560099785410312,,0.17914215568654193,0.6948748974441302,-0.436441188598113,0.9930156557530702,0.005115227505816694,-0.11787171788373939,0.0845312356880108,-0.7278063992322344,0.6805529482925389,-0.08230660740401151,-0.6857635741887819,-0.7231555452967701,,0.0,0.0,0.045,1.0,0.0,0.0,0.0,1.0,0.0,0.0,0.0,1.0,,-0.0005789313634909996,-0.18285425070962588,0.23380443500249326,False,,0.14567366383481234,0.5413796402698807,-0.35294130191218476,-0.24699775043781613,-0.33851054028468264,-0.9079662578503843,0.710387616504403,0.574014417964835,-0.4072553035697448,0.6590459358768944,-0.7455991296163536,0.0986934259182668,False,,0.0,0.0,0.0,0.0,0.0,0.0
10:14:50.691715,,-0.3148712647478817,-0.3264862549907154,0.13239139399000002,-2.9356810872568455,-0.2867944595508656,0.9800551947009396,,0.1457033648919921,0.5413890100288874,-0.3529234210668834,-0.10881849598755146,-0.31077818855729755,-0.9442327321418442,0.7481418018936075,0.5998545371585273,-0.2836518614599858,0.6545551001943178,-0.7372865465796683,0.1672308854315881,,-0.025515190285084276,0.3024162516382312,-0.09157412598792748,0.36922042254462584,-0.8592722465699519,0.35401622196731264,0.9187870751413821,0.3947534683282614,-9.675415534951548e-05,-0.13966599333598056,0.3253012528147563,0.935239276756509,,0.0537273472211149,0.704355358925087,1.1529405304705909,0.9922653582786767,-0.07675626316805109,-0.09755990377489436,0.00467309759675804,-0.7622645109389707,0.6472487756047308,-0.12404684969373843,-0.6426984451727332,-0.7560099785410312,,0.17914215568654193,0.6948748974441302,-0.436441188598113,0.9930156557530702,0.005115227505816694,-0.11787171788373939,0.0845312356880108,-0.7278063992322344,0.6805529482925389,-0.08230660740401151,-0.6857635741887819,-0.7231555452967701,,0.0,0.0,0.045,1.0,0.0,0.0,0.0,1.0,0.0,0.0,0.0,1.0,,-0.0005789313634909996,-0.18285425070962588,0.23380443500249326,False,,0.1457033648919921,0.5413890100288874,-0.3529234210668834,-0.2238831210678078,-0.3281314409344147,-0.9177178790735431,0.7138197668436883,0.585907125116036,-0.38363287294167625,0.6635794515837271,-0.7409740874069528,0.1030519928350426,False,,0.0,0.0,0.0,0.0,0.0,0.0
10:14:50.705213,,-0.31500255120674353,-0.3268106097714328,0.13240565318000003,-2.956439063661276,-0.2916235524151458,0.9977254222996554,,0.14575825595970782,0.5413912764052076,-0.35290901666817326,-0.12149784891209603,-0.3178505678767334,-0.9403240341553392,0.7462060443592023,0.5954468096206095,-0.29769050417242027,0.6545340419500927,-0.7378442338414496,0.16483650844214895,,-0.025516196356452928,0.3024162218772397,-0.0915737513820879,0.3692219774776442,-0.8592771616487128,0.3540026706211236,0.9187866970355337,0.3947543498596666,-9.277857609904516e-05,-0.1396643715787615,0.32528720037262693,0.9352444068668393,,0.0537273472211149,0.704355358925087,1.1529405304705909,0.9922653582786767,-0.07675626316805109,-0.09755990377489436,0.00467309759675804,-0.7622645109389707,0.6472487756047308,-0.12404684969373843,-0.6426984451727332,-0.7560099785410312,,0.17914215568654193,0.6948748974441302,-0.436441188598113,0.9930156557530702,0.005115227505816694,-0.11787171788373939,0.0845312356880108,-0.7278063992322344,0.6805529482925389,-0.08230660740401151,-0.6857635741887819,-0.7231555452967701,,0.0,0.0,0.045,1.0,0.0,0.0,0.0,1.0,0.0,0.0,0.0,1.0,,-0.0005789313634909996,-0.18285425070962588,0.23380443500249326,False,,0.14575825595970782,0.5413912764052076,-0.35290901666817326,-0.1839017304708774,-0.30846794323546767,-0.9332886378424935,0.718931078211343,0.6052817970317824,-0.3417192575256064,0.6703120603955238,-0.733812969480682,0.110454821127243,False,,0.0,0.0,0.0,0.0,0.0,0.0
10:14:50.716919,,-0.3151801740628507,-0.3270963508877791,0.13241991237,-2.9776163931243813,-0.29484294765799934,1.0130644589747273,,0.14578592568672874,0.5413797939917301,-0.3529086689871386,-0.1276831181850694,-0.3204052757385107,-0.9386359680991703,0.7452160112550154,0.5935117708105649,-0.30396854192247,0.6544846200635295,-0.7382982034301835,0.16298970799428109,,-0.02551641474175302,0.3024160027683309,-0.09157366716844184,0.3692228686024173,-0.8592771919225983,0.3540016676947836,0.9187865059090479,0.3947547944647936,-9.377938656748852e-05,-0.13966327308393145,0.3252865808433304,0.9352447863863291,,0.0537273472211149,0.704355358925087,1.1529405304705909,0.9922653582786767,-0.07675626316805109,-0.09755990377489436,0.00467309759675804,-0.7622645109389707,0.6472487756047308,-0.12404684969373843,-0.6426984451727332,-0.7560099785410312,,0.17914215568654193,0.6948748974441302,-0.436441188598113,0.9930156557530702,0.005115227505816694,-0.11787171788373939,0.0845312356880108,-0.7278063992322344,0.6805529482925389,-0.08230660740401151,-0.6857635741887819,-0.7231555452967701,,0.0,0.0,0.045,1.0,0.0,0.0,0.0,1.0,0.0,0.0,0.0,1.0,,-0.0005789313634909996,-0.18285425070962588,0.23380443500249326,False,,0.14578592568672874,0.5413797939917301,-0.3529086689871386,-0.16382957941339313,-0.30108228689364236,-0.9394196748142576,0.7200476752192017,0.6144323988293132,-0.3224967793331886,0.6743079521410482,-0.7292614646255147,0.11613139924927926,False,,0.0,0.0,0.0,0.0,0.0,0.0
10:14:50.729398,,-0.3154813606449454,-0.327745060449214,0.13244324559,-3.0115839908770856,-0.2996720405222796,1.039551537011871,,0.14580993926240576,0.5413637207686262,-0.352928249185649,-0.13248455315372318,-0.322896402030979,-0.9371156581399688,0.7444267439557993,0.5918171938359548,-0.30916214510108253,0.6544285033974492,-0.7385731667448964,0.1619660807249176,,-0.02551641222982705,0.30241553526065945,-0.09157365722582603,0.3692239871157931,-0.85927671755498,0.3540016525372431,0.9187863108427798,0.39475524797345185,-9.590712446788663e-05,-0.139661599371748,0.325287283578994,0.9352447919104215,,0.0537273472211149,0.704355358925087,1.1529405304705909,0.9922653582786767,-0.07675626316805109,-0.09755990377489436,0.00467309759675804,-0.7622645109389707,0.6472487756047308,-0.12404684969373843,-0.6426984451727332,-0.7560099785410312,,0.17914215568654193,0.6948748974441302,-0.436441188598113,0.9930156557530702,0.005115227505816694,-0.11787171788373939,0.0845312356880108,-0.7278063992322344,0.6805529482925389,-0.08230660740401151,-0.6857635741887819,-0.7231555452967701,,0.0,0.0,0.045,1.0,0.0,0.0,0.0,1.0,0.0,0.0,0.0,1.0,,-0.0005789313634909996,-0.18285425070962588,0.23380443500249326,False,,0.14580993926240576,0.5413637207686262,-0.352928249185649,-0.1478086342700521,-0.29374122694812743,-0.9443880024789764,0.7204243341813508,0.6222321847572321,-0.3062937919246806,0.6775997242875618,-0.7256329649645548,0.11964703841788052,False,,0.0,0.0,0.0,0.0,0.0,0.0
10:14:50.741169,,-0.3156203698366815,-0.3280076333669376,0.13244583817000002,-3.0258419948720476,-0.30329386017048976,1.051443795240916,,0.14583366776023082,0.5413407748575938,-0.35294199691801276,-0.13740341592539765,-0.3249811545468954,-0.9356856045068765,0.7435993402683815,0.5902090923524553,-0.3141866458920854,0.6543548902884886,-0.738945516593651,0.16055902672127248,,-0.025516849001779737,0.30241509704338443,-0.0915734888005357,0.36922576935914153,-0.8592767780995199,0.35399964667797473,0.9187859285798727,0.39475613718544167,-9.790874331000454e-05,-0.1396594023789422,0.3252860445229855,0.9352455509404037,,0.0537273472211149,0.704355358925087,1.1529405304705909,0.9922653582786767,-0.07675626316805109,-0.09755990377489436,0.00467309759675804,-0.7622645109389707,0.6472487756047308,-0.12404684969373843,-0.6426984451727332,-0.7560099785410312,,0.17914215568654193,0.6948748974441302,-0.436441188598113,0.9930156557530702,0.005115227505816694,-0.11787171788373939,0.0845312356880108,-0.7278063992322344,0.6805529482925389,-0.08230660740401151,-0.6857635741887819,-0.7231555452967701,,0.0,0.0,0.045,1.0,0.0,0.0,0.0,1.0,0.0,0.0,0.0,1.0,,-0.0005789313634909996,-0.18285425070962588,0.23380443500249326,False,,0.14583366776023082,0.5413407748575938,-0.35294199691801276,-0.13162816972900301,-0.2870541669150415,-0.9488276609535076,0.721019697074345,0.6291422343489099,-0.29036295457458217,0.6802974506527364,-0.7223433769442152,0.12415886766644921,False,,0.0,0.0,0.0,0.0,0.0,0.0
10:14:50.752652,,-0.31576710176129175,-0.3283242654147808,0.13245491220000002,-3.039890322337672,-0.30691567981869994,1.0616828940127556,,0.14585201482970556,0.5413435647829327,-0.35294712781715254,-0.1419622363103015,-0.3270754017066951,-0.9342742665085998,0.7428154464720887,0.588641947360169,-0.3189449330064668,0.6542720656915207,-0.7392714923534061,0.15939173331549608,,-0.025517064878583535,0.30241441042617395,-0.09157339464822314,0.36922777897967485,-0.8592763340055171,0.35399862857904996,0.9187855423709023,0.3947570352884736,-0.00010103729164584463,-0.1396566301613209,0.32528612773428645,0.9352459359674813,,0.0537273472211149,0.704355358925087,1.1529405304705909,0.9922653582786767,-0.07675626316805109,-0.09755990377489436,0.00467309759675804,-0.7622645109389707,0.6472487756047308,-0.12404684969373843,-0.6426984451727332,-0.7560099785410312,,0.17914215568654193,0.6948748974441302,-0.436441188598113,0.9930156557530702,0.005115227505816694,-0.11787171788373939,0.0845312356880108,-0.7278063992322344,0.6805529482925389,-0.08230660740401151,-0.6857635741887819,-0.7231555452967701,,0.0,0.0,0.045,1.0,0.0,0.0,0.0,1.0,0.0,0.0,0.0,1.0,,-0.0005789313634909996,-0.18285425070962588,0.23380443500249326,False,,0.14585201482970556,0.5413435647829327,-0.35294712781715254,-0.11770519979173177,-0.28009949620941,-0.952727536164051,0.7223655114552751,0.634178276103861,-0.2756918242855486,0.6814202475726321,-0.7206678751971464,0.1276881351452943,False,,0.0,0.0,0.0,0.0,0.0,0.0
10:14:50.764961,,-0.3158983882201536,-0.32858683833250446,0.13246398623000002,-3.052890267156608,-0.30986679212464896,1.070548853642784,,0.1458864373044425,0.5413274405187006,-0.3529670122030262,-0.15036774074768564,-0.32982889767829326,-0.9319884338331453,0.7413269909478387,0.5860822786247235,-0.32701965563903795,0.654082437491376,-0.7400813880502428,0.1563831961144365,,-0.025517064878583535,0.30241441042617395,-0.09157339464822313,0.36922777897967496,-0.8592763340055168,0.35399862857904996,0.918785542370902,0.3947570352884737,-0.0001010372916459279,-0.13965663016132088,0.32528612773428645,0.9352459359674812,,0.0537273472211149,0.704355358925087,1.1529405304705909,0.9922653582786767,-0.07675626316805109,-0.09755990377489436,0.00467309759675804,-0.7622645109389707,0.6472487756047308,-0.12404684969373843,-0.6426984451727332,-0.7560099785410312,,0.17916577708432901,0.6948455566595255,-0.4364385600703373,0.9930163882858717,0.005216520867037902,-0.11786110684074948,0.08459569556396236,-0.7278186883705103,0.6805317958410755,-0.08223150787704313,-0.6857497683329348,-0.7231771804638155,,0.0,0.0,0.045,1.0,0.0,0.0,0.0,1.0,0.0,0.0,0.0,1.0,,-0.0005789313634909996,-0.18285425070962588,0.23380443500249326,False,,0.1458864373044425,0.5413274405187006,-0.3529670122030262,-0.09135896740349794,-0.27009207461783985,-0.9584903809134436,0.7243775690737042,0.6424466692080971,-0.2500788168683892,0.6833232591518,-0.7171558745851934,0.1369553761270759,False,,0.0,0.0,0.0,0.0,0.0,0.0
10:14:50.778600,,-0.31608373380913496,-0.32915832056519706,0.13247824542,-3.0749063027370642,-0.314561743520477,1.0843626079225264,,0.1458555939953045,0.5413420793629602,-0.35300076559150684,-0.15403241665622444,-0.33104289959279914,-0.9309589750618633,0.7406604991390495,0.5849440675453429,-0.3305487299304042,0.6539847396034079,-0.7404397588411235,0.15509005091610994,,-0.0255231030633737,0.3024171139700035,-0.09157009720169025,0.3692326397331331,-0.8592703347345694,0.35400812026671025,0.9187822352037676,0.3947647327755334,-9.820670422433508e-05,-0.13966553491680533,0.3252926332023659,0.9352423433285084,,0.0537273472211149,0.704355358925087,1.1529405304705909,0.9922653582786767,-0.07675626316805109,-0.09755990377489436,0.00467309759675804,-0.7622645109389707,0.6472487756047308,-0.12404684969373843,-0.6426984451727332,-0.7560099785410312,,0.17916577708432901,0.6948455566595255,-0.4364385600703373,0.9930163882858717,0.005216520867037902,-0.11786110684074948,0.08459569556396236,-0.7278186883705103,0.6805317958410755,-0.08223150787704313,-0.6857497683329348,-0.7231771804638155,,0.0,0.0,0.045,1.0,0.0,0.0,0.0,1.0,0.0,0.0,0.0,1.0,,-0.0005789313634909996,-0.18285425070962588,0.23380443500249326,False,,0.1458555939953045,0.5413420793629602,-0.35300076559150684,-0.07973688817092339,-0.26648827783919027,-0.9605342401180295,0.7247647832660394,0.646065003902018,-0.23940764329990885,0.6843668881544085,-0.7152510108398227,0.14162610596377834,False,,0.0,0.0,0.0,0.0,0.0,0.0
10:14:50.790323,,-0.31616096113787723,-0.32941317075004645,0.13248213429000003,-3.083503040439909,-0.3176469972948783,1.0901279948224563,,0.14587407792071727,0.5413280255637377,-0.3530205634367925,-0.1569682782367994,-0.33172479027303214,-0.9302255764843749,0.7401188509624872,0.5841285674291522,-0.3331934920780028,0.6538998746576898,-0.7407782935747236,0.15382611511436642,,-0.025528704472812053,0.3024202557087287,-0.091566968217152,0.3692357180864342,-0.8592642748301872,0.3540196178520999,0.9187793102830629,0.3947715410352547,-9.337466740491629e-05,-0.13967663662679472,0.32530037768745634,0.9352379915248438,,0.0537273472211149,0.704355358925087,1.1529405304705909,0.9922653582786767,-0.07675626316805109,-0.09755990377489436,0.00467309759675804,-0.7622645109389707,0.6472487756047308,-0.12404684969373843,-0.6426984451727332,-0.7560099785410312,,0.17916577708432901,0.6948455566595255,-0.4364385600703373,0.9930163882858717,0.005216520867037902,-0.11786110684074948,0.08459569556396236,-0.7278186883705103,0.6805317958410755,-0.08223150787704313,-0.6857497683329348,-0.7231771804638155,,0.0,0.0,0.045,1.0,0.0,0.0,0.0,1.0,0.0,0.0,0.0,1.0,,-0.0005789313634909996,-0.18285425070962588,0.23380443500249326,False,,0.14587407792071727,0.5413280255637377,-0.3530205634367925,-0.06997953690787564,-0.2636312862000654,-0.962081810113183,0.7251996265553404,0.6487985080415121,-0.23053415713751182,0.6849732593745206,-0.7138340429676967,0.14578269116132583,False,,0.0,0.0,0.0,0.0,0.0,0.0
10:14:50.801894,,-0.31620729753512256,-0.32963713000339895,0.13248472687,-3.091051395496066,-0.31992740225856614,1.0942456147522128,,0.14588917715674898,0.5413253271241236,-0.35303185180300434,-0.15973040040184974,-0.3324253160192647,-0.9295050341213631,0.739602989180482,0.5833353692378755,-0.335719027449156,0.6538146660811156,-0.7410892363714393,0.1526863653101878,,-0.025534305882021942,0.3024233974536003,-0.09156383921567567,0.36923879635957435,-0.8592582149261465,0.35403111544228594,0.9187763853940394,0.39477834940495493,-8.854268434640988e-05,-0.13968773840835286,0.3253081220619548,0.9352336396940221,,0.0537273472211149,0.704355358925087,1.1529405304705909,0.9922653582786767,-0.07675626316805109,-0.09755990377489436,0.00467309759675804,-0.7622645109389707,0.6472487756047308,-0.12404684969373843,-0.6426984451727332,-0.7560099785410312,,0.17916577708432901,0.6948455566595255,-0.4364385600703373,0.9930163882858717,0.005216520867037902,-0.11786110684074948,0.08459569556396236,-0.7278186883705103,0.6805317958410755,-0.08223150787704313,-0.6857497683329348,-0.7231771804638155,,0.0,0.0,0.045,1.0,0.0,0.0,0.0,1.0,0.0,0.0,0.0,1.0,,-0.0005789313634909996,-0.18285425070962588,0.23380443500249326,False,,0.14588917715674898,0.5413253271241236,-0.35303185180300434,-0.061403972376218724,-0.26064950266668396,-0.963478795270571,0.7262983907313141,0.6504560354313887,-0.2222556941722378,0.6846314335447388,-0.7134204810141703,0.14936872990015612,False,,0.0,0.0,0.0,0.0,0.0,0.0
10:14:50.813690,,-0.31623818846661944,-0.32982247559238037,0.13248861574,-3.0977610444348715,-0.3215370998799929,1.096714568963957,,0.1459243962719652,0.5413110501746343,-0.3530565862102187,-0.1639897117453337,-0.3326277431390535,-0.9286905614551609,0.7387955791348967,0.5824234218691171,-0.3390634894957002,0.6536730579520735,-0.7417154050931448,0.15023245706270333,,-0.025539688913761547,0.3024267582873172,-0.09156079445330469,0.3692409833909887,-0.8592521246632635,0.3540436159559179,0.9187736516004273,0.3947847132765954,-8.271004435600471e-05,-0.13969993866244385,0.3253164858684575,0.9352289081892868,,0.0537273472211149,0.704355358925087,1.1529405304705909,0.9922653582786767,-0.07675626316805109,-0.09755990377489436,0.00467309759675804,-0.7622645109389707,0.6472487756047308,-0.12404684969373843,-0.6426984451727332,-0.7560099785410312,,0.17916577708432901,0.6948455566595255,-0.4364385600703373,0.9930163882858717,0.005216520867037902,-0.11786110684074948,0.08459569556396236,-0.7278186883705103,0.6805317958410755,-0.08223150787704313,-0.6857497683329348,-0.7231771804638155,,0.0,0.0,0.045,1.0,0.0,0.0,0.0,1.0,0.0,0.0,0.0,1.0,,-0.0005789313634909996,-0.18285425070962588,0.23380443500249326,False,,0.1459243962719652,0.5413110501746343,-0.3530565862102187,-0.04745168042568587,-0.25869489806463875,-0.9647928729733158,0.7272123402122266,0.6532055338816996,-0.21091406484485714,0.6847704361812325,-0.711617509777303,0.15713042197650545,False,,0.0,0.0,0.0,0.0,0.0,0.0
10:14:50.825348,,-0.3162690793981163,-0.33003098937998443,0.1324938009,-3.1032126341976514,-0.32274437309606296,1.0979463498263133,,0.14593818556562693,0.5412964827048038,-0.353075094155566,-0.1654235767821462,-0.3323206467857464,-0.9285461905390084,0.7385205098995166,0.5822529154194505,-0.33995440715382447,0.6536225950059862,-0.7419868800763618,0.14910725365382865,,-0.025545069437284018,0.3024296516091263,-0.09155773975376055,0.36924428882926313,-0.8592455599426242,0.35405610128850573,0.9187707227793241,0.39479153067851797,-7.90052515094175e-05,-0.13971046526401906,0.32532555232744587,0.9352241821468863,,0.0537273472211149,0.704355358925087,1.1529405304705909,0.9922653582786767,-0.07675626316805109,-0.09755990377489436,0.00467309759675804,-0.7622645109389707,0.6472487756047308,-0.12404684969373843,-0.6426984451727332,-0.7560099785410312,,0.17916577708432901,0.6948455566595255,-0.4364385600703373,0.9930163882858717,0.005216520867037902,-0.11786110684074948,0.08459569556396236,-0.7278186883705103,0.6805317958410755,-0.08223150787704313,-0.6857497683329348,-0.7231771804638155,,0.0,0.0,0.045,1.0,0.0,0.0,0.0,1.0,0.0,0.0,0.0,1.0,,-0.0005789313634909996,-0.18285425070962588,0.23380443500249326,False,,0.14593818556562693,0.5412964827048038,-0.353075094155566,-0.04218866720512007,-0.25919994395391543,-0.9649018112812014,0.7273108804787976,0.6541785995988196,-0.20753130598558872,0.6850102185344481,-0.710539055141387,0.16092001622599109,False,,0.0,0.0,0.0,0.0,0.0,0.0
10:14:50.837692,,-0.31628452486386477,-0.33019316677034316,0.13249639348,-3.1063577821377164,-0.323951646312133,1.0985581958922177,,0.14594694643870693,0.541288699386838,-0.35308867274188005,-0.1663263668499454,-0.3321211785331912,-0.9284562792400198,0.7383464772450891,0.5821480079407314,-0.34051163914087473,0.6535901003153769,-0.7421584868613728,0.14839393905875403,,-0.02554463266285254,0.3024300898067497,-0.09155790821717692,0.36924250645264983,-0.8592454993609716,0.3540581071583464,0.9187711050372508,0.3947906414887871,-7.700371945437712e-05,-0.13971266215080733,0.3253267914095891,0.9352234229391112,,0.0537273472211149,0.704355358925087,1.1529405304705909,0.9922653582786767,-0.07675626316805109,-0.09755990377489436,0.00467309759675804,-0.7622645109389707,0.6472487756047308,-0.12404684969373843,-0.6426984451727332,-0.7560099785410312,,0.17916577708432901,0.6948455566595255,-0.4364385600703373,0.9930163882858717,0.005216520867037902,-0.11786110684074948,0.08459569556396236,-0.7278186883705103,0.6805317958410755,-0.08223150787704313,-0.6857497683329348,-0.7231771804638155,,0.0,0.0,0.045,1.0,0.0,0.0,0.0,1.0,0.0,0.0,0.0,1.0,,-0.0005789313634909996,-0.18285425070962588,0.23380443500249326,False,,0.14594694643870693,0.541288699386838,-0.35308867274188005,-0.03905489877053003,-0.2595708550283071,-0.9649340319948807,0.7276784667563932,0.6544135839068834,-0.20549187384715017,0.684805639507363,-0.7101871812543662,0.16332606552810147,False,,0.0,0.0,0.0,0.0,0.0,0.0
10:14:50.850278,,-0.31630769306248746,-0.3304325714894441,0.13250546751,-3.1095029300777814,-0.32502477805975083,1.0988265324857096,,0.1459520692501881,0.5412773805182877,-0.35309918426621056,-0.1669441365273505,-0.33197171950235144,-0.9283988543345957,0.7382270127147326,0.5820810767388671,-0.3408848747023009,0.6535675427814782,-0.7422778439056184,0.14789546804891346,,-0.02554485104945277,0.3024298707076927,-0.09155782398451234,0.3692433976425036,-0.8592455296543591,0.354057104224878,0.9187709139112585,0.3947910860843453,-7.800448574163399e-05,-0.1397115637081513,0.3253261718691398,0.9352238025461501,,0.0537273472211149,0.704355358925087,1.1529405304705909,0.9922653582786767,-0.07675626316805109,-0.09755990377489436,0.00467309759675804,-0.7622645109389707,0.6472487756047308,-0.12404684969373843,-0.6426984451727332,-0.7560099785410312,,0.17916577708432901,0.6948455566595255,-0.4364385600703373,0.9930163882858717,0.005216520867037902,-0.11786110684074948,0.08459569556396236,-0.7278186883705103,0.6805317958410755,-0.08223150787704313,-0.6857497683329348,-0.7231771804638155,,0.0,0.0,0.045,1.0,0.0,0.0,0.0,1.0,0.0,0.0,0.0,1.0,,-0.0005789313634909996,-0.18285425070962588,0.23380443500249326,False,,0.1459520692501881,0.5412773805182877,-0.35309918426621056,-0.03677674298642758,-0.2598160432094003,-0.9649575611737137,0.7278821447069486,0.6546515993578097,-0.2040070265335846,0.6847153091556543,-0.7098780931605602,0.16503950514529558,False,,0.0,0.0,0.0,0.0,0.0,0.0
10:14:50.861982,,-0.31629997032961327,-0.3305097988181863,0.13250935638000003,-3.1095029300777814,-0.32502477805975083,1.0977933078249564,,0.1459542581123324,0.5412676866099564,-0.3531124909095862,-0.16707371901402285,-0.33183327320482897,-0.9284250380127588,0.738201915247692,0.5821063764178808,-0.3408960235295858,0.6535627779635731,-0.7423199076731095,0.14770528065280333,,-0.025544630165276423,0.3024296222992709,-0.09155789826217517,0.36924362506060476,-0.8592450249335456,0.3540580919351235,0.9187709099824527,0.3947910950033126,-7.913145646581965e-05,-0.13971098850056685,0.3253274941020544,0.9352234285234511,,0.0537273472211149,0.704355358925087,1.1529405304705909,0.9922653582786767,-0.07675626316805109,-0.09755990377489436,0.00467309759675804,-0.7622645109389707,0.6472487756047308,-0.12404684969373843,-0.6426984451727332,-0.7560099785410312,,0.17916577708432901,0.6948455566595255,-0.4364385600703373,0.9930163882858717,0.005216520867037902,-0.11786110684074948,0.08459569556396236,-0.7278186883705103,0.6805317958410755,-0.08223150787704313,-0.6857497683329348,-0.7231771804638155,,0.0,0.0,0.045,1.0,0.0,0.0,0.0,1.0,0.0,0.0,0.0,1.0,,-0.0005789313634909996,-0.18285425070962588,0.23380443500249326,False,,0.1459542581123324,0.5412676866099564,-0.3531124909095862,-0.03596539771146648,-0.26027279833770134,-0.9648650478760844,0.7278982656644947,0.6547160778659237,-0.20374241636557383,0.6847412686628994,-0.7096512719845744,0.1659049943811182,False,,0.0,0.0,0.0,0.0,0.0,0.0
10:14:50.874914,,-0.316292247596739,-0.33057930341405434,0.13251194896000001,-3.1095029300777814,-0.3251589195282031,1.0961392496199123,,0.14595727540734682,0.5412500278937399,-0.3531309337220162,-0.16682840776961178,-0.33104486715950693,-0.9287505468576589,0.7382494156362522,0.5824437576914239,-0.3402162098416622,0.6535717884622837,-0.742407277074813,0.14722551501887693,,-0.02554506694090005,0.30242918410053343,-0.09155772979836449,0.36924540742738604,-0.8592450855217741,0.3540560860606786,0.9187705277259306,0.39479198418381917,-8.113299059120394e-05,-0.1397087916064796,0.3253262550225943,0.9352241877309286,,0.0537273472211149,0.704355358925087,1.1529405304705909,0.9922653582786767,-0.07675626316805109,-0.09755990377489436,0.00467309759675804,-0.7622645109389707,0.6472487756047308,-0.12404684969373843,-0.6426984451727332,-0.7560099785410312,,0.17916577708432901,0.6948455566595255,-0.4364385600703373,0.9930163882858717,0.005216520867037902,-0.11786110684074948,0.08459569556396236,-0.7278186883705103,0.6805317958410755,-0.08223150787704313,-0.6857497683329348,-0.7231771804638155,,0.0,0.0,0.045,1.0,0.0,0.0,0.0,1.0,0.0,0.0,0.0,1.0,,-0.0005789313634909996,-0.18285425070962588,0.23380443500249326,False,,0.14595727540734682,0.5412500278937399,-0.3531309337220162,-0.035966529090922184,-0.2628757457449937,-0.9641590901319996,0.7278893069478969,0.6541728799491697,-0.2055115567794662,0.6847507324684381,-0.7091926292891254,0.16781611646655087,False,,0.0,0.0,0.0,0.0,0.0,0.0
10:14:50.886894,,-0.31628452486386477,-0.3306333625441739,0.13251324525000002,-3.10782551784308,-0.3246223536543942,1.0936631054254589,,0.14595355524881987,0.5412405303918522,-0.35314347159093934,-0.1661305955516847,-0.33055745428379646,-0.9290491884927614,0.7383842718420112,0.582758828073914,-0.3393829922053569,0.6535971942396827,-0.7423772071658278,0.1472643540123688,,-0.025545282833889408,0.3024284974927845,-0.09155763561440565,0.36924741720421494,-0.859244641389808,0.3540550678884824,0.9187701415316232,0.39479288227697673,-8.426149567977714e-05,-0.13970601950015932,0.3253263381789717,0.9352245729070018,,0.0537273472211149,0.704355358925087,1.1529405304705909,0.9922653582786767,-0.07675626316805109,-0.09755990377489436,0.00467309759675804,-0.7622645109389707,0.6472487756047308,-0.12404684969373843,-0.6426984451727332,-0.7560099785410312,,0.17916577708432901,0.6948455566595255,-0.4364385600703373,0.9930163882858717,0.005216520867037902,-0.11786110684074948,0.08459569556396236,-0.7278186883705103,0.6805317958410755,-0.08223150787704313,-0.6857497683329348,-0.7231771804638155,,0.0,0.0,0.045,1.0,0.0,0.0,0.0,1.0,0.0,0.0,0.0,1.0,,-0.0005789313634909996,-0.18285425070962588,0.23380443500249326,False,,0.14595355524881987,0.5412405303918522,-0.35314347159093934,-0.03764238117941923,-0.264744680720138,-0.9635835745639998,0.7276739186632043,0.653622765467696,-0.20800949151348191,0.6848895671832647,-0.7090046082309713,0.16804388197958056,False,,0.0,0.0,0.0,0.0,0.0,0.0
10:14:50.900571,,-0.31623046573374525,-0.33067197620854505,0.13252102299000001,-3.0990191036108974,-0.32220780722225406,1.0861711836850805,,0.14594498604125633,0.5412260202869726,-0.3531570627632191,-0.16472479154986255,-0.3300659767520173,-0.9294741492045872,0.7386547685370553,0.5832126736018481,-0.3380119972244381,0.6536473636191946,-0.7422394683260389,0.147735221571416,,-0.02554505945326896,0.3024277815768099,-0.09155769993961693,0.36924876323161443,-0.8592436622458788,0.35405604036417415,0.9187699425293732,0.39479334470280875,-8.751620387439929e-05,-0.1397037706457484,0.3253283631114935,0.935224204455114,,0.0537273472211149,0.704355358925087,1.1529405304705909,0.9922653582786767,-0.07675626316805109,-0.09755990377489436,0.00467309759675804,-0.7622645109389707,0.6472487756047308,-0.12404684969373843,-0.6426984451727332,-0.7560099785410312,,0.17916577708432901,0.6948455566595255,-0.4364385600703373,0.9930163882858717,0.005216520867037902,-0.11786110684074948,0.08459569556396236,-0.7278186883705103,0.6805317958410755,-0.08223150787704313,-0.6857497683329348,-0.7231771804638155,,0.0,0.0,0.045,1.0,0.0,0.0,0.0,1.0,0.0,0.0,0.0,1.0,,-0.0005789313634909996,-0.18285425070962588,0.23380443500249326,False,,0.14594498604125633,0.5412260202869726,-0.3531570627632191,-0.04139619646297571,-0.2668301303152235,-0.9628541096523188,0.7272453037964106,0.6527641181379644,-0.21216331958571888,0.6851281799958787,-0.7090138839455306,0.16702900750471034,False,,0.0,0.0,0.0,0.0,0.0,0.0
10:14:50.912234,,-0.31621502026799675,-0.3306796989414193,0.13252361557,-3.092309454672092,-0.32073225106927955,1.0812215915396894,,0.14593336549373453,0.5412137947561191,-0.353167689155405,-0.16299627338538056,-0.32949386270285774,-0.9299817252525067,0.7389851942370417,0.5837567292753733,-0.3363464935511597,0.6537071955860054,-0.7420659508877018,0.14834091469386018,,-0.02554461768595765,0.3024272847598217,-0.09155784849752671,0.36924921807734207,-0.8592426528051679,0.3540580157760807,0.9187699346591663,0.39479336252449587,-8.977014791727855e-05,-0.1397026202379506,0.32533100757939726,0.9352234563951609,,0.0537273472211149,0.704355358925087,1.1529405304705909,0.9922653582786767,-0.07675626316805109,-0.09755990377489436,0.00467309759675804,-0.7622645109389707,0.6472487756047308,-0.12404684969373843,-0.6426984451727332,-0.7560099785410312,,0.17916577708432901,0.6948455566595255,-0.4364385600703373,0.9930163882858717,0.005216520867037902,-0.11786110684074948,0.08459569556396236,-0.7278186883705103,0.6805317958410755,-0.08223150787704313,-0.6857497683329348,-0.7231771804638155,,0.0,0.0,0.045,1.0,0.0,0.0,0.0,1.0,0.0,0.0,0.0,1.0,,-0.0005789313634909996,-0.18285425070962588,0.23380443500249326,False,,0.14593336549373453,0.5412137947561191,-0.353167689155405,-0.04631227697213733,-0.2692430273584532,-0.9619580891184977,0.7269579188587398,0.6513877702744533,-0.21731580003636672,0.6851184986629876,-0.7093674400166189,0.16556110000251442,False,,0.0,0.0,0.0,0.0,0.0,0.0
10:14:50.925047,,-0.31620729753512256,-0.3306874216742935,0.13252880073,-3.0841320700279224,-0.31939083638475724,1.075651165850008,,0.14588855673960027,0.5411886518159676,-0.35319620028000287,-0.15811237134209413,-0.32832832236779774,-0.9312362701053515,0.7399059145548015,0.5851201603114132,-0.3319241413395067,0.6538652121312178,-0.7415085371917801,0.15041733156888523,,-0.02554461519188167,0.30242681725162734,-0.09155783854658928,0.3692503366760827,-0.8592421783812427,0.3540580005356865,0.9187697395846497,0.3947938160184444,-9.189788748645289e-05,-0.13970094658314477,0.3253317102778689,0.9352234619595052,,0.0537273472211149,0.704355358925087,1.1529405304705909,0.9922653582786767,-0.07675626316805109,-0.09755990377489436,0.00467309759675804,-0.7622645109389707,0.6472487756047308,-0.12404684969373843,-0.6426984451727332,-0.7560099785410312,,0.17916577708432901,0.6948455566595255,-0.4364385600703373,0.9930163882858717,0.005216520867037902,-0.11786110684074948,0.08459569556396236,-0.7278186883705103,0.6805317958410755,-0.08223150787704313,-0.6857497683329348,-0.7231771804638155,,0.0,0.0,0.045,1.0,0.0,0.0,0.0,1.0,0.0,0.0,0.0,1.0,,-0.0005789313634909996,-0.18285425070962588,0.23380443500249326,False,,0.14588855673960027,0.5411886518159676,-0.35319620028000287,-0.060698035753490476,-0.27463990921379916,-0.959629443442991,0.7265561742091384,0.6470625562627806,-0.23114102621831611,0.6844208311954337,-0.711254503359882,0.16026589554873988,False,,0.0,0.0,0.0,0.0,0.0,0.0
10:14:50.937760,,-0.31620729753512256,-0.3306874216742935,0.13252750444000003,-3.0755353323250776,-0.3181835631686872,1.0702864863446386,,0.14586154329621037,0.5411833393224967,-0.35321140740341994,-0.15543082051696253,-0.3278759938968304,-0.9318468718945132,0.7404033579142698,0.5857962871791857,-0.3296142859712768,0.6539450493907707,-0.7411747719352343,0.1517096892886408,,-0.02554483358169563,0.3024265981530135,-0.09155775431762855,0.36925122785265174,-0.8592422086733311,0.35405699758939174,0.9187695484391996,0.3947942606082301,-9.289865319553336e-05,-0.13969984813401903,0.325331090742195,0.9352238415515054,,0.0537273472211149,0.704355358925087,1.1529405304705909,0.9922653582786767,-0.07675626316805109,-0.09755990377489436,0.00467309759675804,-0.7622645109389707,0.6472487756047308,-0.12404684969373843,-0.6426984451727332,-0.7560099785410312,,0.17916577708432901,0.6948455566595255,-0.4364385600703373,0.9930163882858717,0.005216520867037902,-0.11786110684074948,0.08459569556396236,-0.7278186883705103,0.6805317958410755,-0.08223150787704313,-0.6857497683329348,-0.7231771804638155,,0.0,0.0,0.045,1.0,0.0,0.0,0.0,1.0,0.0,0.0,0.0,1.0,,-0.0005789313634909996,-0.18285425070962588,0.23380443500249326,False,,0.14586154329621037,0.5411833393224967,-0.35321140740341994,-0.06891232038104425,-0.2770168528936847,-0.9583907111990284,0.7265687856432919,0.6443738467035964,-0.23849558782762165,0.6836292063893503,-0.7127720595655311,0.15686650144048667,False,,0.0,0.0,0.0,0.0,0.0,0.0
10:14:50.950845,,-0.31621502026799675,-0.33067197620854505,0.13253398589,-3.052470914097933,-0.31536659233119035,1.0576311375440093,,0.1458261821422478,0.5411756840934263,-0.3532269773205078,-0.1520031902115268,-0.32736291015376795,-0.9325923842822084,0.7410308715594475,0.5866329795756018,-0.3267032210892586,0.6540399663333762,-0.7407396791922971,0.1534159382486989,,-0.025545054464337573,0.3024268465621199,-0.09155768003769924,0.3692510004331126,-0.8592427133925833,0.3540560098869109,0.9187695523763495,0.3947942517062086,-9.17716793545631e-05,-0.1397004233402741,0.32532976850824713,0.9352242155852586,,0.0537273472211149,0.704355358925087,1.1529405304705909,0.9922653582786767,-0.07675626316805109,-0.09755990377489436,0.00467309759675804,-0.7622645109389707,0.6472487756047308,-0.12404684969373843,-0.6426984451727332,-0.7560099785410312,,0.17916577708432901,0.6948455566595255,-0.4364385600703373,0.9930163882858717,0.005216520867037902,-0.11786110684074948,0.08459569556396236,-0.7278186883705103,0.6805317958410755,-0.08223150787704313,-0.6857497683329348,-0.7231771804638155,,0.0,0.0,0.045,1.0,0.0,0.0,0.0,1.0,0.0,0.0,0.0,1.0,,-0.0005789313634909996,-0.18285425070962588,0.23380443500249326,False,,0.1458261821422478,0.5411756840934263,-0.3532269773205078,-0.0795042949107583,-0.2796695772897796,-0.9567988266241236,0.726603210801864,0.6408543590646649,-0.2476963151123574,0.682441822533735,-0.7149060204015449,0.15225813886443176,False,,0.0,0.0,0.0,0.0,0.0,0.0
10:14:50.962417,,-0.31621502026799675,-0.3306796989414193,0.13253657847,-3.0396806458083345,-0.31429346058357255,1.051507861206249,,0.1457865593114609,0.5411645498242157,-0.3532433266508392,-0.14835871183663668,-0.3270487080327247,-0.9332892559096023,0.7416878452697917,0.5874370680132369,-0.32375427611549035,0.6541321218234336,-0.740241064585137,0.15541664486352622,,-0.02554571461966315,0.30242712428066154,-0.0915574472492052,0.36925143676790256,-0.8592437531215713,0.3540530315330861,0.9187693691113799,0.3947946784854773,-9.051849744687313e-05,-0.1397004752994397,0.32532650450351785,0.9352253432408715,,0.0537273472211149,0.704355358925087,1.1529405304705909,0.9922653582786767,-0.07675626316805109,-0.09755990377489436,0.00467309759675804,-0.7622645109389707,0.6472487756047308,-0.12404684969373843,-0.6426984451727332,-0.7560099785410312,,0.17916577708432901,0.6948455566595255,-0.4364385600703373,0.9930163882858717,0.005216520867037902,-0.11786110684074948,0.08459569556396236,-0.7278186883705103,0.6805317958410755,-0.08223150787704313,-0.6857497683329348,-0.7231771804638155,,0.0,0.0,0.045,1.0,0.0,0.0,0.0,1.0,0.0,0.0,0.0,1.0,,-0.0005789313634909996,-0.18285425070962588,0.23380443500249326,False,,0.1457865593114609,0.5411645498242157,-0.3532433266508392,-0.09083597925900427,-0.2815904126277379,-0.9552254521254122,0.7267332651410897,0.6370687177546561,-0.2569089531250498,0.6808873520703909,-0.717530688106494,0.14677235916886028,False,,0.0,0.0,0.0,0.0,0.0,0.0
10:14:50.975279,,-0.31621502026799675,-0.33067197620854505,0.13253657847,-3.0271000540480735,-0.3125496214936936,1.0447691438112294,,0.14570799692033604,0.5411473266214163,-0.3532823520824159,-0.14065414445540644,-0.32635765948808837,-0.934723001611159,0.7430420544251474,0.5891336110476771,-0.31750605299675905,0.654297269597829,-0.7391970416792679,0.15963338175157665,,-0.025546156386980507,0.30242762109769783,-0.09155729869146251,0.36925098192497385,-0.8592447625551306,0.3540510561209962,0.9187693769896047,0.39479466066155866,-8.826455194371752e-05,-0.1397016257061779,0.3253238600319302,0.935226091295762,,0.0537273472211149,0.704355358925087,1.1529405304705909,0.9922653582786767,-0.07675626316805109,-0.09755990377489436,0.00467309759675804,-0.7622645109389707,0.6472487756047308,-0.12404684969373843,-0.6426984451727332,-0.7560099785410312,,0.17916577708432901,0.6948455566595255,-0.4364385600703373,0.9930163882858717,0.005216520867037902,-0.11786110684074948,0.08459569556396236,-0.7278186883705103,0.6805317958410755,-0.08223150787704313,-0.6857497683329348,-0.7231771804638155,,0.0,0.0,0.045,1.0,0.0,0.0,0.0,1.0,0.0,0.0,0.0,1.0,,-0.0005789313634909996,-0.18285425070962588,0.23380443500249326,False,,0.14570799692033604,0.5411473266214163,-0.3532823520824159,-0.11484321451706453,-0.28540156669959077,-0.951502486494285,0.7268118277283595,0.6287972908828802,-0.276330479774694,0.6771673376304778,-0.7232979418633585,0.13522013216485523,False,,0.0,0.0,0.0,0.0,0.0,0.0
10:14:50.987878,,-0.31620729753512256,-0.33067197620854505,0.13253787476,-3.0155678449345014,-0.3112082068091713,1.0375455586643427,,0.1456742234550295,0.5411383907072418,-0.3533007892989227,-0.13712501638608277,-0.3255704769870329,-0.9355215627635486,0.7436466794957513,0.590063278615793,-0.31434844250309946,0.654359492905895,-0.7388025390749661,0.16119696740423853,,-0.02554615888110112,0.30242808860583154,-0.09155730864252533,0.3692498633339418,-0.8592452369800011,0.35405107136003794,0.9187695720638299,0.39479420715891916,-8.613681421459907e-05,-0.139703299365676,0.32532315733295986,0.935226085727618,,0.0537273472211149,0.704355358925087,1.1529405304705909,0.9922653582786767,-0.07675626316805109,-0.09755990377489436,0.00467309759675804,-0.7622645109389707,0.6472487756047308,-0.12404684969373843,-0.6426984451727332,-0.7560099785410312,,0.17916577708432901,0.6948455566595255,-0.4364385600703373,0.9930163882858717,0.005216520867037902,-0.11786110684074948,0.08459569556396236,-0.7278186883705103,0.6805317958410755,-0.08223150787704313,-0.6857497683329348,-0.7231771804638155,,0.0,0.0,0.045,1.0,0.0,0.0,0.0,1.0,0.0,0.0,0.0,1.0,,-0.0005789313634909996,-0.18285425070962588,0.23380443500249326,False,,0.1456742234550295,0.5411383907072418,-0.3533007892989227,-0.12574811346315434,-0.28838310868939615,-0.9492220997127583,0.7267070356908905,0.6245708244954061,-0.28602127449979553,0.6753401337384122,-0.7257730139732178,0.13103143115457078,False,,0.0,0.0,0.0,0.0,0.0,0.0
10:14:51.000710,,-0.3161686838707514,-0.33070286714004193,0.13253657847,-3.0004711348221886,-0.3105374994669101,1.024393658389944,,0.14565359339465805,0.5411371448107216,-0.3533133975629381,-0.13471361493184011,-0.3245379581183098,-0.9362303966932467,0.7440541566529386,0.5908594847071643,-0.311878952959427,0.6543971683308847,-0.7386204594187615,0.16187699962791932,,-0.025545503715505423,0.3024287459029964,-0.09155756133508493,0.3692471897991111,-0.8592451461053208,0.3540540801855685,0.9187701454630841,0.39479287337860913,-8.313452003302912e-05,-0.13970659471673533,0.3253250159456712,0.9352249469345578,,0.0537273472211149,0.704355358925087,1.1529405304705909,0.9922653582786767,-0.07675626316805109,-0.09755990377489436,0.00467309759675804,-0.7622645109389707,0.6472487756047308,-0.12404684969373843,-0.6426984451727332,-0.7560099785410312,,0.17916577708432901,0.6948455566595255,-0.4364385600703373,0.9930163882858717,0.005216520867037902,-0.11786110684074948,0.08459569556396236,-0.7278186883705103,0.6805317958410755,-0.08223150787704313,-0.6857497683329348,-0.7231771804638155,,0.0,0.0,0.045,1.0,0.0,0.0,0.0,1.0,0.0,0.0,0.0,1.0,,-0.0005789313634909996,-0.18285425070962588,0.23380443500249326,False,,0.14565359339465805,0.5411371448107216,-0.3533133975629381,-0.13337508775080634,-0.29184359911432245,-0.9471211113809384,0.7268718966722756,0.6208236654389366,-0.2936583427369505,0.6736975076364122,-0.7276024258391132,0.12933049956419543,False,,0.0,0.0,0.0,0.0,0.0,0.0
10:14:51.012588,,-0.31610690200775765,-0.3307260353386646,0.13253787476,-2.9933421328247074,-0.3104033579984579,1.0172308661565599,,0.1456346201437699,0.5411341028450096,-0.35332300292036933,-0.13272705489798733,-0.32335185506863734,-0.9369242801431595,0.7443863996483809,0.5916219714767352,-0.30963257400425753,0.6544252569366708,-0.7385303112869858,0.1621744813271199,,-0.025545064443717035,0.30242871659357967,-0.09155771984596317,0.3692465260366891,-0.8592446110902765,0.35405607083275514,0.9187703326581449,0.39479243770146627,-8.326072575262633e-05,-0.1397071179591477,0.32532695771704223,0.9352241933063405,,0.0537273472211149,0.704355358925087,1.1529405304705909,0.9922653582786767,-0.07675626316805109,-0.09755990377489436,0.00467309759675804,-0.7622645109389707,0.6472487756047308,-0.12404684969373843,-0.6426984451727332,-0.7560099785410312,,0.17916577708432901,0.6948455566595255,-0.4364385600703373,0.9930163882858717,0.005216520867037902,-0.11786110684074948,0.08459569556396236,-0.7278186883705103,0.6805317958410755,-0.08223150787704313,-0.6857497683329348,-0.7231771804638155,,0.0,0.0,0.045,1.0,0.0,0.0,0.0,1.0,0.0,0.0,0.0,1.0,,-0.0005789313634909996,-0.18285425070962588,0.23380443500249326,False,,0.1456346201437699,0.5411341028450096,-0.35332300292036933,-0.13974774180575092,-0.29559820924916713,-0.9450355905196794,0.7271949020235802,0.6171283883089368,-0.3005663434487138,0.6720551637560039,-0.7292285314165239,0.1287152121428973,False,,0.0,0.0,0.0,0.0,0.0,0.0
10:14:51.023918,,-0.3160528428776381,-0.3307337580715389,0.13253528218000002,-2.98768086653259,-0.3105374994669101,1.0103418030036992,,0.14562272823550398,0.5411299806594119,-0.3533317585231662,-0.13068432901603216,-0.3219484314984628,-0.9376944137645851,0.744724793819569,0.5924603958574274,-0.3072062187047339,0.6544513638308274,-0.7384713175175728,0.1623376899670256,,-0.025544185900587615,0.30242865797537877,-0.09155803686752292,0.3692451985109233,-0.8592435410534167,0.3540600521250008,0.9187707070544961,0.39479156634898094,-8.351313416457562e-05,-0.1397081644405733,0.3253308412583221,0.9352226860437798,,0.0537273472211149,0.704355358925087,1.1529405304705909,0.9922653582786767,-0.07675626316805109,-0.09755990377489436,0.00467309759675804,-0.7622645109389707,0.6472487756047308,-0.12404684969373843,-0.6426984451727332,-0.7560099785410312,,0.17916577708432901,0.6948455566595255,-0.4364385600703373,0.9930163882858717,0.005216520867037902,-0.11786110684074948,0.08459569556396236,-0.7278186883705103,0.6805317958410755,-0.08223150787704313,-0.6857497683329348,-0.7231771804638155,,0.0,0.0,0.045,1.0,0.0,0.0,0.0,1.0,0.0,0.0,0.0,1.0,,-0.0005789313634909996,-0.18285425070962588,0.23380443500249326,False,,0.14562272823550398,0.5411299806594119,-0.3533317585231662,-0.14630368222150003,-0.2998708529642339,-0.9426943853184517,0.7275033658666289,0.6131169909179951,-0.3079389681420483,0.6703238659194202,-0.7308659432414171,0.12845578145290848,False,,0.0,0.0,0.0,0.0,0.0,0.0
10:14:51.035882,,-0.3160296746790154,-0.33077237173590995,0.13253528218000002,-2.984116365533849,-0.3112082068091713,1.00524006760479,,0.14560632393553824,0.5411345236130385,-0.3533408324220978,-0.12829081459551625,-0.3193000796844411,-0.9389296704247492,0.7451171198045988,0.5937591385626259,-0.303727778030702,0.6544783760098709,-0.7385780557848153,0.16174211216811835,,-0.025543744133208212,0.3024281611584567,-0.09155818542545978,0.36924565335480236,-0.8592425316051716,0.35406202753897065,0.9187706991928531,0.39479158417368826,-8.576707620558399e-05,-0.13970701402917088,0.3253334857220376,0.9352219379830051,,0.0537273472211149,0.704355358925087,1.1529405304705909,0.9922653582786767,-0.07675626316805109,-0.09755990377489436,0.00467309759675804,-0.7622645109389707,0.6472487756047308,-0.12404684969373843,-0.6426984451727332,-0.7560099785410312,,0.17916577708432901,0.6948455566595255,-0.4364385600703373,0.9930163882858717,0.005216520867037902,-0.11786110684074948,0.08459569556396236,-0.7278186883705103,0.6805317958410755,-0.08223150787704313,-0.6857497683329348,-0.7231771804638155,,0.0,0.0,0.045,1.0,0.0,0.0,0.0,1.0,0.0,0.0,0.0,1.0,,-0.0005789313634909996,-0.18285425070962588,0.23380443500249326,False,,0.14560632393553824,0.5411345236130385,-0.3533408324220978,-0.15453879019436503,-0.30776617320750577,-0.9388278569335649,0.7285246104147381,0.6063678288887266,-0.3187004049398533,0.6673602133370826,-0.7332107737328878,0.13050788074558542,False,,0.0,0.0,0.0,0.0,0.0,0.0
10:14:51.047757,,-0.3160065064803927,-0.33079553993453265,0.13253398589,-2.9816002471817975,-0.3121471970883369,1.0017896941674083,,0.14560120959861966,0.5411409106809937,-0.35334007300588205,-0.12781777845122294,-0.318519023607481,-0.93925941417264,0.7451941228099884,0.5940969143642099,-0.30287716267882653,0.6544832578769649,-0.7386436813126214,0.16142235661671112,,-0.025543523249953817,0.3024279127499657,-0.09155825970562717,0.3692458807772101,-0.8592420268779241,0.3540630152442508,0.9187706952598903,0.39479159308317824,-8.689404724124272e-05,-0.1397064388236695,0.32533480795272174,0.9352215639481616,,0.0537273472211149,0.704355358925087,1.1529405304705909,0.9922653582786767,-0.07675626316805109,-0.09755990377489436,0.00467309759675804,-0.7622645109389707,0.6472487756047308,-0.12404684969373843,-0.6426984451727332,-0.7560099785410312,,0.17916577708432901,0.6948455566595255,-0.4364385600703373,0.9930163882858717,0.005216520867037902,-0.11786110684074948,0.08459569556396236,-0.7278186883705103,0.6805317958410755,-0.08223150787704313,-0.6857497683329348,-0.7231771804638155,,0.0,0.0,0.045,1.0,0.0,0.0,0.0,1.0,0.0,0.0,0.0,1.0,,-0.0005789313634909996,-0.18285425070962588,0.23380443500249326,False,,0.14560120959861966,0.5411409106809937,-0.35334007300588205,-0.15660741384239144,-0.30997806249125903,-0.9377567481515467,0.729279626365218,0.6040058082652298,-0.3214470565279374,0.6660520583994967,-0.734227883123511,0.13146889801683861,False,,0.0,0.0,0.0,0.0,0.0,0.0
10:14:51.059973,,-0.31589066548727934,-0.3308341535989038,0.13253528218000002,-2.979922834947096,-0.3130861873675025,0.9993036637467301,,0.1456060874725899,0.5411435587949753,-0.35333577721703535,-0.12764979792563053,-0.3180292368368137,-0.9394482069845784,0.7452214251189117,0.5942849941680122,-0.30244069377394295,0.6544849552383034,-0.7387034250791852,0.16114184168922896,,-0.025543741637227318,0.3024276936503193,-0.091558175472769,0.3692467719626428,-0.8592420571802525,0.3540620123061407,0.9187705041277147,0.3947920376728288,-8.789481554619116e-05,-0.13970534037942461,0.3253341884174509,0.9352219435549433,,0.0537273472211149,0.704355358925087,1.1529405304705909,0.9922653582786767,-0.07675626316805109,-0.09755990377489436,0.00467309759675804,-0.7622645109389707,0.6472487756047308,-0.12404684969373843,-0.6426984451727332,-0.7560099785410312,,0.17916577708432901,0.6948455566595255,-0.4364385600703373,0.9930163882858717,0.005216520867037902,-0.11786110684074948,0.08459569556396236,-0.7278186883705103,0.6805317958410755,-0.08223150787704313,-0.6857497683329348,-0.7231771804638155,,0.0,0.0,0.045,1.0,0.0,0.0,0.0,1.0,0.0,0.0,0.0,1.0,,-0.0005789313634909996,-0.18285425070962588,0.23380443500249326,False,,0.1456060874725899,0.5411435587949753,-0.35333577721703535,-0.1575602253009196,-0.3112145366749153,-0.9371874345963784,0.729876462715606,0.6025609761928633,-0.32280120684913494,0.665173003493736,-0.7348916805432767,0.13220852200747388,False,,0.0,0.0,0.0,0.0,0.0,0.0
10:14:51.071795,,-0.31585977455578246,-0.3308495990646522,0.13253528218000002,-2.979713158417758,-0.3130861873675025,0.9992347821026798,,0.14561377768594808,0.5411414600651376,-0.35333745104481673,-0.12752681856347498,-0.31784794686707274,-0.9395262599946129,0.7452413992054464,0.5943654597316829,-0.30223328272752115,0.654486185841525,-0.7387167135988815,0.16107591251419692,,-0.025543962520473203,0.3024279420588185,-0.09155810119260502,0.36924654454000344,-0.8592425619065581,0.3540610246011183,0.918770508061748,0.3947920287637156,-8.676784426026041e-05,-0.13970591558447532,0.32533286618624313,0.9352223175896837,,0.0537273472211149,0.704355358925087,1.1529405304705909,0.9922653582786767,-0.07675626316805109,-0.09755990377489436,0.00467309759675804,-0.7622645109389707,0.6472487756047308,-0.12404684969373843,-0.6426984451727332,-0.7560099785410312,,0.17916577708432901,0.6948455566595255,-0.4364385600703373,0.9930163882858717,0.005216520867037902,-0.11786110684074948,0.08459569556396236,-0.7278186883705103,0.6805317958410755,-0.08223150787704313,-0.6857497683329348,-0.7231771804638155,,0.0,0.0,0.045,1.0,0.0,0.0,0.0,1.0,0.0,0.0,0.0,1.0,,-0.0005789313634909996,-0.18285425070962588,0.23380443500249326,False,,0.14561377768594808,0.5411414600651376,-0.35333745104481673,-0.1579145053097271,-0.3116745339361877,-0.9369749163710013,0.7299680545205769,0.6021662008285569,-0.32333033566176067,0.6649884573375908,-0.7350203068455747,0.13242167546292707,False,,0.0,0.0,0.0,0.0,0.0,0.0
10:14:51.083314,,-0.3158520518229082,-0.3308727672632749,0.13253657847,-2.9809712175937846,-0.3132203288359547,0.9993716466429416,,0.1456184214054443,0.5411394662283178,-0.3533392674296945,-0.12744205138520057,-0.3178314267369054,-0.9395433506321649,0.7452551600151757,0.5943860152461821,-0.30215891737713185,0.6544870281445514,-0.7387072823914413,0.16111573769301551,,-0.025544401791577402,0.3024279713671387,-0.0915579426794326,0.36924720829823393,-0.8592430969352794,0.35405903395602484,0.9187703208679182,0.39479246443964927,-8.664164157395904e-05,-0.13970539234069085,0.3253309244193998,0.9352230712296374,,0.0537273472211149,0.704355358925087,1.1529405304705909,0.9922653582786767,-0.07675626316805109,-0.09755990377489436,0.00467309759675804,-0.7622645109389707,0.6472487756047308,-0.12404684969373843,-0.6426984451727332,-0.7560099785410312,,0.17916577708432901,0.6948455566595255,-0.4364385600703373,0.9930163882858717,0.005216520867037902,-0.11786110684074948,0.08459569556396236,-0.7278186883705103,0.6805317958410755,-0.08223150787704313,-0.6857497683329348,-0.7231771804638155,,0.0,0.0,0.045,1.0,0.0,0.0,0.0,1.0,0.0,0.0,0.0,1.0,,-0.0005789313634909996,-0.18285425070962588,0.23380443500249326,False,,0.1456184214054443,0.5411394662283178,-0.3533392674296945,-0.1581088509837134,-0.3116906687886145,-0.9369367738704233,0.7299650959991328,0.6020897507868447,-0.32347935114998083,0.6649455239819178,-0.7350760906107218,0.13232759027833652,False,,0.0,0.0,0.0,0.0,0.0,0.0
10:14:51.095820,,-0.315844329090034,-0.3309036581947718,0.13253657847,-2.983906689004512,-0.31375689470976365,0.9999191048039888,,0.14563349389129915,0.5411377991945447,-0.3533379683434773,-0.12864954693854688,-0.3175479192120212,-0.9394746473836441,0.7450586063689836,0.5942602667447112,-0.30289009301067027,0.6544745733395717,-0.7389303447366472,0.160140496063192,,-0.025544843558951317,0.3024284681840931,-0.09155779412158263,0.36924675345552305,-0.8592441063790066,0.35405705854222125,0.9187703287346403,0.39479244661420343,-8.438769855256822e-05,-0.13970654275111288,0.32532827995331887,0.9352238192877775,,0.0537273472211149,0.704355358925087,1.1529405304705909,0.9922653582786767,-0.07675626316805109,-0.09755990377489436,0.00467309759675804,-0.7622645109389707,0.6472487756047308,-0.12404684969373843,-0.6426984451727332,-0.7560099785410312,,0.17916577708432901,0.6948455566595255,-0.4364385600703373,0.9930163882858717,0.005216520867037902,-0.11786110684074948,0.08459569556396236,-0.7278186883705103,0.6805317958410755,-0.08223150787704313,-0.6857497683329348,-0.7231771804638155,,0.0,0.0,0.045,1.0,0.0,0.0,0.0,1.0,0.0,0.0,0.0,1.0,,-0.0005789313634909996,-0.18285425070962588,0.23380443500249326,False,,0.14563349389129915,0.5411377991945447,-0.3533379683434773,-0.1541377866000806,-0.3125238745442971,-0.9373208471925973,0.7301658585139905,0.6030893824515897,-0.3211557501192957,0.6656570902518468,-0.7339019175707207,0.13523540062965778,False,,0.0,0.0,0.0,0.0,0.0,0.0
10:14:51.107569,,-0.3158211608914113,-0.33094227185914293,0.13253657847,-2.9868421604152395,-0.3146958849889292,1.000739393297721,,0.14564555169847354,0.541140732304274,-0.3533339536049037,-0.12961667612285774,-0.31744297460778154,-0.9393771740589749,0.7449003519625627,0.5941203501122362,-0.30355308469617664,0.6544638896966833,-0.7390879294472866,0.15945547851488276,,-0.025545064442245795,0.3024287165925993,-0.09155771984156877,0.3692465260368384,-0.85924461110287,0.35405607083572627,0.9187703326713397,0.39479243770097183,-8.32607270574992e-05,-0.13970711795735696,0.32532695772104503,0.9352241933179696,,0.0537273472211149,0.704355358925087,1.1529405304705909,0.9922653582786767,-0.07675626316805109,-0.09755990377489436,0.00467309759675804,-0.7622645109389707,0.6472487756047308,-0.12404684969373843,-0.6426984451727332,-0.7560099785410312,,0.17916577708432901,0.6948455566595255,-0.4364385600703373,0.9930163882858717,0.005216520867037902,-0.11786110684074948,0.08459569556396236,-0.7278186883705103,0.6805317958410755,-0.08223150787704313,-0.6857497683329348,-0.7231771804638155,,0.0,0.0,0.045,1.0,0.0,0.0,0.0,1.0,0.0,0.0,0.0,1.0,,-0.0005789313634909996,-0.18285425070962588,0.23380443500249326,False,,0.14564555169847354,0.541140732304274,-0.3533339536049037,-0.1512431548006494,-0.3127366407806735,-0.9377213347467184,0.7306192385772623,0.6036064023970552,-0.3191470495023664,0.6658235774938648,-0.7333860542023584,0.1372000698059855,False,,0.0,0.0,0.0,0.0,0.0,0.0
