AlexandreBanks6/RCL_Autocam_Public/optimizationData/Data_63.csv
System Time,q_des,q0,q1,q2,q3,q4,q5,T_des,Tx,Ty,Tz,R00,R01,R02,R10,R11,R12,R20,R21,R22,T_target,Tx,Ty,Tz,R00,R01,R02,R10,R11,R12,R20,R21,R22,worldFrame,Tx,Ty,Tz,R00,R01,R02,R10,R11,R12,R20,R21,R22,ECM_T_PSM_RCM,Tx,Ty,Tz,R00,R01,R02,R10,R11,R12,R20,R21,R22,psm3_T_cam,Tx,Ty,Tz,R00,R01,R02,R10,R11,R12,R20,R21,R22,offset,x,y,z,IK Trigered,ECM_T_PSM3,Tx,Ty,Tz,R00,R01,R02,R10,R11,R12,R20,R21,R22,solverSuccess,q_solverOutput,q0,q1,q2,q3,q4,q5
12:01:44.249586,,-0.023909580978599083,-0.287293385654026,0.09355324930000002,-2.8887135446852055,0.009524044260108258,1.4026318472471138,,0.0318556267818628,0.22612376017796898,-0.17109945183503014,-0.42520857157258535,-0.9019161069050059,-0.07579582288305717,-0.7343601774718832,0.2948345790791421,0.6113817961983248,-0.5290678599240994,0.3156262141910004,-0.7876974625519565,,0.006122954514942383,0.2832104234986702,-0.13016728979727732,-0.2568333174550128,-0.9575280494300226,0.1310598397671438,0.7983551033840824,-0.13377543196930064,0.5871399004513478,-0.5446703369430395,0.2554293803699249,0.7988053928825172,,0.08406022967966897,0.7870358919355855,1.137854500181494,0.9955144099369426,-0.042601706837251334,-0.08447576091669183,0.018364126733972197,-0.788891761625784,0.6142577205768488,-0.09281065917878072,-0.6130537358286957,-0.7845707734355647,,0.1348010118882471,0.6116423302585496,-0.4622593981271257,0.9968468482507065,-0.0709363588056138,-0.03555832015203072,-0.03452950626763999,-0.7912602434686562,0.6105038413497789,-0.07144280460302568,-0.60735101885592,-0.7912146772937987,,0.0,0.0,0.045,1.0,0.0,0.0,0.0,1.0,0.0,0.0,0.0,1.0,,-0.019501160741314527,-0.1568017533185176,0.2605595468860936,True,,0.13343512939167915,0.4988163231140019,-0.3803034066404983,-0.18040233299617725,-0.15756632674702614,-0.9708902362908929,0.5720658205067404,0.7861551897002887,-0.23388183921641556,0.8001223001875941,-0.5976059490858108,-0.05168592032421372,False,,0.0,0.0,0.0,0.0,0.0,0.0
12:01:44.747356,,-0.04118533441823931,-0.09426367746278437,0.08030257292000001,-3.1606640032361755,-0.2211992814777256,1.0441413214964324,,0.00527126851222845,0.4734806692141125,-0.35974425538842386,-0.05303724844276148,-0.2834282643799896,0.9575257016018774,-0.7890409439419146,0.5995983667392562,0.13377663243955928,-0.6120469255382901,-0.7484318389500565,-0.25543755280882946,,0.006124229032427189,0.2832108486974284,-0.1301681350435901,-0.2568391926146071,-0.9575257015840317,0.13106547945897135,0.7983537710553614,-0.13377663243706606,0.5871414385122269,-0.5446695193798581,0.25543755280406877,0.7988033370227671,,0.08406022967966897,0.7870358919355855,1.137854500181494,0.9955144099369426,-0.042601706837251334,-0.08447576091669183,0.018364126733972197,-0.788891761625784,0.6142577205768488,-0.09281065917878072,-0.6130537358286957,-0.7845707734355647,,0.1348010118882471,0.6116423302585496,-0.4622593981271257,0.9968468482507065,-0.0709363588056138,-0.03555832015203072,-0.03452950626763999,-0.7912602434686562,0.6105038413497789,-0.07144280460302568,-0.60735101885592,-0.7912146772937987,,0.0,0.0,0.045,1.0,0.0,0.0,0.0,1.0,0.0,0.0,0.0,1.0,,-0.019501160741314527,-0.1568017533185176,0.2605595468860936,True,,0.13333363099900616,0.5276841144404107,-0.3683536495325326,0.08974436259844693,-0.5072818862835813,-0.857094532260223,0.860692554299348,0.47252481152728715,-0.18954848842648658,0.5011529470685199,-0.7206839739717221,0.4790201804776745,False,,-0.6225001507914755,0.07656647694565913,0.12051744082686666,-1.7808945123085562,0.6743989355101115,1.3102721233487045
12:01:44.847736,,-0.04696966134103347,-0.00881936094236439,0.07196613193000001,-3.235937877268402,-0.29403809884728593,0.9316517481943996,,0.005489537333782907,0.4805578881231502,-0.3594657786816629,-0.05303793917083926,-0.2834286451228985,0.9575255506420226,-0.7890409509472504,0.5995984229850441,0.13377633902191827,-0.6120468566513264,-0.748431649703329,-0.2554382723586745,,0.0061243747939351435,0.28321067176049314,-0.13016820438313575,-0.2568392476896433,-0.9575255506293323,0.1310664744002287,0.7983543406780929,-0.1337763390201453,0.5871407308408338,-0.5446686584889564,0.25543827235528915,0.7988036939383039,,0.08406022967966897,0.7870358919355855,1.137854500181494,0.9955144099369426,-0.042601706837251334,-0.08447576091669183,0.018364126733972197,-0.788891761625784,0.6142577205768488,-0.09281065917878072,-0.6130537358286957,-0.7845707734355647,,0.1348010118882471,0.6116423302585496,-0.4622593981271257,0.9968468482507065,-0.0709363588056138,-0.03555832015203072,-0.03452950626763999,-0.7912602434686562,0.6105038413497789,-0.07144280460302568,-0.60735101885592,-0.7912146772937987,,0.0,0.0,0.045,1.0,0.0,0.0,0.0,1.0,0.0,0.0,0.0,1.0,,-0.019501160741314527,-0.1568017533185176,0.2605595468860936,True,,0.13376999948182963,0.541838683715687,-0.367796738309691,0.16099801803136066,-0.6174946811721912,-0.7699220459981828,0.9213727411314431,0.3736579106347065,-0.10701419401199402,0.3537681586716146,-0.6921561128417202,0.6291009500596354,False,,-0.5806432400979789,-0.028816110712502774,0.135628378959073,-1.8534055476054434,0.6050983154090666,1.36744823321747
12:01:44.947471,,-0.05361121161286655,0.06302522298654623,0.06271710278,-3.2598410016128976,-0.32435407071748973,0.855196651219276,,0.005532356194722227,0.4867743871671978,-0.3608737015810666,-0.053039320632088556,-0.2834294066063675,0.9575252487207055,-0.7890409649568335,0.599598535478707,0.13377575218169696,-0.6120467188759985,-0.7484312712083537,-0.2554397114596168,,0.006124666314281298,0.2832103178865739,-0.130168343066717,-0.25683935782877776,-0.957525248706429,0.13106846428478802,0.7983554799108477,-0.1337757521797024,0.587139315491013,-0.5446669367022395,0.25543971145580824,0.7988044077525814,,0.08406022967966897,0.7870358919355855,1.137854500181494,0.9955144099369426,-0.042601706837251334,-0.08447576091669183,0.018364126733972197,-0.788891761625784,0.6142577205768488,-0.09281065917878072,-0.6130537358286957,-0.7845707734355647,,0.1348010118882471,0.6116423302585496,-0.4622593981271257,0.9968468482507065,-0.0709363588056138,-0.03555832015203072,-0.03452950626763999,-0.7912602434686562,0.6105038413497789,-0.07144280460302568,-0.60735101885592,-0.7912146772937987,,0.0,0.0,0.045,1.0,0.0,0.0,0.0,1.0,0.0,0.0,0.0,1.0,,-0.019501160741314527,-0.1568017533185176,0.2605595468860936,True,,0.13385529888555794,0.5542719447174671,-0.37061266848556307,0.18360785622876052,-0.6801077200742102,-0.7097475919131666,0.9492162802689467,0.3103288072526492,-0.051812012714553546,0.255492873488604,-0.6641908765442417,0.7025481272567228,False,,-0.5573656556319244,-0.029883960602399114,0.12133400975220253,-1.9522416538034542,0.5721149631465178,1.2024175769591043
12:01:45.014198,,-0.06513352906120952,0.11644336627755715,0.05504695485,-3.1975670723996066,-0.3246223536543942,0.8104906667350062,,0.005103915884184712,0.4912761150273657,-0.3626814377614318,-0.05307466742841535,-0.2834107838231691,0.9575288023292564,-0.789041322896448,0.5996067370271698,0.13373687477077417,-0.6120431932790253,-0.7484317527499534,-0.2554467479465069,,0.00612594620527612,0.2832107483661776,-0.1301691923771016,-0.2568142349081781,-0.9575288006302637,0.131091728050983,0.7983511711543095,-0.13373687453347793,0.587154027796673,-0.5446850950011085,0.2554467474932546,0.7987897739268123,,0.08406022967966897,0.7870358919355855,1.137854500181494,0.9955144099369426,-0.042601706837251334,-0.08447576091669183,0.018364126733972197,-0.788891761625784,0.6142577205768488,-0.09281065917878072,-0.6130537358286957,-0.7845707734355647,,0.1348010118882471,0.6116423302585496,-0.4622593981271257,0.9968468482507065,-0.0709363588056138,-0.03555832015203072,-0.03452950626763999,-0.7912602434686562,0.6105038413497789,-0.07144280460302568,-0.60735101885592,-0.7912146772937987,,0.0,0.0,0.045,1.0,0.0,0.0,0.0,1.0,0.0,0.0,0.0,1.0,,-0.019501160741314527,-0.1568017533185176,0.2605595468860936,True,,0.1329976891828135,0.5632689439595062,-0.3742283821913769,0.12956871073371584,-0.6987806224610127,-0.7035037959185455,0.9694332000093513,0.23835158551421004,-0.05820474553240068,0.20835359348576638,-0.6744584222588239,0.7083040425733191,True,,-0.31266572376022694,-0.14194997215427674,0.08032244586843175,-2.4104689712655065,0.15065754020958685,0.9236970095197057
12:01:45.070974,,-0.07623109620147013,0.12973418955409755,0.05095067845,-3.155631766532071,-0.32381750484368077,0.7905203824474744,,0.004672555589276678,0.4927787351554027,-0.36392872001542853,-0.05310875008118334,-0.2833905039953947,0.9575329147919932,-0.7890416670923889,0.5996149683995995,0.13369793290552864,-0.6120397930338176,-0.7484328372782582,-0.2554517172123495,,0.0061268837650725674,0.28321119993779953,-0.13016983100924706,-0.2567879041080524,-0.9575329122491572,0.13111326764373327,0.7983467867071832,-0.1336979325504788,0.5871688561860369,-0.54470393347844,0.2554517165339688,0.7987753376649405,,0.08406022967966897,0.7870358919355855,1.137854500181494,0.9955144099369426,-0.042601706837251334,-0.08447576091669183,0.018364126733972197,-0.788891761625784,0.6142577205768488,-0.09281065917878072,-0.6130537358286957,-0.7845707734355647,,0.1348010118882471,0.6116423302585496,-0.4622593981271257,0.9968468482507065,-0.0709363588056138,-0.03555832015203072,-0.03452950626763999,-0.7912602434686562,0.6105038413497789,-0.07144280460302568,-0.60735101885592,-0.7912146772937987,,0.0,0.0,0.045,1.0,0.0,0.0,0.0,1.0,0.0,0.0,0.0,1.0,,-0.019501160741314527,-0.1568017533185176,0.2605595468860936,True,,0.13213466846492522,0.5662676966548452,-0.3767230783034305,0.09991785421325244,-0.7000173645369366,-0.7071012033338516,0.9751259547919505,0.21020510366854644,-0.07030779958712136,0.19785296232431393,-0.6824877315662585,0.7036083438682605,True,,-0.3246281788239637,-0.14509859535990366,0.08068790790956826,-2.4065847723263967,0.15895943126385745,0.9113658866770158
12:01:45.167712,,-0.08483422062335624,0.12776489267117028,0.04856420856,-3.129422200364861,-0.32046396813237504,0.7835858050943678,,0.004184434258043879,0.49346776866373,-0.3652046341618699,-0.05314366092575604,-0.28337068027145373,0.9575368446518921,-0.7890420186929665,0.5996232658997406,0.13365863881043114,-0.6120363094133684,-0.7484336954962829,-0.2554575491259573,,0.006127996246661668,0.283211439176224,-0.13017055285428705,-0.256761640013237,-0.9575368421090689,0.131136001579769,0.7983430849176236,-0.13365863845548887,0.5871828350856834,-0.5447217396715032,0.2554575484475673,0.7987613297845821,,0.08406022967966897,0.7870358919355855,1.137854500181494,0.9955144099369426,-0.042601706837251334,-0.08447576091669183,0.018364126733972197,-0.788891761625784,0.6142577205768488,-0.09281065917878072,-0.6130537358286957,-0.7845707734355647,,0.13465481279826225,0.6116547646157243,-0.4622368086541593,0.9968360921919407,-0.07107567787070217,-0.03558164300198996,-0.03462627753445892,-0.7912593877813453,0.610499469411725,-0.0715459726861513,-0.6073358455279181,-0.7912170021740442,,0.0,0.0,0.045,1.0,0.0,0.0,0.0,1.0,0.0,0.0,0.0,1.0,,-0.019501160741314527,-0.1568017533185176,0.2605595468860936,True,,0.1311579224491548,0.5676394338483352,-0.3792750886978825,0.07377992425206853,-0.6942245537071463,-0.7159670326261348,0.976380430082628,0.19647158180497465,-0.08988978415100285,0.20307087070533225,-0.6924241377747926,0.692322926745759,False,,-0.7099820750859438,-0.059254657798589766,0.12640990144962308,-1.7653288527611362,0.7541767920166434,1.1769692510760486
12:01:45.280777,,-0.10169294648778834,0.10902954271830163,0.045345520490000006,-3.07259986091435,-0.3053059821972732,0.7866492742942923,,0.003367722781922683,0.4935250248810856,-0.3670337349817786,-0.053176277776978566,-0.2833556900647468,0.9575394698860809,-0.7890423463127565,0.5996305241962043,0.1336241377051513,-0.6120330540150961,-0.748433555741668,-0.25546575784797065,,0.006127810086044969,0.28321267277236506,-0.1301748899785737,-0.25674050639436996,-0.9575394682475602,0.1311582086725254,0.7983390775818133,-0.1336241374764966,0.5871961373060329,-0.5447375754983547,0.2554657574108232,0.798747905917964,,0.08406022967966897,0.7870358919355855,1.137854500181494,0.9955144099369426,-0.042601706837251334,-0.08447576091669183,0.018364126733972197,-0.788891761625784,0.6142577205768488,-0.09281065917878072,-0.6130537358286957,-0.7845707734355647,,0.13465481279826225,0.6116547646157243,-0.4622368086541593,0.9968360921919407,-0.07107567787070217,-0.03558164300198996,-0.03462627753445892,-0.7912593877813453,0.610499469411725,-0.0715459726861513,-0.6073358455279181,-0.7912170021740442,,0.0,0.0,0.045,1.0,0.0,0.0,0.0,1.0,0.0,0.0,0.0,1.0,,-0.019501160741314527,-0.1568017533185176,0.2605595468860936,True,,0.12952509256882835,0.567747365015587,-0.3829302255653253,0.02585742165107291,-0.6679624069152883,-0.7437456666720781,0.9718031348848737,0.19122551389345815,-0.13795459348682543,0.23437162962588082,-0.7192072203364743,0.6540725597687089,False,,-0.5541498749486118,-0.038090330617625824,0.12582726408114964,-1.9268600629174113,0.5711461139348476,1.2105804395085933
12:01:45.384812,,-0.12211185220723794,0.0904640928886659,0.044114044990000004,-3.0096969021130464,-0.28277021549729875,0.7921730321670994,,0.002337483797464651,0.49310574409325747,-0.36802980144478137,-0.05320810546394175,-0.2833421829269936,0.9575416987719669,-0.7890426651889884,0.5996374496671536,0.13359117286755823,-0.6120298767416473,-0.7484331208136356,-0.2554746438391999,,0.006127608986203147,0.28321471341092946,-0.13017931557852974,-0.2567215250714833,-0.9575416986938132,0.1311790900422025,0.7983324861930514,-0.13359117285665462,0.5872126019257136,-0.5447561838938176,0.2554746438183483,0.79873237464879,,0.08406022967966897,0.7870358919355855,1.137854500181494,0.9955144099369426,-0.042601706837251334,-0.08447576091669183,0.018364126733972197,-0.788891761625784,0.6142577205768488,-0.09281065917878072,-0.6130537358286957,-0.7845707734355647,,0.13465481279826225,0.6116547646157243,-0.4622368086541593,0.9968360921919407,-0.07107567787070217,-0.03558164300198996,-0.03462627753445892,-0.7912593877813453,0.610499469411725,-0.0715459726861513,-0.6073358455279181,-0.7912170021740442,,0.0,0.0,0.045,1.0,0.0,0.0,0.0,1.0,0.0,0.0,0.0,1.0,,-0.019501160741314527,-0.1568017533185176,0.2605595468860936,True,,0.1274651611770665,0.5669016532515394,-0.38491931022001535,-0.028654600590554635,-0.6343500459843707,-0.7725146814298243,0.9628956439107195,0.18995649158076283,-0.19169900950210728,0.26834845407186014,-0.7493440801567426,0.6053697685970851,False,,-0.4431160209514468,-0.04420646054008784,0.09767528188648708,-2.182824537218518,0.39406144526417436,0.9882935182355163
12:01:45.484684,,-0.14466995493284773,0.07898038910469406,0.044943670590000005,-2.950358444310483,-0.2544663656538784,0.8002151753827754,,0.001180085546844567,0.4924159778602781,-0.3680384438731053,-0.05320498306412084,-0.28334656035049033,0.9575405769546753,-0.7890426339418832,0.5996363444332591,0.1335963182755166,-0.6120301884704722,-0.7484323490952699,-0.25547615784752653,,0.006126135398718814,0.28321592011656743,-0.13018284765562796,-0.256726588934257,-0.9575405768723795,0.13117736849472794,0.7983314977277927,-0.13359631826403467,0.5872127751591445,-0.5447552460490769,0.25547615782556965,0.7987325300204093,,0.08406022967966897,0.7870358919355855,1.137854500181494,0.9955144099369426,-0.042601706837251334,-0.08447576091669183,0.018364126733972197,-0.788891761625784,0.6142577205768488,-0.09281065917878072,-0.6130537358286957,-0.7845707734355647,,0.13465481279826225,0.6116547646157243,-0.4622368086541593,0.9968360921919407,-0.07107567787070217,-0.03558164300198996,-0.03462627753445892,-0.7912593877813453,0.610499469411725,-0.0715459726861513,-0.6073358455279181,-0.7912170021740442,,0.0,0.0,0.045,1.0,0.0,0.0,0.0,1.0,0.0,0.0,0.0,1.0,,-0.019501160741314527,-0.1568017533185176,0.2605595468860936,True,,0.12515166438163047,0.5655217116181762,-0.38493329767085566,-0.08120259742900088,-0.5973876612343654,-0.7978308845712345,0.9515082784356628,0.19183396584953566,-0.24048227713251613,0.29671220776905133,-0.7786704769999786,0.5528418887977294,False,,-0.8243068233231374,0.01905695673244822,0.09992142902391885,-1.7482817208712578,0.8658323841879061,0.892740284100631
12:01:45.584773,,-0.16779181715827593,0.06358898248636462,0.04791735985000001,-2.8899716038612318,-0.21529705686582754,0.8141161752735988,,-0.00014819453581395303,0.49095271073215085,-0.3673139572596673,-0.05319285043441546,-0.28335224986869584,0.9575395674106685,-0.7890425124520958,0.5996336290505607,0.13360922294115338,-0.612031399689547,-0.7484323706294396,-0.255473193090882,,0.006125125699556221,0.28321722161100704,-0.1301868249321428,-0.25673521138825894,-0.9575395672278042,0.13116786208774345,0.7983300515591094,-0.1336092229156376,0.5872118050137983,-0.5447533016229544,0.2554731930420935,0.7987348043160643,,0.08406022967966897,0.7870358919355855,1.137854500181494,0.9955144099369426,-0.042601706837251334,-0.08447576091669183,0.018364126733972197,-0.788891761625784,0.6142577205768488,-0.09281065917878072,-0.6130537358286957,-0.7845707734355647,,0.13465481279826225,0.6116547646157243,-0.4622368086541593,0.9968360921919407,-0.07107567787070217,-0.03558164300198996,-0.03462627753445892,-0.7912593877813453,0.610499469411725,-0.0715459726861513,-0.6073358455279181,-0.7912170021740442,,0.0,0.0,0.045,1.0,0.0,0.0,0.0,1.0,0.0,0.0,0.0,1.0,,-0.019501160741314527,-0.1568017533185176,0.2605595468860936,True,,0.12249595743615495,0.5625958760906559,-0.3834798876301849,-0.13851464183146953,-0.5546986779461727,-0.820440778291199,0.9324296869553226,0.20613426423615067,-0.2967887194490727,0.33374926649012926,-0.8061129212415524,0.4886649008520171,False,,-0.8050822279066963,0.042155999345808326,0.09381493714658433,-1.8671992401316033,0.8386539961108004,0.8523205649758399
12:01:45.683944,,-0.19086734298645874,0.04761837090246833,0.052915854090000006,-2.827068645059928,-0.17599360660932445,0.8262960328110054,,-0.0016762116569422891,0.4889029211999748,-0.3658463898226766,-0.05321700012708307,-0.2833415310565819,0.957541397369318,-0.789042754158878,0.599638949275099,0.13358391602894287,-0.6120289886981224,-0.7484321661251387,-0.2554795680722556,,0.006124881950314357,0.2832171945772403,-0.13018940102144644,-0.25671272597785144,-0.9575413941386532,0.13119850640991296,0.7983592673384277,-0.1335839155782419,0.5871778359286063,-0.5447210752559852,0.25547956721028886,0.7987547396805692,,0.08406022967966897,0.7870358919355855,1.137854500181494,0.9955144099369426,-0.042601706837251334,-0.08447576091669183,0.018364126733972197,-0.788891761625784,0.6142577205768488,-0.09281065917878072,-0.6130537358286957,-0.7845707734355647,,0.13465481279826225,0.6116547646157243,-0.4622368086541593,0.9968360921919407,-0.07107567787070217,-0.03558164300198996,-0.03462627753445892,-0.7912593877813453,0.610499469411725,-0.0715459726861513,-0.6073358455279181,-0.7912170021740442,,0.0,0.0,0.045,1.0,0.0,0.0,0.0,1.0,0.0,0.0,0.0,1.0,,-0.019501160741314527,-0.1568017533185176,0.2605595468860936,True,,0.11944045058673083,0.5584924014886778,-0.38054316478901273,-0.2005321072130541,-0.512675325662316,-0.8348358428060756,0.9091040641761938,0.22021228235146223,-0.3536047952161945,0.3651255598763515,-0.8298617723203052,0.42191558914833033,False,,-0.8667542550999899,0.047994867487641486,0.09517534360128042,-1.776441570545489,0.9102483121043082,0.8626643992523023
12:01:45.781649,,-0.21934878182659875,0.034528338680657786,0.06000396781,-2.761020538318559,-0.1263612632819997,0.8395094369486895,,-0.003731158872168225,0.48636785372769964,-0.3635937671870641,-0.05324510185709995,-0.28332689286828894,0.9575441665562107,-0.7890430348356404,0.5996454415229665,0.1335531116750522,-0.6120261826961241,-0.7484325061342056,-0.2554852940113831,,0.0061262866689105406,0.283215748466167,-0.13018852828299274,-0.2566852415822718,-0.9575441613346763,0.131232065218932,0.798390153712769,-0.13355311094678068,0.5871428430159409,-0.5446887536036114,0.2554852926182095,0.7987749470579533,,0.08406022967966897,0.7870358919355855,1.137854500181494,0.9955144099369426,-0.042601706837251334,-0.08447576091669183,0.018364126733972197,-0.788891761625784,0.6142577205768488,-0.09281065917878072,-0.6130537358286957,-0.7845707734355647,,0.13465481279826225,0.6116547646157243,-0.4622368086541593,0.9968360921919407,-0.07107567787070217,-0.03558164300198996,-0.03462627753445892,-0.7912593877813453,0.610499469411725,-0.0715459726861513,-0.6073358455279181,-0.7912170021740442,,0.0,0.0,0.045,1.0,0.0,0.0,0.0,1.0,0.0,0.0,0.0,1.0,,-0.019501160741314527,-0.1568017533185176,0.2605595468860936,True,,0.11532958066165114,0.5534189379803478,-0.3760396797768062,-0.26760197764342125,-0.46716209684307214,-0.8427032436359281,0.8791046865110812,0.23963640820773413,-0.41200648297757436,0.39441619099066405,-0.8510781204651431,0.3465572119433323,False,,-0.575883621134839,-0.041562987166062715,0.12222132605983498,-1.9637415754447272,0.5761025593555962,1.1311887980262634
12:01:45.884082,,-0.2526028695830095,0.021824443102558464,0.06903910911000001,-2.693504695871826,-0.07324124177491703,0.8512996940051234,,-0.006410690276591968,0.48333475263399783,-0.36071542405048174,-0.05329710667140465,-0.2833167160942293,0.9575442845122302,-0.7890435525946019,0.5996550959487035,0.13350669650486047,-0.6120209886346599,-0.74842862337322,-0.2555091097912564,,0.006128307896455052,0.2832138158073176,-0.13018769108359335,-0.2566555386825138,-0.9575442778360181,0.1312892855591872,0.7984229379679835,-0.13350669557402206,0.5871088148027023,-0.5446546911995866,0.25550910800979,0.7987905539838832,,0.08406022967966897,0.7870358919355855,1.137854500181494,0.9955144099369426,-0.042601706837251334,-0.08447576091669183,0.018364126733972197,-0.788891761625784,0.6142577205768488,-0.09281065917878072,-0.6130537358286957,-0.7845707734355647,,0.13465481279826225,0.6116547646157243,-0.4622368086541593,0.9968360921919407,-0.07107567787070217,-0.03558164300198996,-0.03462627753445892,-0.7912593877813453,0.610499469411725,-0.0715459726861513,-0.6073358455279181,-0.7912170021740442,,0.0,0.0,0.045,1.0,0.0,0.0,0.0,1.0,0.0,0.0,0.0,1.0,,-0.019501160741314527,-0.1568017533185176,0.2605595468860936,True,,0.10996851490844217,0.5473474741004138,-0.37028752214892124,-0.33729175163637,-0.42084629016411546,-0.842094219391851,0.8442259846205804,0.2605869216770068,-0.46837692422056154,0.41655343135002676,-0.8688974947057928,0.2673955544217516,False,,-0.6591195181248817,-0.002485527933252135,0.12211116164632294,-1.7986240911524742,0.7014444686446702,1.202488904416732
12:01:45.984578,,-0.288119718071568,0.008417778832904715,0.08016775876000001,-2.6238920881317167,-0.017840815304146457,0.8635185196391153,,-0.009733606315012647,0.479709644296883,-0.35723337249210896,-0.053349546152108816,-0.28330773963440115,0.9575440201832031,-0.7890440724999862,0.5996646509881559,0.13346069836431138,-0.6120157494525778,-0.7484243655964842,-0.2555341296255744,,0.00613049652402946,0.2832120742824283,-0.13018698136529763,-0.25662697566824877,-0.9575440144919182,0.13134703568339265,0.7984551133984411,-0.1334606975710707,0.5870755166113392,-0.5446209832167648,0.2555341281067748,0.7988055346111843,,0.08406022967966897,0.7870358919355855,1.137854500181494,0.9955144099369426,-0.042601706837251334,-0.08447576091669183,0.018364126733972197,-0.788891761625784,0.6142577205768488,-0.09281065917878072,-0.6130537358286957,-0.7845707734355647,,0.13465481279826225,0.6116547646157243,-0.4622368086541593,0.9968360921919407,-0.07107567787070217,-0.03558164300198996,-0.03462627753445892,-0.7912593877813453,0.610499469411725,-0.0715459726861513,-0.6073358455279181,-0.7912170021740442,,0.0,0.0,0.045,1.0,0.0,0.0,0.0,1.0,0.0,0.0,0.0,1.0,,-0.019501160741314527,-0.1568017533185176,0.2605595468860936,True,,0.1033204532330272,0.5400918692392883,-0.3633280068247907,-0.40998194460083015,-0.3743329617970703,-0.8317389246714111,0.8040281901062918,0.28222675308099054,-0.5233418857303155,0.43064309423897984,-0.8833022662472881,0.18526638072430335,False,,-0.5378230685715577,-0.054163833178839896,0.11807455670710332,-2.018450567092311,0.52486768792272,1.1308018530109756
12:01:46.081839,,-0.3239377531422213,-0.0037146345125019893,0.09254992084000001,-2.553650450803594,0.03997415759876424,0.8766489841068554,,-0.013572867840874747,0.4758220349784885,-0.3534389727836841,-0.05341352281469221,-0.2833007648647435,0.9575425171800863,-0.7890447038234626,0.5996757531110597,0.13340707064780175,-0.6120093552787149,-0.7484181102550465,-0.25556776262587727,,0.006132905928316943,0.28321019561264577,-0.13018624781633534,-0.25659726731834087,-0.9575425162633734,0.13141601895525307,0.7984878970150323,-0.13340707052008316,0.5870431244304297,-0.5445869249353599,0.25556776238120693,0.7988180006147783,,0.08406022967966897,0.7870358919355855,1.137854500181494,0.9955144099369426,-0.042601706837251334,-0.08447576091669183,0.018364126733972197,-0.788891761625784,0.6142577205768488,-0.09281065917878072,-0.6130537358286957,-0.7845707734355647,,0.13465481279826225,0.6116547646157243,-0.4622368086541593,0.9968360921919407,-0.07107567787070217,-0.03558164300198996,-0.03462627753445892,-0.7912593877813453,0.610499469411725,-0.0715459726861513,-0.6073358455279181,-0.7912170021740442,,0.0,0.0,0.045,1.0,0.0,0.0,0.0,1.0,0.0,0.0,0.0,1.0,,-0.019501160741314527,-0.1568017533185176,0.2605595468860936,True,,0.09563928781153241,0.5323102169762229,-0.3557451540719502,-0.48319660720500196,-0.3303960536327818,-0.8107770880639504,0.7591580636867613,0.30318649053987223,-0.5759834948099495,0.43611933358307126,-0.8938212347544668,0.10432414474635238,False,,-0.659338509099742,-0.08169091578332621,0.1336457712865481,-1.7688645802389875,0.7004545516119315,1.2441535257409477
12:01:46.192653,,-0.35887539666521295,-0.013900919173604117,0.10349190473000001,-2.493682963413018,0.09188690588977687,0.8867779929755364,,0.05873831801558754,0.5851793159352013,-0.384739738927477,-0.9142416676576482,-0.2923246603811604,-0.28055029148372346,0.2654315096149425,0.091029008833306,-0.9598228134683816,0.3061180929348927,-0.9519768970326253,-0.005630336938337783,,0.006133864816000397,0.2832096879233521,-0.1301864940734666,-0.25659625713421047,-0.9575393027733785,0.13144140619016345,0.7984898719058384,-0.1333915245200447,0.5870439714725613,-0.544584505913245,0.2555879175993101,0.7988132016239695,,0.08406022967966897,0.7870358919355855,1.137854500181494,0.9955144099369426,-0.042601706837251334,-0.08447576091669183,0.018364126733972197,-0.788891761625784,0.6142577205768488,-0.09281065917878072,-0.6130537358286957,-0.7845707734355647,,0.13465481279826225,0.6116547646157243,-0.4622368086541593,0.9968360921919407,-0.07107567787070217,-0.03558164300198996,-0.03462627753445892,-0.7912593877813453,0.610499469411725,-0.0715459726861513,-0.6073358455279181,-0.7912170021740442,,0.0,0.0,0.045,1.0,0.0,0.0,0.0,1.0,0.0,0.0,0.0,1.0,,-0.019501160741314527,-0.1568017533185176,0.2605595468860936,False,,0.08778357725689026,0.5257019982690103,-0.34949214255699673,-0.5447155857793405,-0.2935317510704383,-0.7855724293294619,0.7179815741056081,0.32081507891227673,-0.6177217370202729,0.4333444240484736,-0.9005091872135632,0.03599741504698267,False,,0.0,0.0,0.0,0.0,0.0,0.0
12:01:46.297300,,-0.3911486973465972,-0.023708789923869246,0.11324648698,-2.4261671209662854,0.15090915200875762,0.9032228650882348,,0.04201540097123098,0.5918944227897099,-0.40397115127604966,-0.9522149229546014,-0.25343694438111364,-0.1704595427816413,0.18366096510716334,-0.029193280294598133,-0.9825560555416404,0.24403973118831934,-0.9669113028651625,0.07434475094535833,,0.006134473873638832,0.2832096048835872,-0.13018657387153196,-0.25659511529732465,-0.9575364519802827,0.1314644055620865,0.798490480406568,-0.1333766826461204,0.587046517085003,-0.5445841528183403,0.2556063450905634,0.7988075468119982,,0.08406022967966897,0.7870358919355855,1.137854500181494,0.9955144099369426,-0.042601706837251334,-0.08447576091669183,0.018364126733972197,-0.788891761625784,0.6142577205768488,-0.09281065917878072,-0.6130537358286957,-0.7845707734355647,,0.1347320956133119,0.6116516212248945,-0.4622481632743738,0.996842760985045,-0.07098846166729164,-0.035568921572405,-0.03456445609099337,-0.7912591612642774,0.6105032662406368,-0.07148292276373584,-0.6073463410818111,-0.7912146445356596,,0.0,0.0,0.045,1.0,0.0,0.0,0.0,1.0,0.0,0.0,0.0,1.0,,-0.019501160741314527,-0.1568017533185176,0.2605595468860936,False,,0.08018319921838385,0.5198118223863034,-0.3444289335488463,-0.6120186744850946,-0.2585086404047087,-0.7473997758346044,0.6665418802888103,0.3400133923191226,-0.6634099900247958,0.42562314775228705,-0.9041925546473779,-0.035787710428071384,False,,0.0,0.0,0.0,0.0,0.0,0.0
12:01:46.401703,,-0.42361506634983703,-0.0327366646538377,0.12056274774000002,-2.37605443045458,0.19718795862477662,0.9100078076332827,,0.03423925540015994,0.5875017835054854,-0.4113001458439328,-0.9651708438583426,-0.238259865758162,-0.10806238260688852,0.1442680736710814,-0.140137655925457,-0.9795652914997313,0.21824748586183157,-0.961037810786142,0.169630071491964,,0.006130469484957615,0.2832083559326481,-0.13018707402553467,-0.25659052590223985,-0.9575362894788139,0.13147454541200035,0.7984938567324523,-0.13336792375516215,0.5870439143852068,-0.5445813644632735,0.25561152358083816,0.7988077905447197,,0.08406022967966897,0.7870358919355855,1.137854500181494,0.9955144099369426,-0.042601706837251334,-0.08447576091669183,0.018364126733972197,-0.788891761625784,0.6142577205768488,-0.09281065917878072,-0.6130537358286957,-0.7845707734355647,,0.1347320956133119,0.6116516212248945,-0.4622481632743738,0.996842760985045,-0.07098846166729164,-0.035568921572405,-0.03456445609099337,-0.7912591612642774,0.6105032662406368,-0.07148292276373584,-0.6073463410818111,-0.7912146445356596,,0.0,0.0,0.045,1.0,0.0,0.0,0.0,1.0,0.0,0.0,0.0,1.0,,-0.019501160741314527,-0.1568017533185176,0.2605595468860936,False,,0.07352698457475627,0.5159460205797481,-0.3416189441567208,-0.6567984799371012,-0.2339573923187919,-0.7168540265156529,0.6306706783183742,0.3506961963631,-0.6922908878252665,0.4133645512882729,-0.9067944179558258,-0.08278666137971669,False,,0.0,0.0,0.0,0.0,0.0,0.0
12:01:46.507347,,-0.4457484187673645,-0.03486813892712366,0.12508550355,-2.3385223317031354,0.23474756979140074,0.9123947879936558,,0.015514100636055184,0.5862663605112353,-0.42459689906821196,-0.9927139041301931,-0.11989615542500086,0.012000685851010865,0.01584815987724556,-0.22864720127301977,-0.9733803435340787,0.119448484189193,-0.9660980122452999,0.22888138928402407,,0.00612629764577644,0.2832069157694878,-0.13018744671853716,-0.2565847944544343,-0.9575365058582386,0.131484154235736,0.798497841044735,-0.13335874881367715,0.5870405791538293,-0.5445782227680321,0.2556154996770768,0.7988086599575429,,0.08406022967966897,0.7870358919355855,1.137854500181494,0.9955144099369426,-0.042601706837251334,-0.08447576091669183,0.018364126733972197,-0.788891761625784,0.6142577205768488,-0.09281065917878072,-0.6130537358286957,-0.7845707734355647,,0.1347320956133119,0.6116516212248945,-0.4622481632743738,0.996842760985045,-0.07098846166729164,-0.035568921572405,-0.03456445609099337,-0.7912591612642774,0.6105032662406368,-0.07148292276373584,-0.6073463410818111,-0.7912146445356596,,0.0,0.0,0.045,1.0,0.0,0.0,0.0,1.0,0.0,0.0,0.0,1.0,,-0.019501160741314527,-0.1568017533185176,0.2605595468860936,False,,0.0684041663562407,0.5137881432576886,-0.33957149713054136,-0.6907002354095529,-0.2206196908954928,-0.6886654752449594,0.6002265096942889,0.3562289381504845,-0.7161208561998388,0.40331293292603465,-0.9079801185121598,-0.1136256244042001,False,,0.0,0.0,0.0,0.0,0.0,0.0
12:01:46.612565,,-0.4654182193980143,-0.03625050811160985,0.12757178777,-2.303716027833081,0.2724413224264771,0.9116141114755576,,0.012025534377665126,0.5843307687811751,-0.4281894915590819,-0.9952087491215263,-0.09055733176675049,0.03686346884455788,-0.01310713673231177,-0.2500595500482898,-0.9681417377617428,0.09689039497621782,-0.9639863023367778,0.24767450467987004,,0.00612212580588173,0.28320547560428005,-0.13018781941150803,-0.2565790629685304,-0.9575367221886859,0.1314937630378494,0.7985018253429423,-0.1333495738886339,0.5870372438604087,-0.5445750811244452,0.2556194758139194,0.7988095293713244,,0.08406022967966897,0.7870358919355855,1.137854500181494,0.9955144099369426,-0.042601706837251334,-0.08447576091669183,0.018364126733972197,-0.788891761625784,0.6142577205768488,-0.09281065917878072,-0.6130537358286957,-0.7845707734355647,,0.1347320956133119,0.6116516212248945,-0.4622481632743738,0.996842760985045,-0.07098846166729164,-0.035568921572405,-0.03456445609099337,-0.7912591612642774,0.6105032662406368,-0.07148292276373584,-0.6073463410818111,-0.7912146445356596,,0.0,0.0,0.045,1.0,0.0,0.0,0.0,1.0,0.0,0.0,0.0,1.0,,-0.019501160741314527,-0.1568017533185176,0.2605595468860936,False,,0.06423884582054981,0.5128641697645269,-0.33880827009165165,-0.725500431586686,-0.21427333406713447,-0.6540153377981948,0.565142999452321,0.3568428019891223,-0.7438256548671779,0.39276266871683,-0.9092580233224815,-0.137794532134361,False,,0.0,0.0,0.0,0.0,0.0,0.0
12:01:46.715851,,-0.4947414361214448,-0.038629109836871,0.12807734087,-2.2659742525522986,0.31281790443059804,0.9056852866104654,,0.01292618595749423,0.5847726217990877,-0.42601735403081387,-0.9943186780342437,-0.10310239232055535,0.026462486844836933,-0.0007381925518947836,-0.241919212176801,-0.9702961145194349,0.10644163463603525,-0.9648030843014209,0.24046868182462888,,0.006118288864539349,0.28320441785749706,-0.13018844702964055,-0.25657561549683694,-0.9575361805907505,0.13150443385311675,0.7985045936852448,-0.1333412311232851,0.5870353734461158,-0.544572646326377,0.25562585681643424,0.7988091473755683,,0.08406022967966897,0.7870358919355855,1.137854500181494,0.9955144099369426,-0.042601706837251334,-0.08447576091669183,0.018364126733972197,-0.788891761625784,0.6142577205768488,-0.09281065917878072,-0.6130537358286957,-0.7845707734355647,,0.1347320956133119,0.6116516212248945,-0.4622481632743738,0.996842760985045,-0.07098846166729164,-0.035568921572405,-0.03456445609099337,-0.7912591612642774,0.6105032662406368,-0.07148292276373584,-0.6073463410818111,-0.7912146445356596,,0.0,0.0,0.045,1.0,0.0,0.0,0.0,1.0,0.0,0.0,0.0,1.0,,-0.019501160741314527,-0.1568017533185176,0.2605595468860936,False,,0.060181837641061,0.5134911630518074,-0.34009385886247623,-0.7544255907210146,-0.2052606791225834,-0.6234661832620793,0.5368061899026978,0.3536709892100322,-0.7659999646692854,0.37773157472919505,-0.9125704822079956,-0.15663324185902988,False,,0.0,0.0,0.0,0.0,0.0,0.0
12:01:46.819113,,-0.5241882165708628,-0.03927009666543163,0.12646475611000002,-2.229280859918205,0.369023179712082,0.8991736975498295,,0.03237133405137488,0.5899457250715431,-0.41197609648921923,-0.9746506253503491,-0.20306208703135015,-0.09392522193024613,0.11231566475194507,-0.08100095718171443,-0.9903656074334242,0.19349767428964687,-0.9758097323485347,0.10175468686197829,,0.006112484199126969,0.28320496478706725,-0.1301897604006346,-0.2565995938233058,-0.9575346728513326,0.1314685910867927,0.7984757967434976,-0.13337125362787433,0.587067715366555,-0.5446035642278626,0.2556158263847548,0.7987912736360405,,0.08406022967966897,0.7870358919355855,1.137854500181494,0.9955144099369426,-0.042601706837251334,-0.08447576091669183,0.018364126733972197,-0.788891761625784,0.6142577205768488,-0.09281065917878072,-0.6130537358286957,-0.7845707734355647,,0.1347320956133119,0.6116516212248945,-0.4622481632743738,0.996842760985045,-0.07098846166729164,-0.035568921572405,-0.03456445609099337,-0.7912591612642774,0.6105032662406368,-0.07148292276373584,-0.6073463410818111,-0.7912146445356596,,0.0,0.0,0.045,1.0,0.0,0.0,0.0,1.0,0.0,0.0,0.0,1.0,,-0.019501160741314527,-0.1568017533185176,0.2605595468860936,False,,0.05652889633118592,0.5157877475126779,-0.3431988690654816,-0.789465166124677,-0.20533561870728553,-0.5784306658242048,0.49181398465258763,0.3522174192661809,-0.7962800349535433,0.3672380099824648,-0.913115640680614,-0.17707645458544596,False,,0.0,0.0,0.0,0.0,0.0,0.0
12:01:46.924440,,-0.5567318129028449,-0.04032038833632617,0.12273144091000002,-2.190490701990734,0.42308219149833026,0.886586143847356,,0.08063761688417287,0.5790236653399378,-0.3683071469408288,-0.8654632223395164,-0.2857405729326865,-0.41149208468426357,0.3450711099573919,0.2554458002122405,-0.9031463736442181,0.3631794871003521,-0.9236340011790537,-0.12247812872303879,,0.006110349001215135,0.2832063782001911,-0.13019031871593958,-0.2566258757711017,-0.9575340854982792,0.1314215455894207,0.7984448386466718,-0.13340920350128854,0.5871011937571452,-0.5446365643019464,0.25559821435516505,0.7987744070106688,,0.08406022967966897,0.7870358919355855,1.137854500181494,0.9955144099369426,-0.042601706837251334,-0.08447576091669183,0.018364126733972197,-0.788891761625784,0.6142577205768488,-0.09281065917878072,-0.6130537358286957,-0.7845707734355647,,0.1347320956133119,0.6116516212248945,-0.4622481632743738,0.996842760985045,-0.07098846166729164,-0.035568921572405,-0.03456445609099337,-0.7912591612642774,0.6105032662406368,-0.07148292276373584,-0.6073463410818111,-0.7912146445356596,,0.0,0.0,0.045,1.0,0.0,0.0,0.0,1.0,0.0,0.0,0.0,1.0,,-0.019501160741314527,-0.1568017533185176,0.2605595468860936,False,,0.054020251049989726,0.519290033213198,-0.34781434199331607,-0.8200429877062647,-0.20585511655823197,-0.5339973495258006,0.451037354243654,0.3418687597317919,-0.8244337791456214,0.3522709232830151,-0.9169238911197829,-0.1874987320039498,False,,0.0,0.0,0.0,0.0,0.0,0.0
12:01:47.022093,,-0.5948357769042686,-0.04119305715111354,0.11701350572000001,-2.149813455299224,0.4807630229327887,0.8654815324742984,,-0.03533414126886662,0.47175832222914194,-0.3526033061243218,-0.05339073612001375,-0.28333808419520634,0.9575327458323049,-0.7890444793375064,0.5996669445066694,0.13344798721988457,-0.612011632996928,-0.74841104061246,-0.2555830107143437,,0.006108548661599187,0.28320817396927045,-0.13019113196967516,-0.2566544401124004,-0.9575327399381677,0.13137556091603625,0.7984126635816087,-0.1334479863984393,0.5871361351915162,-0.5446702715331715,0.25558300914109067,0.7987562885106283,,0.08406022967966897,0.7870358919355855,1.137854500181494,0.9955144099369426,-0.042601706837251334,-0.08447576091669183,0.018364126733972197,-0.788891761625784,0.6142577205768488,-0.09281065917878072,-0.6130537358286957,-0.7845707734355647,,0.1347320956133119,0.6116516212248945,-0.4622481632743738,0.996842760985045,-0.07098846166729164,-0.035568921572405,-0.03456445609099337,-0.7912591612642774,0.6105032662406368,-0.07148292276373584,-0.6073463410818111,-0.7912146445356596,,0.0,0.0,0.045,1.0,0.0,0.0,0.0,1.0,0.0,0.0,0.0,1.0,,-0.019501160741314527,-0.1568017533185176,0.2605595468860936,True,,0.0521395836633603,0.524191155189578,-0.354071300053598,-0.8494983239643816,-0.20748201078115297,-0.4850812434880537,0.4092409756769764,0.32114093463930826,-0.8540435140705351,0.3329781095037079,-0.9240236551632222,-0.18789854520494742,False,,-0.7772822922349697,-0.20683714996787908,0.14630062637535216,-1.4831121080604104,0.8439071195469491,1.162441104676392
12:01:47.122963,,-0.6315419262554577,-0.040490288459559105,0.11148612516,-2.108507179019701,0.5345537517821325,0.845452963718724,,-0.035997034437249734,0.47421378172132433,-0.3555116999364031,-0.053349835120371565,-0.2833490624315569,0.9575317769723295,-0.789044075358862,0.5996589366647412,0.1334863544306698,-0.612015720577264,-0.748413300588164,-0.2555666043696295,,0.00610658084381913,0.283209778480405,-0.13019181778282135,-0.2566818605570623,-0.9575317731186641,0.13132904431247333,0.7983810957081279,-0.133486353893443,0.5871703426527597,-0.5447036262296125,0.2555666033410807,0.7987387950887629,,0.08406022967966897,0.7870358919355855,1.137854500181494,0.9955144099369426,-0.042601706837251334,-0.08447576091669183,0.018364126733972197,-0.788891761625784,0.6142577205768488,-0.09281065917878072,-0.6130537358286957,-0.7845707734355647,,0.1347320956133119,0.6116516212248945,-0.4622481632743738,0.996842760985045,-0.07098846166729164,-0.035568921572405,-0.03456445609099337,-0.7912591612642774,0.6105032662406368,-0.07148292276373584,-0.6073463410818111,-0.7912146445356596,,0.0,0.0,0.045,1.0,0.0,0.0,0.0,1.0,0.0,0.0,0.0,1.0,,-0.019501160741314527,-0.1568017533185176,0.2605595468860936,True,,0.05081561497107795,0.52910641658048,-0.35988485888118377,-0.8752943356551556,-0.20690171560916287,-0.43709439031859615,0.370270756996338,0.29465229776954016,-0.880953795571873,0.3110617181257748,-0.9329371380200896,-0.1812978323630089,False,,-0.8197245582611016,-0.26159251950449086,0.1508969325630443,-1.2747185617501757,0.8988150880926313,1.2049719235967413
12:01:47.222208,,-0.6572431812608769,-0.039007523747707995,0.10765429192,-2.081039553676465,0.5680891188951898,0.8358275755792,,-0.03635470554097199,0.47597467207361616,-0.35746593483322064,-0.0533088938346118,-0.2833581015334706,0.957531382323043,-0.78904366964794,0.5996511920475662,0.13352353824118587,-0.6120198111390207,-0.7484160835867174,-0.25554865799310533,,0.006104453002920063,0.2832107881901616,-0.13019233192168275,-0.2567070613716905,-0.9575313823173323,0.13128265882226053,0.7983514268507551,-0.13352353824038954,0.5872022343019505,-0.5447352419986674,0.2555486579915812,0.7987229804578226,,0.08406022967966897,0.7870358919355855,1.137854500181494,0.9955144099369426,-0.042601706837251334,-0.08447576091669183,0.018364126733972197,-0.788891761625784,0.6142577205768488,-0.09281065917878072,-0.6130537358286957,-0.7845707734355647,,0.1347320956133119,0.6116516212248945,-0.4622481632743738,0.996842760985045,-0.07098846166729164,-0.035568921572405,-0.03456445609099337,-0.7912591612642774,0.6105032662406368,-0.07148292276373584,-0.6073463410818111,-0.7912146445356596,,0.0,0.0,0.045,1.0,0.0,0.0,0.0,1.0,0.0,0.0,0.0,1.0,,-0.019501160741314527,-0.1568017533185176,0.2605595468860936,True,,0.05010233943389311,0.532632951065937,-0.36379003284759626,-0.890345080522776,-0.20219629830802482,-0.4079243735540007,0.34747703141263125,0.2771597318689712,-0.8957913795471495,0.2941859109977174,-0.9393077983179168,-0.17650923428985493,False,,-0.8071128361365821,-0.22793411945323797,0.14754279851317628,-1.3678192174568868,0.885954672334586,1.1994661122322667
12:01:47.331599,,-0.6670587747440162,-0.03994197442548916,0.10578633803000001,-2.0567170762732947,0.59397842230647,0.8284240530665314,,-0.03626628322457383,0.4766538448705754,-0.35839919892748184,-0.05330972280936779,-0.28335855862761,0.9575312009049479,-0.7890436778759732,0.5996512596050342,0.13352318621892373,-0.6120197283241332,-0.7484158563970831,-0.2555495216889966,,0.00610462790349041,0.2832105758621082,-0.1301924151479916,-0.2567071275016968,-0.957531200898095,0.1312838527091812,0.7983521103781754,-0.1335231862179681,0.5872013850312359,-0.5447342090691822,0.25554952168716766,0.7987234085845479,,0.08406022967966897,0.7870358919355855,1.137854500181494,0.9955144099369426,-0.042601706837251334,-0.08447576091669183,0.018364126733972197,-0.788891761625784,0.6142577205768488,-0.09281065917878072,-0.6130537358286957,-0.7845707734355647,,0.1347320956133119,0.6116516212248945,-0.4622481632743738,0.996842760985045,-0.07098846166729164,-0.035568921572405,-0.03456445609099337,-0.7912591612642774,0.6105032662406368,-0.07148292276373584,-0.6073463410818111,-0.7912146445356596,,0.0,0.0,0.045,1.0,0.0,0.0,0.0,1.0,0.0,0.0,0.0,1.0,,-0.019501160741314527,-0.1568017533185176,0.2605595468860936,True,,0.05027898104631433,0.5339914544244582,-0.36565661168267294,-0.9024966125609242,-0.206080218794935,-0.3781941402738671,0.3216616046965517,0.26143294854063626,-0.910047595173675,0.2864152167397833,-0.9429654059607814,-0.16965425659594324,False,,-0.8530485967948624,-0.19740570016005302,0.13447744850680565,-1.521200454499896,0.9221889824084437,0.9808292258559431
12:01:47.360072,,-0.676889813692904,-0.04442115949253938,0.10588485607,-2.0277817152246946,0.6204042915915591,0.8225395217143223,,-0.036748339783049325,0.47666219054508696,-0.3588601920349779,-0.05331142104560538,-0.28336141343374693,0.9575302615389903,-0.7890436947301985,0.5996511304923052,0.1335236664633559,-0.612019558668361,-0.7484148789783175,-0.2555527904978835,,0.006105137685385815,0.2832107459365124,-0.13019275329059926,-0.25670947786212966,-0.957530261527569,0.13128610821729053,0.7983515775358282,-0.13352366646176322,0.5872020002663533,-0.5447338823663821,0.25555279049483526,0.7987225855379925,,0.08406022967966897,0.7870358919355855,1.137854500181494,0.9955144099369426,-0.042601706837251334,-0.08447576091669183,0.018364126733972197,-0.788891761625784,0.6142577205768488,-0.09281065917878072,-0.6130537358286957,-0.7845707734355647,,0.1347320956133119,0.6116516212248945,-0.4622481632743738,0.996842760985045,-0.07098846166729164,-0.035568921572405,-0.03456445609099337,-0.7912591612642774,0.6105032662406368,-0.07148292276373584,-0.6073463410818111,-0.7912146445356596,,0.0,0.0,0.045,1.0,0.0,0.0,0.0,1.0,0.0,0.0,0.0,1.0,,-0.019501160741314527,-0.1568017533185176,0.2605595468860936,True,,0.049314212545744515,0.5340080501369641,-0.36657876642043485,-0.9160522061965608,-0.20707141792447137,-0.34346729597031944,0.291198542315627,0.24546538833988102,-0.924635145384603,0.27577484380499273,-0.9470312407760902,-0.16456021547880756,True,,-0.6538670981055655,-0.06082541805283641,0.10417598082161503,-2.0274074798548503,0.6349083229831922,0.8266488829260487
12:01:47.459958,,-0.6812454350339667,-0.04620511078648524,0.10635281676000001,-2.0189753009925124,0.6280503552933362,0.821901933900622,,-0.037050091270328975,0.47656852661333304,-0.3589448945895044,-0.05329417421643851,-0.28335650730740447,0.957532673469233,-0.789043523456441,0.5996490830092538,0.1335338733715371,-0.6120212815630127,-0.7484183769875711,-0.25553841961876794,,0.006111291606989743,0.283209940006683,-0.13019339258752732,-0.25670953524916085,-0.9575326731256691,0.13126840324833683,0.7983500803309446,-0.13353387332362499,0.5872017142287326,-0.5447360489541075,0.25553841952708045,0.7987257053568939,,0.08406022967966897,0.7870358919355855,1.137854500181494,0.9955144099369426,-0.042601706837251334,-0.08447576091669183,0.018364126733972197,-0.788891761625784,0.6142577205768488,-0.09281065917878072,-0.6130537358286957,-0.7845707734355647,,0.1347311057193123,0.6116455209900491,-0.46224681696705416,0.9968398918749585,-0.0710210784901744,-0.035584215276068185,-0.03458102280805582,-0.7912583955818019,0.6105033204519543,-0.0715149133277095,-0.6073435253885608,-0.791213915032038,,0.0,0.0,0.045,1.0,0.0,0.0,0.0,1.0,0.0,0.0,0.0,1.0,,-0.019501160741314527,-0.1568017533185176,0.2605595468860936,True,,0.04870492949876891,0.5338231102740537,-0.3667453047462969,-0.9201106247969569,-0.2052219204742762,-0.3335871722542763,0.28262693879977535,0.2417410793415894,-0.928268961036311,0.27114286197579013,-0.9483908550358412,-0.16442729239382492,False,,-1.0327890833097124,-0.2550919600758632,0.12945330423846144,-1.2880320980453308,1.0932031698695384,0.9194757750130442
12:01:47.555068,,-0.6975790150629515,-0.05370388440735724,0.10888447113000001,-1.9717980818915344,0.6593053174427055,0.8246599629768807,,-0.03863027245890428,0.4760452022255264,-0.3589730460728633,-0.0532803238656857,-0.2833573107569645,0.9575332064891269,-0.7890433857407037,0.5996467772864702,0.13354504074954485,-0.6120226650277053,-0.748419920185541,-0.25553058635289383,,0.006118465117485504,0.28320947427182525,-0.13019470812256112,-0.2567142933868208,-0.9575332060438928,0.13125520928423712,0.7983475174980099,-0.13354504068744905,0.5872026587836534,-0.5447375624515989,0.25553058623407715,0.7987271790938373,,0.08406022967966897,0.7870358919355855,1.137854500181494,0.9955144099369426,-0.042601706837251334,-0.08447576091669183,0.018364126733972197,-0.788891761625784,0.6142577205768488,-0.09281065917878072,-0.6130537358286957,-0.7845707734355647,,0.1347311057193123,0.6116455209900491,-0.46224681696705416,0.9968398918749585,-0.0710210784901744,-0.035584215276068185,-0.03458102280805582,-0.7912583955818019,0.6105033204519543,-0.0715149133277095,-0.6073435253885608,-0.791213915032038,,0.0,0.0,0.045,1.0,0.0,0.0,0.0,1.0,0.0,0.0,0.0,1.0,,-0.019501160741314527,-0.1568017533185176,0.2605595468860936,True,,0.04553747622920608,0.5327786581768894,-0.3667990780217703,-0.9382593592247599,-0.19381408023618207,-0.2865405331350973,0.24231092464214216,0.22295039457405397,-0.9442343656944201,0.24689024003838855,-0.9553686324458619,-0.16222202536126373,False,,-1.01729564213492,-0.08905740378220264,0.12873410903099086,-1.1915386221048416,1.0452662724025024,1.2455294288285084
12:01:47.661641,,-0.7114644887708071,-0.062191167836129976,0.11020798322000001,-1.936782101492142,0.6886822990337437,0.8247190254654404,,-0.03972414231717107,0.47568682747463675,-0.35939910259209396,-0.053265604217590745,-0.28335571651586644,0.9575344971984638,-0.7890432392139647,0.5996446682899688,0.13355537593877456,-0.6120241351924522,-0.7484222135327047,-0.2555203479817951,,0.006125303767179112,0.28320862612009196,-0.13019576875699707,-0.2567167674111848,-0.9575344967680646,0.13124095370770172,0.7983461711527662,-0.13355537587874317,0.5872021386887414,-0.5447383697121911,0.25552034786694205,0.7987299039664706,,0.08406022967966897,0.7870358919355855,1.137854500181494,0.9955144099369426,-0.042601706837251334,-0.08447576091669183,0.018364126733972197,-0.788891761625784,0.6142577205768488,-0.09281065917878072,-0.6130537358286957,-0.7845707734355647,,0.1347311057193123,0.6116455209900491,-0.46224681696705416,0.9968398918749585,-0.0710210784901744,-0.035584215276068185,-0.03458102280805582,-0.7912583955818019,0.6105033204519543,-0.0715149133277095,-0.6073435253885608,-0.791213915032038,,0.0,0.0,0.045,1.0,0.0,0.0,0.0,1.0,0.0,0.0,0.0,1.0,,-0.019501160741314527,-0.1568017533185176,0.2605595468860936,True,,0.043343097922926135,0.532064358781174,-0.36764854347827547,-0.9508170152976394,-0.1875268204468334,-0.24653741102232224,0.20657105640787915,0.20919948778893172,-0.955805405385103,0.23081464874444418,-0.9597235361925586,-0.16017281917675408,False,,-0.9564483504292108,-0.143868646028503,0.14544893582473645,-1.0783303849617996,0.9734601679221917,1.3963
12:01:47.761741,,-0.7322463629353453,-0.07129626989484067,0.11096372029000001,-1.904282239444802,0.7160471585979984,0.8325482325140952,,-0.04107445632074626,0.475664593622382,-0.3602858436349163,-0.05325049024934177,-0.28335486391749226,0.9575355901388231,-0.7890430885824029,0.5996423934244453,0.13356647920996143,-0.6120256446004096,-0.7484243589719018,-0.255510448414445,,0.006132134935022568,0.2832081815055526,-0.13019687361289858,-0.25672031726842703,-0.9575355898390395,0.13122603501990132,0.7983435331062233,-0.13356647916814468,0.5872032000627565,-0.5447405632252056,0.25551044833445025,0.7987315750255886,,0.08406022967966897,0.7870358919355855,1.137854500181494,0.9955144099369426,-0.042601706837251334,-0.08447576091669183,0.018364126733972197,-0.788891761625784,0.6142577205768488,-0.09281065917878072,-0.6130537358286957,-0.7845707734355647,,0.1347311057193123,0.6116455209900491,-0.46224681696705416,0.9968398918749585,-0.0710210784901744,-0.035584215276068185,-0.03458102280805582,-0.7912583955818019,0.6105033204519543,-0.0715149133277095,-0.6073435253885608,-0.791213915032038,,0.0,0.0,0.045,1.0,0.0,0.0,0.0,1.0,0.0,0.0,0.0,1.0,,-0.019501160741314527,-0.1568017533185176,0.2605595468860936,True,,0.04063580815368799,0.5320220566982378,-0.3694193862750793,-0.9615496751916639,-0.17250897816585098,-0.21368873295281537,0.17734702823546328,0.20406406844049413,-0.9627595169862324,0.20969085272098897,-0.9636381626023782,-0.16562378410559647,False,,-0.9299722954652864,-0.20675115662339696,0.15081411319783483,-1.0333377093794232,0.9539135544955982,1.3963
12:01:47.858820,,-0.7398455320835823,-0.07026914642256882,0.11160668013000001,-1.891911324213879,0.7253029199212022,0.8366742631139237,,-0.04168108323399822,0.47582781749235037,-0.3602855989796018,-0.05323407238177385,-0.28335041464106303,0.9575378196501639,-0.7890429247495279,0.5996404138055614,0.13357633410827716,-0.6120272840653127,-0.7484276295366392,-0.2554969410889379,,0.006138463786963656,0.2832071632642977,-0.1301975961185152,-0.25672044089584667,-0.9575378196158991,0.1312095238917644,0.7983427198402769,-0.13357633410349723,0.5872020645177702,-0.5447416973508662,0.2554969410797951,0.7987351226749683,,0.08406022967966897,0.7870358919355855,1.137854500181494,0.9955144099369426,-0.042601706837251334,-0.08447576091669183,0.018364126733972197,-0.788891761625784,0.6142577205768488,-0.09281065917878072,-0.6130537358286957,-0.7845707734355647,,0.1347311057193123,0.6116455209900491,-0.46224681696705416,0.9968398918749585,-0.0710210784901744,-0.035584215276068185,-0.03458102280805582,-0.7912583955818019,0.6105033204519543,-0.0715149133277095,-0.6073435253885608,-0.791213915032038,,0.0,0.0,0.045,1.0,0.0,0.0,0.0,1.0,0.0,0.0,0.0,1.0,,-0.019501160741314527,-0.1568017533185176,0.2605595468860936,True,,0.039416571049500804,0.5323510501886685,-0.36941608082338007,-0.9644445029325809,-0.16754788472367443,-0.2043881285391828,0.16978292425603075,0.19987294871901795,-0.9649997735758471,0.20253532875574604,-0.9653903411030107,-0.16431959685568465,False,,-0.8456040568600116,-0.2779568457260974,0.15206157343128482,-1.1694837898531167,0.9207313836787877,1.2420628377999392
12:01:47.935420,,-0.7415831469802827,-0.07189092032615596,0.11266574906000001,-1.8742984957495137,0.738046359424164,0.8399281997849037,,-0.04205078388097219,0.47556327578252583,-0.3600838067718384,-0.05326858763072059,-0.28333132935449884,0.957541547598871,-0.7890432689262946,0.5996485420286124,0.13353780665065101,-0.612023837226897,-0.7484283424945719,-0.2555031092117913,,0.00613956884111354,0.28320780579069865,-0.13019836225133574,-0.2566952522186802,-0.9575415458861023,0.13123159609260351,0.79833772223951,-0.13353780641178997,0.5872176188864983,-0.5447608880604311,0.2555031087547691,0.7987200590186962,,0.08406022967966897,0.7870358919355855,1.137854500181494,0.9955144099369426,-0.042601706837251334,-0.08447576091669183,0.018364126733972197,-0.788891761625784,0.6142577205768488,-0.09281065917878072,-0.6130537358286957,-0.7845707734355647,,0.1347311057193123,0.6116455209900491,-0.46224681696705416,0.9968398918749585,-0.0710210784901744,-0.035584215276068185,-0.03458102280805582,-0.7912583955818019,0.6105033204519543,-0.0715149133277095,-0.6073435253885608,-0.791213915032038,,0.0,0.0,0.045,1.0,0.0,0.0,0.0,1.0,0.0,0.0,0.0,1.0,,-0.019501160741314527,-0.1568017533185176,0.2605595468860936,True,,0.03867664253345254,0.5318153524866863,-0.369012686334075,-0.9682573032070072,-0.1678258456889081,-0.18523574251503663,0.15202011788852435,0.19287019162034907,-0.969376589846015,0.19841289913575003,-0.9667655220906116,-0.16123506676096883,True,,-0.9197059906580807,-0.2899608059516824,0.143838410999427,-1.179038201809669,0.9868873801659453,1.05526789968425
12:01:47.962385,,-0.7490587524025321,-0.07638555085895463,0.11349537466000001,-1.8606695213425648,0.7464972719366544,0.8407425189832898,,-0.042727790090923146,0.47537005143705524,-0.36030991846229077,-0.05330057486002217,-0.283308931104233,0.9575463948426564,-0.7890435870472076,0.5996567305312808,0.13349915081456845,-0.6120206421839602,-0.74843026066903,-0.25550514369699284,,0.006139989201397762,0.28320849051808283,-0.13019870704876957,-0.25666764733029496,-0.9575463922863697,0.1312502194057057,0.7983325732650105,-0.13349915045817623,0.5872334067061995,-0.5447814386878052,0.2555051430148908,0.798705390375539,,0.08406022967966897,0.7870358919355855,1.137854500181494,0.9955144099369426,-0.042601706837251334,-0.08447576091669183,0.018364126733972197,-0.788891761625784,0.6142577205768488,-0.09281065917878072,-0.6130537358286957,-0.7845707734355647,,0.1347311057193123,0.6116455209900491,-0.46224681696705416,0.9968398918749585,-0.0710210784901744,-0.035584215276068185,-0.03458102280805582,-0.7912583955818019,0.6105033204519543,-0.0715149133277095,-0.6073435253885608,-0.791213915032038,,0.0,0.0,0.045,1.0,0.0,0.0,0.0,1.0,0.0,0.0,0.0,1.0,,-0.019501160741314527,-0.1568017533185176,0.2605595468860936,True,,0.03732296107605315,0.5314222274137681,-0.3694648802627523,-0.9718491174057455,-0.1608456959332249,-0.17215677476483612,0.14109998943138574,0.18782588322360105,-0.9720145217915921,0.18867985048790128,-0.9689427742085861,-0.15984309284054943,True,,-0.739890684131023,-0.08472063001019677,0.11067529272057448,-1.8626438769503155,0.7571992235863743,0.8440940704566376
12:01:47.987827,,-0.7521478455522219,-0.07859425246098284,0.11387778021000002,-1.8545889019917718,0.7499849501164123,0.840077069986592,,-0.04293008360743272,0.47530043816227197,-0.3603755344005527,-0.05333090347981431,-0.2832856176049015,0.9575516036184349,-0.7890438879202015,0.5996647825046105,0.13346119870385798,-0.6120176122219025,-0.7484326338969379,-0.25550544974284417,,0.006140059760036686,0.2832095998606284,-0.13019888539789912,-0.25663991022889504,-0.9575516010549653,0.13126645588481514,0.7983260566156459,-0.13346119834656783,0.5872508923025944,-0.5448040550987117,0.2555054490588283,0.798689865777092,,0.08406022967966897,0.7870358919355855,1.137854500181494,0.9955144099369426,-0.042601706837251334,-0.08447576091669183,0.018364126733972197,-0.788891761625784,0.6142577205768488,-0.09281065917878072,-0.6130537358286957,-0.7845707734355647,,0.1347311057193123,0.6116455209900491,-0.46224681696705416,0.9968398918749585,-0.0710210784901744,-0.035584215276068185,-0.03458102280805582,-0.7912583955818019,0.6105033204519543,-0.0715149133277095,-0.6073435253885608,-0.791213915032038,,0.0,0.0,0.045,1.0,0.0,0.0,0.0,1.0,0.0,0.0,0.0,1.0,,-0.019501160741314527,-0.1568017533185176,0.2605595468860936,True,,0.03691911084464075,0.531276008944496,-0.36959598122725346,-0.972835756980261,-0.1586581980477007,-0.16857688493058368,0.1382257150054224,0.18603454942526482,-0.9727717091545058,0.18569933131781172,-0.9696487624972228,-0.15905041884799392,True,,-0.7426016964780437,-0.08725806053393641,0.11137692019041416,-1.8567071607043095,0.7611982925279618,0.8436117107096145
12:01:48.012708,,-0.75400902417491,-0.08015424450157618,0.11413833450000001,-1.8489276356996547,0.7534726282961702,0.8392049760577434,,-0.04319932749640919,0.47518402339208965,-0.3604720125530956,-0.05336367824502728,-0.2832617344399623,0.9575568430366029,-0.7890442122363901,0.5996732995930876,0.13342100618490982,-0.6120143372343623,-0.7484348492402018,-0.2555068051195129,,0.006140495129858076,0.2832094774987177,-0.1301991417092781,-0.25661015450177677,-0.9575568413235397,0.13128640700038977,0.7983234896586641,-0.13342100594622047,0.5872635161948371,-0.5448218340777096,0.2555068046624128,0.7986773054904068,,0.08406022967966897,0.7870358919355855,1.137854500181494,0.9955144099369426,-0.042601706837251334,-0.08447576091669183,0.018364126733972197,-0.788891761625784,0.6142577205768488,-0.09281065917878072,-0.6130537358286957,-0.7845707734355647,,0.1347311057193123,0.6116455209900491,-0.46224681696705416,0.9968398918749585,-0.0710210784901744,-0.035584215276068185,-0.03458102280805582,-0.7912583955818019,0.6105033204519543,-0.0715149133277095,-0.6073435253885608,-0.791213915032038,,0.0,0.0,0.045,1.0,0.0,0.0,0.0,1.0,0.0,0.0,0.0,1.0,,-0.019501160741314527,-0.1568017533185176,0.2605595468860936,True,,0.03638099980668247,0.531037071925605,-0.369788891304344,-0.9746452440072428,-0.15627422757997123,-0.16014060736847996,0.13111701947447907,0.18106144538947694,-0.9746923002658853,0.18131457618788227,-0.9709763739596123,-0.15598046568096863,True,,-0.7449186576012434,-0.08878144124358404,0.1116105261341633,-1.8511992586440764,0.7644871519362162,0.8428505635005176
12:01:48.113325,,-0.7561945575783156,-0.08264868721995071,0.11451555489000001,-1.834250278646017,0.7576310138181893,0.8390261923085902,,-0.043425148210292655,0.47505151465438145,-0.36053569981512684,-0.05340150719485289,-0.28324447456676766,0.9575598397263295,-0.7890445855016299,0.5996816924987419,0.13338106976781056,-0.6120105563794461,-0.7484346566730059,-0.2555164252467553,,0.006142299910477918,0.2832092706887338,-0.13020024071336156,-0.2565852330350691,-0.9575598396258171,0.13131325719128406,0.7983212231895871,-0.13338106975380992,0.5872756717474991,-0.5448368953948386,0.25551642521993445,0.7986639553963888,,0.08406022967966897,0.7870358919355855,1.137854500181494,0.9955144099369426,-0.042601706837251334,-0.08447576091669183,0.018364126733972197,-0.788891761625784,0.6142577205768488,-0.09281065917878072,-0.6130537358286957,-0.7845707734355647,,0.1347311057193123,0.6116455209900491,-0.46224681696705416,0.9968398918749585,-0.0710210784901744,-0.035584215276068185,-0.03458102280805582,-0.7912583955818019,0.6105033204519543,-0.0715149133277095,-0.6073435253885608,-0.791213915032038,,0.0,0.0,0.045,1.0,0.0,0.0,0.0,1.0,0.0,0.0,0.0,1.0,,-0.019501160741314527,-0.1568017533185176,0.2605595468860936,True,,0.03592801808520331,0.5307660711155222,-0.3699166579440456,-0.9774077658084477,-0.1511287953519616,-0.14776382017531856,0.12115750574194334,0.1722377908866261,-0.9775760851171054,0.17319041006860034,-0.9733931531534212,-0.15003616648765145,False,,-0.9483381382741307,-0.15208310326427418,0.14707016293000033,-1.065769219422554,0.9642530617722482,1.3963
12:01:48.211802,,-0.7581947453927397,-0.09026330183393606,0.11480592385,-1.7862343534276883,0.7754718291223358,0.8810946469977119,,-0.04351914641285565,0.47470104932812507,-0.36080543742370724,-0.0534052581442749,-0.2832475023868959,0.9575587349056603,-0.7890446224508306,0.5996818645054197,0.1333800778404695,-0.6120101814381601,-0.748433372969758,-0.255521083359361,,0.00614316700067987,0.2832086126281407,-0.1302007010525095,-0.25658664053018915,-0.9575587347982948,0.13131856338184586,0.7983233490448711,-0.13338007782551436,0.5872730071992003,-0.5448331176121397,0.2555210833307109,0.798665042243798,,0.08406022967966897,0.7870358919355855,1.137854500181494,0.9955144099369426,-0.042601706837251334,-0.08447576091669183,0.018364126733972197,-0.788891761625784,0.6142577205768488,-0.09281065917878072,-0.6130537358286957,-0.7845707734355647,,0.1347311057193123,0.6116455209900491,-0.46224681696705416,0.9968398918749585,-0.0710210784901744,-0.035584215276068185,-0.03458102280805582,-0.7912583955818019,0.6105033204519543,-0.0715149133277095,-0.6073435253885608,-0.791213915032038,,0.0,0.0,0.045,1.0,0.0,0.0,0.0,1.0,0.0,0.0,0.0,1.0,,-0.019501160741314527,-0.1568017533185176,0.2605595468860936,True,,0.03573898334267167,0.5300656447748646,-0.3704563948295123,-0.9846330104887331,-0.13674840564789598,-0.10861725557504001,0.08234410866901468,0.18493519077027382,-0.9792948600816143,0.1540041636560537,-0.9731900373347033,-0.17083286805845804,True,,-0.9613600030791483,-0.2196221253280202,0.14972929133346877,-0.9633327311564509,0.971281499722556,1.3963
12:01:48.309634,,-0.7596234509744713,-0.09230210331273134,0.11508981136000002,-1.7816214697822597,0.776142536464597,0.8915002689884881,,-0.04369463914178198,0.47457005316263057,-0.36087204174454973,-0.053406916332122883,-0.2832484169243076,0.9575583719010383,-0.7890446387814474,0.5996819996044892,0.13337937382000498,-0.6120100156845057,-0.7484329186107698,-0.2555228111962142,,0.006143516831539058,0.2832081879921977,-0.1302008674920885,-0.256586773192801,-0.9575583718096634,0.13132095114216433,0.7983247160981166,-0.13337937380727727,0.5872713087822274,-0.5448310520689122,0.25552281117183095,0.7986658985342225,,0.08406022967966897,0.7870358919355855,1.137854500181494,0.9955144099369426,-0.042601706837251334,-0.08447576091669183,0.018364126733972197,-0.788891761625784,0.6142577205768488,-0.09281065917878072,-0.6130537358286957,-0.7845707734355647,,0.1347311057193123,0.6116455209900491,-0.46224681696705416,0.9968398918749585,-0.0710210784901744,-0.035584215276068185,-0.03458102280805582,-0.7912583955818019,0.6105033204519543,-0.0715149133277095,-0.6073435253885608,-0.791213915032038,,0.0,0.0,0.045,1.0,0.0,0.0,0.0,1.0,0.0,0.0,0.0,1.0,,-0.019501160741314527,-0.1568017533185176,0.2605595468860936,True,,0.03538759178824338,0.5298039679566465,-0.3705897048463305,-0.9854837638213433,-0.1324822353502132,-0.10616123850601084,0.07937684127305332,0.193196836936657,-0.9779439141725786,0.15007021128135956,-0.9721745931232116,-0.17987632465582193,False,,-0.9199666834696094,-0.19754138198320495,0.15096737313758296,-1.0578168871402056,0.9463011566867147,1.3963
12:01:48.418310,,-0.7673616293144442,-0.0924797261688385,0.11595184421000002,-1.786653706486364,0.7819106196080429,0.9135121595975693,,-0.044427550757020554,0.4745950565475709,-0.36094220165319046,-0.05340817998247768,-0.2832500729478093,0.9575578115633645,-0.7890446512250022,0.5996819689684769,0.13337943794792922,-0.6120098893679529,-0.7484323164249067,-0.2555248775494756,,0.006143859182515291,0.2832081668857101,-0.13020107816094856,-0.25658798169563474,-0.9575578114948333,0.1313226756940641,0.7983247914121763,-0.13337943793838342,0.5872711918771504,-0.5448303726142004,0.255524877531188,0.7986657009641804,,0.08406022967966897,0.7870358919355855,1.137854500181494,0.9955144099369426,-0.042601706837251334,-0.08447576091669183,0.018364126733972197,-0.788891761625784,0.6142577205768488,-0.09281065917878072,-0.6130537358286957,-0.7845707734355647,,0.1347311057193123,0.6116455209900491,-0.46224681696705416,0.9968398918749585,-0.0710210784901744,-0.035584215276068185,-0.03458102280805582,-0.7912583955818019,0.6105033204519543,-0.0715149133277095,-0.6073435253885608,-0.791213915032038,,0.0,0.0,0.045,1.0,0.0,0.0,0.0,1.0,0.0,0.0,0.0,1.0,,-0.019501160741314527,-0.1568017533185176,0.2605595468860936,True,,0.03392133935445059,0.5298540057728431,-0.3707301342795074,-0.9852434085334294,-0.12937712991633968,-0.11205795016883308,0.08184902894100868,0.21885479100293143,-0.9723185264698381,0.15032019958356907,-0.9671422536057835,-0.20503584781077228,False,,-0.883134989043037,-0.18725023092931678,0.15157610583679218,-1.1304816921969467,0.9214048358809588,1.3963000000000003
12:01:48.517138,,-0.7750303030585491,-0.09500505981870992,0.11676072917000001,-1.7967181798945726,0.7853982977878008,0.9273807374954679,,-0.045153886307271324,0.4744867271303297,-0.36116864492094497,-0.0534073508993312,-0.2832496156729922,0.9575579930693587,-0.7890446430609082,0.5996819014202459,0.1333797899454131,-0.6120099722445703,-0.7484325436070379,-0.25552401363296484,,0.0061436842679107526,0.28320837920395064,-0.13020099494041698,-0.2565879153594689,-0.9575579929939745,0.1313214818199319,0.7983241078857154,-0.13337978993491273,0.5872720410916429,-0.5448314053929966,0.2555240136128486,0.7986652728191092,,0.08406022967966897,0.7870358919355855,1.137854500181494,0.9955144099369426,-0.042601706837251334,-0.08447576091669183,0.018364126733972197,-0.788891761625784,0.6142577205768488,-0.09281065917878072,-0.6130537358286957,-0.7845707734355647,,0.13485098519008792,0.6116437819006253,-0.46227369220454206,0.9968522343912036,-0.07085201033221977,-0.0355754890500257,-0.03445178976531434,-0.7912610435824157,0.6105071949541904,-0.0714051606764669,-0.6073598221324409,-0.7912113178462619,,0.0,0.0,0.045,1.0,0.0,0.0,0.0,1.0,0.0,0.0,0.0,1.0,,-0.019501160741314527,-0.1568017533185176,0.2605595468860936,True,,0.03246887130198267,0.5296371891797302,-0.3711829701284889,-0.9847237096501188,-0.12612721770788465,-0.12004641021778495,0.08691742969690416,0.24134326750552892,-0.9665395944526218,0.1508793427470857,-0.9622085803935772,-0.2266937840991341,True,,-0.9052300142027307,-0.19239018927798382,0.15078915689941455,-1.0860250845157322,0.936623111317169,1.3962999999999999
12:01:48.618478,,-0.7759338628048333,-0.0964492108661899,0.1174827627,-1.803008475774703,0.7895566833098199,0.943595785030267,,-0.04550015333099154,0.4742527622533214,-0.36108402604533635,-0.053408023940928424,-0.28324484596150046,0.9575593664180677,-0.7890446496884819,0.5996826723319476,0.13337628463409465,-0.6120099049661748,-0.7484337310283791,-0.2555206967786247,,0.006141140688487803,0.2832104073617197,-0.13019728898499228,-0.256584456316397,-0.9575593663363845,0.13131822625848183,0.7983190071684599,-0.13337628462271717,0.5872797709126353,-0.5448405082221552,0.25552069675682787,0.7986601241820714,,0.08406022967966897,0.7870358919355855,1.137854500181494,0.9955144099369426,-0.042601706837251334,-0.08447576091669183,0.018364126733972197,-0.788891761625784,0.6142577205768488,-0.09281065917878072,-0.6130537358286957,-0.7845707734355647,,0.13485098519008792,0.6116437819006253,-0.46227369220454206,0.9968522343912036,-0.07085201033221977,-0.0355754890500257,-0.03445178976531434,-0.7912610435824157,0.6105071949541904,-0.0714051606764669,-0.6073598221324409,-0.7912113178462619,,0.0,0.0,0.045,1.0,0.0,0.0,0.0,1.0,0.0,0.0,0.0,1.0,,-0.019501160741314527,-0.1568017533185176,0.2605595468860936,True,,0.031779093703015085,0.5291666879446902,-0.37101692422027366,-0.9840260709908963,-0.12833553115971652,-0.12338023768891572,0.0862049879424381,0.2628792142204282,-0.9609699364624757,0.15576068715842267,-0.9562554628198492,-0.24761683739829238,False,,-0.9589478899036793,-0.06579030004499604,0.13857399867071063,-1.1624287056081144,0.9792929687698495,1.3963
12:01:48.717466,,-0.7786908784409315,-0.09786247098217299,0.11824627751000001,-1.8000730043639752,0.7938492103002912,0.9633246951594658,,-0.045903646192601386,0.4740846410528453,-0.36104717601538716,-0.05341244793781587,-0.2832431039940053,0.9575596349288806,-0.7890446932434733,0.5996836152543601,0.133371787345652,-0.6120094627288071,-0.7484336347568179,-0.2555220379832138,,0.00613946418811921,0.2832117774409282,-0.130194043376747,-0.25658240471322846,-0.9575596348354849,0.13132027691959622,0.7983160322890055,-0.13337178733264354,0.587284836122103,-0.5448458332288559,0.2555220379582914,0.7986560623545812,,0.08406022967966897,0.7870358919355855,1.137854500181494,0.9955144099369426,-0.042601706837251334,-0.08447576091669183,0.018364126733972197,-0.788891761625784,0.6142577205768488,-0.09281065917878072,-0.6130537358286957,-0.7845707734355647,,0.13485098519008792,0.6116437819006253,-0.46227369220454206,0.9968522343912036,-0.07085201033221977,-0.0355754890500257,-0.03445178976531434,-0.7912610435824157,0.6105071949541904,-0.0714051606764669,-0.6073598221324409,-0.7912113178462619,,0.0,0.0,0.045,1.0,0.0,0.0,0.0,1.0,0.0,0.0,0.0,1.0,,-0.019501160741314527,-0.1568017533185176,0.2605595468860936,True,,0.03097382609933999,0.5288283783848209,-0.3709466776553318,-0.9846002004298797,-0.1254906402520709,-0.12171501354626019,0.08240000314765732,0.28091046485842047,-0.9561901224203755,0.15418393170076783,-0.9514943036835017,-0.2662440708506793,False,,-0.9085516027557655,-0.24505734795110995,0.15413043299690238,-0.9716349120417296,0.9335449267310468,1.3963
12:01:48.742439,,-0.784521541760971,-0.09973137233773532,0.11870257159000001,-1.7686215249633237,0.8016294154705205,0.9815615765633644,,-0.04635337226552068,0.47413950747297195,-0.36115811675669995,-0.053421846534318966,-0.2832441054942374,0.9575588143898175,-0.7890447857224964,0.5996849635036879,0.1333651778828351,-0.6120085231734959,-0.7484321754510223,-0.2555285626160934,,0.00613883714150021,0.2832118735886358,-0.13019129710233945,-0.2565807510266738,-0.9575588142260235,0.1313294908180656,0.7983171585716965,-0.1333651778600225,0.5872848059691907,-0.5448449616087987,0.2555285625723843,0.7986545693709455,,0.08406022967966897,0.7870358919355855,1.137854500181494,0.9955144099369426,-0.042601706837251334,-0.08447576091669183,0.018364126733972197,-0.788891761625784,0.6142577205768488,-0.09281065917878072,-0.6130537358286957,-0.7845707734355647,,0.13485098519008792,0.6116437819006253,-0.46227369220454206,0.9968522343912036,-0.07085201033221977,-0.0355754890500257,-0.03445178976531434,-0.7912610435824157,0.6105071949541904,-0.0714051606764669,-0.6073598221324409,-0.7912113178462619,,0.0,0.0,0.045,1.0,0.0,0.0,0.0,1.0,0.0,0.0,0.0,1.0,,-0.019501160741314527,-0.1568017533185176,0.2605595468860936,True,,0.03007487381656561,0.5289369906106299,-0.3711723167304613,-0.9884173984751363,-0.11410608087397849,-0.100054228792316,0.06499937426596626,0.2774542855481278,-0.9585375322729993,0.13713543574392753,-0.9539386362542192,-0.2668238192605076,True,,-0.7736949476327469,-0.0967228615616377,0.12157507690209401,-1.7658909198283035,0.8077087241573565,0.978768119132854
12:01:48.845443,,-0.7856027243633624,-0.09982404513222601,0.11875183061000001,-1.7682021719046481,0.804848810713374,0.9849583470699522,,-0.046421635685682305,0.4741604509921674,-0.3611916402551594,-0.053429152279922856,-0.2832429938019412,0.9575587356129974,-0.7890448575599716,0.5996862747849344,0.13335885644655301,-0.6120077927974552,-0.7484315454981049,-0.2555321569949765,,0.006137692857792802,0.2832122031946696,-0.13018825691497624,-0.25657782265084594,-0.9575587354854842,0.13133578626125345,0.7983175260370585,-0.1333588564287943,0.5872857420095814,-0.5448458022959262,0.25553215696094855,0.7986528458680053,,0.08406022967966897,0.7870358919355855,1.137854500181494,0.9955144099369426,-0.042601706837251334,-0.08447576091669183,0.018364126733972197,-0.788891761625784,0.6142577205768488,-0.09281065917878072,-0.6130537358286957,-0.7845707734355647,,0.13485098519008792,0.6116437819006253,-0.46227369220454206,0.9968522343912036,-0.07085201033221977,-0.0355754890500257,-0.03445178976531434,-0.7912610435824157,0.6105071949541904,-0.0714051606764669,-0.6073598221324409,-0.7912113178462619,,0.0,0.0,0.045,1.0,0.0,0.0,0.0,1.0,0.0,0.0,0.0,1.0,,-0.019501160741314527,-0.1568017533185176,0.2605595468860936,True,,0.029939479049542667,0.5289775682203633,-0.3712429610434702,-0.988412084744996,-0.11532704314070368,-0.09869763852531321,0.06286980362571455,0.28078688781775446,-0.9577087821575431,0.1381627247925981,-0.9528160351033365,-0.27028256460201555,False,,-0.978338766580317,-0.19984183867203714,0.14635448825194253,-0.9889891651351087,0.9896041794458096,1.3963
12:01:48.939993,,-0.78916290421838,-0.10050364562515778,0.11942719770000002,-1.7640086413178946,0.8137021476312211,0.9714479805494085,,-0.04682154254223041,0.4740901002252821,-0.3611745476619539,-0.053437327219549635,-0.28324427951736153,0.9575578991268996,-0.7890449378938426,0.5996873897683987,0.13335336717483678,-0.6120069754861728,-0.7484301655287923,-0.2555381562170542,,0.0061368834380018025,0.2832129152111222,-0.13018547163987215,-0.25657717859723733,-0.9575578990640795,0.13134314307134037,0.7983166770824165,-0.1333533671660882,0.5872881425896035,-0.5448473496163502,0.25553815620028975,0.7986498708511671,,0.08406022967966897,0.7870358919355855,1.137854500181494,0.9955144099369426,-0.042601706837251334,-0.08447576091669183,0.018364126733972197,-0.788891761625784,0.6142577205768488,-0.09281065917878072,-0.6130537358286957,-0.7845707734355647,,0.13485098519008792,0.6116437819006253,-0.46227369220454206,0.9968522343912036,-0.07085201033221977,-0.0355754890500257,-0.03445178976531434,-0.7912610435824157,0.6105071949541904,-0.0714051606764669,-0.6073598221324409,-0.7912113178462619,,0.0,0.0,0.045,1.0,0.0,0.0,0.0,1.0,0.0,0.0,0.0,1.0,,-0.019501160741314527,-0.1568017533185176,0.2605595468860936,True,,0.029140345100892306,0.528835303833024,-0.3712124910115854,-0.9887601727709687,-0.11907169296434109,-0.09041710389373304,0.05601408881227967,0.26568627091850444,-0.9624308948178822,0.13862085916792782,-0.9566779695278999,-0.25603031075152166,True,,-0.9299495379777788,-0.11376607608827746,0.1446764731301477,-1.146015483463838,0.9534784945702438,1.3963
12:01:49.043292,,-0.7908001235877156,-0.10328382945987859,0.11990163984000002,-1.7604441403191537,0.818397099027049,0.9654867336913915,,-0.0470565236317826,0.4738735894496235,-0.36125377729288477,-0.053438985414095044,-0.2832451940168253,0.9575575360803564,-0.7890449541821712,0.5996875248949392,0.13335266313440064,-0.6120068096986889,-0.7484297111631477,-0.25553988403120154,,0.006137233257720202,0.28321249056359543,-0.13018563807342592,-0.2565773112082299,-0.9575575360380956,0.13134553080154032,0.7983180441902412,-0.13335266312851524,0.5872864441382353,-0.5448452840992156,0.25553988401992356,0.7986507271527779,,0.08406022967966897,0.7870358919355855,1.137854500181494,0.9955144099369426,-0.042601706837251334,-0.08447576091669183,0.018364126733972197,-0.788891761625784,0.6142577205768488,-0.09281065917878072,-0.6130537358286957,-0.7845707734355647,,0.13485098519008792,0.6116437819006253,-0.46227369220454206,0.9968522343912036,-0.07085201033221977,-0.0355754890500257,-0.03445178976531434,-0.7912610435824157,0.6105071949541904,-0.0714051606764669,-0.6073598221324409,-0.7912113178462619,,0.0,0.0,0.045,1.0,0.0,0.0,0.0,1.0,0.0,0.0,0.0,1.0,,-0.019501160741314527,-0.1568017533185176,0.2605595468860936,True,,0.028669976829855295,0.5284025978029661,-0.3713710516510863,-0.9892472130209506,-0.11992733767976653,-0.08371012607400367,0.050173660857824334,0.25934556697987676,-0.9644804200418019,0.13737741912849566,-0.958309611015631,-0.25053968577585484,False,,-0.9379372704782132,-0.1702993190151505,0.14845169572200917,-1.0602696900422297,0.9575250211917224,1.3963
12:01:49.146160,,-0.7963064321270377,-0.10455808038412563,0.12043571132000001,-1.7507990199696208,0.8221530601437115,0.9625499879367138,,-0.047551679808624736,0.4738870554337095,-0.3613693086920339,-0.05343981451551986,-0.2832456512645798,0.9575573545559821,-0.7890449623255552,0.5996875924598284,0.13335231111007423,-0.6120067268038891,-0.7484294839792449,-0.2555407479392496,,0.00613770713008503,0.28321225582281495,-0.13018529823642816,-0.25657737750594256,-0.9575573545171479,0.13134672466865382,0.798318727736367,-0.13335231110466605,0.5872855949087477,-0.5448442513383529,0.255540747928886,0.7986511552927124,,0.08406022967966897,0.7870358919355855,1.137854500181494,0.9955144099369426,-0.042601706837251334,-0.08447576091669183,0.018364126733972197,-0.788891761625784,0.6142577205768488,-0.09281065917878072,-0.6130537358286957,-0.7845707734355647,,0.13485098519008792,0.6116437819006253,-0.46227369220454206,0.9968522343912036,-0.07085201033221977,-0.0355754890500257,-0.03445178976531434,-0.7912610435824157,0.6105071949541904,-0.0714051606764669,-0.6073598221324409,-0.7912113178462619,,0.0,0.0,0.045,1.0,0.0,0.0,0.0,1.0,0.0,0.0,0.0,1.0,,-0.019501160741314527,-0.1568017533185176,0.2605595468860936,True,,0.02767916246752819,0.528429709948148,-0.3716025881921296,-0.9904613665876942,-0.11463904654103134,-0.0764471732989566,0.04564697377416342,0.25049121619531634,-0.967042141994987,0.13001013453765167,-0.9613074636229321,-0.2428689467600731,False,,-0.9483726113441481,-0.18909506927442477,0.14904974989368472,-1.0300035166699446,0.9657887843589369,1.3963
12:01:49.248295,,-0.8003531441531313,-0.10458897131562253,0.12092052378000001,-1.742202282266776,0.8256407383234695,0.9607824326352123,,-0.04794448801350658,0.4739348731365439,-0.3613780300109496,-0.05343689259169907,-0.28324308080041594,0.9575582779595362,-0.7890449336241615,0.5996874879074116,0.13335295110848047,-0.6120070189402944,-0.7484305405486786,-0.25553695376956137,,0.006137313937130785,0.28321267916937426,-0.13018449804850513,-0.2565760364581621,-0.9575582779503987,0.13134261237314415,0.798317285341488,-0.13335295110720796,0.5872874103340807,-0.5448469963405618,0.25553695376712293,0.79865049666234,,0.08406022967966897,0.7870358919355855,1.137854500181494,0.9955144099369426,-0.042601706837251334,-0.08447576091669183,0.018364126733972197,-0.788891761625784,0.6142577205768488,-0.09281065917878072,-0.6130537358286957,-0.7845707734355647,,0.13485098519008792,0.6116437819006253,-0.46227369220454206,0.9968522343912036,-0.07085201033221977,-0.0355754890500257,-0.03445178976531434,-0.7912610435824157,0.6105071949541904,-0.0714051606764669,-0.6073598221324409,-0.7912113178462619,,0.0,0.0,0.045,1.0,0.0,0.0,0.0,1.0,0.0,0.0,0.0,1.0,,-0.019501160741314527,-0.1568017533185176,0.2605595468860936,True,,0.026894082378269665,0.5285250212070105,-0.3716202429215824,-0.9913169263523302,-0.11105732320967421,-0.07040612536470861,0.04164972975385023,0.2426720864591687,-0.9692138868510838,0.12472390123308505,-0.9637305273856671,-0.23593943936134099,True,,-0.8953853268071396,-0.17237719141073757,0.15026708483036091,-1.1422146091397545,0.9316903222417594,1.3963
12:01:49.348857,,-0.8022761046388132,-0.10580916310975001,0.12144033607000002,-1.731718455799892,0.8299332653139408,0.9585380983123912,,-0.0482143635436529,0.47383136335014653,-0.361354655875085,-0.053436852452790146,-0.28324114060600514,0.9575588541014844,-0.7890449332298387,0.5996877517507783,0.13335176693398693,-0.6120070229533793,-0.7484310634041764,-0.2555354127854605,,0.006137303444036783,0.28321207322029585,-0.13018411482318423,-0.2565738184384315,-0.95755885407293,0.13134274482749278,0.798319185291953,-0.13335176693001038,0.5872850965176935,-0.5448452569556563,0.2555354127778404,0.798652176313158,,0.08406022967966897,0.7870358919355855,1.137854500181494,0.9955144099369426,-0.042601706837251334,-0.08447576091669183,0.018364126733972197,-0.788891761625784,0.6142577205768488,-0.09281065917878072,-0.6130537358286957,-0.7845707734355647,,0.13485098519008792,0.6116437819006253,-0.46227369220454206,0.9968522343912036,-0.07085201033221977,-0.0355754890500257,-0.03445178976531434,-0.7912610435824157,0.6105071949541904,-0.0714051606764669,-0.6073598221324409,-0.7912113178462619,,0.0,0.0,0.045,1.0,0.0,0.0,0.0,1.0,0.0,0.0,0.0,1.0,,-0.019501160741314527,-0.1568017533185176,0.2605595468860936,True,,0.026354431113072993,0.5283184240362475,-0.3715736390226384,-0.9921571271813343,-0.10902281470279393,-0.06114131874241738,0.03419431065981671,0.2337541857457079,-0.9716942573489159,0.12022888214477237,-0.9661640681171296,-0.22819292140111863,False,,-0.955314788310911,-0.18018719600373181,0.14777892351732072,-1.026161658330558,0.9702399284988014,1.3963000000000005
12:01:49.458610,,-0.8059212345554472,-0.10765489626668967,0.12196144465000001,-1.7220733354503586,0.8327502361514376,0.9571793391359981,,-0.0485986688014826,0.4737508152459885,-0.3614373278117142,-0.053436417838673735,-0.28323994188106466,0.9575592329311968,-0.7890449289601282,0.5996878498919945,0.13335135085263614,-0.612007066405999,-0.748431438419798,-0.25553421033982,,0.006137136006674292,0.28321188201481196,-0.1301839873641186,-0.2565726762775854,-0.9575592329026421,0.13134221412409883,0.7983197935009643,-0.13335135084865957,0.5872843642323325,-0.5448449036493731,0.2555342103321999,0.7986528020720668,,0.08406022967966897,0.7870358919355855,1.137854500181494,0.9955144099369426,-0.042601706837251334,-0.08447576091669183,0.018364126733972197,-0.788891761625784,0.6142577205768488,-0.09281065917878072,-0.6130537358286957,-0.7845707734355647,,0.13485098519008792,0.6116437819006253,-0.46227369220454206,0.9968522343912036,-0.07085201033221977,-0.0355754890500257,-0.03445178976531434,-0.7912610435824157,0.6105071949541904,-0.0714051606764669,-0.6073598221324409,-0.7912113178462619,,0.0,0.0,0.045,1.0,0.0,0.0,0.0,1.0,0.0,0.0,0.0,1.0,,-0.019501160741314527,-0.1568017533185176,0.2605595468860936,True,,0.02558604675338151,0.528157454540806,-0.3717389239758884,-0.9931062146436924,-0.10417935880144395,-0.053728089820846064,0.02889732654518258,0.2266198416901672,-0.9735545140724606,0.1136001362438355,-0.9683956363759825,-0.22204706819352155,False,,-0.9456632272637849,-0.2097893875822681,0.15014824581573272,-0.9905913747195774,0.9603282832058143,1.3963
12:01:49.564460,,-0.8093424052187286,-0.10921488830728301,0.12254996031000001,-1.710121773278111,0.8377134704841701,0.9556283149928724,,-0.04898150236445202,0.47366705901011996,-0.36147402358087055,-0.05340277496045089,-0.2832614291764256,0.9575547537177456,-0.7890445979911687,0.5996795314428586,0.1333907116310152,-0.6120104296558013,-0.7484299715467055,-0.25553045157694826,,0.006136365753437192,0.28321162200608135,-0.130183476150664,-0.2566001471162181,-0.9575547519972295,0.1313212010069124,0.7983235784970285,-0.13339071139134134,0.5872702772460472,-0.5448264172395392,0.255530451117816,0.798666613823247,,0.08406022967966897,0.7870358919355855,1.137854500181494,0.9955144099369426,-0.042601706837251334,-0.08447576091669183,0.018364126733972197,-0.788891761625784,0.6142577205768488,-0.09281065917878072,-0.6130537358286957,-0.7845707734355647,,0.13485098519008792,0.6116437819006253,-0.46227369220454206,0.9968522343912036,-0.07085201033221977,-0.0355754890500257,-0.03445178976531434,-0.7912610435824157,0.6105071949541904,-0.0714051606764669,-0.6073598221324409,-0.7912113178462619,,0.0,0.0,0.045,1.0,0.0,0.0,0.0,1.0,0.0,0.0,0.0,1.0,,-0.019501160741314527,-0.1568017533185176,0.2605595468860936,True,,0.0248204556025948,0.5279963029984484,-0.37181224411941044,-0.9939714114898177,-0.10051435757609754,-0.04379151815139342,0.021005610826001705,0.21743121223680706,-0.9758495951011401,0.10760853801983361,-0.9708864670322153,-0.21400904345129212,False,,-0.9874359691090467,-0.18681080699547695,0.1468634775724473,-0.9758986096941802,0.9908826407255108,1.3962999999999999
12:01:49.669186,,-0.812246152779437,-0.1106281484232661,0.12299069891000002,-1.700896005987253,0.8409328657270235,0.955512121652899,,-0.04929267833931064,0.47360262285610705,-0.36152954865516984,-0.053366998380794395,-0.28327886193699725,0.9575515912281197,-0.7890442450424108,0.5996714386837692,0.1334291759413605,-0.6120140054355588,-0.7484298577733376,-0.2555222204507967,,0.006134768805590574,0.2832110118967811,-0.13018271086177224,-0.2566241256384755,-0.9575515886709254,0.13129740223235484,0.7983285038835828,-0.13342917558503053,0.5872548421670012,-0.5448079043903257,0.25552221976841055,0.7986818748271027,,0.08406022967966897,0.7870358919355855,1.137854500181494,0.9955144099369426,-0.042601706837251334,-0.08447576091669183,0.018364126733972197,-0.788891761625784,0.6142577205768488,-0.09281065917878072,-0.6130537358286957,-0.7845707734355647,,0.13473430023773791,0.6116521381835512,-0.4622511350480385,0.9968410893894288,-0.07102777350844527,-0.03553727473131868,-0.034615226940882,-0.7912593671922288,0.6105001227636114,-0.07148166596217144,-0.6073414766183735,-0.791218492080592,,0.0,0.0,0.045,1.0,0.0,0.0,0.0,1.0,0.0,0.0,0.0,1.0,,-0.019501160741314527,-0.1568017533185176,0.2605595468860936,True,,0.024199210414832167,0.5278740027678263,-0.37192278373234733,-0.9946316876289213,-0.09678028549709977,-0.03662488639633264,0.01540820993743551,0.21147502893062642,-0.97726193991443,0.10232493846061343,-0.9725800164911322,-0.20884855395989965,False,,-0.9629413338489269,-0.19651959773279876,0.14893965477433424,-0.9925973951546488,0.9740953162161029,1.3963
12:01:49.768592,,-0.8150726730114032,-0.11215724953236256,0.12325384578000001,-1.6973315049885125,0.8379817534210745,0.9850425744979934,,-0.04953089130622515,0.4735293699703395,-0.3616507566389174,-0.0534881360601563,-0.28336149533683724,0.9575203821649343,-0.7890454359909987,0.5996791085153503,0.13338765592066426,-0.6120018948031002,-0.7483924303269686,-0.2556608123798183,,0.00616713224422553,0.2831636149269061,-0.13019476960964033,-0.2566353136205732,-0.9575202841131919,0.13150291445901655,0.7984870264136096,-0.1333876422615377,0.5870485505796028,-0.5445700869939283,0.25566078619970917,0.7987995855956143,,0.08406022967966897,0.7870358919355855,1.137854500181494,0.9955144099369426,-0.042601706837251334,-0.08447576091669183,0.018364126733972197,-0.788891761625784,0.6142577205768488,-0.09281065917878072,-0.6130537358286957,-0.7845707734355647,,0.13473430023773791,0.6116521381835512,-0.4622511350480385,0.9968410893894288,-0.07102777350844527,-0.03553727473131868,-0.034615226940882,-0.7912593671922288,0.6105001227636114,-0.07148166596217144,-0.6073414766183735,-0.791218492080592,,0.0,0.0,0.045,1.0,0.0,0.0,0.0,1.0,0.0,0.0,0.0,1.0,,-0.019501160741314527,-0.1568017533185176,0.2605595468860936,True,,0.023685583637574448,0.5277684583629583,-0.3721746227009727,-0.9952756046211466,-0.08891901742722737,-0.03898562793886856,0.016722855542917206,0.23854010953582178,-0.9709886519651655,0.09563899282459104,-0.9670532686891736,-0.23592617186120585,False,,-0.9725419957670726,-0.22688268265650266,0.14988772835950986,-0.9341338894861875,0.9768680123663989,1.3963
12:01:49.870446,,-0.8173199882778025,-0.11276734542942629,0.12359477005000001,-1.69125088563772,0.8422742804115458,1.1074740159060696,,-0.04976853201140953,0.4735081946962191,-0.3616734155324877,-0.05340912887649745,-0.2833346675079321,0.9575327311067874,-0.7890446605682183,0.5996703334637332,0.1334316858631422,-0.6120097945143026,-0.7484096186926412,-0.25559157667438204,,0.006158104245768941,0.28316773887631697,-0.1301857242064265,-0.2566316663204867,-0.957532620262277,0.1314200801025197,0.7984796088104172,-0.1334316704170176,0.5870486113795107,-0.5445826573023215,0.25559154708696197,0.798813156440328,,0.08406022967966897,0.7870358919355855,1.137854500181494,0.9955144099369426,-0.042601706837251334,-0.08447576091669183,0.018364126733972197,-0.788891761625784,0.6142577205768488,-0.09281065917878072,-0.6130537358286957,-0.7845707734355647,,0.13473430023773791,0.6116521381835512,-0.4622511350480385,0.9968410893894288,-0.07102777350844527,-0.03553727473131868,-0.034615226940882,-0.7912593671922288,0.6105001227636114,-0.07148166596217144,-0.6073414766183735,-0.791218492080592,,0.0,0.0,0.045,1.0,0.0,0.0,0.0,1.0,0.0,0.0,0.0,1.0,,-0.019501160741314527,-0.1568017533185176,0.2605595468860936,True,,0.023221244311649514,0.5277288085063907,-0.3722182543569845,-0.9955460882778124,-0.08342915701485036,-0.0439040074997472,0.01182926023290469,0.3514719364029749,-0.9361236812107072,0.09353103611683468,-0.9324736209035271,-0.3489196062160692,False,,-0.8772329124668512,-0.17112002320453315,0.15051300097741255,-1.1541879157291723,0.9174048263540826,1.3962999999999999
12:01:49.975915,,-0.8205558133521026,-0.11403387362079911,0.12393828690000001,-1.684541236698914,0.8410670071954758,1.220018533553581,,-0.05010905784780435,0.47347794528486237,-0.3617728240951622,-0.05328266669503499,-0.2831713218387396,0.9575880951212619,-0.7890434090464797,0.5996730754136398,0.13342676367302295,-0.6120224310188112,-0.7484692412598183,-0.25538664573108855,,0.006130034896435524,0.283149258772372,-0.13016271088010684,-0.256496854540176,-0.9575879394865557,0.1312797650259689,0.7985441286999909,-0.13342674198746185,0.5869618846107205,-0.5445514788099959,0.2553866042236536,0.7988998962656978,,0.08406022967966897,0.7870358919355855,1.137854500181494,0.9955144099369426,-0.042601706837251334,-0.08447576091669183,0.018364126733972197,-0.788891761625784,0.6142577205768488,-0.09281065917878072,-0.6130537358286957,-0.7845707734355647,,0.13473430023773791,0.6116521381835512,-0.4622511350480385,0.9968410893894288,-0.07102777350844527,-0.03553727473131868,-0.034615226940882,-0.7912593671922288,0.6105001227636114,-0.07148166596217144,-0.6073414766183735,-0.791218492080592,,0.0,0.0,0.045,1.0,0.0,0.0,0.0,1.0,0.0,0.0,0.0,1.0,,-0.019501160741314527,-0.1568017533185176,0.2605595468860936,True,,0.022576843410436837,0.5276860268481537,-0.3724083205124426,-0.9962076698394075,-0.07217631827454767,-0.048588657456956216,0.01089389963192483,0.45057818816825224,-0.8926704987271759,0.086322659272915,-0.8898145174289676,-0.4480831653484718,False,,-0.9577215413515535,-0.16010064326717002,0.14654938291236747,-1.0385952087732686,0.967828115157534,1.3963
12:01:50.076348,,-0.8233359971868234,-0.11591049770923567,0.12433106277000001,-1.67678320511342,0.839993875447858,1.3728597117183092,,-0.050421247747093334,0.4733956515668255,-0.3618691535495012,-0.053258861336420424,-0.28315504586013457,0.9575942322785226,-0.789043172034322,0.5996715765958793,0.13343490131531563,-0.6120248086108631,-0.7484765996522253,-0.255359380908317,,0.006127469744120538,0.28315450675310117,-0.13015873500439845,-0.25649071123815015,-0.9575940726772637,0.13124699495217718,0.7985304233696352,-0.13343487907585605,0.5869786730888784,-0.5445744620010349,0.25535933834782815,0.7988929404600471,,0.08406022967966897,0.7870358919355855,1.137854500181494,0.9955144099369426,-0.042601706837251334,-0.08447576091669183,0.018364126733972197,-0.788891761625784,0.6142577205768488,-0.09281065917878072,-0.6130537358286957,-0.7845707734355647,,0.13473430023773791,0.6116521381835512,-0.4622511350480385,0.9968410893894288,-0.07102777350844527,-0.03553727473131868,-0.034615226940882,-0.7912593671922288,0.6105001227636114,-0.07148166596217144,-0.6073414766183735,-0.791218492080592,,0.0,0.0,0.045,1.0,0.0,0.0,0.0,1.0,0.0,0.0,0.0,1.0,,-0.019501160741314527,-0.1568017533185176,0.2605595468860936,True,,0.02195598002354926,0.5275174527659061,-0.37260072924929954,-0.996854286065995,-0.059290382036360084,-0.05259451444626133,0.0087265209896972,0.5774580612730098,-0.8163737105653471,0.07877423552959366,-0.8142645995429246,-0.5751241446400324,False,,-1.0216851245448333,-0.10913472003713556,0.14018554834603245,-1.0291788074713961,1.0207554284010218,1.3963
12:01:50.173018,,-0.8241700523372397,-0.11665188006516122,0.12462661689000001,-1.6692348500572636,0.8512617587978452,1.3908444339898112,,-0.050518645486518424,0.47331646683164647,-0.3618520647068825,-0.053317841770661685,-0.2830147610021741,0.9576324205058018,-0.7890437584322263,0.5997004430608928,0.13330163491763847,-0.612018917214219,-0.7485065287941389,-0.2552857640458701,,0.006124787101315486,0.2831044637999685,-0.13014661551311912,-0.2563032749200639,-0.9576322102999455,0.13133446634364088,0.7987199408487395,-0.13330160565715843,0.5867509684766505,-0.5443846510917755,0.25528570800916806,0.7990457558428188,,0.08406022967966897,0.7870358919355855,1.137854500181494,0.9955144099369426,-0.042601706837251334,-0.08447576091669183,0.018364126733972197,-0.788891761625784,0.6142577205768488,-0.09281065917878072,-0.6130537358286957,-0.7845707734355647,,0.13473430023773791,0.6116521381835512,-0.4622511350480385,0.9968410893894288,-0.07102777350844527,-0.03553727473131868,-0.034615226940882,-0.7912593671922288,0.6105001227636114,-0.07148166596217144,-0.6073414766183735,-0.791218492080592,,0.0,0.0,0.045,1.0,0.0,0.0,0.0,1.0,0.0,0.0,0.0,1.0,,-0.019501160741314527,-0.1568017533185176,0.2605595468860936,True,,0.021769786362732413,0.5273884699570408,-0.37256726044166216,-0.9966373842125094,-0.06789409579197438,-0.045872825797384414,-0.0028159898654937093,0.5878943468783896,-0.8089328198988524,0.08189013732510408,-0.8060835122150942,-0.5861086731518769,False,,-1.0227776853491106,-0.1007769565875525,0.13997311342138008,-1.0430179287990662,1.0236797216600035,1.3963
12:01:50.279141,,-0.8260235082270535,-0.1170534621746209,0.12483791216000001,-1.6602187592957434,0.8501886270502274,1.391112770583303,,-0.0507148336663828,0.4733294964218405,-0.36187130756952324,-0.053356185286316395,-0.28292190350194013,0.957657722785407,-0.789044138166743,0.5997194254595979,0.1332139585445598,-0.6120150860202663,-0.74852642387911,-0.2552366103018083,,0.006119539588899295,0.28307810984854426,-0.13013908507979752,-0.25618267679564843,-0.9576574339394901,0.13138520501258033,0.7988304566281135,-0.13321391836495589,0.5866202777633287,-0.5442790960886579,0.2552365333180896,0.7991332644725957,,0.08406022967966897,0.7870358919355855,1.137854500181494,0.9955144099369426,-0.042601706837251334,-0.08447576091669183,0.018364126733972197,-0.788891761625784,0.6142577205768488,-0.09281065917878072,-0.6130537358286957,-0.7845707734355647,,0.13473430023773791,0.6116521381835512,-0.4622511350480385,0.9968410893894288,-0.07102777350844527,-0.03553727473131868,-0.034615226940882,-0.7912593671922288,0.6105001227636114,-0.07148166596217144,-0.6073414766183735,-0.791218492080592,,0.0,0.0,0.045,1.0,0.0,0.0,0.0,1.0,0.0,0.0,0.0,1.0,,-0.019501160741314527,-0.1568017533185176,0.2605595468860936,True,,0.02138657936875865,0.5274272932510259,-0.3726056577699356,-0.9971528296831633,-0.06418761008987638,-0.039575054842797455,-0.005265552214650155,0.5828070654113209,-0.8125935013686235,0.0752230564038395,-0.8100715247542,-0.5814856976467009,False,,-0.9923030006937262,-0.108719968339069,0.1422744619572899,-1.0602483860234924,0.9976485915267085,1.3963
12:01:50.387576,,-0.8297072518080586,-0.11739326242108677,0.1250271705,-1.648057520594158,0.8464326659335649,1.3926030018129265,,-0.051002951998357346,0.4733913408910394,-0.3619540543664161,-0.05344673476905008,-0.2830436712647883,0.9576166909048094,-0.7890450302745086,0.5997168009139878,0.1332204897926448,-0.6120060348898747,-0.7484824906826096,-0.255387106957126,,0.006155967227968133,0.2829893826255567,-0.13014973403531163,-0.25620017561502156,-0.9576163004444445,0.13164982208293863,0.7991559859811446,-0.13322043547308088,0.58617506784186,-0.5437925749786205,0.2553870028251242,0.7994162236924287,,0.08406022967966897,0.7870358919355855,1.137854500181494,0.9955144099369426,-0.042601706837251334,-0.08447576091669183,0.018364126733972197,-0.788891761625784,0.6142577205768488,-0.09281065917878072,-0.6130537358286957,-0.7845707734355647,,0.13473430023773791,0.6116521381835512,-0.4622511350480385,0.9968410893894288,-0.07102777350844527,-0.03553727473131868,-0.034615226940882,-0.7912593671922288,0.6105001227636114,-0.07148166596217144,-0.6073414766183735,-0.791218492080592,,0.0,0.0,0.045,1.0,0.0,0.0,0.0,1.0,0.0,0.0,0.0,1.0,,-0.019501160741314527,-0.1568017533185176,0.2605595468860936,True,,0.02076755512424812,0.5276407217558645,-0.3727838293897815,-0.99794402441236,-0.05565422141840082,-0.031785716571679605,-0.006143317838527205,0.5767217121913394,-0.8169175762174695,0.06379642455183807,-0.815042743864027,-0.5758778880014409,False,,-1.022674116274783,-0.124754603916308,0.14086240070479503,-0.999288428854038,1.0174897424642113,1.3963
12:01:50.497764,,-0.8325414947728991,-0.11744732155120634,0.12519179933000002,-1.6346382227165466,0.8394573095740491,1.394691597890874,,-0.05124048334491001,0.4734611995566941,-0.3619860727348292,-0.05367112657434159,-0.28317419469693245,0.9575655516099066,-0.7890472128740169,0.599734144370283,0.13312945553929947,-0.6119835831360075,-0.7484192217829446,-0.2556262162569107,,0.00620629285242431,0.2829101867615071,-0.13016959790317026,-0.25620100545337765,-0.9575651983708908,0.1320196875021913,0.7994422911116288,-0.1331294064288049,0.585805297467243,-0.5433712636875909,0.2556261219582458,0.7996262988332238,,0.08406022967966897,0.7870358919355855,1.137854500181494,0.9955144099369426,-0.042601706837251334,-0.08447576091669183,0.018364126733972197,-0.788891761625784,0.6142577205768488,-0.09281065917878072,-0.6130537358286957,-0.7845707734355647,,0.13473430023773791,0.6116521381835512,-0.4622511350480385,0.9968410893894288,-0.07102777350844527,-0.03553727473131868,-0.034615226940882,-0.7912593671922288,0.6105001227636114,-0.07148166596217144,-0.6073414766183735,-0.791218492080592,,0.0,0.0,0.045,1.0,0.0,0.0,0.0,1.0,0.0,0.0,0.0,1.0,,-0.019501160741314527,-0.1568017533185176,0.2605595468860936,True,,0.02023424021597668,0.5278455246419549,-0.3728650642002157,-0.9987172055715143,-0.04462444762160403,-0.02392910298971742,-0.005796528251254859,0.5702268252649261,-0.8214668392628616,0.05030252037083419,-0.8202743604567623,-0.5697540083418384,False,,-1.0174745330342,-0.0856517365819852,0.13788463024494468,-1.0617575719365853,1.0199570023019784,1.3963
