AlexandreBanks6/RCL_Autocam_Public/optimizationData/Data_5.csv
System Time,q_des,q0,q1,q2,q3,q4,q5,T_des,Tx,Ty,Tz,R00,R01,R02,R10,R11,R12,R20,R21,R22,T_target,Tx,Ty,Tz,R00,R01,R02,R10,R11,R12,R20,R21,R22,worldFrame,Tx,Ty,Tz,R00,R01,R02,R10,R11,R12,R20,R21,R22,ECM_T_PSM_RCM,Tx,Ty,Tz,R00,R01,R02,R10,R11,R12,R20,R21,R22,psm3_T_cam,Tx,Ty,Tz,R00,R01,R02,R10,R11,R12,R20,R21,R22,offset,x,y,z,IK Trigered,ECM_T_PSM3,Tx,Ty,Tz,R00,R01,R02,R10,R11,R12,R20,R21,R22
10:08:56.051737,,-0.060700680391404645,-0.20072155013396922,0.04194924069000001,-2.114168445311819,0.1970538171563244,1.1165140777480023,,-0.04340243001013814,0.5702967249504004,-0.28343862657936203,-0.6925843837764448,-0.1380939337904517,0.707995011846327,-0.6017255955840293,0.6518938674171271,-0.4614766443093154,-0.3978104812194463,-0.7456302374999417,-0.5345861670093355,,-0.0097930736658008,0.28616091526592224,-0.09575197317260142,0.4160170047624356,-0.707995011846327,0.5706775928220866,0.8842202946390727,0.4614766443093154,-0.07206786596955125,-0.2123306908972025,0.5345861670093355,0.818005689311134,,0.043876020619064066,0.7208133287749341,1.179233233310831,0.9913131001593917,-0.04274699911669141,-0.12438260135120853,0.047693611535251305,-0.7645043955939991,0.6428517313783787,-0.12257102786181008,-0.6431995982461215,-0.7558244637115997,,0.0,0.0,0.0,1.0,0.0,0.0,0.0,1.0,0.0,0.0,0.0,1.0,,0.0,0.0,0.045,1.0,0.0,0.0,0.0,1.0,0.0,0.0,0.0,1.0,,0.017444116233895766,-0.1925897926022419,0.2248824739289125,True,,0.05017155671560098,0.5903138621646927,-0.3291036619436572,-0.6236599012259729,-0.3722793851264108,-0.6873546297310521,0.4681710368147082,0.5262751897305148,-0.7098241366436846,0.6259905813114534,-0.7644883806075882,-0.15392630712563926
10:09:06.642900,,-0.6539919107208284,-0.2470965610436874,0.12392532400000002,-2.3123127655359257,0.5821739730826738,0.34761996943024964,,-0.03150014497061044,0.6017501002881133,-0.30519181880336277,-0.9644797083681768,-0.24208559304964208,-0.10570457787550883,0.10057429290221208,0.033488778539723194,-0.9943657844672339,0.24426154784013068,-0.9696767849906073,-0.007951660016818261,,-0.018863920509890483,0.2865262326818501,-0.10328647609685998,0.6037350320985841,0.07316093929689227,0.33043997499147965,-0.061517815221555465,0.6882269080341263,-0.03997962684173627,-0.33280423453066194,0.005503554599925749,0.6068361734928771,,0.043876020619064066,0.7208133287749341,1.179233233310831,0.9913131001593917,-0.04274699911669141,-0.12438260135120853,0.047693611535251305,-0.7645043955939991,0.6428517313783787,-0.12257102786181008,-0.6431995982461215,-0.7558244637115997,,0.05678762683256823,0.6509763304407826,-0.3920814291100212,0.9322227872905057,-0.3598653654897494,-0.0381784438819846,-0.2812191069992172,-0.7867825452170704,0.5494443014540341,-0.22776410760891097,-0.5014679902672531,-0.8346576340167499,,0.0,0.0,0.045,1.0,0.0,0.0,0.0,1.0,0.0,0.0,0.0,1.0,,0.017444116233895766,-0.1925897926022419,0.2248824739289125,False,,-0.0430764627681385,0.5702574786997132,-0.28344719488355985,-0.6818297411486005,-0.5401959137716932,-0.49325103023673283,0.4901352435224977,0.16318194080619836,-0.8562354216288092,0.5430245364091523,-0.8255664897142375,0.1535067552863305
10:09:06.649154,,-0.6539919107208284,-0.2470965610436874,0.12392532400000002,-2.3123127655359257,0.5821739730826738,0.34761996943024964,,-0.004567290312849782,0.591981122909523,-0.3215985164582238,-0.6885153632966404,-0.5642284530592122,-0.455623580670386,0.4925856476665141,0.09725856169424715,-0.8648122061408056,0.5322649473875358,-0.8198701268710642,0.21096682404342407,,-0.019235656627575128,0.28706908256526603,-0.10216750637724446,0.5555833147120244,0.33093525127490164,0.3307132387499399,-0.364314439010072,0.6281431797794819,-0.016533046680980767,-0.2935376915314856,-0.1532325408240582,0.6464654812828192,,0.043876020619064066,0.7208133287749341,1.179233233310831,0.9913131001593917,-0.04274699911669141,-0.12438260135120853,0.047693611535251305,-0.7645043955939991,0.6428517313783787,-0.12257102786181008,-0.6431995982461215,-0.7558244637115997,,0.05678762683256823,0.6509763304407826,-0.3920814291100212,0.9322227872905057,-0.3598653654897494,-0.0381784438819846,-0.2812191069992172,-0.7867825452170704,0.5494443014540341,-0.22776410760891097,-0.5014679902672531,-0.8346576340167499,,0.0,0.0,0.045,1.0,0.0,0.0,0.0,1.0,0.0,0.0,0.0,1.0,,0.017444116233895766,-0.1925897926022419,0.2248824739289125,False,,-0.0430764627681385,0.5702574786997132,-0.28344719488355985,-0.6818297411486005,-0.5401959137716932,-0.49325103023673283,0.4901352435224977,0.16318194080619836,-0.8562354216288092,0.5430245364091523,-0.8255664897142375,0.1535067552863305
10:09:06.656296,,-0.6539919107208284,-0.2470965610436874,0.12392532400000002,-2.3123127655359257,0.5821739730826738,0.34761996943024964,,0.006563520785804078,0.5828393812070622,-0.32773409414203475,-0.4777456441889499,-0.6442556357255312,-0.5972384576485148,0.6288297254069142,0.2239478142871419,-0.7445942203110877,0.6134592699626847,-0.7312879407674541,0.29813700170382484,,-0.01892434036187738,0.28741938696395086,-0.10092728420750433,0.5107467941170645,0.459333110510246,0.3459160622818994,-0.5133785737346739,0.5726636905299995,-0.002419470025545989,-0.25901210123425655,-0.22929567678880186,0.6869085385090743,,0.043876020619064066,0.7208133287749341,1.179233233310831,0.9913131001593917,-0.04274699911669141,-0.12438260135120853,0.047693611535251305,-0.7645043955939991,0.6428517313783787,-0.12257102786181008,-0.6431995982461215,-0.7558244637115997,,0.05678762683256823,0.6509763304407826,-0.3920814291100212,0.9322227872905057,-0.3598653654897494,-0.0381784438819846,-0.2812191069992172,-0.7867825452170704,0.5494443014540341,-0.22776410760891097,-0.5014679902672531,-0.8346576340167499,,0.0,0.0,0.045,1.0,0.0,0.0,0.0,1.0,0.0,0.0,0.0,1.0,,0.017444116233895766,-0.1925897926022419,0.2248824739289125,False,,-0.0430764627681385,0.5702574786997132,-0.28344719488355985,-0.6818297411486005,-0.5401959137716932,-0.49325103023673283,0.4901352435224977,0.16318194080619836,-0.8562354216288092,0.5430245364091523,-0.8255664897142375,0.1535067552863305
10:09:06.663002,,-0.6539919107208284,-0.24708883831081319,0.12392532400000002,-2.312522442065263,0.5820398316142216,0.3476879523264612,,0.01220400227230168,0.5765254553874092,-0.33058099103546734,-0.3509959360188912,-0.6563905856088036,-0.6677973135782701,0.6839813022357908,0.30734364219840266,-0.6615961485619848,0.6395087419965846,-0.6889784356018352,0.34108251814713925,,-0.018578451618605912,0.28765481102939433,-0.09996531496648188,0.4772014699515509,0.5362152510902813,0.3598589377299485,-0.6020701178751451,0.5312359569412192,0.006813567671733106,-0.23353120504067393,-0.27387598660852863,0.7177754619108382,,0.043876020619064066,0.7208133287749341,1.179233233310831,0.9913131001593917,-0.04274699911669141,-0.12438260135120853,0.047693611535251305,-0.7645043955939991,0.6428517313783787,-0.12257102786181008,-0.6431995982461215,-0.7558244637115997,,0.05678762683256823,0.6509763304407826,-0.3920814291100212,0.9322227872905057,-0.3598653654897494,-0.0381784438819846,-0.2812191069992172,-0.7867825452170704,0.5494443014540341,-0.22776410760891097,-0.5014679902672531,-0.8346576340167499,,0.0,0.0,0.045,1.0,0.0,0.0,0.0,1.0,0.0,0.0,0.0,1.0,,0.017444116233895766,-0.1925897926022419,0.2248824739289125,False,,-0.04307801120752681,0.5702589041160744,-0.28344640286273365,-0.681670240140401,-0.5401897470906287,-0.49347818679764405,0.4902798052385102,0.1633936597871597,-0.8561122733127042,0.5430942793679716,-0.8255286482488178,0.15346352869090152
10:09:06.670415,,-0.6539919107208284,-0.24708883831081319,0.12392532400000002,-2.312522442065263,0.5820398316142216,0.3476879523264612,,0.02703721050461131,0.5494139161564592,-0.33583669852114884,0.06133097074288297,-0.5350831396888002,-0.8425702022078111,0.7652644004740211,0.5671558040317166,-0.3044744510139958,0.6407877256899297,-0.6261152670027407,0.44426429412143204,,-0.016001832891565496,0.2887855956874328,-0.09448355466182959,0.2931939629501326,0.8425702022058009,0.45178839564524076,-0.9512344124327913,0.30447445101326936,0.04948132252718224,-0.09586653581134078,-0.4442642941203721,0.8907518421403848,,0.043876020619064066,0.7208133287749341,1.179233233310831,0.9913131001593917,-0.04274699911669141,-0.12438260135120853,0.047693611535251305,-0.7645043955939991,0.6428517313783787,-0.12257102786181008,-0.6431995982461215,-0.7558244637115997,,0.05678762683256823,0.6509763304407826,-0.3920814291100212,0.9322227872905057,-0.3598653654897494,-0.0381784438819846,-0.2812191069992172,-0.7867825452170704,0.5494443014540341,-0.22776410760891097,-0.5014679902672531,-0.8346576340167499,,0.0,0.0,0.045,1.0,0.0,0.0,0.0,1.0,0.0,0.0,0.0,1.0,,0.017444116233895766,-0.1925897926022419,0.2248824739289125,False,,-0.04307801120752681,0.5702589041160744,-0.28344640286273365,-0.681670240140401,-0.5401897470906287,-0.49347818679764405,0.4902798052385102,0.1633936597871597,-0.8561122733127042,0.5430942793679716,-0.8255286482488178,0.15346352869090152
10:09:06.676845,,-0.6539996334537026,-0.2470965610436874,0.12392662029000001,-2.3129417951239386,0.5813691242719604,0.347958985163469,,0.027032954151085177,0.5494152456352352,-0.33583600750725895,0.06133159292301589,-0.5350841722143802,-0.842569501201638,0.7652644214244018,0.567155630128653,-0.3044747222929127,0.6407876411195063,-0.626114542123901,0.44426543769403964,,-0.01600165426662386,0.2887858179879129,-0.09448366845855444,0.2931945847254634,0.8425695012016382,0.4517892994886954,-0.9512342692298549,0.3044747222929128,0.049482406240986265,-0.09586605515200544,-0.44426543769403976,0.8907513235129749,,0.043876020619064066,0.7208133287749341,1.179233233310831,0.9913131001593917,-0.04274699911669141,-0.12438260135120853,0.047693611535251305,-0.7645043955939991,0.6428517313783787,-0.12257102786181008,-0.6431995982461215,-0.7558244637115997,,0.05678762683256823,0.6509763304407826,-0.3920814291100212,0.9322227872905057,-0.3598653654897494,-0.0381784438819846,-0.2812191069992172,-0.7867825452170704,0.5494443014540341,-0.22776410760891097,-0.5014679902672531,-0.8346576340167499,,0.0,0.0,0.045,1.0,0.0,0.0,0.0,1.0,0.0,0.0,0.0,1.0,,0.017444116233895766,-0.1925897926022419,0.2248824739289125,False,,-0.0430865938835639,0.5702612987249143,-0.2834447297844749,-0.681250391807889,-0.5400019923203818,-0.49426283691131034,0.4909044305795185,0.1638755847982331,-0.8556621019680821,0.5430568512586845,-0.8255559587314818,0.15344906420029925
10:09:06.684097,,-0.6540382471180737,-0.24712745197518432,0.12392273142000002,-2.3139901777706267,0.5796252851820815,0.34884276281421966,,0.027022746952311667,0.5494202215744436,-0.3358372062437699,0.06133159292301589,-0.5350841722143802,-0.842569501201638,0.7652644214244018,0.567155630128653,-0.3044747222929127,0.6407876411195063,-0.626114542123901,0.44426543769403964,,-0.01600165426662386,0.2887858179879129,-0.09448366845855444,0.2931945847254634,0.8425695012016382,0.4517892994886954,-0.9512342692298549,0.3044747222929128,0.049482406240986265,-0.09586605515200544,-0.44426543769403976,0.8907513235129749,,0.043876020619064066,0.7208133287749341,1.179233233310831,0.9913131001593917,-0.04274699911669141,-0.12438260135120853,0.047693611535251305,-0.7645043955939991,0.6428517313783787,-0.12257102786181008,-0.6431995982461215,-0.7558244637115997,,0.05678762683256823,0.6509763304407826,-0.3920814291100212,0.9322227872905057,-0.3598653654897494,-0.0381784438819846,-0.2812191069992172,-0.7867825452170704,0.5494443014540341,-0.22776410760891097,-0.5014679902672531,-0.8346576340167499,,0.0,0.0,0.045,1.0,0.0,0.0,0.0,1.0,0.0,0.0,0.0,1.0,,0.017444116233895766,-0.1925897926022419,0.2248824739289125,False,,-0.043107008281110935,0.570271250603331,-0.2834471272574967,-0.6801881711938128,-0.5393942600572293,-0.49638481441854204,0.49252527051659895,0.16524832468808814,-0.8544658267539617,0.5429207213494134,-0.8256796130492107,0.15326534808735554
10:09:06.690850,,-0.6540382471180737,-0.24712745197518432,0.12392273142000002,-2.3139901777706267,0.5796252851820815,0.34884276281421966,,0.027022711967819253,0.5494200894000875,-0.33583706071853037,0.06133097074288283,-0.5350831396888002,-0.842570202207811,0.7652644004740211,0.5671558040317165,-0.3044744510139959,0.6407877256899298,-0.6261152670027406,0.444264294121432,,-0.016001832891565496,0.2887855956874328,-0.09448355466182959,0.29319396295013284,0.842570202205801,0.45178839564524076,-0.9512344124327914,0.3044744510132696,0.04948132252718229,-0.09586653581134078,-0.44426429412037216,0.890751842140385,,0.043876020619064066,0.7208133287749341,1.179233233310831,0.9913131001593917,-0.04274699911669141,-0.12438260135120853,0.047693611535251305,-0.7645043955939991,0.6428517313783787,-0.12257102786181008,-0.6431995982461215,-0.7558244637115997,,0.05678762683256823,0.6509763304407826,-0.3920814291100212,0.9322227872905057,-0.3598653654897494,-0.0381784438819846,-0.2812191069992172,-0.7867825452170704,0.5494443014540341,-0.22776410760891097,-0.5014679902672531,-0.8346576340167499,,0.0,0.0,0.045,1.0,0.0,0.0,0.0,1.0,0.0,0.0,0.0,1.0,,0.017444116233895766,-0.1925897926022419,0.2248824739289125,False,,-0.043107008281110935,0.570271250603331,-0.2834471272574967,-0.6801881711938128,-0.5393942600572293,-0.49638481441854204,0.49252527051659895,0.16524832468808814,-0.8544658267539617,0.5429207213494134,-0.8256796130492107,0.15326534808735554
10:09:06.697039,,-0.654045969850948,-0.24720467930392656,0.12391624997000002,-2.314199854299965,0.5774790216868458,0.3499993707976552,,0.027014622309080534,0.5494228782183412,-0.3358379674979942,0.0613303485644325,-0.5350821071616212,-0.8425709032125691,0.765264379523396,0.5671559779357224,-0.30447417973359614,0.6407878102598683,-0.626115991879503,0.4442631505483087,,-0.016002011516534617,0.2887853733869631,-0.09448344086513091,0.2931933411755513,0.8425709032095542,0.4517874918009531,-0.9512345556359906,0.3044741797325067,0.049480238813693345,-0.09586701647156678,-0.44426315054671905,0.8907523607670019,,0.043876020619064066,0.7208133287749341,1.179233233310831,0.9913131001593917,-0.04274699911669141,-0.12438260135120853,0.047693611535251305,-0.7645043955939991,0.6428517313783787,-0.12257102786181008,-0.6431995982461215,-0.7558244637115997,,0.05678762683256823,0.6509763304407826,-0.3920814291100212,0.9322227872905057,-0.3598653654897494,-0.0381784438819846,-0.2812191069992172,-0.7867825452170704,0.5494443014540341,-0.22776410760891097,-0.5014679902672531,-0.8346576340167499,,0.0,0.0,0.045,1.0,0.0,0.0,0.0,1.0,0.0,0.0,0.0,1.0,,0.017444116233895766,-0.1925897926022419,0.2248824739289125,False,,-0.04312311762935677,0.57027709258877,-0.28344923186695714,-0.6794994439462461,-0.538337468313842,-0.4984709378551431,0.49434785583508134,0.16608747925891415,-0.8532497563226594,0.5421260952103306,-0.826200774293309,0.15326962337376798
10:09:06.703494,,-0.654045969850948,-0.24733596576278838,0.12389680562000001,-2.312522442065263,0.575198616723158,0.3521194230499553,,0.02701327652189365,0.5494262434737609,-0.3358417344330984,0.06132972638766573,-0.5350810746328427,-0.8425716042159125,0.7652643585725262,0.5671561518406709,-0.3044739084517125,0.6407878948293219,-0.6261167167541881,0.4442620069746701,,-0.016002190141531234,0.2887851510865037,-0.09448332706845841,0.29319271940171815,0.8425716042128975,0.4517865879558324,-0.9512346988394522,0.304473908450623,0.049479155100519395,-0.09586749713268314,-0.4442620069730804,0.8907528793928252,,0.043876020619064066,0.7208133287749341,1.179233233310831,0.9913131001593917,-0.04274699911669141,-0.12438260135120853,0.047693611535251305,-0.7645043955939991,0.6428517313783787,-0.12257102786181008,-0.6431995982461215,-0.7558244637115997,,0.05678762683256823,0.6509763304407826,-0.3920814291100212,0.9322227872905057,-0.3598653654897494,-0.0381784438819846,-0.2812191069992172,-0.7867825452170704,0.5494443014540341,-0.22776410760891097,-0.5014679902672531,-0.8346576340167499,,0.0,0.0,0.045,1.0,0.0,0.0,0.0,1.0,0.0,0.0,0.0,1.0,,0.017444116233895766,-0.1925897926022419,0.2248824739289125,False,,-0.043125739234252135,0.5702840874487607,-0.28345705678775196,-0.6798635068871317,-0.5362512513679016,-0.5002201589395321,0.4960276889546227,0.166133306260477,-0.8522653673248132,0.5401315985882211,-0.827547170835187,0.15304749671004297
10:09:06.709614,,-0.654045969850948,-0.24733596576278838,0.12389680562000001,-2.312522442065263,0.575198616723158,0.3521194230499553,,0.02701324153703103,0.5494261112990755,-0.3358415889077783,0.06132910421258153,-0.5350800421024653,-0.8425723052178408,0.7652643376214119,0.5671563257465617,-0.30447363716834625,0.6407879793982906,-0.6261174416267957,0.444260863400516,,-0.016002368766555343,0.2887849287860547,-0.09448321327181214,0.29319209762863435,0.8425723052158308,0.4517856841098786,-0.9512348420431765,0.30447363716761994,0.04947807138766064,-0.09586797779469014,-0.4442608633994562,0.890753398017855,,0.043876020619064066,0.7208133287749341,1.179233233310831,0.9913131001593917,-0.04274699911669141,-0.12438260135120853,0.047693611535251305,-0.7645043955939991,0.6428517313783787,-0.12257102786181008,-0.6431995982461215,-0.7558244637115997,,0.05678762683256823,0.6509763304407826,-0.3920814291100212,0.9322227872905057,-0.3598653654897494,-0.0381784438819846,-0.2812191069992172,-0.7867825452170704,0.5494443014540341,-0.22776410760891097,-0.5014679902672531,-0.8346576340167499,,0.0,0.0,0.045,1.0,0.0,0.0,0.0,1.0,0.0,0.0,0.0,1.0,,0.017444116233895766,-0.1925897926022419,0.2248824739289125,False,,-0.043125739234252135,0.5702840874487607,-0.28345705678775196,-0.6798635068871317,-0.5362512513679016,-0.5002201589395321,0.4960276889546227,0.166133306260477,-0.8522653673248132,0.5401315985882211,-0.827547170835187,0.15304749671004297
10:09:06.715725,,-0.6539996334537026,-0.24755992501614088,0.12386050950000001,-2.3095869706545358,0.5733206361648268,0.354793224698173,,0.027022267400447088,0.5494253123146837,-0.3358536961478018,0.0613284820391807,-0.5350790095704884,-0.8425730062183545,0.7652643166700531,0.5671564996533949,-0.3044733658834963,0.6407880639667741,-0.6261181664973265,0.4442597198258465,,-0.016002547391606944,0.2887847064856162,-0.094483099475192,0.2931914758562992,0.8425730062183545,0.4517847802630918,-0.9512349852471633,0.3044733658834963,0.04947698767511688,-0.09586845845758768,-0.4442597198258465,0.8907539166420917,,0.043876020619064066,0.7208133287749341,1.179233233310831,0.9913131001593917,-0.04274699911669141,-0.12438260135120853,0.047693611535251305,-0.7645043955939991,0.6428517313783787,-0.12257102786181008,-0.6431995982461215,-0.7558244637115997,,0.05678762683256823,0.6509763304407826,-0.3920814291100212,0.9322227872905057,-0.3598653654897494,-0.0381784438819846,-0.2812191069992172,-0.7867825452170704,0.5494443014540341,-0.22776410760891097,-0.5014679902672531,-0.8346576340167499,,0.0,0.0,0.045,1.0,0.0,0.0,0.0,1.0,0.0,0.0,0.0,1.0,,0.017444116233895766,-0.1925897926022419,0.2248824739289125,False,,-0.043107617537448066,0.5702827538295674,-0.2834815623184929,-0.6810886074512124,-0.5336377918874685,-0.5013472009193185,0.4971267201041546,0.16568556296786313,-0.8517119926257397,0.5375717002955551,-0.8293244246333815,0.15243905584808853
10:09:06.723331,,-0.6538837924605893,-0.24789972526260676,0.12380736161000001,-2.305393440067782,0.5713085141380433,0.3586371155474059,,0.02704077463066871,0.549419565611664,-0.3358735350917949,0.0613284820391807,-0.5350790095704884,-0.8425730062183545,0.7652643166700531,0.5671564996533949,-0.3044733658834963,0.6407880639667741,-0.6261181664973265,0.4442597198258465,,-0.016002547391606944,0.2887847064856162,-0.094483099475192,0.2931914758562992,0.8425730062183545,0.4517847802630918,-0.9512349852471633,0.3044733658834963,0.04947698767511688,-0.09586845845758768,-0.4442597198258465,0.8907539166420917,,0.043876020619064066,0.7208133287749341,1.179233233310831,0.9913131001593917,-0.04274699911669141,-0.12438260135120853,0.047693611535251305,-0.7645043955939991,0.6428517313783787,-0.12257102786181008,-0.6431995982461215,-0.7558244637115997,,0.05678762683256823,0.6509763304407826,-0.3920814291100212,0.9322227872905057,-0.3598653654897494,-0.0381784438819846,-0.2812191069992172,-0.7867825452170704,0.5494443014540341,-0.22776410760891097,-0.5014679902672531,-0.8346576340167499,,0.0,0.0,0.045,1.0,0.0,0.0,0.0,1.0,0.0,0.0,0.0,1.0,,0.017444116233895766,-0.1925897926022419,0.2248824739289125,False,,-0.04307060307700481,0.570271260423528,-0.2835212402064791,-0.683027583062636,-0.5300624095719813,-0.5025009081925715,0.49807001489083835,0.16519137150511115,-0.8512567597657599,0.5342280234527708,-0.8317124820146717,0.15117792900665228
10:09:06.729507,,-0.6538837924605893,-0.24789972526260676,0.12380736161000001,-2.305393440067782,0.5713085141380433,0.3586371155474059,,0.02704077463066871,0.549419565611664,-0.3358735350917949,0.0613284820391807,-0.5350790095704884,-0.8425730062183545,0.7652643166700531,0.5671564996533949,-0.3044733658834963,0.6407880639667741,-0.6261181664973265,0.4442597198258465,,-0.016002547391606944,0.2887847064856162,-0.094483099475192,0.2931914758562992,0.8425730062183545,0.4517847802630918,-0.9512349852471633,0.3044733658834963,0.04947698767511688,-0.09586845845758768,-0.4442597198258465,0.8907539166420917,,0.043876020619064066,0.7208133287749341,1.179233233310831,0.9913131001593917,-0.04274699911669141,-0.12438260135120853,0.047693611535251305,-0.7645043955939991,0.6428517313783787,-0.12257102786181008,-0.6431995982461215,-0.7558244637115997,,0.05678762683256823,0.6509763304407826,-0.3920814291100212,0.9322227872905057,-0.3598653654897494,-0.0381784438819846,-0.2812191069992172,-0.7867825452170704,0.5494443014540341,-0.22776410760891097,-0.5014679902672531,-0.8346576340167499,,0.0,0.0,0.045,1.0,0.0,0.0,0.0,1.0,0.0,0.0,0.0,1.0,,0.017444116233895766,-0.1925897926022419,0.2248824739289125,False,,-0.04307060307700481,0.570271260423528,-0.2835212402064791,-0.683027583062636,-0.5300624095719813,-0.5025009081925715,0.49807001489083835,0.16519137150511115,-0.8512567597657599,0.5342280234527708,-0.8317124820146717,0.15117792900665228
10:09:06.736413,,-0.6536598332072368,-0.2483862574336829,0.12373606566000002,-2.2993128207169895,0.5687598262374509,0.3638550442862887,,0.027070717450043184,0.5494069278233611,-0.33589979866422104,0.0613284820391807,-0.5350790095704884,-0.8425730062183545,0.7652643166700531,0.5671564996533949,-0.3044733658834963,0.6407880639667741,-0.6261181664973265,0.4442597198258465,,-0.016002547391606944,0.2887847064856162,-0.094483099475192,0.2931914758562992,0.8425730062183545,0.4517847802630918,-0.9512349852471633,0.3044733658834963,0.04947698767511688,-0.09586845845758768,-0.4442597198258465,0.8907539166420917,,0.043876020619064066,0.7208133287749341,1.179233233310831,0.9913131001593917,-0.04274699911669141,-0.12438260135120853,0.047693611535251305,-0.7645043955939991,0.6428517313783787,-0.12257102786181008,-0.6431995982461215,-0.7558244637115997,,0.05678762683256823,0.6509763304407826,-0.3920814291100212,0.9322227872905057,-0.3598653654897494,-0.0381784438819846,-0.2812191069992172,-0.7867825452170704,0.5494443014540341,-0.22776410760891097,-0.5014679902672531,-0.8346576340167499,,0.0,0.0,0.045,1.0,0.0,0.0,0.0,1.0,0.0,0.0,0.0,1.0,,0.017444116233895766,-0.1925897926022419,0.2248824739289125,False,,-0.04301071743825587,0.570245984846922,-0.28357376735133133,-0.6859260498207769,-0.5251592984518302,-0.5036994792799044,0.49907033751445484,0.16423622387627151,-0.8508556052469018,0.5295604331806459,-0.8350054934049507,0.14943752404627747
10:09:06.743253,,-0.6532736965635255,-0.24912763978960845,0.12362717730000002,-2.2913451126021576,0.5666135627422153,0.37004001228539024,,0.027122924346556977,0.5493807528408066,-0.33594653294101307,0.0613284820391807,-0.5350790095704884,-0.8425730062183545,0.7652643166700531,0.5671564996533949,-0.3044733658834963,0.6407880639667741,-0.6261181664973265,0.4442597198258465,,-0.016002547391606944,0.2887847064856162,-0.094483099475192,0.2931914758562992,0.8425730062183545,0.4517847802630918,-0.9512349852471633,0.3044733658834963,0.04947698767511688,-0.09586845845758768,-0.4442597198258465,0.8907539166420917,,0.043876020619064066,0.7208133287749341,1.179233233310831,0.9913131001593917,-0.04274699911669141,-0.12438260135120853,0.047693611535251305,-0.7645043955939991,0.6428517313783787,-0.12257102786181008,-0.6431995982461215,-0.7558244637115997,,0.05678762683256823,0.6509763304407826,-0.3920814291100212,0.9322227872905057,-0.3598653654897494,-0.0381784438819846,-0.2812191069992172,-0.7867825452170704,0.5494443014540341,-0.22776410760891097,-0.5014679902672531,-0.8346576340167499,,0.0,0.0,0.045,1.0,0.0,0.0,0.0,1.0,0.0,0.0,0.0,1.0,,0.017444116233895766,-0.1925897926022419,0.2248824739289125,False,,-0.04290630364522827,0.5701936348818131,-0.2836672359049154,-0.6900831803710263,-0.5193370739088098,-0.5040577425581771,0.4992039749301796,0.16270192628029972,-0.8510719561814907,0.5240043850798568,-0.8389380709256887,0.1469772688838848
10:09:06.749459,,-0.6532736965635255,-0.24912763978960845,0.12362717730000002,-2.2913451126021576,0.5666135627422153,0.37004001228539024,,0.02712288936079315,0.5493806206659788,-0.3359463874165076,0.061327859867462774,-0.5350779770369126,-0.842573707217453,0.7652642957184497,0.5671566735611706,-0.3044730945971632,0.6407881485347728,-0.6261188913657798,0.4442585762506615,,-0.01600272601799487,0.2887844841853422,-0.09448298568033486,0.2931908540829644,0.842573707215443,0.4517838764127775,-0.9512351284457395,0.3044730945964369,0.04947590396259327,-0.09586893912080383,-0.44425857624960174,0.8907544352602224,,0.043876020619064066,0.7208133287749341,1.179233233310831,0.9913131001593917,-0.04274699911669141,-0.12438260135120853,0.047693611535251305,-0.7645043955939991,0.6428517313783787,-0.12257102786181008,-0.6431995982461215,-0.7558244637115997,,0.05678762683256823,0.6509763304407826,-0.3920814291100212,0.9322227872905057,-0.3598653654897494,-0.0381784438819846,-0.2812191069992172,-0.7867825452170704,0.5494443014540341,-0.22776410760891097,-0.5014679902672531,-0.8346576340167499,,0.0,0.0,0.045,1.0,0.0,0.0,0.0,1.0,0.0,0.0,0.0,1.0,,0.017444116233895766,-0.1925897926022419,0.2248824739289125,False,,-0.04290630364522827,0.5701936348818131,-0.2836672359049154,-0.6900831803710263,-0.5193370739088098,-0.5040577425581771,0.4992039749301796,0.16270192628029972,-0.8510719561814907,0.5240043850798568,-0.8389380709256887,0.1469772688838848
10:09:06.756535,,-0.6527485507280782,-0.25003892226876695,0.12350143717,-2.2827483748993127,0.5641990163100752,0.3767742359412164,,0.027186059233833985,0.5493434124267711,-0.3360030218585266,0.061327237697428094,-0.5350769445017376,-0.8425744082151366,0.7652642747666017,0.5671568474698886,-0.3044728233093467,0.6407882331022865,-0.626119616232156,0.44425743267496115,,-0.016002904644410294,0.2887842618850786,-0.09448287188550393,0.2931902323103786,0.8425744082121218,0.45178297256163025,-0.9512352716445782,0.30447282330825726,0.04947482025038474,-0.09586941978491056,-0.44425743267337153,0.8907549538775594,,0.043876020619064066,0.7208133287749341,1.179233233310831,0.9913131001593917,-0.04274699911669141,-0.12438260135120853,0.047693611535251305,-0.7645043955939991,0.6428517313783787,-0.12257102786181008,-0.6431995982461215,-0.7558244637115997,,0.05678762683256823,0.6509763304407826,-0.3920814291100212,0.9322227872905057,-0.3598653654897494,-0.0381784438819846,-0.2812191069992172,-0.7867825452170704,0.5494443014540341,-0.22776410760891097,-0.5014679902672531,-0.8346576340167499,,0.0,0.0,0.045,1.0,0.0,0.0,0.0,1.0,0.0,0.0,0.0,1.0,,0.017444116233895766,-0.1925897926022419,0.2248824739289125,False,,-0.042779893927372144,0.5701194827532728,-0.28378079583801785,-0.6945571365439105,-0.5129860676698489,-0.5044161758434689,0.49925157152279975,0.16115468416042006,-0.851338379321155,0.5180137569678425,-0.8431337154626074,0.14417796448237374
10:09:06.763327,,-0.6520612275022722,-0.251243668597146,0.12335884527000002,-2.2731032545497794,0.5611137625356739,0.3847438354507534,,0.027258851249431205,0.5492886965073385,-0.3360745896681256,0.06132723769742795,-0.5350769445017376,-0.8425744082151366,0.7652642747666016,0.5671568474698886,-0.30447282330934683,0.6407882331022865,-0.6261196162321558,0.4442574326749611,,-0.016002904644410294,0.2887842618850786,-0.09448287188550393,0.2931902323103785,0.8425744082121218,0.45178297256163025,-0.9512352716445782,0.30447282330825737,0.04947482025038469,-0.09586941978491059,-0.4442574326733715,0.8907549538775594,,0.043876020619064066,0.7208133287749341,1.179233233310831,0.9913131001593917,-0.04274699911669141,-0.12438260135120853,0.047693611535251305,-0.7645043955939991,0.6428517313783787,-0.12257102786181008,-0.6431995982461215,-0.7558244637115997,,0.05678762683256823,0.6509763304407826,-0.3920814291100212,0.9322227872905057,-0.3598653654897494,-0.0381784438819846,-0.2812191069992172,-0.7867825452170704,0.5494443014540341,-0.22776410760891097,-0.5014679902672531,-0.8346576340167499,,0.0,0.0,0.045,1.0,0.0,0.0,0.0,1.0,0.0,0.0,0.0,1.0,,0.017444116233895766,-0.1925897926022419,0.2248824739289125,False,,-0.04263430989617772,0.5700100509144078,-0.28392393145721584,-0.6995176617786378,-0.5054898068657123,-0.5051287915122363,0.49939380282956813,0.15981717835794024,-0.8515070752478391,0.5111564051786596,-0.8479024263773347,0.14064353802524604
10:09:06.770988,,-0.6520612275022722,-0.251243668597146,0.12335884527000002,-2.2731032545497794,0.5611137625356739,0.3847438354507534,,0.027258816263420575,0.5492885643322911,-0.3360744441435665,0.06132661552907639,-0.5350759119649633,-0.8425751092114054,0.7652642538145091,0.567157021379549,-0.304472552020047,0.6407883176693152,-0.6261203410964545,0.4442562890987454,,-0.01600308327085321,0.28878403958482535,-0.09448275809069916,0.2931896105385414,0.8425751092083904,0.4517820687096499,-0.9512354148436792,0.3044725520189575,0.04947373653849124,-0.09586990044990776,-0.4442562890971557,0.8907554724941029,,0.043876020619064066,0.7208133287749341,1.179233233310831,0.9913131001593917,-0.04274699911669141,-0.12438260135120853,0.047693611535251305,-0.7645043955939991,0.6428517313783787,-0.12257102786181008,-0.6431995982461215,-0.7558244637115997,,0.05678762683256823,0.6509763304407826,-0.3920814291100212,0.9322227872905057,-0.3598653654897494,-0.0381784438819846,-0.2812191069992172,-0.7867825452170704,0.5494443014540341,-0.22776410760891097,-0.5014679902672531,-0.8346576340167499,,0.0,0.0,0.045,1.0,0.0,0.0,0.0,1.0,0.0,0.0,0.0,1.0,,0.017444116233895766,-0.1925897926022419,0.2248824739289125,False,,-0.04263430989617772,0.5700100509144078,-0.28392393145721584,-0.6995176617786378,-0.5054898068657123,-0.5051287915122363,0.49939380282956813,0.15981717835794024,-0.8515070752478391,0.5111564051786596,-0.8479024263773347,0.14064353802524604
10:09:06.777584,,-0.6512117268861075,-0.2526646514460033,0.12319551273000001,-2.262409751553558,0.5578943672928204,0.39319470772080334,,0.02734556614583749,0.5492201579234778,-0.33615895553944314,0.06132599336240753,-0.5350748794265898,-0.8425758102062594,0.7652642328621722,0.5671571952901517,-0.30447228072926413,0.640788402235859,-0.6261210659586763,0.4442551455220141,,-0.01600326189732361,0.28878381728458247,-0.09448264429592057,0.29318898876745325,0.8425758102042494,0.4517811648568364,-0.951235558043043,0.3044722807285378,0.04947265282691285,-0.09587038111579552,-0.44425514552095435,0.8907559911098533,,0.043876020619064066,0.7208133287749341,1.179233233310831,0.9913131001593917,-0.04274699911669141,-0.12438260135120853,0.047693611535251305,-0.7645043955939991,0.6428517313783787,-0.12257102786181008,-0.6431995982461215,-0.7558244637115997,,0.05678762683256823,0.6509763304407826,-0.3920814291100212,0.9322227872905057,-0.3598653654897494,-0.0381784438819846,-0.2812191069992172,-0.7867825452170704,0.5494443014540341,-0.22776410760891097,-0.5014679902672531,-0.8346576340167499,,0.0,0.0,0.045,1.0,0.0,0.0,0.0,1.0,0.0,0.0,0.0,1.0,,0.017444116233895766,-0.1925897926022419,0.2248824739289125,False,,-0.04246074015907584,0.5698735024470952,-0.28409324529814106,-0.7050720911987686,-0.4973772768531729,-0.5054593857895191,0.49920097943612307,0.15812256879096231,-0.8519364033594075,0.5036583448555292,-0.8530024019362841,0.13680341351121061
10:09:06.785077,,-0.64999153509198,-0.2545953346645594,0.12298810633000001,-2.249200130205284,0.5546749720499669,0.40405643753261095,,0.027464722895577463,0.5491184046690429,-0.33627393572050557,0.06132661552907639,-0.5350759119649633,-0.8425751092114054,0.7652642538145091,0.567157021379549,-0.304472552020047,0.6407883176693152,-0.6261203410964545,0.4442562890987454,,-0.01600308327085321,0.28878403958482535,-0.09448275809069916,0.2931896105385414,0.8425751092083904,0.4517820687096499,-0.9512354148436792,0.3044725520189575,0.04947373653849124,-0.09586990044990776,-0.4442562890971557,0.8907554724941029,,0.043876020619064066,0.7208133287749341,1.179233233310831,0.9913131001593917,-0.04274699911669141,-0.12438260135120853,0.047693611535251305,-0.7645043955939991,0.6428517313783787,-0.12257102786181008,-0.6431995982461215,-0.7558244637115997,,0.05678762683256823,0.6509763304407826,-0.3920814291100212,0.9322227872905057,-0.3598653654897494,-0.0381784438819846,-0.2812191069992172,-0.7867825452170704,0.5494443014540341,-0.22776410760891097,-0.5014679902672531,-0.8346576340167499,,0.0,0.0,0.045,1.0,0.0,0.0,0.0,1.0,0.0,0.0,0.0,1.0,,0.017444116233895766,-0.1925897926022419,0.2248824739289125,False,,-0.04222249663186393,0.5696697315879115,-0.28432291461109394,-0.7121529593629212,-0.48729827460712494,-0.5053499322603623,0.4980086743250396,0.1566882902977122,-0.8528986692336885,0.4947984668202301,-0.8590629611667001,0.1310927381049411
10:09:06.792924,,-0.6484547112500094,-0.25681175899946185,0.12275866300000002,-2.234942126210322,0.5529311329600879,0.4169945028921501,,0.027464722895577463,0.5491184046690429,-0.33627393572050557,0.06132661552907639,-0.5350759119649633,-0.8425751092114054,0.7652642538145091,0.567157021379549,-0.304472552020047,0.6407883176693152,-0.6261203410964545,0.4442562890987454,,-0.01600308327085321,0.28878403958482535,-0.09448275809069916,0.2931896105385414,0.8425751092083904,0.4517820687096499,-0.9512354148436792,0.3044725520189575,0.04947373653849124,-0.09586990044990776,-0.4442562890971557,0.8907554724941029,,0.043876020619064066,0.7208133287749341,1.179233233310831,0.9913131001593917,-0.04274699911669141,-0.12438260135120853,0.047693611535251305,-0.7645043955939991,0.6428517313783787,-0.12257102786181008,-0.6431995982461215,-0.7558244637115997,,0.05678762683256823,0.6509763304407826,-0.3920814291100212,0.9322227872905057,-0.3598653654897494,-0.0381784438819846,-0.2812191069992172,-0.7867825452170704,0.5494443014540341,-0.22776410760891097,-0.5014679902672531,-0.8346576340167499,,0.0,0.0,0.045,1.0,0.0,0.0,0.0,1.0,0.0,0.0,0.0,1.0,,0.017444116233895766,-0.1925897926022419,0.2248824739289125,False,,-0.04222249663186393,0.5696697315879115,-0.28432291461109394,-0.7121529593629212,-0.48729827460712494,-0.5053499322603623,0.4980086743250396,0.1566882902977122,-0.8528986692336885,0.4947984668202301,-0.8590629611667001,0.1310927381049411
10:09:06.799277,,-0.6484547112500094,-0.25681175899946185,0.12275866300000002,-2.234942126210322,0.5529311329600879,0.4169945028921501,,0.027612698675848375,0.5489887948032494,-0.3364068419539341,0.06132599336240753,-0.5350748794265898,-0.8425758102062594,0.7652642328621722,0.5671571952901517,-0.30447228072926413,0.640788402235859,-0.6261210659586763,0.4442551455220141,,-0.01600326189732361,0.28878381728458247,-0.09448264429592057,0.29318898876745325,0.8425758102042494,0.4517811648568364,-0.951235558043043,0.3044722807285378,0.04947265282691285,-0.09587038111579552,-0.44425514552095435,0.8907559911098533,,0.043876020619064066,0.7208133287749341,1.179233233310831,0.9913131001593917,-0.04274699911669141,-0.12438260135120853,0.047693611535251305,-0.7645043955939991,0.6428517313783787,-0.12257102786181008,-0.6431995982461215,-0.7558244637115997,,0.05678762683256823,0.6509763304407826,-0.3920814291100212,0.9322227872905057,-0.3598653654897494,-0.0381784438819846,-0.2812191069992172,-0.7867825452170704,0.5494443014540341,-0.22776410760891097,-0.5014679902672531,-0.8346576340167499,,0.0,0.0,0.045,1.0,0.0,0.0,0.0,1.0,0.0,0.0,0.0,1.0,,0.017444116233895766,-0.1925897926022419,0.2248824739289125,False,,-0.04192647509905407,0.5694107762066384,-0.28458901812712306,-0.7202316229139454,-0.476302575291912,-0.5043830549543046,0.494924418367624,0.15668998399079592,-0.8546917976793935,0.48612367712158766,-0.8652075506416115,0.12288069357929987
10:09:06.806280,,-0.6467093736204347,-0.25920580619047145,0.12252273822000001,-2.220055092627347,0.5526628500231835,0.4308379158505669,,0.027779283666171738,0.5488392835791518,-0.33655012467739936,0.06132599336240753,-0.5350748794265898,-0.8425758102062594,0.7652642328621722,0.5671571952901517,-0.30447228072926413,0.640788402235859,-0.6261210659586763,0.4442551455220141,,-0.01600326189732361,0.2887838172845825,-0.09448264429592057,0.29318898876745325,0.8425758102042494,0.4517811648568364,-0.951235558043043,0.3044722807285378,0.04947265282691285,-0.09587038111579552,-0.44425514552095435,0.8907559911098533,,0.043876020619064066,0.7208133287749341,1.179233233310831,0.9913131001593917,-0.04274699911669141,-0.12438260135120853,0.047693611535251305,-0.7645043955939991,0.6428517313783787,-0.12257102786181008,-0.6431995982461215,-0.7558244637115997,,0.05678762683256823,0.6509763304407826,-0.3920814291100212,0.9322227872905057,-0.3598653654897494,-0.0381784438819846,-0.2812191069992172,-0.7867825452170704,0.5494443014540341,-0.22776410760891097,-0.5014679902672531,-0.8346576340167499,,0.0,0.0,0.045,1.0,0.0,0.0,0.0,1.0,0.0,0.0,0.0,1.0,,0.017444116233895766,-0.1925897926022419,0.2248824739289125,False,,-0.041593305118407344,0.5691117537584431,-0.2848755835740535,-0.7290094343556244,-0.46511665048259726,-0.5022068757637055,0.4901241621703429,0.15747041712200666,-0.8573105466447037,0.4778321360868395,-0.8711312008964383,0.1131674889154009
10:09:06.812994,,-0.6445856220800229,-0.2619319308950727,0.12227644312000001,-2.2045390294563587,0.5531994158969924,0.4453755377365177,,0.027779318652305755,0.5488394157543088,-0.33655027020198536,0.06132661552907639,-0.5350759119649633,-0.8425751092114054,0.7652642538145091,0.567157021379549,-0.304472552020047,0.6407883176693152,-0.6261203410964545,0.4442562890987454,,-0.01600308327085321,0.28878403958482535,-0.09448275809069916,0.2931896105385414,0.8425751092083904,0.4517820687096499,-0.9512354148436792,0.3044725520189575,0.04947373653849124,-0.09586990044990776,-0.4442562890971557,0.8907554724941029,,0.043876020619064066,0.7208133287749341,1.179233233310831,0.9913131001593917,-0.04274699911669141,-0.12438260135120853,0.047693611535251305,-0.7645043955939991,0.6428517313783787,-0.12257102786181008,-0.6431995982461215,-0.7558244637115997,,0.05678762683256823,0.6509763304407826,-0.3920814291100212,0.9322227872905057,-0.3598653654897494,-0.0381784438819846,-0.2812191069992172,-0.7867825452170704,0.5494443014540341,-0.22776410760891097,-0.5014679902672531,-0.8346576340167499,,0.0,0.0,0.045,1.0,0.0,0.0,0.0,1.0,0.0,0.0,0.0,1.0,,0.017444116233895766,-0.1925897926022419,0.2248824739289125,False,,-0.041593305118407344,0.5691117537584431,-0.2848755835740535,-0.7290094343556244,-0.46511665048259726,-0.5022068757637055,0.4901241621703429,0.15747041712200666,-0.8573105466447037,0.4778321360868395,-0.8711312008964383,0.1131674889154009
10:09:06.821424,,-0.6445856220800229,-0.2619319308950727,0.12227644312000001,-2.2045390294563587,0.5531994158969924,0.4453755377365177,,0.02797130787404605,0.5486568234196655,-0.3367084567836134,0.06132723769742837,-0.5350769445017375,-0.8425744082151367,0.7652642747666017,0.5671568474698888,-0.30447282330934644,0.6407882331022865,-0.6261196162321558,0.4442574326749613,,-0.016002904645719136,0.2887842618852326,-0.09448287188724074,0.2931902323086296,0.8425744082070964,0.45178297255893574,-0.9512352716389049,0.304472823306441,0.049474820250089674,-0.09586941978433858,-0.44425743267072193,0.8907549538722467,,0.043876020619064066,0.7208133287749341,1.179233233310831,0.9913131001593917,-0.04274699911669141,-0.12438260135120853,0.047693611535251305,-0.7645043955939991,0.6428517313783787,-0.12257102786181008,-0.6431995982461215,-0.7558244637115997,,0.05678762683256823,0.6509763304407826,-0.3920814291100212,0.9322227872905057,-0.3598653654897494,-0.0381784438819846,-0.2812191069992172,-0.7867825452170704,0.5494443014540341,-0.22776410760891097,-0.5014679902672531,-0.8346576340167499,,0.0,0.0,0.045,1.0,0.0,0.0,0.0,1.0,0.0,0.0,0.0,1.0,,0.017444116233895766,-0.1925897926022419,0.2248824739289125,False,,-0.04120939664563918,0.5687463047389077,-0.2851916656864545,-0.7383152749695132,-0.45375677360230354,-0.4989943337921988,0.48397507675178236,0.15885143703613824,-0.8605430529814649,0.46974320626252686,-0.8768529017808985,0.10232452691617727
10:09:06.827598,,-0.6421143475602711,-0.26492062851739756,0.12201459254000001,-2.188393936697357,0.5542725476446102,0.4606744526983756,,0.028188517120572736,0.5484488889166722,-0.33687934861317337,0.061328482039180864,-0.5350790095704886,-0.8425730062183543,0.7652643166700531,0.567156499653395,-0.3044733658834962,0.6407880639667742,-0.6261181664973263,0.4442597198258466,,-0.016002547394224624,0.2887847064859244,-0.09448309947866562,0.29319147585280186,0.8425730062083041,0.45178478025770297,-0.9512349852358171,0.30447336587986445,0.04947698767452685,-0.09586845845644398,-0.44425971982054746,0.8907539166314666,,0.043876020619064066,0.7208133287749341,1.179233233310831,0.9913131001593917,-0.04274699911669141,-0.12438260135120853,0.047693611535251305,-0.7645043955939991,0.6428517313783787,-0.12257102786181008,-0.6431995982461215,-0.7558244637115997,,0.05678762683256823,0.6509763304407826,-0.3920814291100212,0.9322227872905057,-0.3598653654897494,-0.0381784438819846,-0.2812191069992172,-0.7867825452170704,0.5494443014540341,-0.22776410760891097,-0.5014679902672531,-0.8346576340167499,,0.0,0.0,0.045,1.0,0.0,0.0,0.0,1.0,0.0,0.0,0.0,1.0,,0.017444116233895766,-0.1925897926022419,0.2248824739289125,False,,-0.04077511809457906,0.5683299070332362,-0.2855328672457624,-0.7480214891277273,-0.44214822921927277,-0.49494322422011106,0.47674548172597986,0.16083942454748063,-0.8642016114108438,0.46171159554098395,-0.8824033221319473,0.09048082467297797
10:09:06.835085,,-0.6391951545338143,-0.26825684911906256,0.12172292729000002,-2.1705714317036544,0.5557481037975848,0.4762515904799501,,0.02844141278447373,0.5482113602016535,-0.33706768812922056,0.061329726387665665,-0.5350810746328428,-0.8425716042159125,0.7652643585725262,0.5671561518406708,-0.30447390845171274,0.6407878948293219,-0.626116716754188,0.4442620069746702,,-0.01600219014284008,0.2887851510866578,-0.09448332707019524,0.2931927193999697,0.8425716042078722,0.451786587953138,-0.9512346988337791,0.3044739084488073,0.049479155100224465,-0.09586749713211129,-0.44426200697043083,0.8907528793875126,,0.043876020619064066,0.7208133287749341,1.179233233310831,0.9913131001593917,-0.04274699911669141,-0.12438260135120853,0.047693611535251305,-0.7645043955939991,0.6428517313783787,-0.12257102786181008,-0.6431995982461215,-0.7558244637115997,,0.05678762683256823,0.6509763304407826,-0.3920814291100212,0.9322227872905057,-0.3598653654897494,-0.0381784438819846,-0.2812191069992172,-0.7867825452170704,0.5494443014540341,-0.22776410760891097,-0.5014679902672531,-0.8346576340167499,,0.0,0.0,0.045,1.0,0.0,0.0,0.0,1.0,0.0,0.0,0.0,1.0,,0.017444116233895766,-0.1925897926022419,0.2248824739289125,False,,-0.040269466707783134,0.5678543209043918,-0.2859089641782595,-0.7586247431489175,-0.4302286792138601,-0.48927679555047043,0.468201121999257,0.16223338317366698,-0.8686011966044391,0.45307417542922956,-0.8880223043178161,0.07835929168388472
10:09:06.841527,,-0.6391951545338143,-0.26825684911906256,0.12172292729000002,-2.1705714317036544,0.5557481037975848,0.4762515904799501,,0.028441482754483154,0.5482116245506179,-0.3370679791789118,0.06133097074288297,-0.5350831396888002,-0.8425702022078111,0.7652644004740211,0.5671558040317166,-0.3044744510139958,0.6407877256899297,-0.6261152670027407,0.44426429412143204,,-0.016001832891565496,0.2887855956874328,-0.09448355466182959,0.2931939629501326,0.8425702022058009,0.45178839564524076,-0.9512344124327913,0.30447445101326936,0.04948132252718224,-0.09586653581134078,-0.4442642941203721,0.8907518421403848,,0.043876020619064066,0.7208133287749341,1.179233233310831,0.9913131001593917,-0.04274699911669141,-0.12438260135120853,0.047693611535251305,-0.7645043955939991,0.6428517313783787,-0.12257102786181008,-0.6431995982461215,-0.7558244637115997,,0.05678762683256823,0.6509763304407826,-0.3920814291100212,0.9322227872905057,-0.3598653654897494,-0.0381784438819846,-0.2812191069992172,-0.7867825452170704,0.5494443014540341,-0.22776410760891097,-0.5014679902672531,-0.8346576340167499,,0.0,0.0,0.045,1.0,0.0,0.0,0.0,1.0,0.0,0.0,0.0,1.0,,0.017444116233895766,-0.1925897926022419,0.2248824739289125,False,,-0.040269466707783134,0.5678543209043918,-0.2859089641782595,-0.7586247431489175,-0.4302286792138601,-0.48927679555047043,0.468201121999257,0.16223338317366698,-0.8686011966044391,0.45307417542922956,-0.8880223043178161,0.07835929168388472
10:09:06.847642,,-0.6358280430006523,-0.2718788108370739,0.12140533624000001,-2.152539250180614,0.557089518482107,0.49100124978508347,,0.028725124158908592,0.5479480598057438,-0.3372708542741139,0.06133159292301589,-0.5350841722143802,-0.842569501201638,0.7652644214244018,0.567155630128653,-0.3044747222929127,0.6407876411195063,-0.626114542123901,0.44426543769403964,,-0.01600165426662386,0.2887858179879129,-0.09448366845855444,0.2931945847254634,0.8425695012016382,0.4517892994886954,-0.9512342692298549,0.3044747222929128,0.049482406240986265,-0.09586605515200544,-0.44426543769403976,0.8907513235129749,,0.043876020619064066,0.7208133287749341,1.179233233310831,0.9913131001593917,-0.04274699911669141,-0.12438260135120853,0.047693611535251305,-0.7645043955939991,0.6428517313783787,-0.12257102786181008,-0.6431995982461215,-0.7558244637115997,,0.05678762683256823,0.6509763304407826,-0.3920814291100212,0.9322227872905057,-0.3598653654897494,-0.0381784438819846,-0.2812191069992172,-0.7867825452170704,0.5494443014540341,-0.22776410760891097,-0.5014679902672531,-0.8346576340167499,,0.0,0.0,0.045,1.0,0.0,0.0,0.0,1.0,0.0,0.0,0.0,1.0,,0.017444116233895766,-0.1925897926022419,0.2248824739289125,False,,-0.039702253867917085,0.5673269270659315,-0.2863144233181848,-0.7691720750561444,-0.41884488354692884,-0.48264198168040134,0.45911310355291435,0.16315853001489333,-0.8732665413431289,0.4445103790687414,-0.8932794957962145,0.06680018929782372
10:09:06.854040,,-0.6320130129607854,-0.27569384087694077,0.12105533794000001,-2.1357651278336,0.558296791698177,0.5046479040375745,,0.02904042666053771,0.5476647025296111,-0.337488462777223,0.06133159292301589,-0.5350841722143802,-0.842569501201638,0.7652644214244018,0.567155630128653,-0.3044747222929127,0.6407876411195063,-0.626114542123901,0.44426543769403964,,-0.01600165426662386,0.2887858179879129,-0.09448366845855444,0.2931945847254634,0.8425695012016382,0.4517892994886954,-0.9512342692298549,0.3044747222929128,0.049482406240986265,-0.09586605515200544,-0.44426543769403976,0.8907513235129749,,0.043876020619064066,0.7208133287749341,1.179233233310831,0.9913131001593917,-0.04274699911669141,-0.12438260135120853,0.047693611535251305,-0.7645043955939991,0.6428517313783787,-0.12257102786181008,-0.6431995982461215,-0.7558244637115997,,0.05678762683256823,0.6509763304407826,-0.3920814291100212,0.9322227872905057,-0.3598653654897494,-0.0381784438819846,-0.2812191069992172,-0.7867825452170704,0.5494443014540341,-0.22776410760891097,-0.5014679902672531,-0.8346576340167499,,0.0,0.0,0.045,1.0,0.0,0.0,0.0,1.0,0.0,0.0,0.0,1.0,,0.017444116233895766,-0.1925897926022419,0.2248824739289125,False,,-0.03907164886465885,0.5667602125136658,-0.286749640324403,-0.7788863909721708,-0.40863579857824084,-0.4757654612082199,0.4498832158438443,0.1645033571619542,-0.8778062073057171,0.43696805610976625,-0.8977502044571029,0.05570896101061584
10:09:06.860520,,-0.6320130129607854,-0.27569384087694077,0.12105533794000001,-2.1357651278336,0.558296791698177,0.5046479040375745,,0.029040391676045295,0.547664570355255,-0.3374883172519835,0.06133097074288283,-0.5350831396888002,-0.842570202207811,0.7652644004740211,0.5671558040317165,-0.3044744510139959,0.6407877256899298,-0.6261152670027406,0.444264294121432,,-0.016001832891565496,0.2887855956874328,-0.09448355466182959,0.29319396295013284,0.842570202205801,0.45178839564524076,-0.9512344124327914,0.3044744510132696,0.04948132252718229,-0.09586653581134078,-0.44426429412037216,0.890751842140385,,0.043876020619064066,0.7208133287749341,1.179233233310831,0.9913131001593917,-0.04274699911669141,-0.12438260135120853,0.047693611535251305,-0.7645043955939991,0.6428517313783787,-0.12257102786181008,-0.6431995982461215,-0.7558244637115997,,0.05678762683256823,0.6509763304407826,-0.3920814291100212,0.9322227872905057,-0.3598653654897494,-0.0381784438819846,-0.2812191069992172,-0.7867825452170704,0.5494443014540341,-0.22776410760891097,-0.5014679902672531,-0.8346576340167499,,0.0,0.0,0.045,1.0,0.0,0.0,0.0,1.0,0.0,0.0,0.0,1.0,,0.017444116233895766,-0.1925897926022419,0.2248824739289125,False,,-0.03907164886465885,0.5667602125136658,-0.286749640324403,-0.7788863909721708,-0.40863579857824084,-0.4757654612082199,0.4498832158438443,0.1645033571619542,-0.8778062073057171,0.43696805610976625,-0.8977502044571029,0.05570896101061584
10:09:06.866957,,-0.6271322457842755,-0.28025025327273323,0.12065996949000002,-2.1175232697812216,0.5592357819773427,0.5180861158622377,,0.02940132170206359,0.5473326033034053,-0.33772349556769526,0.0613303485644325,-0.5350821071616212,-0.8425709032125691,0.765264379523396,0.5671559779357224,-0.30447417973359614,0.6407878102598683,-0.626115991879503,0.4442631505483087,,-0.016002011516534617,0.2887853733869631,-0.09448344086513091,0.2931933411755513,0.8425709032095542,0.4517874918009531,-0.9512345556359906,0.3044741797325067,0.049480238813693345,-0.09586701647156678,-0.44426315054671905,0.8907523607670019,,0.043876020619064066,0.7208133287749341,1.179233233310831,0.9913131001593917,-0.04274699911669141,-0.12438260135120853,0.047693611535251305,-0.7645043955939991,0.6428517313783787,-0.12257102786181008,-0.6431995982461215,-0.7558244637115997,,0.05678762683256823,0.6509763304407826,-0.3920814291100212,0.9322227872905057,-0.3598653654897494,-0.0381784438819846,-0.2812191069992172,-0.7867825452170704,0.5494443014540341,-0.22776410760891097,-0.5014679902672531,-0.8346576340167499,,0.0,0.0,0.045,1.0,0.0,0.0,0.0,1.0,0.0,0.0,0.0,1.0,,0.017444116233895766,-0.1925897926022419,0.2248824739289125,False,,-0.03834971884339065,0.5660965427588982,-0.28722028800635924,-0.7886570388957914,-0.39905399121523144,-0.4677349538951694,0.43992337841041074,0.16520366567954492,-0.8827089950680302,0.4295200765134184,-0.901922203375233,0.04526414619400282
10:09:06.873846,,-0.6223132604707594,-0.2844668654220598,0.12029960087000001,-2.1011685004928826,0.5595040649142471,0.5285579232535484,,0.029794437491522517,0.5469749739883236,-0.3379619672577071,0.06132972638766573,-0.5350810746328427,-0.8425716042159125,0.7652643585725262,0.5671561518406709,-0.3044739084517125,0.6407878948293219,-0.6261167167541881,0.4442620069746701,,-0.016002190141531234,0.2887851510865037,-0.09448332706845841,0.29319271940171815,0.8425716042128975,0.4517865879558324,-0.9512346988394522,0.304473908450623,0.049479155100519395,-0.09586749713268314,-0.4442620069730804,0.8907528793928252,,0.043876020619064066,0.7208133287749341,1.179233233310831,0.9913131001593917,-0.04274699911669141,-0.12438260135120853,0.047693611535251305,-0.7645043955939991,0.6428517313783787,-0.12257102786181008,-0.6431995982461215,-0.7558244637115997,,0.05678762683256823,0.6509763304407826,-0.3920814291100212,0.9322227872905057,-0.3598653654897494,-0.0381784438819846,-0.2812191069992172,-0.7867825452170704,0.5494443014540341,-0.22776410760891097,-0.5014679902672531,-0.8346576340167499,,0.0,0.0,0.045,1.0,0.0,0.0,0.0,1.0,0.0,0.0,0.0,1.0,,0.017444116233895766,-0.1925897926022419,0.2248824739289125,False,,-0.037563417294994385,0.5653815484778861,-0.28769752243696944,-0.798210979049208,-0.3901633086675077,-0.45894642987491296,0.42988851384499016,0.1647425727622811,-0.8877250421069638,0.4219657552331125,-0.9058876736600892,0.03622739462425317
10:09:06.879985,,-0.6223132604707594,-0.2844668654220598,0.12029960087000001,-2.1011685004928826,0.5595040649142471,0.5285579232535484,,0.0297944025066599,0.5469748418136382,-0.33796182173238704,0.06132910421258153,-0.5350800421024653,-0.8425723052178408,0.7652643376214119,0.5671563257465617,-0.30447363716834625,0.6407879793982906,-0.6261174416267957,0.444260863400516,,-0.016002368766555343,0.2887849287860547,-0.09448321327181214,0.29319209762863435,0.8425723052158308,0.4517856841098786,-0.9512348420431765,0.30447363716761994,0.04947807138766064,-0.09586797779469014,-0.4442608633994562,0.890753398017855,,0.043876020619064066,0.7208133287749341,1.179233233310831,0.9913131001593917,-0.04274699911669141,-0.12438260135120853,0.047693611535251305,-0.7645043955939991,0.6428517313783787,-0.12257102786181008,-0.6431995982461215,-0.7558244637115997,,0.05678762683256823,0.6509763304407826,-0.3920814291100212,0.9322227872905057,-0.3598653654897494,-0.0381784438819846,-0.2812191069992172,-0.7867825452170704,0.5494443014540341,-0.22776410760891097,-0.5014679902672531,-0.8346576340167499,,0.0,0.0,0.045,1.0,0.0,0.0,0.0,1.0,0.0,0.0,0.0,1.0,,0.017444116233895766,-0.1925897926022419,0.2248824739289125,False,,-0.037563417294994385,0.5653815484778861,-0.28769752243696944,-0.798210979049208,-0.3901633086675077,-0.45894642987491296,0.42988851384499016,0.1647425727622811,-0.8877250421069638,0.4219657552331125,-0.9058876736600892,0.03622739462425317
10:09:06.886876,,-0.6170772475820352,-0.2888147640302482,0.11990812129000002,-2.0841847016165307,0.5596382063826993,0.5378578439481667,,0.03019702509131348,0.5466269144114764,-0.33819507300687307,0.0613284820391807,-0.5350790095704884,-0.8425730062183545,0.7652643166700531,0.5671564996533949,-0.3044733658834963,0.6407880639667741,-0.6261181664973265,0.4442597198258465,,-0.016002547391606944,0.2887847064856162,-0.094483099475192,0.2931914758562992,0.8425730062183545,0.4517847802630918,-0.9512349852471633,0.3044733658834963,0.04947698767511688,-0.09586845845758768,-0.4442597198258465,0.8907539166420917,,0.043876020619064066,0.7208133287749341,1.179233233310831,0.9913131001593917,-0.04274699911669141,-0.12438260135120853,0.047693611535251305,-0.7645043955939991,0.6428517313783787,-0.12257102786181008,-0.6431995982461215,-0.7558244637115997,,0.05678762683256823,0.6509763304407826,-0.3920814291100212,0.9322227872905057,-0.3598653654897494,-0.0381784438819846,-0.2812191069992172,-0.7867825452170704,0.5494443014540341,-0.22776410760891097,-0.5014679902672531,-0.8346576340167499,,0.0,0.0,0.045,1.0,0.0,0.0,0.0,1.0,0.0,0.0,0.0,1.0,,0.017444116233895766,-0.1925897926022419,0.2248824739289125,False,,-0.03675810215571527,0.5646859580231528,-0.2881643160366354,-0.8072906298243232,-0.38235809832569895,-0.44953767766740405,0.4199310281497001,0.1630339165170615,-0.8927921783160087,0.41465620771306855,-0.9095175791098615,0.02894827620349022
10:09:06.893865,,-0.6113855934537318,-0.29324761270005306,0.11948941962000001,-2.0665718731521654,0.5592357819773427,0.5469475247192799,,0.030632854100729696,0.5462687061688718,-0.3384322750568931,0.061327859867462774,-0.5350779770369126,-0.842573707217453,0.7652642957184497,0.5671566735611706,-0.3044730945971632,0.6407881485347728,-0.6261188913657798,0.4442585762506615,,-0.01600272601799487,0.2887844841853422,-0.09448298568033486,0.2931908540829644,0.842573707215443,0.4517838764127775,-0.9512351284457395,0.3044730945964369,0.04947590396259327,-0.09586893912080383,-0.44425857624960174,0.8907544352602224,,0.043876020619064066,0.7208133287749341,1.179233233310831,0.9913131001593917,-0.04274699911669141,-0.12438260135120853,0.047693611535251305,-0.7645043955939991,0.6428517313783787,-0.12257102786181008,-0.6431995982461215,-0.7558244637115997,,0.05678762683256823,0.6509763304407826,-0.3920814291100212,0.9322227872905057,-0.3598653654897494,-0.0381784438819846,-0.2812191069992172,-0.7867825452170704,0.5494443014540341,-0.22776410760891097,-0.5014679902672531,-0.8346576340167499,,0.0,0.0,0.045,1.0,0.0,0.0,0.0,1.0,0.0,0.0,0.0,1.0,,0.017444116233895766,-0.1925897926022419,0.2248824739289125,False,,-0.035886374165355193,0.5639698058875992,-0.2886390111856863,-0.8163622811292488,-0.37447152730854266,-0.4396859119697344,0.4097971658146126,0.1608714735959344,-0.8978789739566151,0.40696303129370426,-0.913176567931022,0.022127967415909333
10:09:06.900554,,-0.6113855934537318,-0.29324761270005306,0.11948941962000001,-2.0665718731521654,0.5592357819773427,0.5469475247192799,,0.030632854100729696,0.5462687061688718,-0.3384322750568931,0.061327859867462774,-0.5350779770369126,-0.842573707217453,0.7652642957184497,0.5671566735611706,-0.3044730945971632,0.6407881485347728,-0.6261188913657798,0.4442585762506615,,-0.01600272601799487,0.2887844841853422,-0.09448298568033486,0.2931908540829644,0.842573707215443,0.4517838764127775,-0.9512351284457395,0.3044730945964369,0.04947590396259327,-0.09586893912080383,-0.44425857624960174,0.8907544352602224,,0.043876020619064066,0.7208133287749341,1.179233233310831,0.9913131001593917,-0.04274699911669141,-0.12438260135120853,0.047693611535251305,-0.7645043955939991,0.6428517313783787,-0.12257102786181008,-0.6431995982461215,-0.7558244637115997,,0.05678762683256823,0.6509763304407826,-0.3920814291100212,0.9322227872905057,-0.3598653654897494,-0.0381784438819846,-0.2812191069992172,-0.7867825452170704,0.5494443014540341,-0.22776410760891097,-0.5014679902672531,-0.8346576340167499,,0.0,0.0,0.045,1.0,0.0,0.0,0.0,1.0,0.0,0.0,0.0,1.0,,0.017444116233895766,-0.1925897926022419,0.2248824739289125,False,,-0.035886374165355193,0.5639698058875992,-0.2886390111856863,-0.8163622811292488,-0.37447152730854266,-0.4396859119697344,0.4097971658146126,0.1608714735959344,-0.8978789739566151,0.40696303129370426,-0.913176567931022,0.022127967415909333
10:09:06.907108,,-0.6053464163460882,-0.29771135230135487,0.11904997731000001,-2.0493783977464757,0.5584309331666293,0.5563789174671282,,0.03109279285848087,0.5459055134025975,-0.33867370632116034,0.061327859867462774,-0.5350779770369126,-0.842573707217453,0.7652642957184497,0.5671566735611706,-0.3044730945971632,0.6407881485347728,-0.6261188913657798,0.4442585762506615,,-0.01600272601799487,0.2887844841853422,-0.09448298568033486,0.2931908540829644,0.842573707215443,0.4517838764127775,-0.9512351284457395,0.3044730945964369,0.04947590396259327,-0.09586893912080383,-0.44425857624960174,0.8907544352602224,,0.043876020619064066,0.7208133287749341,1.179233233310831,0.9913131001593917,-0.04274699911669141,-0.12438260135120853,0.047693611535251305,-0.7645043955939991,0.6428517313783787,-0.12257102786181008,-0.6431995982461215,-0.7558244637115997,,0.05678762683256823,0.6509763304407826,-0.3920814291100212,0.9322227872905057,-0.3598653654897494,-0.0381784438819846,-0.2812191069992172,-0.7867825452170704,0.5494443014540341,-0.22776410760891097,-0.5014679902672531,-0.8346576340167499,,0.0,0.0,0.045,1.0,0.0,0.0,0.0,1.0,0.0,0.0,0.0,1.0,,0.017444116233895766,-0.1925897926022419,0.2248824739289125,False,,-0.034966496649852845,0.5632434203550506,-0.2891218737142208,-0.8249585702006166,-0.3666139414177093,-0.4301599416620833,0.3997515970341493,0.15955875433375982,-0.9026293062958384,0.3995522720761348,-0.9165889056025234,0.014925146738543393
10:09:06.913968,,-0.5985890250811418,-0.3024608330190029,0.11856646114000001,-2.031555892752773,0.557626084355916,0.5672568247400309,,0.03160599836640809,0.545515014275213,-0.33893349619530666,0.061327859867462774,-0.5350779770369126,-0.842573707217453,0.7652642957184497,0.5671566735611706,-0.3044730945971632,0.6407881485347728,-0.6261188913657798,0.4442585762506615,,-0.01600272601799487,0.2887844841853422,-0.09448298568033486,0.2931908540829644,0.842573707215443,0.4517838764127775,-0.9512351284457395,0.3044730945964369,0.04947590396259327,-0.09586893912080383,-0.44425857624960174,0.8907544352602224,,0.043876020619064066,0.7208133287749341,1.179233233310831,0.9913131001593917,-0.04274699911669141,-0.12438260135120853,0.047693611535251305,-0.7645043955939991,0.6428517313783787,-0.12257102786181008,-0.6431995982461215,-0.7558244637115997,,0.05678762683256823,0.6509763304407826,-0.3920814291100212,0.9322227872905057,-0.3598653654897494,-0.0381784438819846,-0.2812191069992172,-0.7867825452170704,0.5494443014540341,-0.22776410760891097,-0.5014679902672531,-0.8346576340167499,,0.0,0.0,0.045,1.0,0.0,0.0,0.0,1.0,0.0,0.0,0.0,1.0,,0.017444116233895766,-0.1925897926022419,0.2248824739289125,False,,-0.0339400856339984,0.5624624221002815,-0.2896414534625135,-0.8336724595903304,-0.35830514685327686,-0.4202471318867756,0.38880836530630314,0.15960821635993316,-0.9073881596859424,0.392196742960022,-0.9198601192620827,0.006251064125246397
10:09:06.921621,,-0.5985890250811418,-0.3024608330190029,0.11856646114000001,-2.031555892752773,0.557626084355916,0.5672568247400309,,0.03160599836640809,0.545515014275213,-0.33893349619530666,0.061327859867462774,-0.5350779770369126,-0.842573707217453,0.7652642957184497,0.5671566735611706,-0.3044730945971632,0.6407881485347728,-0.6261188913657798,0.4442585762506615,,-0.01600272601799487,0.2887844841853422,-0.09448298568033486,0.2931908540829644,0.842573707215443,0.4517838764127775,-0.9512351284457395,0.3044730945964369,0.04947590396259327,-0.09586893912080383,-0.44425857624960174,0.8907544352602224,,0.043876020619064066,0.7208133287749341,1.179233233310831,0.9913131001593917,-0.04274699911669141,-0.12438260135120853,0.047693611535251305,-0.7645043955939991,0.6428517313783787,-0.12257102786181008,-0.6431995982461215,-0.7558244637115997,,0.05678762683256823,0.6509763304407826,-0.3920814291100212,0.9322227872905057,-0.3598653654897494,-0.0381784438819846,-0.2812191069992172,-0.7867825452170704,0.5494443014540341,-0.22776410760891097,-0.5014679902672531,-0.8346576340167499,,0.0,0.0,0.045,1.0,0.0,0.0,0.0,1.0,0.0,0.0,0.0,1.0,,0.017444116233895766,-0.1925897926022419,0.2248824739289125,False,,-0.0339400856339984,0.5624624221002815,-0.2896414534625135,-0.8336724595903304,-0.35830514685327686,-0.4202471318867756,0.38880836530630314,0.15960821635993316,-0.9073881596859424,0.392196742960022,-0.9198601192620827,0.006251064125246397
10:09:06.928008,,-0.5918779702134407,-0.3069245726203047,0.11809461158000001,-2.014572093876421,0.5573578014190115,0.5784138535804892,,0.03211733851667683,0.5451432050346615,-0.33918020389247416,0.0613284820391807,-0.5350790095704884,-0.8425730062183545,0.7652643166700531,0.5671564996533949,-0.3044733658834963,0.6407880639667741,-0.6261181664973265,0.4442597198258465,,-0.016002547391606944,0.2887847064856162,-0.094483099475192,0.2931914758562992,0.8425730062183545,0.4517847802630918,-0.9512349852471633,0.3044733658834963,0.04947698767511688,-0.09586845845758768,-0.4442597198258465,0.8907539166420917,,0.043876020619064066,0.7208133287749341,1.179233233310831,0.9913131001593917,-0.04274699911669141,-0.12438260135120853,0.047693611535251305,-0.7645043955939991,0.6428517313783787,-0.12257102786181008,-0.6431995982461215,-0.7558244637115997,,0.05678762683256823,0.6509763304407826,-0.3920814291100212,0.9322227872905057,-0.3598653654897494,-0.0381784438819846,-0.2812191069992172,-0.7867825452170704,0.5494443014540341,-0.22776410760891097,-0.5014679902672531,-0.8346576340167499,,0.0,0.0,0.045,1.0,0.0,0.0,0.0,1.0,0.0,0.0,0.0,1.0,,0.017444116233895766,-0.1925897926022419,0.2248824739289125,False,,-0.032917475304988585,0.561718539269523,-0.2901345778078376,-0.8418208108025766,-0.3505132487508882,-0.41046094205148304,0.3776901032141883,0.16073874171660624,-0.9118734796261039,0.3856007111426906,-0.922661107537031,-0.002927832780595996
10:09:06.935359,,-0.5851437471471169,-0.3111875211668766,0.11761109541,-1.998217324588082,0.5573578014190115,0.589297153340424,,0.032635599410086764,0.544788955446397,-0.33942344004761366,0.0613284820391807,-0.5350790095704884,-0.8425730062183545,0.7652643166700531,0.5671564996533949,-0.3044733658834963,0.6407880639667741,-0.6261181664973265,0.4442597198258465,,-0.016002547391606944,0.2887847064856162,-0.094483099475192,0.2931914758562992,0.8425730062183545,0.4517847802630918,-0.9512349852471633,0.3044733658834963,0.04947698767511688,-0.09586845845758768,-0.4442597198258465,0.8907539166420917,,0.043876020619064066,0.7208133287749341,1.179233233310831,0.9913131001593917,-0.04274699911669141,-0.12438260135120853,0.047693611535251305,-0.7645043955939991,0.6428517313783787,-0.12257102786181008,-0.6431995982461215,-0.7558244637115997,,0.05678762683256823,0.6509763304407826,-0.3920814291100212,0.9322227872905057,-0.3598653654897494,-0.0381784438819846,-0.2812191069992172,-0.7867825452170704,0.5494443014540341,-0.22776410760891097,-0.5014679902672531,-0.8346576340167499,,0.0,0.0,0.045,1.0,0.0,0.0,0.0,1.0,0.0,0.0,0.0,1.0,,0.017444116233895766,-0.1925897926022419,0.2248824739289125,False,,-0.0318809535181687,0.561010040092994,-0.2906210501181166,-0.8494840514838247,-0.34332100986268943,-0.4006339107732767,0.36649745682419355,0.16227019756794608,-0.9161593732111559,0.3795477050596211,-0.9250940855762309,-0.012019667876109918
10:09:06.941825,,-0.5851437471471169,-0.3111875211668766,0.11761109541,-1.998217324588082,0.5573578014190115,0.589297153340424,,0.03263556442432294,0.5447888232715692,-0.33942329452310827,0.061327859867462774,-0.5350779770369126,-0.842573707217453,0.7652642957184497,0.5671566735611706,-0.3044730945971632,0.6407881485347728,-0.6261188913657798,0.4442585762506615,,-0.01600272601799487,0.2887844841853422,-0.09448298568033486,0.2931908540829644,0.842573707215443,0.4517838764127775,-0.9512351284457395,0.3044730945964369,0.04947590396259327,-0.09586893912080383,-0.44425857624960174,0.8907544352602224,,0.043876020619064066,0.7208133287749341,1.179233233310831,0.9913131001593917,-0.04274699911669141,-0.12438260135120853,0.047693611535251305,-0.7645043955939991,0.6428517313783787,-0.12257102786181008,-0.6431995982461215,-0.7558244637115997,,0.05678762683256823,0.6509763304407826,-0.3920814291100212,0.9322227872905057,-0.3598653654897494,-0.0381784438819846,-0.2812191069992172,-0.7867825452170704,0.5494443014540341,-0.22776410760891097,-0.5014679902672531,-0.8346576340167499,,0.0,0.0,0.045,1.0,0.0,0.0,0.0,1.0,0.0,0.0,0.0,1.0,,0.017444116233895766,-0.1925897926022419,0.2248824739289125,False,,-0.0318809535181687,0.561010040092994,-0.2906210501181166,-0.8494840514838247,-0.34332100986268943,-0.4006339107732767,0.36649745682419355,0.16227019756794608,-0.9161593732111559,0.3795477050596211,-0.9250940855762309,-0.012019667876109918
10:09:06.948104,,-0.5785717014711518,-0.31516472859710226,0.11711850521000002,-1.982701261417094,0.5572236599505592,0.6002484359965703,,0.033147463786600724,0.5444637064077612,-0.339660104185187,0.061327237697428094,-0.5350769445017376,-0.8425744082151366,0.7652642747666017,0.5671568474698886,-0.3044728233093467,0.6407882331022865,-0.626119616232156,0.44425743267496115,,-0.016002904644410294,0.2887842618850786,-0.09448287188550393,0.2931902323103786,0.8425744082121218,0.45178297256163025,-0.9512352716445782,0.30447282330825726,0.04947482025038474,-0.09586941978491056,-0.44425743267337153,0.8907549538775594,,0.043876020619064066,0.7208133287749341,1.179233233310831,0.9913131001593917,-0.04274699911669141,-0.12438260135120853,0.047693611535251305,-0.7645043955939991,0.6428517313783787,-0.12257102786181008,-0.6431995982461215,-0.7558244637115997,,0.05678762683256823,0.6509763304407826,-0.3920814291100212,0.9322227872905057,-0.3598653654897494,-0.0381784438819846,-0.2812191069992172,-0.7867825452170704,0.5494443014540341,-0.22776410760891097,-0.5014679902672531,-0.8346576340167499,,0.0,0.0,0.045,1.0,0.0,0.0,0.0,1.0,0.0,0.0,0.0,1.0,,0.017444116233895766,-0.1925897926022419,0.2248824739289125,False,,-0.03085708482183868,0.5603600707152532,-0.2910949604913386,-0.8565268710524653,-0.3363897966860201,-0.3914123450411501,0.3558083919940065,0.1644779831172304,-0.9199714024122316,0.373847706093957,-0.9272480238615917,-0.021189499594377936
10:09:06.954345,,-0.5715517372884817,-0.3192191633560701,0.1165753597,-1.9652981094820665,0.5572236599505592,0.6116139072648564,,0.03370221871744356,0.5441380460654257,-0.3399087741709753,0.06132661552907639,-0.5350759119649633,-0.8425751092114054,0.7652642538145091,0.567157021379549,-0.304472552020047,0.6407883176693152,-0.6261203410964545,0.4442562890987454,,-0.01600308327085321,0.28878403958482535,-0.09448275809069916,0.2931896105385414,0.8425751092083904,0.4517820687096499,-0.9512354148436792,0.3044725520189575,0.04947373653849124,-0.09586990044990776,-0.4442562890971557,0.8907554724941029,,0.043876020619064066,0.7208133287749341,1.179233233310831,0.9913131001593917,-0.04274699911669141,-0.12438260135120853,0.047693611535251305,-0.7645043955939991,0.6428517313783787,-0.12257102786181008,-0.6431995982461215,-0.7558244637115997,,0.05678762683256823,0.6509763304407826,-0.3920814291100212,0.9322227872905057,-0.3598653654897494,-0.0381784438819846,-0.2812191069992172,-0.7867825452170704,0.5494443014540341,-0.22776410760891097,-0.5014679902672531,-0.8346576340167499,,0.0,0.0,0.045,1.0,0.0,0.0,0.0,1.0,0.0,0.0,0.0,1.0,,0.017444116233895766,-0.1925897926022419,0.2248824739289125,False,,-0.029747504988131744,0.5597090143806769,-0.2915925915120335,-0.8641752790527769,-0.3289817167695119,-0.3807520414987162,0.34396976599109735,0.16606652080451556,-0.9241789387082532,0.36726814067937497,-0.9296197828678497,-0.030350817825007537
10:09:06.960672,,-0.5715517372884817,-0.3192191633560701,0.1165753597,-1.9652981094820665,0.5572236599505592,0.6116139072648564,,0.03370221871744356,0.5441380460654257,-0.3399087741709753,0.06132661552907639,-0.5350759119649633,-0.8425751092114054,0.7652642538145091,0.567157021379549,-0.304472552020047,0.6407883176693152,-0.6261203410964545,0.4442562890987454,,-0.01600308327085321,0.28878403958482535,-0.09448275809069916,0.2931896105385414,0.8425751092083904,0.4517820687096499,-0.9512354148436792,0.3044725520189575,0.04947373653849124,-0.09586990044990776,-0.4442562890971557,0.8907554724941029,,0.043876020619064066,0.7208133287749341,1.179233233310831,0.9913131001593917,-0.04274699911669141,-0.12438260135120853,0.047693611535251305,-0.7645043955939991,0.6428517313783787,-0.12257102786181008,-0.6431995982461215,-0.7558244637115997,,0.05678762683256823,0.6509763304407826,-0.3920814291100212,0.9322227872905057,-0.3598653654897494,-0.0381784438819846,-0.2812191069992172,-0.7867825452170704,0.5494443014540341,-0.22776410760891097,-0.5014679902672531,-0.8346576340167499,,0.0,0.0,0.045,1.0,0.0,0.0,0.0,1.0,0.0,0.0,0.0,1.0,,0.017444116233895766,-0.1925897926022419,0.2248824739289125,False,,-0.029747504988131744,0.5597090143806769,-0.2915925915120335,-0.8641752790527769,-0.3289817167695119,-0.3807520414987162,0.34396976599109735,0.16606652080451556,-0.9241789387082532,0.36726814067937497,-0.9296197828678497,-0.030350817825007537
10:09:06.967749,,-0.5641070227977293,-0.32338171637527713,0.11597517743,-1.9478949575470392,0.5573578014190115,0.6233935671452827,,0.0342966117182173,0.5438121569127236,-0.3401784509737403,0.06132661552907639,-0.5350759119649633,-0.8425751092114054,0.7652642538145091,0.567157021379549,-0.304472552020047,0.6407883176693152,-0.6261203410964545,0.4442562890987454,,-0.01600308327085321,0.28878403958482535,-0.09448275809069916,0.2931896105385414,0.8425751092083904,0.4517820687096499,-0.9512354148436792,0.3044725520189575,0.04947373653849124,-0.09586990044990776,-0.4442562890971557,0.8907554724941029,,0.043876020619064066,0.7208133287749341,1.179233233310831,0.9913131001593917,-0.04274699911669141,-0.12438260135120853,0.047693611535251305,-0.7645043955939991,0.6428517313783787,-0.12257102786181008,-0.6431995982461215,-0.7558244637115997,,0.05678762683256823,0.6509763304407826,-0.3920814291100212,0.9322227872905057,-0.3598653654897494,-0.0381784438819846,-0.2812191069992172,-0.7867825452170704,0.5494443014540341,-0.22776410760891097,-0.5014679902672531,-0.8346576340167499,,0.0,0.0,0.045,1.0,0.0,0.0,0.0,1.0,0.0,0.0,0.0,1.0,,0.017444116233895766,-0.1925897926022419,0.2248824739289125,False,,-0.028558718986584263,0.5590572360752726,-0.2921319451175633,-0.8716152462218543,-0.32182212938883703,-0.3697531333055225,0.3315824250623932,0.16846545952155056,-0.9282631546807918,0.36102625658441967,-0.9316919587416368,-0.040126500879260285
10:09:06.974488,,-0.5569557721561974,-0.3272430828123894,0.11539055064,-1.9319595413173756,0.5573578014190115,0.6342079852611671,,0.0348682288880212,0.5435146364696689,-0.3404371224673583,0.06132723769742795,-0.5350769445017376,-0.8425744082151366,0.7652642747666016,0.5671568474698886,-0.30447282330934683,0.6407882331022865,-0.6261196162321558,0.4442574326749611,,-0.016002904644410294,0.2887842618850786,-0.0944828718855039,0.2931902323103785,0.8425744082121218,0.45178297256163025,-0.9512352716445782,0.30447282330825737,0.04947482025038469,-0.09586941978491059,-0.4442574326733715,0.8907549538775594,,0.043876020619064066,0.7208133287749341,1.179233233310831,0.9913131001593917,-0.04274699911669141,-0.12438260135120853,0.047693611535251305,-0.7645043955939991,0.6428517313783787,-0.12257102786181008,-0.6431995982461215,-0.7558244637115997,,0.05678762683256823,0.6509763304407826,-0.3920814291100212,0.9322227872905057,-0.3598653654897494,-0.0381784438819846,-0.2812191069992172,-0.7867825452170704,0.5494443014540341,-0.22776410760891097,-0.5014679902672531,-0.8346576340167499,,0.0,0.0,0.045,1.0,0.0,0.0,0.0,1.0,0.0,0.0,0.0,1.0,,0.017444116233895766,-0.1925897926022419,0.2248824739289125,False,,-0.027415554618997744,0.5584619308390686,-0.29264899705568126,-0.8782025029835697,-0.3154934809992694,-0.3594777144696971,0.3200133229134006,0.17098581458843998,-0.9318558495644331,0.3554600356036063,-0.9333957974281284,-0.04919805313416048
10:09:06.980635,,-0.5569557721561974,-0.3272430828123894,0.11539055064,-1.9319595413173756,0.5573578014190115,0.6342079852611671,,0.03486826387390842,0.5435147686446065,-0.34043726799189056,0.061327859867462774,-0.5350779770369126,-0.842573707217453,0.7652642957184497,0.5671566735611706,-0.3044730945971632,0.6407881485347728,-0.6261188913657798,0.4442585762506615,,-0.01600272601799487,0.2887844841853422,-0.09448298568033486,0.2931908540829644,0.842573707215443,0.4517838764127775,-0.9512351284457395,0.3044730945964369,0.04947590396259327,-0.09586893912080383,-0.44425857624960174,0.8907544352602224,,0.043876020619064066,0.7208133287749341,1.179233233310831,0.9913131001593917,-0.04274699911669141,-0.12438260135120853,0.047693611535251305,-0.7645043955939991,0.6428517313783787,-0.12257102786181008,-0.6431995982461215,-0.7558244637115997,,0.05678762683256823,0.6509763304407826,-0.3920814291100212,0.9322227872905057,-0.3598653654897494,-0.0381784438819846,-0.2812191069992172,-0.7867825452170704,0.5494443014540341,-0.22776410760891097,-0.5014679902672531,-0.8346576340167499,,0.0,0.0,0.045,1.0,0.0,0.0,0.0,1.0,0.0,0.0,0.0,1.0,,0.017444116233895766,-0.1925897926022419,0.2248824739289125,False,,-0.027415554618997744,0.5584619308390686,-0.29264899705568126,-0.8782025029835697,-0.3154934809992694,-0.3594777144696971,0.3200133229134006,0.17098581458843998,-0.9318558495644331,0.3554600356036063,-0.9333957974281284,-0.04919805313416048
10:09:06.987759,,-0.5501674899597541,-0.3308032626674069,0.11480722014000001,-1.9168628312050626,0.5574919428874637,0.6434390243117352,,0.03541887856536121,0.5432514359778127,-0.34068895954126543,0.0613284820391807,-0.5350790095704884,-0.8425730062183545,0.7652643166700531,0.5671564996533949,-0.3044733658834963,0.6407880639667741,-0.6261181664973265,0.4442597198258465,,-0.016002547391606944,0.2887847064856162,-0.094483099475192,0.2931914758562992,0.8425730062183545,0.4517847802630918,-0.9512349852471633,0.3044733658834963,0.04947698767511688,-0.09586845845758768,-0.4442597198258465,0.8907539166420917,,0.043876020619064066,0.7208133287749341,1.179233233310831,0.9913131001593917,-0.04274699911669141,-0.12438260135120853,0.047693611535251305,-0.7645043955939991,0.6428517313783787,-0.12257102786181008,-0.6431995982461215,-0.7558244637115997,,0.05678762683256823,0.6509763304407826,-0.3920814291100212,0.9322227872905057,-0.3598653654897494,-0.0381784438819846,-0.2812191069992172,-0.7867825452170704,0.5494443014540341,-0.22776410760891097,-0.5014679902672531,-0.8346576340167499,,0.0,0.0,0.045,1.0,0.0,0.0,0.0,1.0,0.0,0.0,0.0,1.0,,0.017444116233895766,-0.1925897926022419,0.2248824739289125,False,,-0.02631439520761982,0.5579350011558254,-0.2931520891054201,-0.8842628095819721,-0.3100267021546164,-0.34923162448628553,0.30888220241595915,0.17258791290736264,-0.9353102145004871,0.3502442984844487,-0.9349314714295448,-0.05685134219807869
10:09:06.994525,,-0.5432633667701974,-0.33435571978955014,0.11419018610000001,-1.9007177384460614,0.5574919428874637,0.652462519682314,,0.03598459359443538,0.543001090180774,-0.34094941823672703,0.061329104212581635,-0.5350800421024652,-0.842572305217841,0.7652643376214119,0.5671563257465618,-0.3044736371683461,0.6407879793982906,-0.6261174416267958,0.444260863400516,,-0.016002368766555336,0.2887849287860547,-0.09448321327181212,0.2931920976286342,0.842572305215831,0.45178568410987874,-0.9512348420431768,0.30447363716761977,0.049478071387660555,-0.09586797779469017,-0.44426086339945625,0.8907533980178552,,0.043876020619064066,0.7208133287749341,1.179233233310831,0.9913131001593917,-0.04274699911669141,-0.12438260135120853,0.047693611535251305,-0.7645043955939991,0.6428517313783787,-0.12257102786181008,-0.6431995982461215,-0.7558244637115997,,0.05678762683256823,0.6509763304407826,-0.3920814291100212,0.9322227872905057,-0.3598653654897494,-0.0381784438819846,-0.2812191069992172,-0.7867825452170704,0.5494443014540341,-0.22776410760891097,-0.5014679902672531,-0.8346576340167499,,0.0,0.0,0.045,1.0,0.0,0.0,0.0,1.0,0.0,0.0,0.0,1.0,,0.017444116233895766,-0.1925897926022419,0.2248824739289125,False,,-0.025183035119443496,0.5574340452121577,-0.29367271544564943,-0.8905296482335108,-0.3042482788423242,-0.33821580453695965,0.2973263598292808,0.17344241965695195,-0.938890176119769,0.34431668761151935,-0.9366700122695426,-0.06399458373336214
10:09:07.001862,,-0.5432633667701974,-0.33435571978955014,0.11419018610000001,-1.9007177384460614,0.5574919428874637,0.652462519682314,,0.03598455860879494,0.5430009580060559,-0.34094927271224845,0.0613284820391809,-0.5350790095704885,-0.8425730062183543,0.7652643166700531,0.5671564996533951,-0.3044733658834961,0.6407880639667741,-0.6261181664973264,0.4442597198258465,,-0.016002547392915782,0.2887847064857703,-0.09448309947692882,0.2931914758545504,0.8425730062133293,0.4517847802603974,-0.9512349852414902,0.3044733658816803,0.04947698767482181,-0.0958684584570158,-0.444259719823197,0.890753916636779,,0.043876020619064066,0.7208133287749341,1.179233233310831,0.9913131001593917,-0.04274699911669141,-0.12438260135120853,0.047693611535251305,-0.7645043955939991,0.6428517313783787,-0.12257102786181008,-0.6431995982461215,-0.7558244637115997,,0.05678762683256823,0.6509763304407826,-0.3920814291100212,0.9322227872905057,-0.3598653654897494,-0.0381784438819846,-0.2812191069992172,-0.7867825452170704,0.5494443014540341,-0.22776410760891097,-0.5014679902672531,-0.8346576340167499,,0.0,0.0,0.045,1.0,0.0,0.0,0.0,1.0,0.0,0.0,0.0,1.0,,0.017444116233895766,-0.1925897926022419,0.2248824739289125,False,,-0.025183035119443496,0.5574340452121577,-0.29367271544564943,-0.8905296482335108,-0.3042482788423242,-0.33821580453695965,0.2973263598292808,0.17344241965695195,-0.938890176119769,0.34431668761151935,-0.9366700122695426,-0.06399458373336214
10:09:07.008530,,-0.5365291437038736,-0.3377768904528316,0.11356667061000002,-1.8856210283337485,0.557626084355916,0.6609358606483298,,0.03654033130119013,0.5427699180592326,-0.3412118572800485,0.06132785986746308,-0.5350779770369126,-0.842573707217453,0.7652642957184497,0.5671566735611707,-0.30447309459716293,0.6407881485347727,-0.6261188913657798,0.44425857625066156,,-0.016002726019303713,0.2887844841854963,-0.09448298568207167,0.29319085408121576,0.8425737072104179,0.4517838764100831,-0.9512351284400663,0.30447309459462074,0.04947590396229823,-0.09586893912023195,-0.44425857624695225,0.8907544352549097,,0.043876020619064066,0.7208133287749341,1.179233233310831,0.9913131001593917,-0.04274699911669141,-0.12438260135120853,0.047693611535251305,-0.7645043955939991,0.6428517313783787,-0.12257102786181008,-0.6431995982461215,-0.7558244637115997,,0.05678762683256823,0.6509763304407826,-0.3920814291100212,0.9322227872905057,-0.3598653654897494,-0.0381784438819846,-0.2812191069992172,-0.7867825452170704,0.5494443014540341,-0.22776410760891097,-0.5014679902672531,-0.8346576340167499,,0.0,0.0,0.045,1.0,0.0,0.0,0.0,1.0,0.0,0.0,0.0,1.0,,0.017444116233895766,-0.1925897926022419,0.2248824739289125,False,,-0.02407141976312547,0.5569722296681667,-0.29419817563026035,-0.8962248942611701,-0.2991094198305142,-0.3275889098782311,0.28610521029045033,0.17460240582087627,-0.9421559364172257,0.3390055273166085,-0.9381084984425924,-0.07090625923409688
10:09:07.014601,,-0.5300961072196446,-0.34102816099288014,0.11292500706000001,-1.8711533478094484,0.5572236599505592,0.6691300800467899,,0.03707911356074822,0.5425699047871639,-0.3414777656138607,0.061327859867462926,-0.5350779770369126,-0.842573707217453,0.7652642957184497,0.5671566735611706,-0.3044730945971631,0.6407881485347728,-0.6261188913657797,0.4442585762506616,,-0.016002726019303713,0.2887844841854963,-0.09448298568207167,0.29319085408121587,0.8425737072104178,0.4517838764100831,-0.9512351284400662,0.30447309459462085,0.04947590396229826,-0.09586893912023198,-0.4442585762469522,0.8907544352549097,,0.043876020619064066,0.7208133287749341,1.179233233310831,0.9913131001593917,-0.04274699911669141,-0.12438260135120853,0.047693611535251305,-0.7645043955939991,0.6428517313783787,-0.12257102786181008,-0.6431995982461215,-0.7558244637115997,,0.05678762683256823,0.6509763304407826,-0.3920814291100212,0.9322227872905057,-0.3598653654897494,-0.0381784438819846,-0.2812191069992172,-0.7867825452170704,0.5494443014540341,-0.22776410760891097,-0.5014679902672531,-0.8346576340167499,,0.0,0.0,0.045,1.0,0.0,0.0,0.0,1.0,0.0,0.0,0.0,1.0,,0.017444116233895766,-0.1925897926022419,0.2248824739289125,False,,-0.022993855244009286,0.5565722031240293,-0.2947299922978847,-0.9014881860850334,-0.2938825655461833,-0.3177295831632767,0.27574722712309474,0.17583555838966208,-0.9450107529228016,0.3335903432101126,-0.9395290810154784,-0.0774763760327642
10:09:07.021835,,-0.5300961072196446,-0.34102816099288014,0.11292500706000001,-1.8711533478094484,0.5572236599505592,0.6691300800467899,,0.03707911356074822,0.5425699047871639,-0.3414777656138607,0.061327859867462926,-0.5350779770369126,-0.842573707217453,0.7652642957184497,0.5671566735611706,-0.3044730945971631,0.6407881485347728,-0.6261188913657797,0.4442585762506616,,-0.016002726019303713,0.2887844841854963,-0.09448298568207167,0.29319085408121587,0.8425737072104178,0.4517838764100831,-0.9512351284400662,0.30447309459462085,0.04947590396229826,-0.09586893912023198,-0.4442585762469522,0.8907544352549097,,0.043876020619064066,0.7208133287749341,1.179233233310831,0.9913131001593917,-0.04274699911669141,-0.12438260135120853,0.047693611535251305,-0.7645043955939991,0.6428517313783787,-0.12257102786181008,-0.6431995982461215,-0.7558244637115997,,0.05678762683256823,0.6509763304407826,-0.3920814291100212,0.9322227872905057,-0.3598653654897494,-0.0381784438819846,-0.2812191069992172,-0.7867825452170704,0.5494443014540341,-0.22776410760891097,-0.5014679902672531,-0.8346576340167499,,0.0,0.0,0.045,1.0,0.0,0.0,0.0,1.0,0.0,0.0,0.0,1.0,,0.017444116233895766,-0.1925897926022419,0.2248824739289125,False,,-0.022993855244009286,0.5565722031240293,-0.2947299922978847,-0.9014881860850334,-0.2938825655461833,-0.3177295831632767,0.27574722712309474,0.17583555838966208,-0.9450107529228016,0.3335903432101126,-0.9395290810154784,-0.0774763760327642
10:09:07.028448,,-0.523748020797032,-0.34426398606718017,0.11225612142000001,-1.8568953438144864,0.5564188111398459,0.6780793012862865,,0.03761541066594904,0.5423875384104588,-0.3417545665976932,0.06132723769742795,-0.5350769445017376,-0.8425744082151366,0.7652642747666016,0.5671568474698886,-0.30447282330934683,0.6407882331022865,-0.6261196162321558,0.4442574326749611,,-0.016002904644410294,0.2887842618850786,-0.0944828718855039,0.2931902323103785,0.8425744082121218,0.45178297256163025,-0.9512352716445782,0.30447282330825737,0.04947482025038469,-0.09586941978491059,-0.4442574326733715,0.8907549538775594,,0.043876020619064066,0.7208133287749341,1.179233233310831,0.9913131001593917,-0.04274699911669141,-0.12438260135120853,0.047693611535251305,-0.7645043955939991,0.6428517313783787,-0.12257102786181008,-0.6431995982461215,-0.7558244637115997,,0.05678762683256823,0.6509763304407826,-0.3920814291100212,0.9322227872905057,-0.3598653654897494,-0.0381784438819846,-0.2812191069992172,-0.7867825452170704,0.5494443014540341,-0.22776410760891097,-0.5014679902672531,-0.8346576340167499,,0.0,0.0,0.045,1.0,0.0,0.0,0.0,1.0,0.0,0.0,0.0,1.0,,0.017444116233895766,-0.1925897926022419,0.2248824739289125,False,,-0.021921191063142033,0.5562077347206484,-0.29528388531635114,-0.9065159742853766,-0.2882400053346242,-0.3084582430250984,0.2657916934496278,0.17799750130984443,-0.9474553631811007,0.32799933545453097,-0.9408690604181584,-0.08474577918243675
10:09:07.035574,,-0.5171914205868154,-0.34764654306609055,0.11152760644000001,-1.8424276632901866,0.5554798208606803,0.6871653870660452,,0.03817507817838722,0.5422143982042877,-0.3420576505531077,0.06132729334319688,-0.5350775361419698,-0.8425740284434576,0.7652642766405096,0.5671566514913624,-0.3044731836582377,0.6407882255387306,-0.626119288143517,0.44425790597982673,,-0.0160029202005611,0.28878469826111025,-0.09448287176719297,0.2931915106175879,0.8425740284394376,0.4517828512588459,-0.9512350449163884,0.30447318365678505,0.049476961782996154,-0.09586776004033482,-0.44425790597770715,0.8907548964510996,,0.043876020619064066,0.7208133287749341,1.179233233310831,0.9913131001593917,-0.04274699911669141,-0.12438260135120853,0.047693611535251305,-0.7645043955939991,0.6428517313783787,-0.12257102786181008,-0.6431995982461215,-0.7558244637115997,,0.05678762683256823,0.6509763304407826,-0.3920814291100212,0.9322227872905057,-0.3598653654897494,-0.0381784438819846,-0.2812191069992172,-0.7867825452170704,0.5494443014540341,-0.22776410760891097,-0.5014679902672531,-0.8346576340167499,,0.0,0.0,0.045,1.0,0.0,0.0,0.0,1.0,0.0,0.0,0.0,1.0,,0.017444116233895766,-0.1925897926022419,0.2248824739289125,False,,-0.02080178161750463,0.5558609620781965,-0.29588997998323685,-0.9114798431846315,-0.28252393086244165,-0.2989727812998265,0.25560890255277857,0.1804431769886532,-0.9497917397061346,0.3222864942933287,-0.9421361304866065,-0.09225468675270854
10:09:07.042290,,-0.5171914205868154,-0.34764654306609055,0.11152760644000001,-1.8424276632901866,0.5554798208606803,0.6871653870660452,,0.03817493378542577,0.5422146260840564,-0.3420574327492634,0.06132616030440193,-0.5350766543474904,-0.8425746708954733,0.7652642384842081,0.567156607356987,-0.30447336177159656,0.6407883795446855,-0.6261200816964815,0.4442565654403855,,-0.01600330856654642,0.28878512641307674,-0.0944826439431177,0.29319282367301736,0.842574670885423,0.4517808009478801,-0.9512348778545644,0.3044733617679648,0.04947907742541538,-0.09586540187053452,-0.4442565654350864,0.8907558188236359,,0.043876020619064066,0.7208133287749341,1.179233233310831,0.9913131001593917,-0.04274699911669141,-0.12438260135120853,0.047693611535251305,-0.7645043955939991,0.6428517313783787,-0.12257102786181008,-0.6431995982461215,-0.7558244637115997,,0.05678762683256823,0.6509763304407826,-0.3920814291100212,0.9322227872905057,-0.3598653654897494,-0.0381784438819846,-0.2812191069992172,-0.7867825452170704,0.5494443014540341,-0.22776410760891097,-0.5014679902672531,-0.8346576340167499,,0.0,0.0,0.045,1.0,0.0,0.0,0.0,1.0,0.0,0.0,0.0,1.0,,0.017444116233895766,-0.1925897926022419,0.2248824739289125,False,,-0.02080178161750463,0.5558609620781965,-0.29588997998323685,-0.9114798431846315,-0.28252393086244165,-0.2989727812998265,0.25560890255277857,0.1804431769886532,-0.9497917397061346,0.3222864942933287,-0.9421361304866065,-0.09225468675270854
10:09:07.048409,,-0.5112140253421656,-0.3507819726130257,0.11083020242000001,-1.8292180419419126,0.5548091135184191,0.6955644539009789,,0.03869127040221617,0.5420692108885814,-0.34234913074500395,0.06132440509225089,-0.5350747400159309,-0.8425760143375585,0.7652641793735764,0.5671567371323334,-0.30447326860184654,0.6407886181165895,-0.626121600108389,0.4442540813205235,,-0.016003875558994907,0.2887853322647917,-0.09448230232436784,0.29319351495038487,0.8425760143244931,0.45177784678432076,-0.9512348539960516,0.30447326859712526,0.04948010935599015,-0.0958635243621696,-0.44425408131363475,0.8907572598087705,,0.043876020619064066,0.7208133287749341,1.179233233310831,0.9913131001593917,-0.04274699911669141,-0.12438260135120853,0.047693611535251305,-0.7645043955939991,0.6428517313783787,-0.12257102786181008,-0.6431995982461215,-0.7558244637115997,,0.05678762683256823,0.6509763304407826,-0.3920814291100212,0.9322227872905057,-0.3598653654897494,-0.0381784438819846,-0.2812191069992172,-0.7867825452170704,0.5494443014540341,-0.22776410760891097,-0.5014679902672531,-0.8346576340167499,,0.0,0.0,0.045,1.0,0.0,0.0,0.0,1.0,0.0,0.0,0.0,1.0,,0.017444116233895766,-0.1925897926022419,0.2248824739289125,False,,-0.019768749624998534,0.5555699402768429,-0.2964741026320465,-0.9159082809969555,-0.277384359534458,-0.2901205575047397,0.24607705407869812,0.1829896601486931,-0.9518197664130619,0.3171089785186662,-0.943171618192747,-0.09934381902526068
10:09:07.055221,,-0.5052211846317675,-0.3539637385572062,0.11009520599000001,-1.8164277736523144,0.5540042647077057,0.7038937403440237,,0.039213850142991925,0.5419372268001106,-0.3426576447954298,0.06132264987870124,-0.5350728256813815,-0.8425773577714964,0.7652641202605002,0.5671568669093641,-0.3044731754350072,0.6407888566866444,-0.6261231185117636,0.4442515971961465,,-0.016004442551524563,0.28878553811652347,-0.0944819607057965,0.29319420622330605,0.8425773577604412,0.4517748926183013,-0.9512348301411397,0.30447317543101227,0.0494811412870749,-0.09586164685212187,-0.4442515971903176,0.8907587007884962,,0.043876020619064066,0.7208133287749341,1.179233233310831,0.9913131001593917,-0.04274699911669141,-0.12438260135120853,0.047693611535251305,-0.7645043955939991,0.6428517313783787,-0.12257102786181008,-0.6431995982461215,-0.7558244637115997,,0.05678762683256823,0.6509763304407826,-0.3920814291100212,0.9322227872905057,-0.3598653654897494,-0.0381784438819846,-0.2812191069992172,-0.7867825452170704,0.5494443014540341,-0.22776410760891097,-0.5014679902672531,-0.8346576340167499,,0.0,0.0,0.045,1.0,0.0,0.0,0.0,1.0,0.0,0.0,0.0,1.0,,0.017444116233895766,-0.1925897926022419,0.2248824739289125,False,,-0.018723231383177753,0.5553057806890298,-0.29709185739074795,-0.9200781350259458,-0.27239989359479855,-0.281521799185641,0.2367452328252272,0.18590558668507373,-0.9536198443687128,0.31210241937816974,-0.9440537118240792,-0.10655828925743915
10:09:07.061434,,-0.5052211846317675,-0.3539637385572062,0.11009520599000001,-1.8164277736523144,0.5540042647077057,0.7038937403440237,,0.039213742959618346,0.5419372085654401,-0.34265739036788967,0.06132146118732113,-0.5350713522415411,-0.8425783799791332,0.765264080225717,0.5671570187549759,-0.3044729932083554,0.6407890182533867,-0.6261242401371925,0.4442497833409536,,-0.01600481536045544,0.2887855298923135,-0.09448173299827108,0.2931942409723982,0.8425783799741081,0.45177296360992963,-0.9512348898221218,0.30447299320653953,0.049481115397882414,-0.09586094842941634,-0.4442497833383041,0.8907596805862705,,0.043876020619064066,0.7208133287749341,1.179233233310831,0.9913131001593917,-0.04274699911669141,-0.12438260135120853,0.047693611535251305,-0.7645043955939991,0.6428517313783787,-0.12257102786181008,-0.6431995982461215,-0.7558244637115997,,0.05678762683256823,0.6509763304407826,-0.3920814291100212,0.9322227872905057,-0.3598653654897494,-0.0381784438819846,-0.2812191069992172,-0.7867825452170704,0.5494443014540341,-0.22776410760891097,-0.5014679902672531,-0.8346576340167499,,0.0,0.0,0.045,1.0,0.0,0.0,0.0,1.0,0.0,0.0,0.0,1.0,,0.017444116233895766,-0.1925897926022419,0.2248824739289125,False,,-0.018723231383177753,0.5553057806890298,-0.29709185739074795,-0.9200781350259458,-0.27239989359479855,-0.281521799185641,0.2367452328252272,0.18590558668507373,-0.9536198443687128,0.31210241937816974,-0.9440537118240792,-0.10655828925743915
10:09:07.068464,,-0.4993827985788537,-0.35707599990551864,0.10936020956,-1.803637505362716,0.5522604256178267,0.7123544988402984,,0.039720586269117904,0.5418204620471625,-0.3429642525262278,0.06132083902608679,-0.535070319694906,-0.8425790809667232,0.7652640592710677,0.5671571926713465,-0.30447272191302327,0.6407891028170695,-0.6261249649892172,0.4442486397594785,,-0.016004993986723726,0.2887853075923625,-0.09448161920366749,0.29319361919530235,0.8425790809637083,0.45177205975840984,-0.9512350330325449,0.3044727219119338,0.04948003168910639,-0.0958614290920844,-0.44424863975788886,0.8907601991998364,,0.043876020619064066,0.7208133287749341,1.179233233310831,0.9913131001593917,-0.04274699911669141,-0.12438260135120853,0.047693611535251305,-0.7645043955939991,0.6428517313783787,-0.12257102786181008,-0.6431995982461215,-0.7558244637115997,,0.05678762683256823,0.6509763304407826,-0.3920814291100212,0.9322227872905057,-0.3598653654897494,-0.0381784438819846,-0.2812191069992172,-0.7867825452170704,0.5494443014540341,-0.22776410760891097,-0.5014679902672531,-0.8346576340167499,,0.0,0.0,0.045,1.0,0.0,0.0,0.0,1.0,0.0,0.0,0.0,1.0,,0.017444116233895766,-0.1925897926022419,0.2248824739289125,False,,-0.017709474790986786,0.5550725520032022,-0.2977058727571565,-0.9241077235377183,-0.2667510986223488,-0.2736215756874924,0.22828150518519796,0.18886357109302443,-0.9551010972166093,0.30645141489038136,-0.945079045846304,-0.11363594243866393
10:09:07.075554,,-0.49346718519719773,-0.36031182497981873,0.10859021330000002,-1.7902182074851045,0.5490410303749733,0.7228029387878048,,0.04022986503017704,0.5417137245925455,-0.3432865223230668,0.06132140554936312,-0.5350707605932861,-0.8425787597486498,0.7652640783518196,0.5671572147379059,-0.304472632850772,0.6407890258156662,-0.6261245682201452,0.4442493100336186,,-0.01600479980306911,0.2887850935163943,-0.09448173311456484,0.29319296267518363,0.8425787597456348,0.45177308491774903,-0.951235116563404,0.30447263284968246,0.04947897386802988,-0.09586260818066197,-0.44424931003202894,0.8907597380223864,,0.043876020619064066,0.7208133287749341,1.179233233310831,0.9913131001593917,-0.04274699911669141,-0.12438260135120853,0.047693611535251305,-0.7645043955939991,0.6428517313783787,-0.12257102786181008,-0.6431995982461215,-0.7558244637115997,,0.05678762683256823,0.6509763304407826,-0.3920814291100212,0.9322227872905057,-0.3598653654897494,-0.0381784438819846,-0.2812191069992172,-0.7867825452170704,0.5494443014540341,-0.22776410760891097,-0.5014679902672531,-0.8346576340167499,,0.0,0.0,0.045,1.0,0.0,0.0,0.0,1.0,0.0,0.0,0.0,1.0,,0.017444116233895766,-0.1925897926022419,0.2248824739289125,False,,-0.016691061663721772,0.5548593049745851,-0.2983501945474453,-0.928205487099079,-0.2594177154020472,-0.26671524638599947,0.22065951741423545,0.1933578904818734,-0.9559927319613456,0.29957294786692384,-0.9462109569879135,-0.12223286702985853
10:09:07.081747,,-0.49346718519719773,-0.36031182497981873,0.10859021330000002,-1.7902182074851045,0.5490410303749733,0.7228029387878048,,0.04022997221399705,0.5417137428277137,-0.3432867767495152,0.06132259423286386,-0.5350722340374393,-0.8425777375404214,0.765264118386389,0.5671570628885416,-0.30447281508526475,0.6407888642500387,-0.6261234465964575,0.4442511238875134,,-0.016004426993153673,0.2887851017403843,-0.09448196082010796,0.29319292793058094,0.8425777375364014,0.45177501392838226,-0.9512350568858086,0.3044728150838121,0.04947899975594722,-0.0958633066058302,-0.4442511238853939,0.8907587582300938,,0.043876020619064066,0.7208133287749341,1.179233233310831,0.9913131001593917,-0.04274699911669141,-0.12438260135120853,0.047693611535251305,-0.7645043955939991,0.6428517313783787,-0.12257102786181008,-0.6431995982461215,-0.7558244637115997,,0.05678762683256823,0.6509763304407826,-0.3920814291100212,0.9322227872905057,-0.3598653654897494,-0.0381784438819846,-0.2812191069992172,-0.7867825452170704,0.5494443014540341,-0.22776410760891097,-0.5014679902672531,-0.8346576340167499,,0.0,0.0,0.045,1.0,0.0,0.0,0.0,1.0,0.0,0.0,0.0,1.0,,0.017444116233895766,-0.1925897926022419,0.2248824739289125,False,,-0.016691061663721772,0.5548593049745851,-0.2983501945474453,-0.928205487099079,-0.2594177154020472,-0.26671524638599947,0.22065951741423545,0.1933578904818734,-0.9559927319613456,0.29957294786692384,-0.9462109569879135,-0.12223286702985853
10:09:07.088730,,-0.48714226697320784,-0.3637638865745971,0.10773595819000001,-1.77616988001948,0.5444802204475975,0.7364798285272851,,0.040773111870616115,0.5416164737149389,-0.34364145724184936,0.06132378291703809,-0.5350737074791313,-0.8425767153282133,0.7652641584198815,0.5671569110405664,-0.3044729973196862,0.6407887026833843,-0.6261223249681008,0.4442529377391728,,-0.01600405418327317,0.288785109964392,-0.09448218852571938,0.2931928931851473,0.8425767153251983,0.4517769429379568,-0.9512349972104445,0.30447299731859667,0.049479025644397406,-0.09586400503114775,-0.4442529377375831,0.8907577784357308,,0.043876020619064066,0.7208133287749341,1.179233233310831,0.9913131001593917,-0.04274699911669141,-0.12438260135120853,0.047693611535251305,-0.7645043955939991,0.6428517313783787,-0.12257102786181008,-0.6431995982461215,-0.7558244637115997,,0.05678762683256823,0.6509763304407826,-0.3920814291100212,0.9322227872905057,-0.3598653654897494,-0.0381784438819846,-0.2812191069992172,-0.7867825452170704,0.5494443014540341,-0.22776410760891097,-0.5014679902672531,-0.8346576340167499,,0.0,0.0,0.045,1.0,0.0,0.0,0.0,1.0,0.0,0.0,0.0,1.0,,0.017444116233895766,-0.1925897926022419,0.2248824739289125,False,,-0.015604996717471876,0.5546647302786926,-0.29905904667949507,-0.9323523169252623,-0.2503970841935982,-0.2608073184391879,0.21352546076987214,0.20077246196996246,-0.9560843561723694,0.29176366245149454,-0.9470964674951884,-0.1337245173146131
