AlexandreBanks6/RCL_Autocam_Public/optimizationData/Data_64.csv
System Time,q_des,q0,q1,q2,q3,q4,q5,T_des,Tx,Ty,Tz,R00,R01,R02,R10,R11,R12,R20,R21,R22,T_target,Tx,Ty,Tz,R00,R01,R02,R10,R11,R12,R20,R21,R22,worldFrame,Tx,Ty,Tz,R00,R01,R02,R10,R11,R12,R20,R21,R22,ECM_T_PSM_RCM,Tx,Ty,Tz,R00,R01,R02,R10,R11,R12,R20,R21,R22,psm3_T_cam,Tx,Ty,Tz,R00,R01,R02,R10,R11,R12,R20,R21,R22,offset,x,y,z,IK Trigered,ECM_T_PSM3,Tx,Ty,Tz,R00,R01,R02,R10,R11,R12,R20,R21,R22,solverSuccess,q_solverOutput,q0,q1,q2,q3,q4,q5
12:05:58.684089,,-0.12095344227610427,-0.39958192164525036,0.09664101208,0.32017606029863604,0.0957770084748915,-1.2776638443271933,,0.13526914935344386,0.4366679713545236,-0.4319889270140018,0.5371474099476575,-0.24462829754903676,-0.8072358119067706,0.6911896899566815,0.6761835871374207,0.25501484071237274,0.4834557606277018,-0.6949336317406363,0.5322948196175312,,0.006900949535735109,0.2646158282749924,-0.1313514359571698,-0.11723344794969248,0.8072358119067709,0.5784692408910295,-0.9531509354930676,-0.2550148407123728,0.16269826423515968,0.27885410674852446,-0.5322948196175313,0.7993138383374975,,0.08406490089203714,0.7868533960728825,1.1379740049053018,0.9955127382176558,-0.04261132681277414,-0.08449060819783663,0.018378947159807577,-0.7888042094138061,0.6143697042598681,-0.09282565565447079,-0.6131657149892806,-0.7844814871072501,,0.0,0.0,0.0,1.0,0.0,0.0,0.0,1.0,0.0,0.0,0.0,1.0,,0.0,0.0,0.045,1.0,0.0,0.0,0.0,1.0,0.0,0.0,0.0,1.0,,-0.019150839222606658,-0.1589250388481224,0.2593265970793276,True,,0.1193649591029965,0.4893223758963502,-0.39079412395078894,0.270659396961678,0.14879023492418342,-0.9511072267770585,-0.5836683670092648,-0.7603181264116547,-0.2850396183035072,-0.7655551764497964,0.6322798531038905,-0.11894309214848825,False,,0.0,0.0,0.0,0.0,0.0,0.0
12:05:59.717771,,0.06643094818407923,-0.7708909182379647,0.13304990931000002,-2.2842161106046763,-0.5706378067957821,0.5489519201974804,,0.14312131023988156,0.41037332806158305,-0.4531886015992538,0.5371379193719988,-0.2446345145929897,-0.8072402429528476,0.6911939931563192,0.6761836751443177,0.2550029436946679,0.48346015285371974,-0.6949313575729449,0.5322937993857169,,0.006921247623628342,0.2646228207543624,-0.13135189872530745,-0.11721894692667906,0.8072402429040685,0.5784659960591695,-0.9531524364166409,-0.25500294367925885,0.16270811764346643,0.27885507223926864,-0.5322937993535519,0.79931418086716,,0.08406490089203714,0.7868533960728825,1.1379740049053018,0.9955127382176558,-0.04261132681277414,-0.08449060819783663,0.018378947159807577,-0.7888042094138061,0.6143697042598681,-0.09282565565447079,-0.6131657149892806,-0.7844814871072501,,0.13474191001802183,0.611685070677813,-0.4621799113257654,0.9968408866419572,-0.07101029983358581,-0.03557785879477258,-0.034567160010774756,-0.7911806210611826,0.6106048937783177,-0.07150774900432838,-0.6074460981640968,-0.7911358161893244,,0.0,0.0,0.045,1.0,0.0,0.0,0.0,1.0,0.0,0.0,0.0,1.0,,-0.019150839222606658,-0.1589250388481224,0.2593265970793276,True,,0.13504829597583676,0.43672425279335486,-0.43319316848908646,-0.5770409219335697,-0.45380582858853047,-0.6790316961329074,0.6087300955722765,0.3153147665748195,-0.7280276565656238,0.5444919146861805,-0.8334487794213536,0.09429574180435024,False,,0.17378299879362633,-0.8693553638681703,0.1333339407549879,-3.1870233683885263,-0.8621835818443029,1.3718029610771354
12:05:59.818844,,0.06565095216378256,-0.7679331115471368,0.13317176057000002,-2.2840064340753385,-0.5705036653273299,0.5488839373012688,,0.1431072979753812,0.41035722932392926,-0.4529189818055183,0.5371344702224182,-0.24463614484720983,-0.8072420439578065,0.6911955570338643,0.6761835083386762,0.25499914703278065,0.4834617490924472,-0.6949309459831924,0.5322928869329152,,0.006927688379071808,0.26462416195595284,-0.1313518442732754,-0.11721764798015588,0.8072420439147845,0.5784637459959712,-0.9531537946438888,-0.25499914701919046,0.16270611134450655,0.27885097570452566,-0.5322928869045467,0.7993162176466005,,0.08406490089203714,0.7868533960728825,1.1379740049053018,0.9955127382176558,-0.04261132681277414,-0.08449060819783663,0.018378947159807577,-0.7888042094138061,0.6143697042598681,-0.09282565565447079,-0.6131657149892806,-0.7844814871072501,,0.13474191001802183,0.611685070677813,-0.4621799113257654,0.9968408866419572,-0.07101029983358581,-0.03557785879477258,-0.034567160010774756,-0.7911806210611826,0.6106048937783177,-0.07150774900432838,-0.6074460981640968,-0.7911358161893244,,0.0,0.0,0.045,1.0,0.0,0.0,0.0,1.0,0.0,0.0,0.0,1.0,,-0.019150839222606658,-0.1589250388481224,0.2593265970793276,True,,0.13501355153562392,0.4366901256338643,-0.43265412478383175,-0.5774963574740715,-0.4531654030208846,-0.6790722160485576,0.6102925613628959,0.3128534636717543,-0.7277813544009647,0.5422554256522434,-0.8347238032867553,0.09589173883707974,False,,0.04303213945656233,-0.8959782382037875,0.14272248294618367,-3.376748086272199,-0.879935377614342,1.3963
12:05:59.895159,,0.06911845922430936,-0.7660564874587003,0.13326120458000001,-2.339570714349824,-0.6213432818707247,0.5960027646210294,,0.14333230961426158,0.41052905659871286,-0.4525168856620222,0.5371309562008733,-0.2446351941098601,-0.8072446702788236,0.6911971503087446,0.6761825134029311,0.2549974666014659,0.4834633753406832,-0.6949322487630907,0.5322897090243881,,0.006930505872884064,0.26462536312516727,-0.13135156361014116,-0.11721639158646291,0.8072446702342221,0.5784603355558512,-0.9531539345838024,-0.2549974665873769,0.16270792516326096,0.278851025496344,-0.5322897089949783,0.7993183165467783,,0.08406490089203714,0.7868533960728825,1.1379740049053018,0.9955127382176558,-0.04261132681277414,-0.08449060819783663,0.018378947159807577,-0.7888042094138061,0.6143697042598681,-0.09282565565447079,-0.6131657149892806,-0.7844814871072501,,0.13474191001802183,0.611685070677813,-0.4621799113257654,0.9968408866419572,-0.07101029983358581,-0.03557785879477258,-0.034567160010774756,-0.7911806210611826,0.6106048937783177,-0.07150774900432838,-0.6074460981640968,-0.7911358161893244,,0.0,0.0,0.045,1.0,0.0,0.0,0.0,1.0,0.0,0.0,0.0,1.0,,-0.019150839222606658,-0.1589250388481224,0.2593265970793276,True,,0.13546035023981476,0.4370323185473632,-0.4318507057357955,-0.5250713698419285,-0.4511783296402634,-0.7216219033783154,0.6539821675090016,0.3287014050371703,-0.6813682637948575,0.5446167286748996,-0.8296948241309043,0.12247088493939676,True,,0.12112978006920665,-0.9113580410904106,0.1369439425991724,-3.323604404252541,-0.8914840255455762,1.3963
12:05:59.989797,,0.0763469371945835,-0.7808300754470917,0.13358657337000002,-2.476699164536666,-0.6668172396760303,0.7329792056958215,,0.14382956161189464,0.4103939785819687,-0.4532858447034954,0.5371300071343974,-0.24463581582174088,-0.8072451133658435,0.6911975806174038,0.6761825221936593,0.2549962768913874,0.4834638145553914,-0.6949320213496085,0.5322896069983871,,0.006932535682336743,0.264626062372841,-0.13135160988543793,-0.11721494148327022,0.8072451133282113,0.5784600110703944,-0.9531540846729085,-0.25499627687949994,0.16270891049880218,0.27885112205473966,-0.5322896069735727,0.7993183508111745,,0.08406490089203714,0.7868533960728825,1.1379740049053018,0.9955127382176558,-0.04261132681277414,-0.08449060819783663,0.018378947159807577,-0.7888042094138061,0.6143697042598681,-0.09282565565447079,-0.6131657149892806,-0.7844814871072501,,0.13474191001802183,0.611685070677813,-0.4621799113257654,0.9968408866419572,-0.07101029983358581,-0.03557785879477258,-0.034567160010774756,-0.7911806210611826,0.6106048937783177,-0.07150774900432838,-0.6074460981640968,-0.7911358161893244,,0.0,0.0,0.045,1.0,0.0,0.0,0.0,1.0,0.0,0.0,0.0,1.0,,-0.019150839222606658,-0.1589250388481224,0.2593265970793276,True,,0.13645275574714014,0.43676127886113897,-0.4333885933574753,-0.4348751978294666,-0.44716411597874295,-0.781618715035491,0.6843249512815128,0.40007194916331434,-0.6096243077061657,0.5853058374613547,-0.7999916805027513,0.13202419384357733,True,,0.1182720795139888,-0.9210303680138792,0.13683659654476257,-3.3520504089112926,-0.897561621125897,1.3963000000000008
12:06:00.070115,,0.0770728740847606,-0.8045929245010806,0.13426453304000002,-2.7289400293298938,-0.7149740268503806,0.964374405806692,,0.1443808321643188,0.4099418262629787,-0.4549733116409541,0.5371255959151037,-0.2446375515805233,-0.8072475224920369,0.6911995806574612,0.6761821985345448,0.25499171375544594,0.48346585599377584,-0.6949317252375778,0.5322881394005781,,0.00694028159262978,0.2646280748150841,-0.13135155646962693,-0.11721220092007584,0.8072475224727789,0.5784572044406738,-0.953155349319257,-0.25499171374936275,0.16270865353611513,0.27884795134955587,-0.5322881393878796,0.79932043427366,,0.08406490089203714,0.7868533960728825,1.1379740049053018,0.9955127382176558,-0.04261132681277414,-0.08449060819783663,0.018378947159807577,-0.7888042094138061,0.6143697042598681,-0.09282565565447079,-0.6131657149892806,-0.7844814871072501,,0.13474191001802183,0.611685070677813,-0.4621799113257654,0.9968408866419572,-0.07101029983358581,-0.03557785879477258,-0.034567160010774756,-0.7911806210611826,0.6106048937783177,-0.07150774900432838,-0.6074460981640968,-0.7911358161893244,,0.0,0.0,0.045,1.0,0.0,0.0,0.0,1.0,0.0,0.0,0.0,1.0,,-0.019150839222606658,-0.1589250388481224,0.2593265970793276,True,,0.13754717752713547,0.4358542544948451,-0.43676380812586413,-0.22765903611096355,-0.4138376230834159,-0.8814248606646489,0.7226207082090298,0.5349319318166135,-0.43779805891578183,0.6526796115587703,-0.7366045411505516,0.1772655482937336,True,,0.11124238749724097,-0.925,0.13601010756818008,-3.349575008731373,-0.9029823859936985,1.3963000000000003
12:06:00.136324,,0.07808455209128402,-0.8218377870092238,0.13476490098000002,-3.0143097857584755,-0.755618891791406,1.179839394376875,,0.14523798842799995,0.4096833562305098,-0.4561783074659659,0.5371009252644724,-0.2446216298615909,-0.8072687621132794,0.6912107658165364,0.6761722930913959,0.25498766102468723,0.4834772727847348,-0.6949469679474704,0.5322578683695083,,0.0069391548467092855,0.26463082751953065,-0.13135130034329429,-0.11718262612384955,0.8072687584552405,0.5784335525314028,-0.9531460172341082,-0.2549876598692421,0.16276963501344957,0.27889226038512066,-0.5322578659576473,0.7993251291938317,,0.08406490089203714,0.7868533960728825,1.1379740049053018,0.9955127382176558,-0.04261132681277414,-0.08449060819783663,0.018378947159807577,-0.7888042094138061,0.6143697042598681,-0.09282565565447079,-0.6131657149892806,-0.7844814871072501,,0.13474191001802183,0.611685070677813,-0.4621799113257654,0.9968408866419572,-0.07101029983358581,-0.03557785879477258,-0.034567160010774756,-0.7911806210611826,0.6106048937783177,-0.07150774900432838,-0.6074460981640968,-0.7911358161893244,,0.0,0.0,0.045,1.0,0.0,0.0,0.0,1.0,0.0,0.0,0.0,1.0,,-0.019150839222606658,-0.1589250388481224,0.2593265970793276,True,,0.13925932465912566,0.4353339335521931,-0.43917874791203604,-0.014025806928231882,-0.4006554320694968,-0.9161214447294731,0.7472317989431754,0.604605118358745,-0.2758573716661456,0.6644154689561027,-0.6884241974303438,0.29090240460372474,True,,0.11997801615869114,-0.925,0.13663788219210654,-3.3557454626240846,-0.9008131434617547,1.3963
12:06:00.211628,,0.07948236674151865,-0.8336921819711585,0.13514341766000001,-3.1925348356955023,-0.7807033463919728,1.3378924649144055,,0.1458581387849811,0.4094762742969987,-0.45718523747456363,0.5370776850412781,-0.2446071209740585,-0.8072886203827502,0.6912213017108321,0.6761631174710893,0.254983432075421,0.48348802704088184,-0.6949610024602535,0.532229774409094,,0.0069383503957492175,0.2646331557666494,-0.1313512469838084,-0.11715353850058208,0.80728861537868,0.5784117283557961,-0.9531371160857698,-0.25498343049487726,0.16282836274905818,0.2789348919717061,-0.5322297711100074,0.7993289588071326,,0.08406490089203714,0.7868533960728825,1.1379740049053018,0.9955127382176558,-0.04261132681277414,-0.08449060819783663,0.018378947159807577,-0.7888042094138061,0.6143697042598681,-0.09282565565447079,-0.6131657149892806,-0.7844814871072501,,0.13474191001802183,0.611685070677813,-0.4621799113257654,0.9968408866419572,-0.07101029983358581,-0.03557785879477258,-0.034567160010774756,-0.7911806210611826,0.6106048937783177,-0.07150774900432838,-0.6074460981640968,-0.7911358161893244,,0.0,0.0,0.045,1.0,0.0,0.0,0.0,1.0,0.0,0.0,0.0,1.0,,-0.019150839222606658,-0.1589250388481224,0.2593265970793276,True,,0.1404973517922801,0.43491678595091576,-0.44119701585258175,0.11266607318433586,-0.36900419429127085,-0.9225737155093202,0.758123067414684,0.6321160079289054,-0.16024595836954653,0.6423050448244764,-0.6813701322449304,0.3509686200752905,True,,0.12291355724383549,-0.925,0.13653859596304163,-3.352024555460444,-0.9009784580218618,1.3963
12:06:00.259705,,0.0819536412612705,-0.8537790101770164,0.13554786014,-3.3615341183416714,-0.8032391130919472,1.3904359329759337,,0.14641813341990095,0.4091754485652624,-0.45905056172287717,0.5370541714398034,-0.24459239185501847,-0.8073087258203936,0.6912319608110786,0.6761538190710221,0.2549791938746042,0.48349890722976585,-0.6949752332294388,0.5322013076884626,,0.006937562893950165,0.26463588699871887,-0.13135120564055008,-0.11712327053603833,0.8073087205967301,0.5783897960774215,-0.9531278475942583,-0.25497919222477006,0.16288924068767877,0.278979269298539,-0.5322013042448722,0.7993324252904912,,0.08406490089203714,0.7868533960728825,1.1379740049053018,0.9955127382176558,-0.04261132681277414,-0.08449060819783663,0.018378947159807577,-0.7888042094138061,0.6143697042598681,-0.09282565565447079,-0.6131657149892806,-0.7844814871072501,,0.13474191001802183,0.611685070677813,-0.4621799113257654,0.9968408866419572,-0.07101029983358581,-0.03557785879477258,-0.034567160010774756,-0.7911806210611826,0.6106048937783177,-0.07150774900432838,-0.6074460981640968,-0.7911358161893244,,0.0,0.0,0.045,1.0,0.0,0.0,0.0,1.0,0.0,0.0,0.0,1.0,,-0.019150839222606658,-0.1589250388481224,0.2593265970793276,True,,0.14161501222108408,0.4343117463342472,-0.44493211803416505,0.2246072680452917,-0.4303461867954671,-0.8742732608583151,0.7606563889404433,0.6382050400202122,-0.11872735513302968,0.6090594659844929,-0.6383545146729992,0.47069106693380536,True,,0.1278741915715722,-0.925,0.13589978252151153,-3.3407524299451787,-0.9020141136578939,1.3963
12:06:00.321924,,0.08430135205503475,-0.868313193446307,0.13575137767,-3.422969341437612,-0.8193360893062147,1.3928767040651562,,0.14662994034044974,0.4090235860909855,-0.46038235761504887,0.5370339632634438,-0.24458097499233855,-0.8073256275960496,0.6912411209218791,0.6761462206091745,0.25497451069193894,0.48350825747677,-0.6949866437765021,0.5321779119092139,,0.006937598139737586,0.26463796009121926,-0.13135168310320686,-0.11709303483330669,0.8073256240438091,0.5783723274464133,-0.9531192919971483,-0.25497450957004864,0.16294663510594162,0.27902119563997585,-0.532177909567626,0.7993333698475567,,0.08406490089203714,0.7868533960728825,1.1379740049053018,0.9955127382176558,-0.04261132681277414,-0.08449060819783663,0.018378947159807577,-0.7888042094138061,0.6143697042598681,-0.09282565565447079,-0.6131657149892806,-0.7844814871072501,,0.13474191001802183,0.611685070677813,-0.4621799113257654,0.9968408866419572,-0.07101029983358581,-0.03557785879477258,-0.034567160010774756,-0.7911806210611826,0.6106048937783177,-0.07150774900432838,-0.6074460981640968,-0.7911358161893244,,0.0,0.0,0.045,1.0,0.0,0.0,0.0,1.0,0.0,0.0,0.0,1.0,,-0.019150839222606658,-0.1589250388481224,0.2593265970793276,True,,0.14203597104116755,0.4340052223998799,-0.44759885870163507,0.2607892631540665,-0.46949301345351246,-0.8435432831466915,0.7623303512604842,0.6362577438198611,-0.11844204902114394,0.5923186606638576,-0.6121702326539573,0.5238379620472098,True,,0.1258881314511971,-0.925,0.1362627780158496,-3.3462207505018564,-0.9014518507795547,1.3963
12:06:00.377551,,0.08783064097855535,-0.8845000415506815,0.13592508053000002,-3.4550498504262768,-0.8350306411151255,1.3975243840075016,,0.146780581810216,0.4088962061070552,-0.46183974249232157,0.5370097314487423,-0.24456554005714407,-0.8073464218945341,0.6912521041826764,0.676136558925482,0.25497035542868646,0.483519468886592,-0.6950014750351008,0.5321483561063233,,0.006936649419179068,0.2646409035324708,-0.13135154048540806,-0.11706252722774707,0.8073464218329013,0.5783494788793226,-0.9531098054475989,-0.254970355409222,0.16300863924791,0.2790664138265535,-0.5321483560656991,0.7993372652753534,,0.08406490089203714,0.7868533960728825,1.1379740049053018,0.9955127382176558,-0.04261132681277414,-0.08449060819783663,0.018378947159807577,-0.7888042094138061,0.6143697042598681,-0.09282565565447079,-0.6131657149892806,-0.7844814871072501,,0.13474191001802183,0.611685070677813,-0.4621799113257654,0.9968408866419572,-0.07101029983358581,-0.03557785879477258,-0.034567160010774756,-0.7911806210611826,0.6106048937783177,-0.07150774900432838,-0.6074460981640968,-0.7911358161893244,,0.0,0.0,0.045,1.0,0.0,0.0,0.0,1.0,0.0,0.0,0.0,1.0,,-0.019150839222606658,-0.1589250388481224,0.2593265970793276,True,,0.14233497958499347,0.4337468749249636,-0.4505183522234274,0.2772371222614353,-0.490260992864016,-0.8263072896424111,0.7630221314618943,0.6349938816395518,-0.12074765910642993,0.583897940516616,-0.597015015854982,0.5501238641470938,True,,0.11635036696216429,-0.925,0.13686705998806034,-3.3538905947587265,-0.9017972225448092,1.3963
12:06:00.404207,,0.09145260269656665,-0.8945704852186703,0.13604045034,-3.450856319839523,-0.8473716562127306,1.3998525567481053,,0.1468700998693534,0.4088362658227268,-0.46271449534060183,0.5370107197453091,-0.2445664668225015,-0.807345483782862,0.6912516562447151,0.6761370468365742,0.25497027598144595,0.4835190116402492,-0.6950006742450505,0.5321498174211488,,0.0069367935918409705,0.2646402883104327,-0.13135162989416638,-0.11706395151555488,0.8073454837327854,0.578350500153485,-0.9531103872141737,-0.2549702759656311,0.16300536198053528,0.2790638294655171,-0.5321498173881415,0.7993371946892975,,0.08406490089203714,0.7868533960728825,1.1379740049053018,0.9955127382176558,-0.04261132681277414,-0.08449060819783663,0.018378947159807577,-0.7888042094138061,0.6143697042598681,-0.09282565565447079,-0.6131657149892806,-0.7844814871072501,,0.13474191001802183,0.611685070677813,-0.4621799113257654,0.9968408866419572,-0.07101029983358581,-0.03557785879477258,-0.034567160010774756,-0.7911806210611826,0.6106048937783177,-0.07150774900432838,-0.6074460981640968,-0.7911358161893244,,0.0,0.0,0.045,1.0,0.0,0.0,0.0,1.0,0.0,0.0,0.0,1.0,,-0.019150839222606658,-0.1589250388481224,0.2593265970793276,True,,0.14251401693791554,0.4336275972640227,-0.4522675420074316,0.27170769716719695,-0.4915437710703706,-0.8273811989778461,0.7651910014484723,0.6317428469463122,-0.12403107124608995,0.5836588546423185,-0.5994044514800401,0.5477742645867267,True,,0.029608404082947022,-0.7950901936176633,0.24,-3.366527118015343,-1.1603222960882908,1.3963
12:06:00.435034,,0.0941169455381741,-0.8989569974912298,0.13608970936,-3.441840229078003,-0.8535421637615331,1.4009822022963823,,0.1469451863761017,0.4088188906982213,-0.46309106020270857,0.5370108908140547,-0.24456673257088296,-0.8073452894931001,0.6912515787089654,0.6761371645561993,0.2549701740170138,0.4835189324932981,-0.6950004662052433,0.5321501610401298,,0.0069369887342608585,0.2646408820785945,-0.1313517551441768,-0.11706183050933577,0.8073452894468756,0.5783512006827981,-0.9531098716055528,-0.25497017400241545,0.16300853628787218,0.2790664802002205,-0.5321501610096615,0.7993360405058321,,0.08406490089203714,0.7868533960728825,1.1379740049053018,0.9955127382176558,-0.04261132681277414,-0.08449060819783663,0.018378947159807577,-0.7888042094138061,0.6143697042598681,-0.09282565565447079,-0.6131657149892806,-0.7844814871072501,,0.13474191001802183,0.611685070677813,-0.4621799113257654,0.9968408866419572,-0.07101029983358581,-0.03557785879477258,-0.034567160010774756,-0.7911806210611826,0.6106048937783177,-0.07150774900432838,-0.6074460981640968,-0.7911358161893244,,0.0,0.0,0.045,1.0,0.0,0.0,0.0,1.0,0.0,0.0,0.0,1.0,,-0.019150839222606658,-0.1589250388481224,0.2593265970793276,True,,0.1426640249239054,0.43359223744236286,-0.4530204932206926,0.26477370730075445,-0.48883680165397836,-0.831224076450462,0.7666781948337209,0.6295430829557885,-0.12601607940667123,0.5848926649298328,-0.6039156299113564,0.5414669726401123,True,,0.05069747521058126,-0.7874629171934598,0.23902646483119777,-3.3826336033862785,-1.1345517934297271,1.3963
12:06:00.461915,,0.09702841583175674,-0.9020383679080454,0.13615452386000002,-3.4345015505511842,-0.8571639834097433,1.4017845158333417,,0.14705229866618283,0.4087914009683371,-0.4633665231587927,0.5370134819304093,-0.24456933794404953,-0.8073427767451612,0.691250404298289,0.6761384992209324,0.254969818662361,0.48351773367936546,-0.6949982509394356,0.5321541434666234,,0.006937650367760959,0.2646404361741994,-0.1313521725240915,-0.11706161881383376,0.8073427767104928,0.5783547511762944,-0.9531103696972811,-0.25496981865141227,0.16300617984142685,0.2790648678897334,-0.532154143443772,0.7993339521372955,,0.08406490089203714,0.7868533960728825,1.1379740049053018,0.9955127382176558,-0.04261132681277414,-0.08449060819783663,0.018378947159807577,-0.7888042094138061,0.6143697042598681,-0.09282565565447079,-0.6131657149892806,-0.7844814871072501,,0.13474191001802183,0.611685070677813,-0.4621799113257654,0.9968408866419572,-0.07101029983358581,-0.03557785879477258,-0.034567160010774756,-0.7911806210611826,0.6106048937783177,-0.07150774900432838,-0.6074460981640968,-0.7911358161893244,,0.0,0.0,0.045,1.0,0.0,0.0,0.0,1.0,0.0,0.0,0.0,1.0,,-0.019150839222606658,-0.1589250388481224,0.2593265970793276,True,,0.14287797734649807,0.43353764880701834,-0.45357038447683967,0.2595760100291563,-0.4869725655613393,-0.8339532453369017,0.7673484234609123,0.6283150690889684,-0.12804909592721617,0.5863417877223113,-0.6066942346407554,0.5367731491275175,True,,0.07045358531535992,-0.7959482901940407,0.22908386597919342,-3.393319211452179,-1.0984461909147907,1.3963
12:06:00.490622,,0.09909810824204891,-0.9037837055376201,0.13631526382,-3.434082197492509,-0.8583712566258134,1.401432018882543,,0.14715041953261498,0.4087122638930682,-0.4635346252317993,0.5370104473217429,-0.24456624649678155,-0.80734573172946,0.6912517797187702,0.6761369234405576,0.2549702684549132,0.48351913768012794,-0.6950008718230598,0.5321494448576005,,0.006936810590580211,0.26464069130645257,-0.13135164182622255,-0.1170627697399646,0.8073457317179038,0.5783503932643801,-0.9531100214775747,-0.25497026845126364,0.1630075125148534,0.279065574500327,-0.5321494448499835,0.7993368335351683,,0.08406490089203714,0.7868533960728825,1.1379740049053018,0.9955127382176558,-0.04261132681277414,-0.08449060819783663,0.018378947159807577,-0.7888042094138061,0.6143697042598681,-0.09282565565447079,-0.6131657149892806,-0.7844814871072501,,0.13474191001802183,0.611685070677813,-0.4621799113257654,0.9968408866419572,-0.07101029983358581,-0.03557785879477258,-0.034567160010774756,-0.7911806210611826,0.6106048937783177,-0.07150774900432838,-0.6074460981640968,-0.7911358161893244,,0.0,0.0,0.045,1.0,0.0,0.0,0.0,1.0,0.0,0.0,0.0,1.0,,-0.019150839222606658,-0.1589250388481224,0.2593265970793276,True,,0.14307460083397683,0.43337918924207297,-0.4539078476051204,0.25913757173061724,-0.4889687244018868,-0.8329209479142369,0.7672770541752243,0.6280097126118769,-0.12996046707109823,0.5866290489344602,-0.6054034914186899,0.5379153943923813,True,,0.07034449417263516,-0.7951816616432421,0.22990350734429316,-3.393144589559706,-1.1005579206867542,1.3963
12:06:00.522043,,0.0996000858788735,-0.9043088513730674,0.13666266954,-3.432824138316483,-0.8585053980942656,1.4014311201347043,,0.1471727422278974,0.4085379299146604,-0.46358257514291357,0.5370113342599053,-0.24456721868639109,-0.8073448472743225,0.6912513777199579,0.6761374056760923,0.254970079511035,0.4835187273277596,-0.6950000605680595,0.5321508772272553,,0.006937166892528431,0.26464107284912775,-0.13135186843581229,-0.11706089123332208,0.8073448472666185,0.5783520081374455,-0.9531097218364986,-0.25497007950860195,0.163009560078679,0.2790673858861469,-0.5321508772221772,0.7993352475571528,,0.08406490089203714,0.7868533960728825,1.1379740049053018,0.9955127382176558,-0.04261132681277414,-0.08449060819783663,0.018378947159807577,-0.7888042094138061,0.6143697042598681,-0.09282565565447079,-0.6131657149892806,-0.7844814871072501,,0.13474191001802183,0.611685070677813,-0.4621799113257654,0.9968408866419572,-0.07101029983358581,-0.03557785879477258,-0.034567160010774756,-0.7911806210611826,0.6106048937783177,-0.07150774900432838,-0.6074460981640968,-0.7911358161893244,,0.0,0.0,0.045,1.0,0.0,0.0,0.0,1.0,0.0,0.0,0.0,1.0,,-0.019150839222606658,-0.1589250388481224,0.2593265970793276,True,,0.1431190270131397,0.43303011045628115,-0.45400329880046264,0.2584162785253149,-0.4886372739471664,-0.8333394515457725,0.7670775875333512,0.6281509926853269,-0.13045422604290113,0.5872078011208136,-0.6055245204761903,0.53714714315999,True,,0.07071671743745683,-0.7936400526246047,0.2298691668811272,-3.393600769229865,-1.0993071485785528,1.3963
12:06:00.552807,,0.09880464439282838,-0.9037759828047459,0.13716692635000002,-3.4324047852578072,-0.8577005492835522,1.4010232227574348,,0.1471381487524946,0.4082831775471067,-0.46352813240558355,0.5370108907865401,-0.24456673259574652,-0.8073452895038699,0.6912515787214362,0.6761371645586163,0.25497017397679445,0.48351893250602807,-0.6950004661941425,0.532150161043061,,0.006936988740895506,0.264640882077778,-0.13135175513176658,-0.11706183048210483,0.8073452894913506,0.5783512006984104,-0.9531098716557909,-0.2549701739728407,0.16300853629650192,0.27906648018966307,-0.5321501610348092,0.799336040545005,,0.08406490089203714,0.7868533960728825,1.1379740049053018,0.9955127382176558,-0.04261132681277414,-0.08449060819783663,0.018378947159807577,-0.7888042094138061,0.6143697042598681,-0.09282565565447079,-0.6131657149892806,-0.7844814871072501,,0.13474191001802183,0.611685070677813,-0.4621799113257654,0.9968408866419572,-0.07101029983358581,-0.03557785879477258,-0.034567160010774756,-0.7911806210611826,0.6106048937783177,-0.07150774900432838,-0.6074460981640968,-0.7911358161893244,,0.0,0.0,0.045,1.0,0.0,0.0,0.0,1.0,0.0,0.0,0.0,1.0,,-0.019150839222606658,-0.1589250388481224,0.2593265970793276,True,,0.14304994966838722,0.4325208111347162,-0.45389463763839843,0.25837413808399595,-0.4878766500893671,-0.8337980445329248,0.7667935433559653,0.6285559645138685,-0.1301731974779903,0.5875971976081537,-0.6057175693106629,0.5365032708114899,True,,0.06763335177393942,-0.790730679898055,0.23039986495985904,-3.392884908539843,-1.1011745970641456,1.3963
12:06:00.578165,,0.09781613458492763,-0.9022468816956495,0.13783062683000002,-3.4313564026111187,-0.8572981248781955,1.4008192740688,,0.14710563219160533,0.40795454077179544,-0.46338009069305297,0.5370107197177947,-0.24456646684736502,-0.8073454837936315,0.6912516562571858,0.6761370468389912,0.25497027594122684,0.4835190116529791,-0.6950006742339496,0.5321498174240801,,0.006936793598475625,0.26464028830961617,-0.13135162988175617,-0.11706395148832394,0.8073454837772603,0.5783505001690975,-0.9531103872644117,-0.2549702759360566,0.16300536198916507,0.2790638294549598,-0.5321498174132893,0.7993371947284703,,0.08406490089203714,0.7868533960728825,1.1379740049053018,0.9955127382176558,-0.04261132681277414,-0.08449060819783663,0.018378947159807577,-0.7888042094138061,0.6143697042598681,-0.09282565565447079,-0.6131657149892806,-0.7844814871072501,,0.13474191001802183,0.611685070677813,-0.4621799113257654,0.9968408866419572,-0.07101029983358581,-0.03557785879477258,-0.034567160010774756,-0.7911806210611826,0.6106048937783177,-0.07150774900432838,-0.6074460981640968,-0.7911358161893244,,0.0,0.0,0.045,1.0,0.0,0.0,0.0,1.0,0.0,0.0,0.0,1.0,,-0.019150839222606658,-0.1589250388481224,0.2593265970793276,True,,0.14298508157411546,0.4318641471567425,-0.45359873272428974,0.25769376135355204,-0.48658060042944984,-0.8347653829940331,0.7673535402118193,0.6280700186319544,-0.1292153087681347,0.5871647721754485,-0.6072621929458253,0.5352290718325948,True,,0.040544769648790314,-0.925,0.09358814534594093,-3.3731846860279657,-0.840408640018679,1.3963
12:06:00.630690,,0.09735277061247417,-0.9007023351208046,0.13840099443,-3.4305176964937685,-0.855822568725221,1.4000714622104724,,0.14710147570042448,0.4076698254836183,-0.46323856225283944,0.5370091168922841,-0.24456478822810637,-0.8073470584163361,0.6912523827251004,0.6761362000904825,0.25497055183701983,0.483519753217426,-0.6950020886919295,0.5321472963028329,,0.006936276136093572,0.2646401189920587,-0.13135130191239575,-0.1170655874614761,0.8073470584038167,0.5783479709379037,-0.9531104709452345,-0.25497055183306605,0.16300444117103627,0.2790628573920928,-0.5321472962945809,0.7993392124996213,,0.08406490089203714,0.7868533960728825,1.1379740049053018,0.9955127382176558,-0.04261132681277414,-0.08449060819783663,0.018378947159807577,-0.7888042094138061,0.6143697042598681,-0.09282565565447079,-0.6131657149892806,-0.7844814871072501,,0.13474191001802183,0.611685070677813,-0.4621799113257654,0.9968408866419572,-0.07101029983358581,-0.03557785879477258,-0.034567160010774756,-0.7911806210611826,0.6106048937783177,-0.07150774900432838,-0.6074460981640968,-0.7911358161893244,,0.0,0.0,0.045,1.0,0.0,0.0,0.0,1.0,0.0,0.0,0.0,1.0,,-0.019150839222606658,-0.1589250388481224,0.2593265970793276,True,,0.14297704198761663,0.43129492866179364,-0.45331639458701645,0.2574969334329862,-0.48604601491633415,-0.8351374741062451,0.7672989215993729,0.6281776984346503,-0.1290160614101402,0.5873224788691881,-0.607578843092233,0.5346964140908896,True,,0.12835318962651543,-0.925,0.13598521410391903,-3.3432138045769166,-0.9015660771768454,1.3963
12:06:00.688724,,0.09660366552367439,-0.8952964221088474,0.14056839131,-3.4286306077297293,-0.8542128711037943,1.3992556674559335,,0.14714921541802306,0.4066067413398886,-0.4627356087770731,0.537010003834068,-0.24456576041791162,-0.8073461739634015,0.6912519807262122,0.6761366823246787,0.25497036289942576,0.4835193428646082,-0.6950012774421247,0.5321487286742235,,0.006936632436195491,0.26464050053506444,-0.13135152852527895,-0.11706370896740176,0.8073461739393262,0.5783495858118048,-0.9531101712910524,-0.25497036289182246,0.16300648873192985,0.27906466878610037,-0.5321487286583546,0.7993376265152046,,0.08406490089203714,0.7868533960728825,1.1379740049053018,0.9955127382176558,-0.04261132681277414,-0.08449060819783663,0.018378947159807577,-0.7888042094138061,0.6143697042598681,-0.09282565565447079,-0.6131657149892806,-0.7844814871072501,,0.13474191001802183,0.611685070677813,-0.4621799113257654,0.9968408866419572,-0.07101029983358581,-0.03557785879477258,-0.034567160010774756,-0.7911806210611826,0.6106048937783177,-0.07150774900432838,-0.6074460981640968,-0.7911358161893244,,0.0,0.0,0.045,1.0,0.0,0.0,0.0,1.0,0.0,0.0,0.0,1.0,,-0.019150839222606658,-0.1589250388481224,0.2593265970793276,True,,0.14307230221291675,0.42916834954600136,-0.452310039005035,0.256225855693634,-0.48495747938101663,-0.8361606030341753,0.7694975903980533,0.6258569369292507,-0.1271870782317353,0.5849972386649827,-0.6108349512674816,0.5335343410357,True,,0.13097297321070484,-0.925,0.1359096221048195,-3.3405420239394035,-0.9016638245389637,1.3963
12:06:00.740231,,0.09551476018840874,-0.8911184236238919,0.14290430589000003,-3.427162872024365,-0.852871456419272,1.3985069568497674,,0.14716391780967175,0.40545496101034795,-0.46232749723558186,0.5370079575622,-0.24456359567630045,-0.8073481907979688,0.6912529081801161,0.6761355944583718,0.254970733298856,0.4835202895922844,-0.6950030975300062,0.5321454913614229,,0.006935936819472972,0.26464014044678574,-0.1313510872575268,-0.11706628421160947,0.8073481907642635,0.5783462491337352,-0.9531104047676848,-0.2549707332882114,0.16300454412854606,0.27906279103630066,-0.5321454913392067,0.7993404372499165,,0.08406490089203714,0.7868533960728825,1.1379740049053018,0.9955127382176558,-0.04261132681277414,-0.08449060819783663,0.018378947159807577,-0.7888042094138061,0.6143697042598681,-0.09282565565447079,-0.6131657149892806,-0.7844814871072501,,0.13476024516690788,0.611686608049213,-0.46218749852696606,0.9968429548032748,-0.07097213022353514,-0.0355960698758957,-0.034525582874607955,-0.7911808617161568,0.6106069342721615,-0.07149900409267711,-0.6074502455227199,-0.7911334221407552,,0.0,0.0,0.045,1.0,0.0,0.0,0.0,1.0,0.0,0.0,0.0,1.0,,-0.019150839222606658,-0.1589250388481224,0.2593265970793276,True,,0.1431020900035787,0.4268652063871104,-0.45149475897328883,0.2552727032026819,-0.48374397202077557,-0.8371544759082153,0.7710720267648642,0.6242395436878759,-0.12559029276610975,0.5833384751071372,-0.6134466249234042,0.5323527607045578,True,,0.0987838566572049,-0.925,0.1389226728317302,-3.384386925363492,-0.8994909056747862,1.3963
12:06:00.809121,,0.0937385316273371,-0.8871875525909116,0.14645484420000002,-3.4259048128483394,-0.8508593343924885,1.397556095050644,,0.14713648701702817,0.4036841747700356,-0.46191385047124467,0.5370207149331543,-0.24456307165558822,-0.8073398638213447,0.6912471259284203,0.6761379490165335,0.25498016549413083,0.4835143871989566,-0.6950009912813789,0.5321536051644471,,0.006929914408074117,0.2646371430516029,-0.13135158099393862,-0.11707446688987744,0.8073398635940415,0.5783562166098967,-0.9531089951279269,-0.25498016542234225,0.16299803092165457,0.2790641719131868,-0.5321536050146215,0.7993345532761973,,0.08406490089203714,0.7868533960728825,1.1379740049053018,0.9955127382176558,-0.04261132681277414,-0.08449060819783663,0.018378947159807577,-0.7888042094138061,0.6143697042598681,-0.09282565565447079,-0.6131657149892806,-0.7844814871072501,,0.13476024516690788,0.611686608049213,-0.46218749852696606,0.9968429548032748,-0.07097213022353514,-0.0355960698758957,-0.034525582874607955,-0.7911808617161568,0.6106069342721615,-0.07149900409267711,-0.6074502455227199,-0.7911334221407552,,0.0,0.0,0.045,1.0,0.0,0.0,0.0,1.0,0.0,0.0,0.0,1.0,,-0.019150839222606658,-0.1589250388481224,0.2593265970793276,True,,0.14305454151106714,0.42332809329193627,-0.4506657140687338,0.2547668648930941,-0.4820157350464509,-0.8383046437424606,0.7719769965648386,0.6234633161349254,-0.12387497813833609,0.5823618817601948,-0.6155926612636573,0.5309428538656991,True,,0.12731381681672593,-0.925,0.13624827840195547,-3.346729549273652,-0.9012002410648733,1.3963
12:06:00.856826,,0.092255766915486,-0.8840907367083476,0.15039686209000003,-3.4307273730231063,-0.8477740806180872,1.3963368966580283,,0.14714670354412607,0.4017166759937755,-0.46157775700297415,0.5370292783869003,-0.24455826355975324,-0.8073356240621886,0.6912432444398068,0.6761381220653115,0.2549902290408861,0.48351042509089165,-0.6950025148261209,0.5321552153402174,,0.006922712921858719,0.2646344222998706,-0.1313513293529987,-0.11708449724472797,0.8073356237679296,0.5783601044083471,-0.9531071710592401,-0.2549902289479468,0.16299295349051945,0.27906619331520305,-0.5321552151462565,0.799332775514829,,0.08406490089203714,0.7868533960728825,1.1379740049053018,0.9955127382176558,-0.04261132681277414,-0.08449060819783663,0.018378947159807577,-0.7888042094138061,0.6143697042598681,-0.09282565565447079,-0.6131657149892806,-0.7844814871072501,,0.13476024516690788,0.611686608049213,-0.46218749852696606,0.9968429548032748,-0.07097213022353514,-0.0355960698758957,-0.034525582874607955,-0.7911808617161568,0.6106069342721615,-0.07149900409267711,-0.6074502455227199,-0.7911334221407552,,0.0,0.0,0.045,1.0,0.0,0.0,0.0,1.0,0.0,0.0,0.0,1.0,,-0.019150839222606658,-0.1589250388481224,0.2593265970793276,True,,0.14308283321414755,0.41939737634089536,-0.4499935291958883,0.25830739109179,-0.48410118228482407,-0.8360163497311454,0.7717864702463828,0.6239084342498008,-0.12281657061077483,0.5810532988048364,-0.6135016796899562,0.5347829026489347,True,,0.11558601534716742,-0.925,0.13702378050166364,-3.3635671335442043,-0.9002028798663556,1.3963
12:06:00.914127,,0.09094290232686783,-0.8815962939899731,0.15328758879,-3.435340256668535,-0.8456278171228516,1.3956624601829442,,0.14714422921449655,0.4002753597792976,-0.4613015129740964,0.5370411486353247,-0.24455676731174855,-0.8073281812463123,0.691237863945746,0.6761399943154471,0.25499985006824927,0.48350493288091023,-0.6950012198903932,0.5321618966354995,,0.006916334189195118,0.26463104337716037,-0.13135159646786568,-0.11709455843299554,0.8073281809178001,0.5783684568400251,-0.9531060609722088,-0.25499984996448655,0.1629843926340917,0.2790657630552273,-0.532161896418956,0.7993284775837519,,0.08406490089203714,0.7868533960728825,1.1379740049053018,0.9955127382176558,-0.04261132681277414,-0.08449060819783663,0.018378947159807577,-0.7888042094138061,0.6143697042598681,-0.09282565565447079,-0.6131657149892806,-0.7844814871072501,,0.13476024516690788,0.611686608049213,-0.46218749852696606,0.9968429548032748,-0.07097213022353514,-0.0355960698758957,-0.034525582874607955,-0.7911808617161568,0.6106069342721615,-0.07149900409267711,-0.6074502455227199,-0.7911334221407552,,0.0,0.0,0.045,1.0,0.0,0.0,0.0,1.0,0.0,0.0,0.0,1.0,,-0.019150839222606658,-0.1589250388481224,0.2593265970793276,True,,0.14308541692401294,0.4165196140938912,-0.44943973842249707,0.26149659231538813,-0.4859189625735466,-0.8339678015480502,0.7718303215295316,0.6240889159182689,-0.12161817214372153,0.5795666372170328,-0.6118788988348987,0.5382441139348689,True,,0.12459741824426865,-0.925,0.13644373112024769,-3.3503697521867473,-0.9010111764997233,1.3963
12:06:00.957544,,0.08986944245735062,-0.87873888282651,0.15616664888,-3.4380660515499253,-0.8442864024383293,1.395258157797029,,0.14715447086888694,0.39884689077126007,-0.4609785905221526,0.537050256741662,-0.2445524000801998,-0.8073234453109416,0.6912337353365579,0.6761404140823342,0.25500992838954195,0.4835007185789743,-0.6950023482403378,0.532164251969288,,0.006909098712166443,0.26462751660899236,-0.13135132093514393,-0.1171069523120325,0.8073234450757639,0.5783725582776006,-0.9531049683490321,-0.25500992831525615,0.16297501399425465,0.27906429446628767,-0.5321642518142656,0.7993274223135255,,0.08406490089203714,0.7868533960728825,1.1379740049053018,0.9955127382176558,-0.04261132681277414,-0.08449060819783663,0.018378947159807577,-0.7888042094138061,0.6143697042598681,-0.09282565565447079,-0.6131657149892806,-0.7844814871072501,,0.13476024516690788,0.611686608049213,-0.46218749852696606,0.9968429548032748,-0.07097213022353514,-0.0355960698758957,-0.034525582874607955,-0.7911808617161568,0.6106069342721615,-0.07149900409267711,-0.6074502455227199,-0.7911334221407552,,0.0,0.0,0.045,1.0,0.0,0.0,0.0,1.0,0.0,0.0,0.0,1.0,,-0.019150839222606658,-0.1589250388481224,0.2593265970793276,True,,0.14311386977980486,0.4136677649857844,-0.4487938039745942,0.2632453996479842,-0.4868174258755834,-0.8328929423569661,0.7726128426778943,0.6233993813311951,-0.1201773967311118,0.5777293959055197,-0.6118676370096351,0.540228414549706,True,,0.1315593027890616,-0.925,0.13688857057810253,-3.3316925419172114,-0.9033895213675193,1.3963
12:06:01.012526,,0.08964548320399811,-0.8774800773680115,0.15762108626000002,-3.439324110725951,-0.8434815536276159,1.39498802370786,,0.1471754278910468,0.3981233754660682,-0.4608352472268337,0.5370648888262572,-0.24455377493403663,-0.8073132950444657,0.6912271025354414,0.6761437388400129,0.2550190917321815,0.4834939481632611,-0.6949986299216431,0.5321752591924401,,0.006903576766425787,0.264624285520944,-0.13135213068775256,-0.11711468073954873,0.8073132950078725,0.5783851616078609,-0.9531038408546584,-0.25501909172062226,0.16296727068780734,0.2790649028679848,-0.5321752591683182,0.7993198817906142,,0.08406490089203714,0.7868533960728825,1.1379740049053018,0.9955127382176558,-0.04261132681277414,-0.08449060819783663,0.018378947159807577,-0.7888042094138061,0.6143697042598681,-0.09282565565447079,-0.6131657149892806,-0.7844814871072501,,0.13476024516690788,0.611686608049213,-0.46218749852696606,0.9968429548032748,-0.07097213022353514,-0.0355960698758957,-0.034525582874607955,-0.7911808617161568,0.6106069342721615,-0.07149900409267711,-0.6074502455227199,-0.7911334221407552,,0.0,0.0,0.045,1.0,0.0,0.0,0.0,1.0,0.0,0.0,0.0,1.0,,-0.019150839222606658,-0.1589250388481224,0.2593265970793276,True,,0.14316287906116895,0.4122253857815581,-0.4485046015117591,0.2641206769320832,-0.4874802265643997,-0.8322279115276415,0.7728494743679654,0.6231867935729284,-0.11975771493082271,0.5770129617141179,-0.611556415243119,0.5413453546386892,True,,0.11305997513328693,-0.925,0.13729632257254842,-3.3622551248572843,-0.9008584837706741,1.3963
12:06:01.072595,,0.08947558308076517,-0.8768699814709477,0.15928293004000002,-3.440582169901977,-0.8426767048169026,1.3947178896186907,,0.14719674601337257,0.3972939311238347,-0.46074990055576637,0.5370621268271717,-0.2445509038779432,-0.8073160021579877,0.6912283545859444,0.6761422862948993,0.25501954925125725,0.48349522618561896,-0.6950010533059555,0.5321709332153811,,0.006902719999541404,0.2646241377093098,-0.13135158802968963,-0.11711701348430603,0.8073160021262094,0.5783809106330753,-0.9531038582409976,-0.25501954924121895,0.16296645308837013,0.2790638645183488,-0.5321709331944333,0.7993231244648967,,0.08406490089203714,0.7868533960728825,1.1379740049053018,0.9955127382176558,-0.04261132681277414,-0.08449060819783663,0.018378947159807577,-0.7888042094138061,0.6143697042598681,-0.09282565565447079,-0.6131657149892806,-0.7844814871072501,,0.13476024516690788,0.611686608049213,-0.46218749852696606,0.9968429548032748,-0.07097213022353514,-0.0355960698758957,-0.034525582874607955,-0.7911808617161568,0.6106069342721615,-0.07149900409267711,-0.6074502455227199,-0.7911334221407552,,0.0,0.0,0.045,1.0,0.0,0.0,0.0,1.0,0.0,0.0,0.0,1.0,,-0.019150839222606658,-0.1589250388481224,0.2593265970793276,True,,0.143205952470109,0.4105667158241821,-0.44833512135413145,0.2650750334891205,-0.4881379726948861,-0.8315386618997751,0.772696920360925,0.6233992552030179,-0.11963627324965104,0.5767795903856898,-0.6108147740728358,0.5424302866625965,True,,0.10915683709258533,-0.925,0.13733428778611473,-3.3646011140300813,-0.9009231843139853,1.3963
12:06:01.138850,,0.08939835575202293,-0.8769008724024446,0.16019551820000003,-3.442259582136678,-0.8421401389430936,1.3945148396778948,,0.14303380641428473,0.43225977353625433,-0.4573256300628188,0.20772923353705688,-0.4652239255101004,-0.8604738605367854,0.7808870861275602,0.6086531531641753,-0.14055852113093184,0.5891213153954922,-0.6427348117818724,0.48972240858511445,,0.0069039330817909274,0.2646246670424472,-0.1313523573116628,-0.11711280215171943,0.8073124105109205,0.5783867765500332,-0.9531035413240906,-0.2550189027048723,0.1629693181534469,0.27906671418922174,-0.5321766915028963,0.7993182957579423,,0.08406490089203714,0.7868533960728825,1.1379740049053018,0.9955127382176558,-0.04261132681277414,-0.08449060819783663,0.018378947159807577,-0.7888042094138061,0.6143697042598681,-0.09282565565447079,-0.6131657149892806,-0.7844814871072501,,0.13476024516690788,0.611686608049213,-0.46218749852696606,0.9968429548032748,-0.07097213022353514,-0.0355960698758957,-0.034525582874607955,-0.7911808617161568,0.6106069342721615,-0.07149900409267711,-0.6074502455227199,-0.7911334221407552,,0.0,0.0,0.045,1.0,0.0,0.0,0.0,1.0,0.0,0.0,0.0,1.0,,-0.019150839222606658,-0.1589250388481224,0.2593265970793276,True,,0.14322720759948088,0.4097444464344438,-0.4483174551308755,0.26609570679998473,-0.4889555237994891,-0.8307319486865689,0.7724329370381653,0.6237164269360513,-0.11968782957644239,0.576663188179383,-0.6098363014089052,0.5436536147977835,True,,0.10710267882646397,-0.925,0.1376465231993307,-3.3650908435641136,-0.9012469810692202,1.3963
12:06:01.200057,,0.08929796022465801,-0.876808199607954,0.16038736912,-3.446033759664757,-0.8416035730692847,1.394380671381149,,0.1425473926896482,0.4326643077012109,-0.4570665963363665,0.21300364640394934,-0.46613166453635485,-0.8586912820887307,0.7803466833748786,0.6100260279264392,-0.13757652051900948,0.587952804538296,-0.6407725934907468,0.4936820667866052,,0.006903610794062074,0.2646250915126234,-0.131352154582348,-0.11711231705008335,0.8073137909063415,0.5783849480173933,-0.9531031094221456,-0.25501907672968066,0.16297157175185076,0.27906839285466944,-0.5321745140476601,0.7993191594057649,,0.08406490089203714,0.7868533960728825,1.1379740049053018,0.9955127382176558,-0.04261132681277414,-0.08449060819783663,0.018378947159807577,-0.7888042094138061,0.6143697042598681,-0.09282565565447079,-0.6131657149892806,-0.7844814871072501,,0.13476024516690788,0.611686608049213,-0.46218749852696606,0.9968429548032748,-0.07097213022353514,-0.0355960698758957,-0.034525582874607955,-0.7911808617161568,0.6106069342721615,-0.07149900409267711,-0.6074502455227199,-0.7911334221407552,,0.0,0.0,0.045,1.0,0.0,0.0,0.0,1.0,0.0,0.0,0.0,1.0,,-0.019150839222606658,-0.1589250388481224,0.2593265970793276,True,,0.14324687029792485,0.4094468018449149,-0.4483118018980997,0.26858584384489326,-0.4911328755706955,-0.8286435560720825,0.7720476643231474,0.62418864612672,-0.11971189606578517,0.5760243471410732,-0.6075994013987772,0.546826223695013,True,,0.10207391045361132,-0.9239136274655396,0.1372153801203859,-3.373622014439104,-0.8997416968376523,1.3963
12:06:01.254386,,0.08927479202603533,-0.8768159223408282,0.15991551956000002,-3.4493885841341596,-0.8413352901323803,1.3943824688768263,,0.14609636399601314,0.43450706099929837,-0.4577422726477919,0.18566029777915447,-0.4679702707924767,-0.8640220364568091,0.7832398965517198,0.6014509021186117,-0.1574549992548948,0.5933510919162502,-0.6475033884043574,0.47819854007166235,,0.006904272383850484,0.2646246455681932,-0.13135257198874145,-0.11711210542507228,0.8073112780583133,0.5783884982898052,-0.9531036075056135,-0.25501872120487773,0.16296921508674792,0.2790667805272935,-0.5321784963957659,0.7993170709119439,,0.08406490089203714,0.7868533960728825,1.1379740049053018,0.9955127382176558,-0.04261132681277414,-0.08449060819783663,0.018378947159807577,-0.7888042094138061,0.6143697042598681,-0.09282565565447079,-0.6131657149892806,-0.7844814871072501,,0.13476024516690788,0.611686608049213,-0.46218749852696606,0.9968429548032748,-0.07097213022353514,-0.0355960698758957,-0.034525582874607955,-0.7911808617161568,0.6106069342721615,-0.07149900409267711,-0.6074502455227199,-0.7911334221407552,,0.0,0.0,0.045,1.0,0.0,0.0,0.0,1.0,0.0,0.0,0.0,1.0,,-0.019150839222606658,-0.1589250388481224,0.2593265970793276,True,,0.14325575236171148,0.40976385855354674,-0.448325165161996,0.2703097130672233,-0.4925830280173703,-0.8272210221765125,0.771912660111233,0.624384018838048,-0.11956354870799155,0.5753985611569737,-0.6062231911836488,0.5490081404584067,True,,0.13764067696856022,-0.924723772407673,0.13556848456104514,-3.32796646814328,-0.9024937044362227,1.3963
12:06:01.304359,,0.08925934656028689,-0.8769317633339415,0.15883182112000002,-3.451695025956874,-0.841201148663928,1.3943833676246649,,0.1472140751447679,0.39751327240413725,-0.4607855714630547,0.5370647874617528,-0.24455382036729056,-0.8073133487143795,0.6912271484854831,0.6761437331674767,0.2550189822248062,0.4834939950664229,-0.694998619453385,0.5321752302509003,,0.006903788950029835,0.2646252822730961,-0.13135226789688523,-0.11711137774265162,0.8073133486566011,0.5783857554789414,-0.9531029596494831,-0.2550189822065548,0.1629725954833859,0.2790692985039316,-0.5321752302128132,0.7993183663830861,,0.08406490089203714,0.7868533960728825,1.1379740049053018,0.9955127382176558,-0.04261132681277414,-0.08449060819783663,0.018378947159807577,-0.7888042094138061,0.6143697042598681,-0.09282565565447079,-0.6131657149892806,-0.7844814871072501,,0.13476024516690788,0.611686608049213,-0.46218749852696606,0.9968429548032748,-0.07097213022353514,-0.0355960698758957,-0.034525582874607955,-0.7911808617161568,0.6106069342721615,-0.07149900409267711,-0.6074502455227199,-0.7911334221407552,,0.0,0.0,0.045,1.0,0.0,0.0,0.0,1.0,0.0,0.0,0.0,1.0,,-0.019150839222606658,-0.1589250388481224,0.2593265970793276,True,,0.14323995306617046,0.4110041659319009,-0.44840511726100707,0.27225953444940354,-0.49435372266935595,-0.8255235567713035,0.7717569771304149,0.6245887158917615,-0.11949939008716673,0.5746876666084966,-0.60456871641165,0.5515711676515113,True,,0.13860544140668327,-0.925,0.135391838974763,-3.330912462577449,-0.9022497879076699,1.3963
12:06:01.367882,,0.08926706929316111,-0.8770476043270549,0.15752775338000002,-3.4533724381915754,-0.841201148663928,1.3943833676246649,,0.14720284002967873,0.3981639693280222,-0.4608216884725724,0.5370659467393182,-0.24455501285024328,-0.8073122162725008,0.6912266229668593,0.6761443388693134,0.25501880071243854,0.48349345864740606,-0.694997610574883,0.5321770351493688,,0.006904128254970932,0.26462526079843923,-0.1313524825686299,-0.1171106810013871,0.8073122162243521,0.5783874772252896,-0.9531030258508802,-0.25501880069722904,0.16297249241992343,0.2790693648360679,-0.5321770351176294,0.7993171415552914,,0.08406490089203714,0.7868533960728825,1.1379740049053018,0.9955127382176558,-0.04261132681277414,-0.08449060819783663,0.018378947159807577,-0.7888042094138061,0.6143697042598681,-0.09282565565447079,-0.6131657149892806,-0.7844814871072501,,0.13476024516690788,0.611686608049213,-0.46218749852696606,0.9968429548032748,-0.07097213022353514,-0.0355960698758957,-0.034525582874607955,-0.7911808617161568,0.6106069342721615,-0.07149900409267711,-0.6074502455227199,-0.7911334221407552,,0.0,0.0,0.045,1.0,0.0,0.0,0.0,1.0,0.0,0.0,0.0,1.0,,-0.019150839222606658,-0.1589250388481224,0.2593265970793276,True,,0.14321731905954224,0.4123055531199108,-0.4484768568490351,0.2732787185258547,-0.49532963526252394,-0.824601294221372,0.7716965585395624,0.6246661351994263,-0.11948489893374786,0.5742849149499422,-0.603689300854096,0.552952135808544,True,,0.12256190193951025,-0.925,0.13649922687344213,-3.3413802237670813,-0.9027673204326051,1.3963
12:06:01.423287,,0.08930568295753223,-0.8776190865597475,0.15522554234000002,-3.460920793247732,-0.841201148663928,1.3943833676246649,,0.14719550681477692,0.39930992947074107,-0.46092802457094306,0.5370622978551199,-0.24455116964422105,-0.8073158078770797,0.6912282770570206,0.6761424040320115,0.255019447232157,0.4834951470484074,-0.6950008452480153,0.532171276832171,,0.006902915172987384,0.2646247314652939,-0.13135171328646628,-0.11711489234410338,0.8073158078375976,0.5783816113163917,-0.9531033427713155,-0.2550194472196852,0.162969627354608,0.27906651517436243,-0.5321712768061451,0.7993219702680165,,0.08406490089203714,0.7868533960728825,1.1379740049053018,0.9955127382176558,-0.04261132681277414,-0.08449060819783663,0.018378947159807577,-0.7888042094138061,0.6143697042598681,-0.09282565565447079,-0.6131657149892806,-0.7844814871072501,,0.13476024516690788,0.611686608049213,-0.46218749852696606,0.9968429548032748,-0.07097213022353514,-0.0355960698758957,-0.034525582874607955,-0.7911808617161568,0.6106069342721615,-0.07149900409267711,-0.6074502455227199,-0.7911334221407552,,0.0,0.0,0.045,1.0,0.0,0.0,0.0,1.0,0.0,0.0,0.0,1.0,,-0.019150839222606658,-0.1589250388481224,0.2593265970793276,True,,0.14320330901301243,0.4145981029490502,-0.4486911908671058,0.27786075965133644,-0.4997037857006359,-0.8204203342204746,0.7713948026307369,0.6250458205507865,-0.11944781574512228,0.5724888267208965,-0.5996781209686136,0.5591446096595085,True,,0.12647346796124495,-0.925,0.13650422721763067,-3.345105651829338,-0.9014996760695143,1.3963
12:06:01.470629,,0.08942152395064559,-0.8785072008402833,0.15389165993,-3.4701465605385895,-0.8410670071954758,1.3943153847284533,,0.14720707697442342,0.39996990856555203,-0.4610542145714074,0.5370646164199419,-0.2445535546147315,-0.8073135430023457,0.6912272260212561,0.6761436154311674,0.25501908422435593,0.4834940742104914,-0.694998827507622,0.5321748866363112,,0.006903593779118021,0.264624688516506,-0.13135214263670097,-0.11711349888238493,0.8073135429551599,0.5783850548067585,-0.9531034751376113,-0.2550190842094506,0.162969421219707,0.2790666478517967,-0.5321748866052066,0.7993195205964889,,0.08406490089203714,0.7868533960728825,1.1379740049053018,0.9955127382176558,-0.04261132681277414,-0.08449060819783663,0.018378947159807577,-0.7888042094138061,0.6143697042598681,-0.09282565565447079,-0.6131657149892806,-0.7844814871072501,,0.13476024516690788,0.611686608049213,-0.46218749852696606,0.9968429548032748,-0.07097213022353514,-0.0355960698758957,-0.034525582874607955,-0.7911808617161568,0.6106069342721615,-0.07149900409267711,-0.6074502455227199,-0.7911334221407552,,0.0,0.0,0.045,1.0,0.0,0.0,0.0,1.0,0.0,0.0,0.0,1.0,,-0.019150839222606658,-0.1589250388481224,0.2593265970793276,True,,0.1432261217817586,0.41591804782125086,-0.44894258199815795,0.28350709066362345,-0.5050738646961579,-0.815183489003755,0.7708352924400799,0.6257077134589387,-0.1195943529051566,0.5704705789716631,-0.5944663560865944,0.5667213336454361,True,,0.11187142569256063,-0.925,0.13607046023851171,-3.3606362150331806,-0.9013379772925427,1.3963
12:06:01.528156,,0.08956825587525587,-0.8797505608330335,0.15285203535000003,-3.481678769652162,-0.8406645827901191,1.3941114360398184,,0.14722686048228353,0.40047983613960214,-0.46121405579703995,0.5370636281845452,-0.24455262788000384,-0.8073144811523183,0.6912276740021613,0.6761431274667232,0.25501916373692446,0.48349453148387755,-0.6949996283283201,0.532173425349935,,0.0069034496517095464,0.26462530374719606,-0.1313520532151944,-0.11711207448823563,0.8073144811157252,0.5783840337520179,-0.9531028934844129,-0.2550191637253652,0.16297269855347382,0.27906923218091956,-0.5321734253258131,0.7993195912376283,,0.08406490089203714,0.7868533960728825,1.1379740049053018,0.9955127382176558,-0.04261132681277414,-0.08449060819783663,0.018378947159807577,-0.7888042094138061,0.6143697042598681,-0.09282565565447079,-0.6131657149892806,-0.7844814871072501,,0.13476024516690788,0.611686608049213,-0.46218749852696606,0.9968429548032748,-0.07097213022353514,-0.0355960698758957,-0.034525582874607955,-0.7911808617161568,0.6106069342721615,-0.07149900409267711,-0.6074502455227199,-0.7911334221407552,,0.0,0.0,0.045,1.0,0.0,0.0,0.0,1.0,0.0,0.0,0.0,1.0,,-0.019150839222606658,-0.1589250388481224,0.2593265970793276,True,,0.14326568751164154,0.41693730006310914,-0.44926258037031797,0.29063143673148706,-0.5117436585228039,-0.8084873505164369,0.7699079417981718,0.626777636827782,-0.11996480787582808,0.5681330206382085,-0.5875952875357983,0.5761567919639827,True,,0.12147586927036126,-0.925,0.13649931111122038,-3.355956389556626,-0.9005915829938774,1.3963
12:06:01.585488,,0.08968409686836923,-0.881418671133866,0.15191611397000002,-3.4963561267057996,-0.839993875447858,1.3938404032028107,,0.14725049023800274,0.4009333978678954,-0.46141915491735763,0.5370648888183962,-0.24455377494114022,-0.8073132950475435,0.691227102539005,0.6761437388407039,0.25501909172069054,0.4834939481668985,-0.6949986299184713,0.5321752591932777,,0.006903576767251101,0.26462428552077183,-0.13135213068590482,-0.11711468073107101,0.807313295015765,0.5783851616088724,-0.953103840863328,-0.2550190917106522,0.1629672706893007,0.27906490286330365,-0.5321752591723296,0.7993198817970391,,0.08406490089203714,0.7868533960728825,1.1379740049053018,0.9955127382176558,-0.04261132681277414,-0.08449060819783663,0.018378947159807577,-0.7888042094138061,0.6143697042598681,-0.09282565565447079,-0.6131657149892806,-0.7844814871072501,,0.13476024516690788,0.611686608049213,-0.46218749852696606,0.9968429548032748,-0.07097213022353514,-0.0355960698758957,-0.034525582874607955,-0.7911808617161568,0.6106069342721615,-0.07149900409267711,-0.6074502455227199,-0.7911334221407552,,0.0,0.0,0.045,1.0,0.0,0.0,0.0,1.0,0.0,0.0,0.0,1.0,,-0.019150839222606658,-0.1589250388481224,0.2593265970793276,True,,0.1433130037537785,0.4178454305836036,-0.4496724168945248,0.299717540721588,-0.520018629184798,-0.7998437479186588,0.7685680870164361,0.6283169855032888,-0.12050253668680933,0.5652189765070695,-0.5786176553034167,0.5879873447341171,True,,0.11529443044439962,-0.925,0.13717147909643249,-3.36507304668959,-0.90000601588181,1.3963
12:06:01.642627,,0.08977676966285993,-0.8828859903799686,0.15127056155000002,-3.5087270419367225,-0.8393231681055968,1.393569370365803,,0.14727068148605466,0.40124415178877104,-0.4615956799723171,0.5370657757068202,-0.2445547470899334,-0.8073124105575302,0.6912267004986736,0.6761442211320244,0.2550189027258272,0.4834935377873713,-0.6949978186336607,0.5321766915342169,,0.00690393308534424,0.2646246670421219,-0.13135235730680864,-0.11711280215840275,0.8073124105238261,0.5783867765616008,-0.9531035413396507,-0.2550189027151805,0.16296931815610213,0.2790667141973875,-0.5321766915119992,0.7993182957714149,,0.08406490089203714,0.7868533960728825,1.1379740049053018,0.9955127382176558,-0.04261132681277414,-0.08449060819783663,0.018378947159807577,-0.7888042094138061,0.6143697042598681,-0.09282565565447079,-0.6131657149892806,-0.7844814871072501,,0.13476024516690788,0.611686608049213,-0.46218749852696606,0.9968429548032748,-0.07097213022353514,-0.0355960698758957,-0.034525582874607955,-0.7911808617161568,0.6106069342721615,-0.07149900409267711,-0.6074502455227199,-0.7911334221407552,,0.0,0.0,0.045,1.0,0.0,0.0,0.0,1.0,0.0,0.0,0.0,1.0,,-0.019150839222606658,-0.1589250388481224,0.2593265970793276,True,,0.1433531670277412,0.418466527609801,-0.45002501837069436,0.30737927607266347,-0.5268874408058389,-0.7924062123444764,0.76733628342083,0.6297146148787749,-0.12105590425082172,0.5627726084192026,-0.5708319617270482,0.5978610730628788,True,,0.10475017959591171,-0.925,0.1379983436061209,-3.376671380052344,-0.8998647197460478,1.3963
12:06:01.703017,,0.08983855152585372,-0.8838358865234982,0.15085185988000002,-3.5156463674048664,-0.8389207437002402,1.3934343033212184,,0.14727966834540918,0.401445732591238,-0.4617086106571764,0.5370758881222907,-0.24456119725820916,-0.8073037292080868,0.6912221163094977,0.6761482564211028,0.25502062909365164,0.48348885852961687,-0.6949916230677416,0.532189033655706,,0.006904777885163726,0.26462473292497246,-0.13135290107185085,-0.11711116613302802,0.8073037291171824,0.5783992250126622,-0.9531034577011318,-0.25502062906493567,0.1629671054055581,0.27906768616216415,-0.5321890335957802,0.7993097389843817,,0.08406490089203714,0.7868533960728825,1.1379740049053018,0.9955127382176558,-0.04261132681277414,-0.08449060819783663,0.018378947159807577,-0.7888042094138061,0.6143697042598681,-0.09282565565447079,-0.6131657149892806,-0.7844814871072501,,0.13476024516690788,0.611686608049213,-0.46218749852696606,0.9968429548032748,-0.07097213022353514,-0.0355960698758957,-0.034525582874607955,-0.7911808617161568,0.6106069342721615,-0.07149900409267711,-0.6074502455227199,-0.7911334221407552,,0.0,0.0,0.045,1.0,0.0,0.0,0.0,1.0,0.0,0.0,0.0,1.0,,-0.019150839222606658,-0.1589250388481224,0.2593265970793276,True,,0.14337164155579454,0.41886989091889715,-0.4502484229465399,0.3116731297427856,-0.5306653036500196,-0.7881968001066544,0.7665549159666686,0.6305917080713649,-0.12143993790747898,0.5614743280005512,-0.56634656634756,0.6033225884903187,True,,0.1163943900775414,-0.925,0.13698362250038343,-3.367344911647579,-0.8995619723137732,1.3963
12:06:01.756642,,0.08988488792309907,-0.8847008326054114,0.15040982499000002,-3.521936663284996,-0.8383841778264313,1.3932312533804223,,0.14728538409373365,0.4016584076240133,-0.46181267675596144,0.5370915769264213,-0.2445692822156813,-0.8072908423803633,0.6912150039472628,0.6761539100389476,0.25502491693406815,0.4834815987324396,-0.6949832775941802,0.5322065271598753,,0.006904898063439049,0.26462395383347875,-0.13135299272962153,-0.11711398380393573,0.8072908419258356,0.5784166406788365,-0.9531039066031421,-0.25502491679048184,0.16295776725207,0.2790649689397498,-0.5322065268602278,0.7992990396290822,,0.08406490089203714,0.7868533960728825,1.1379740049053018,0.9955127382176558,-0.04261132681277414,-0.08449060819783663,0.018378947159807577,-0.7888042094138061,0.6143697042598681,-0.09282565565447079,-0.6131657149892806,-0.7844814871072501,,0.13476024516690788,0.611686608049213,-0.46218749852696606,0.9968429548032748,-0.07097213022353514,-0.0355960698758957,-0.034525582874607955,-0.7911808617161568,0.6106069342721615,-0.07149900409267711,-0.6074502455227199,-0.7911334221407552,,0.0,0.0,0.045,1.0,0.0,0.0,0.0,1.0,0.0,0.0,0.0,1.0,,-0.019150839222606658,-0.1589250388481224,0.2593265970793276,True,,0.1433849503324653,0.419296684691206,-0.45045375199319304,0.31563227210198486,-0.5340756168207765,-0.7843082967336541,0.7657334290088629,0.6315065418401062,-0.12186797492154791,0.5603825340836983,-0.5621056156370059,0.6082833980664566,True,,0.11675029254313131,-0.925,0.13706418731237344,-3.3685585975619294,-0.8993981300837712,1.3963
12:06:01.817643,,0.08988488792309907,-0.8855348877558277,0.15006890072,-3.526759223459763,-0.8379817534210745,1.3930961863358375,,0.14728430750897284,0.40179388811207295,-0.46189317457956913,0.5371085961084858,-0.24457882462589492,-0.8072766282576173,0.6912072881021781,0.6761602872861487,0.2550289214413638,0.48347372303032554,-0.69497371492865,0.5322261687454569,,0.006905552713419749,0.26462374702291536,-0.13135342432712405,-0.11711398385833155,0.8072766276453014,0.5784364785570395,-0.953103906387659,-0.2550289212479255,0.16295150026530128,0.27906496895243504,-0.5322261683417656,0.7992859609168845,,0.08406490089203714,0.7868533960728825,1.1379740049053018,0.9955127382176558,-0.04261132681277414,-0.08449060819783663,0.018378947159807577,-0.7888042094138061,0.6143697042598681,-0.09282565565447079,-0.6131657149892806,-0.7844814871072501,,0.13475590709534102,0.6116749279466523,-0.4621844406881688,0.9968392352501286,-0.07103584538541545,-0.035573132225290856,-0.03459035300234059,-0.7911799266591576,0.610604480110311,-0.07151955358580017,-0.607444015792393,-0.7911363480038688,,0.0,0.0,0.045,1.0,0.0,0.0,0.0,1.0,0.0,0.0,0.0,1.0,,-0.019150839222606658,-0.1589250388481224,0.2593265970793276,True,,0.1433843457019886,0.41956847317651946,-0.45061127159714076,0.31817790270962404,-0.5361649966394191,-0.7818503172640892,0.7650792522641143,0.6322329289557986,-0.12220990671363785,0.5598361903113167,-0.5592929643063858,0.6113712620781968,True,,0.11768792828294132,-0.925,0.13697570435098094,-3.369440950843613,-0.8990032415833742,1.3963
12:06:01.876375,,0.08991577885459597,-0.8864307247692377,0.1496437176,-3.5317914601638676,-0.8377134704841701,1.3929602205434144,,0.14732848038275642,0.40203407851246475,-0.46201918390942764,0.5371173760957073,-0.2445904463498494,-0.8072672654396709,0.691203307442069,0.6761656936745578,0.2550253761466665,0.483469659934527,-0.6949643647353335,0.53224206867816,,0.0069085022366753845,0.2646274896075263,-0.13135309772879594,-0.11710250955332163,0.8072672649120003,0.5784518683092931,-0.9531039159383035,-0.25502537597996905,0.1629569934738792,0.2790697518042482,-0.5322420683302598,0.7992737034459105,,0.08406490089203714,0.7868533960728825,1.1379740049053018,0.9955127382176558,-0.04261132681277414,-0.08449060819783663,0.018378947159807577,-0.7888042094138061,0.6143697042598681,-0.09282565565447079,-0.6131657149892806,-0.7844814871072501,,0.13475590709534102,0.6116749279466523,-0.4621844406881688,0.9968392352501286,-0.07103584538541545,-0.035573132225290856,-0.03459035300234059,-0.7911799266591576,0.610604480110311,-0.07151955358580017,-0.607444015792393,-0.7911363480038688,,0.0,0.0,0.045,1.0,0.0,0.0,0.0,1.0,0.0,0.0,0.0,1.0,,-0.019150839222606658,-0.1589250388481224,0.2593265970793276,True,,0.14347119316308185,0.4200445618720141,-0.45086115236561697,0.3216888441392779,-0.5393785617758146,-0.7781947408284056,0.7643569620663176,0.6329973233963515,-0.12277142629213367,0.5588154633661147,-0.5553243697783383,0.6159059361892902,True,,0.11694030179062212,-0.925,0.13710617470251574,-3.3687990928092635,-0.8992910621278852,1.3963
12:06:01.953886,,0.08993122432034442,-0.887233888988157,0.14930149704,-3.5353559611626078,-0.8375793290157179,1.3928922376472028,,0.1473269618206207,0.4021701210199279,-0.46209254222634955,0.537126428582909,-0.2446022879738506,-0.8072576543060627,0.6911992031291334,0.6761712235243317,0.25502183842027976,0.4834654706506142,-0.6949548166575766,0.5322583409332485,,0.006911434729436913,0.26463082920788317,-0.13135275919364803,-0.11709221716384621,0.8072576539928517,0.5784673646573543,-0.9531042912526057,-0.25502183832133285,0.16296033627569861,0.2790727896079005,-0.5322583407267356,0.7992618069514514,,0.08406490089203714,0.7868533960728825,1.1379740049053018,0.9955127382176558,-0.04261132681277414,-0.08449060819783663,0.018378947159807577,-0.7888042094138061,0.6143697042598681,-0.09282565565447079,-0.6131657149892806,-0.7844814871072501,,0.13475590709534102,0.6116749279466523,-0.4621844406881688,0.9968392352501286,-0.07103584538541545,-0.035573132225290856,-0.03459035300234059,-0.7911799266591576,0.610604480110311,-0.07151955358580017,-0.607444015792393,-0.7911363480038688,,0.0,0.0,0.045,1.0,0.0,0.0,0.0,1.0,0.0,0.0,0.0,1.0,,-0.019150839222606658,-0.1589250388481224,0.2593265970793276,True,,0.14346671327175808,0.4203127589389935,-0.45100568533507,0.32339107986442106,-0.5408196364230546,-0.776487173315412,0.7638915201196512,0.6334984018659735,-0.1230833876790286,0.558469296339031,-0.5533478975224289,0.6179952664495864,True,,0.12752149759863435,-0.925,0.13610607700898741,-3.3453712038251466,-0.9013758953848295,1.3963
12:06:02.006608,,0.08993122432034442,-0.8881528942001897,0.14892816552000002,-3.5382914325733354,-0.8374451875472656,1.3928931363950414,,0.14732124833415072,0.4023842680904415,-0.4622060126649569,0.5371276873535447,-0.24461006516013836,-0.8072544601924387,0.6911986324057013,0.6761739291769355,0.25501621137079283,0.4834648881136261,-0.6949494467396731,0.5322658813389239,,0.006914201048005272,0.2646340599716058,-0.13135230622389976,-0.11708216724625564,0.807254459953781,0.5784738562859748,-0.953104882288627,-0.25501621129539953,0.1629656857833574,0.27907498791403657,-0.5322658811815641,0.7992560179689052,,0.08406490089203714,0.7868533960728825,1.1379740049053018,0.9955127382176558,-0.04261132681277414,-0.08449060819783663,0.018378947159807577,-0.7888042094138061,0.6143697042598681,-0.09282565565447079,-0.6131657149892806,-0.7844814871072501,,0.13475590709534102,0.6116749279466523,-0.4621844406881688,0.9968392352501286,-0.07103584538541545,-0.035573132225290856,-0.03459035300234059,-0.7911799266591576,0.610604480110311,-0.07151955358580017,-0.607444015792393,-0.7911363480038688,,0.0,0.0,0.045,1.0,0.0,0.0,0.0,1.0,0.0,0.0,0.0,1.0,,-0.019150839222606658,-0.1589250388481224,0.2593265970793276,True,,0.14345301506786148,0.4207369501236276,-0.4512319104191533,0.32574108188199213,-0.5427217118524108,-0.7741743285968207,0.7631947107188353,0.6342543955351365,-0.12351192361530161,0.5580560734416774,-0.5506128451356247,0.620805052868056,True,,0.1160461189652032,-0.925,0.13698772292778433,-3.370072652258336,-0.8992853528602912,1.3963
12:06:02.076002,,0.08995439251896709,-0.8886625945698886,0.14879205507,-3.5385011091026732,-0.8374451875472656,1.3928931363950414,,0.147316555474112,0.402451745920677,-0.4622560340105144,0.5371213236536203,-0.24461404362085648,-0.8072574888720677,0.6912015176696451,0.6761739282657404,0.25500839340079895,0.48346783310553565,-0.6949480472647802,0.5322650335642074,,0.006916996387241074,0.2646377756769628,-0.1313518640579989,-0.11707023876586853,0.8072574887525643,0.5784720440541042,-0.9531051735917389,-0.2550083933630485,0.16297621633534545,0.2790789977262551,-0.5322650334854129,0.7992551825673754,,0.08406490089203714,0.7868533960728825,1.1379740049053018,0.9955127382176558,-0.04261132681277414,-0.08449060819783663,0.018378947159807577,-0.7888042094138061,0.6143697042598681,-0.09282565565447079,-0.6131657149892806,-0.7844814871072501,,0.13475590709534102,0.6116749279466523,-0.4621844406881688,0.9968392352501286,-0.07103584538541545,-0.035573132225290856,-0.03459035300234059,-0.7911799266591576,0.610604480110311,-0.07151955358580017,-0.607444015792393,-0.7911363480038688,,0.0,0.0,0.045,1.0,0.0,0.0,0.0,1.0,0.0,0.0,0.0,1.0,,-0.019150839222606658,-0.1589250388481224,0.2593265970793276,True,,0.14344036456320575,0.4208669782933927,-0.4513325266812501,0.32592215478457187,-0.5428129761754789,-0.774034121932684,0.7628945095645939,0.6345643310461235,-0.12377429878688012,0.5583607402896263,-0.5501655956705265,0.6209276133686724,True,,0.12903978484807904,-0.925,0.13615676214113362,-3.3452287122974687,-0.9012247181212637,1.3963
12:06:02.127546,,0.09019379723806804,-0.8893576405285688,0.14838113114,-3.5368236968679714,-0.8374451875472656,1.3928931363950414,,0.14731299546276433,0.4026556942622629,-0.46232442912595056,0.5371140728391949,-0.24461705032446188,-0.8072614021794005,0.6912048050805608,0.6761734450077626,0.2550007641162633,0.48347118858483784,-0.6949474591340659,0.5322627535827301,,0.006919435388349337,0.2646411098598005,-0.13135119527223565,-0.11706018886800906,0.8072614021688085,0.5784686168880673,-0.9531057643590979,-0.2550007641129175,0.1629846993464306,0.2790811962519227,-0.5322627535757464,0.7992559333707311,,0.08406490089203714,0.7868533960728825,1.1379740049053018,0.9955127382176558,-0.04261132681277414,-0.08449060819783663,0.018378947159807577,-0.7888042094138061,0.6143697042598681,-0.09282565565447079,-0.6131657149892806,-0.7844814871072501,,0.13475590709534102,0.6116749279466523,-0.4621844406881688,0.9968392352501286,-0.07103584538541545,-0.035573132225290856,-0.03459035300234059,-0.7911799266591576,0.610604480110311,-0.07151955358580017,-0.607444015792393,-0.7911363480038688,,0.0,0.0,0.045,1.0,0.0,0.0,0.0,1.0,0.0,0.0,0.0,1.0,,-0.019150839222606658,-0.1589250388481224,0.2593265970793276,True,,0.14343019897676562,0.4212703582546236,-0.4514703390950147,0.32503692499915204,-0.5420540918948518,-0.7749376483609138,0.762504791141811,0.6349300190520775,-0.12429929361147601,0.5594081165597073,-0.5504918095363238,0.6196945431101882,True,,0.1095378409495457,-0.925,0.13780742062329374,-3.3721960363519154,-0.8997909805684512,1.3963
12:06:02.199960,,0.09054132021740816,-0.8900295182886263,0.14816853958,-3.534097901986582,-0.8378476119526223,1.3930970850836761,,0.1473142218982885,0.4027383064050011,-0.4623778431250467,0.537115675743483,-0.24461872840322266,-0.8072598271839198,0.6912040783537148,0.6761742918845167,0.25500048835573647,0.4834704468091232,-0.69494604445875,0.5322652744199305,,0.006919952835968801,0.26464127917208013,-0.13135152326768113,-0.11705855285721456,0.8072598271704392,0.5784711458718826,-0.9531056806711315,-0.25500048835147815,0.1629856201618049,0.27908216826231524,-0.5322652744110421,0.7992539152113954,,0.08406490089203714,0.7868533960728825,1.1379740049053018,0.9955127382176558,-0.04261132681277414,-0.08449060819783663,0.018378947159807577,-0.7888042094138061,0.6143697042598681,-0.09282565565447079,-0.6131657149892806,-0.7844814871072501,,0.13475590709534102,0.6116749279466523,-0.4621844406881688,0.9968392352501286,-0.07103584538541545,-0.035573132225290856,-0.03459035300234059,-0.7911799266591576,0.610604480110311,-0.07151955358580017,-0.607444015792393,-0.7911363480038688,,0.0,0.0,0.045,1.0,0.0,0.0,0.0,1.0,0.0,0.0,0.0,1.0,,-0.019150839222606658,-0.1589250388481224,0.2593265970793276,True,,0.14343237852449398,0.4214353704849387,-0.4515764483679955,0.3236673845368746,-0.5409895936343375,-0.7762536207750745,0.7623657265729163,0.635021409990182,-0.12468483388540297,0.560390866390601,-0.5514327415319438,0.6179676435158691,True,,0.1314649680984504,-0.925,0.13589845078407756,-3.3428664977851663,-0.9012487947752963,1.3963
12:06:02.265377,,0.09101240692273585,-0.891048919028024,0.14781983757,-3.5273882530477763,-0.8387866022317879,1.3935729653571576,,0.14730439954522526,0.40293342965402446,-0.4624748425309191,0.5371161192857823,-0.24461921427424738,-0.8072593848393658,0.6912038772593238,0.6761745330260527,0.2550003940167099,0.48347024155066554,-0.6949456388055468,0.5322659904973186,,0.00692013098178787,0.264641469941711,-0.1313516365842432,-0.11705761357843136,0.8072593848229964,0.5784719532336592,-0.953105530836117,-0.25500039401153907,0.16298664394056367,0.27908307392669096,-0.5322659904865255,0.7992531220949167,,0.08406490089203714,0.7868533960728825,1.1379740049053018,0.9955127382176558,-0.04261132681277414,-0.08449060819783663,0.018378947159807577,-0.7888042094138061,0.6143697042598681,-0.09282565565447079,-0.6131657149892806,-0.7844814871072501,,0.13475590709534102,0.6116749279466523,-0.4621844406881688,0.9968392352501286,-0.07103584538541545,-0.035573132225290856,-0.03459035300234059,-0.7911799266591576,0.610604480110311,-0.07151955358580017,-0.607444015792393,-0.7911363480038688,,0.0,0.0,0.045,1.0,0.0,0.0,0.0,1.0,0.0,0.0,0.0,1.0,,-0.019150839222606658,-0.1589250388481224,0.2593265970793276,True,,0.1434126242359543,0.4218254115908055,-0.45177022287118307,0.31926394158526206,-0.5373944883560426,-0.7805624251064034,0.7624160445652333,0.6348525674641508,-0.12523574798626846,0.562843060357811,-0.5551300581563956,0.6124037131976996,True,,0.11326955386788294,-0.925,0.13728489987492512,-3.3732087901811925,-0.8991063727002537,1.3963
12:06:02.323405,,0.09143715723081819,-0.8918134695825721,0.14765131987000002,-3.5225656928730094,-0.8394573095740491,1.3939128798382154,,0.147302881447645,0.4030165255018441,-0.46254113084316073,0.5371175509126344,-0.2446206269452207,-0.8072580042183173,0.6912032281827409,0.6761752622183718,0.2550002198306386,0.4834695790340603,-0.6949444320496736,0.5322681678550627,,0.006920453289793982,0.2646410454878316,-0.13135183931391162,-0.11705809864952255,0.8072580042019479,0.5784737817324921,-0.9531059627951981,-0.2550002198254677,0.16298439045701854,0.2790813952671181,-0.5322681678442694,0.7992522582232143,,0.08406490089203714,0.7868533960728825,1.1379740049053018,0.9955127382176558,-0.04261132681277414,-0.08449060819783663,0.018378947159807577,-0.7888042094138061,0.6143697042598681,-0.09282565565447079,-0.6131657149892806,-0.7844814871072501,,0.13475590709534102,0.6116749279466523,-0.4621844406881688,0.9968392352501286,-0.07103584538541545,-0.035573132225290856,-0.03459035300234059,-0.7911799266591576,0.610604480110311,-0.07151955358580017,-0.607444015792393,-0.7911363480038688,,0.0,0.0,0.045,1.0,0.0,0.0,0.0,1.0,0.0,0.0,0.0,1.0,,-0.019150839222606658,-0.1589250388481224,0.2593265970793276,True,,0.1434094797290502,0.4219920007414831,-0.4519022592755475,0.3163032344325645,-0.5350031325604087,-0.7834053306163088,0.7624161373509829,0.6347673276583636,-0.12566651600273945,0.5645120879080495,-0.5575321406771176,0.6086739806478385,True,,0.10300048405532501,-0.925,0.1378017345595663,-3.382206809839264,-0.899615958627709,1.3963
12:06:02.393368,,0.09190052120327166,-0.892531683739875,0.14742317283,-3.515017337816853,-0.8405304413216669,1.394456743007908,,0.14729458207606938,0.40313130733205627,-0.4625967977913792,0.5371166638120652,-0.24461965522094817,-0.807258888916673,0.691203630380188,0.676174779935852,0.255000408485851,0.48346998955948184,-0.6949452433525154,0.5322667357040713,,0.006920096992065611,0.2646406639488139,-0.13135161268884374,-0.11705997718484451,0.8072588888829711,0.5784721669859472,-0.9531062624380228,-0.2550004084752051,0.16298234289457328,0.2790795839172213,-0.53226673568185,0.799253844434721,,0.08406490089203714,0.7868533960728825,1.1379740049053018,0.9955127382176558,-0.04261132681277414,-0.08449060819783663,0.018378947159807577,-0.7888042094138061,0.6143697042598681,-0.09282565565447079,-0.6131657149892806,-0.7844814871072501,,0.13475590709534102,0.6116749279466523,-0.4621844406881688,0.9968392352501286,-0.07103584538541545,-0.035573132225290856,-0.03459035300234059,-0.7911799266591576,0.610604480110311,-0.07151955358580017,-0.607444015792393,-0.7911363480038688,,0.0,0.0,0.045,1.0,0.0,0.0,0.0,1.0,0.0,0.0,0.0,1.0,,-0.019150839222606658,-0.1589250388481224,0.2593265970793276,True,,0.14339310015538215,0.42222197518248306,-0.452014041780456,0.3115996619506577,-0.5310962767456539,-0.787935527501546,0.7626833581590239,0.6343833886053792,-0.1259833776687638,0.5667625127507199,-0.5616889362346923,0.6027319412906785,True,,0.10582447477111316,-0.925,0.13752913843782333,-3.3788780223450035,-0.8994098822496236,1.3963
12:06:02.464561,,0.09218626231961798,-0.8931958387670583,0.14718984063,-3.5173237796395673,-0.8406645827901191,1.39459360754817,,0.14730851927305283,0.4032454887103626,-0.46266771620780595,0.5371155044544749,-0.24461846301472076,-0.8072600215710739,0.6912041560131125,0.6761741741986985,0.2550005899148256,0.4834705260766327,-0.6949462523814514,0.5322649309471367,,0.006919892392040539,0.2646406731283418,-0.13135117683253109,-0.11706067392018993,0.8072600215344834,0.5784704453667816,-0.9531061962871048,-0.25500058990326724,0.16298244585678226,0.2790795175748737,-0.5322649309230107,0.7992550694797279,,0.08406490089203714,0.7868533960728825,1.1379740049053018,0.9955127382176558,-0.04261132681277414,-0.08449060819783663,0.018378947159807577,-0.7888042094138061,0.6143697042598681,-0.09282565565447079,-0.6131657149892806,-0.7844814871072501,,0.13475590709534102,0.6116749279466523,-0.4621844406881688,0.9968392352501286,-0.07103584538541545,-0.035573132225290856,-0.03459035300234059,-0.7911799266591576,0.610604480110311,-0.07151955358580017,-0.607444015792393,-0.7911363480038688,,0.0,0.0,0.045,1.0,0.0,0.0,0.0,1.0,0.0,0.0,0.0,1.0,,-0.019150839222606658,-0.1589250388481224,0.2593265970793276,True,,0.143421003587942,0.4224503568810589,-0.452156594206947,0.31296051020120896,-0.5324826655089122,-0.786459108909753,0.7624305812131346,0.6346273663152701,-0.1262842617064605,0.566352653287332,-0.5600984885323901,0.6045943724995556,True,,0.12247671698721044,-0.925,0.1361087256068716,-3.3579345535867637,-0.9001749000439159,1.3963
12:06:02.527924,,0.09210903499087572,-0.8936900936710087,0.14693187892,-3.524033428578373,-0.8406645827901191,1.39459360754817,,0.14731711044662252,0.4033718420268124,-0.46272868320902344,0.5371155044544749,-0.24461846301472076,-0.8072600215710739,0.6912041560131125,0.6761741741986985,0.2550005899148256,0.4834705260766327,-0.6949462523814514,0.5322649309471367,,0.006919892392040539,0.2646406731283418,-0.13135117683253109,-0.11706067392018993,0.8072600215344834,0.5784704453667816,-0.9531061962871048,-0.25500058990326724,0.16298244585678226,0.2790795175748737,-0.5322649309230107,0.7992550694797279,,0.08406490089203714,0.7868533960728825,1.1379740049053018,0.9955127382176558,-0.04261132681277414,-0.08449060819783663,0.018378947159807577,-0.7888042094138061,0.6143697042598681,-0.09282565565447079,-0.6131657149892806,-0.7844814871072501,,0.13475590709534102,0.6116749279466523,-0.4621844406881688,0.9968392352501286,-0.07103584538541545,-0.035573132225290856,-0.03459035300234059,-0.7911799266591576,0.610604480110311,-0.07151955358580017,-0.607444015792393,-0.7911363480038688,,0.0,0.0,0.045,1.0,0.0,0.0,0.0,1.0,0.0,0.0,0.0,1.0,,-0.019150839222606658,-0.1589250388481224,0.2593265970793276,True,,0.1434381859350814,0.42270306351395864,-0.45227852820938197,0.316897363407936,-0.5360543006697971,-0.7824460670222028,0.762178460317875,0.634926991638296,-0.12630007884643868,0.5644998278941916,-0.5563393766601085,0.6097757311379899,True,,0.11047185036341214,-0.925,0.1378634165330414,-3.3752593974523966,-0.899117003934539,1.3963
12:06:02.608298,,0.09211675772374996,-0.8938831619928643,0.14678539815000002,-3.5294850183411524,-0.839993875447858,1.3943225747111623,,0.14732954973791107,0.40343955471101434,-0.46276312202071423,0.5371388450335068,-0.24463292624399977,-0.8072401083651431,0.6911935734498146,0.6761833563649746,0.25500492661255314,0.48345972446290303,-0.6949322268914397,0.5322930535428377,,0.00692048471960882,0.2646373481251095,-0.1313510929273829,-0.1170930614366767,0.807240104984056,0.5784916762511032,-0.9531159827823373,-0.255004925544477,0.16291839348584677,0.2790324890605753,-0.5322930513133534,0.7992527567642629,,0.08406490089203714,0.7868533960728825,1.1379740049053018,0.9955127382176558,-0.04261132681277414,-0.08449060819783663,0.018378947159807577,-0.7888042094138061,0.6143697042598681,-0.09282565565447079,-0.6131657149892806,-0.7844814871072501,,0.13475590709534102,0.6116749279466523,-0.4621844406881688,0.9968392352501286,-0.07103584538541545,-0.035573132225290856,-0.03459035300234059,-0.7911799266591576,0.610604480110311,-0.07151955358580017,-0.607444015792393,-0.7911363480038688,,0.0,0.0,0.045,1.0,0.0,0.0,0.0,1.0,0.0,0.0,0.0,1.0,,-0.019150839222606658,-0.1589250388481224,0.2593265970793276,True,,0.1434655587370095,0.4228424860737425,-0.4523431307355782,0.3203226439044191,-0.5390135815501031,-0.7790107590441951,0.7616761084315484,0.6354873833048504,-0.12651202118742091,0.563243206480695,-0.5528292182626426,0.6141147659749443,True,,0.13006481964461725,-0.925,0.13574873329915535,-3.3517389787561997,-0.9000526772682362,1.3963
12:06:02.677915,,0.09213992592237262,-0.8943619714310662,0.14651188096,-3.5265495469304255,-0.8397255925109535,1.3940488456306386,,0.1473094790149488,0.40357074730805365,-0.4628073436287445,0.5371623557184805,-0.24464765512752867,-0.8072200000245129,0.691182913029977,0.6761926568809632,0.25500915967011706,0.48344884355469075,-0.6949179920111912,0.5323215194267148,,0.0069212721431736665,0.26463461687637146,-0.13135113435766188,-0.11712332937581504,0.8072199948014236,0.578513606380855,-0.9531252520876907,-0.25500915802008906,0.16285751507907195,0.2789881119470313,-0.5323215159823467,0.7992492878154824,,0.08406490089203714,0.7868533960728825,1.1379740049053018,0.9955127382176558,-0.04261132681277414,-0.08449060819783663,0.018378947159807577,-0.7888042094138061,0.6143697042598681,-0.09282565565447079,-0.6131657149892806,-0.7844814871072501,,0.13475590709534102,0.6116749279466523,-0.4621844406881688,0.9968392352501286,-0.07103584538541545,-0.035573132225290856,-0.03459035300234059,-0.7911799266591576,0.610604480110311,-0.07151955358580017,-0.607444015792393,-0.7911363480038688,,0.0,0.0,0.045,1.0,0.0,0.0,0.0,1.0,0.0,0.0,0.0,1.0,,-0.019150839222606658,-0.1589250388481224,0.2593265970793276,True,,0.1434277466603178,0.4231082586404815,-0.4524271203093587,0.31879632702461835,-0.5375293058554689,-0.7806607119755358,0.7611909033031377,0.635961245980063,-0.12704999937048042,0.564763057046197,-0.5537287593741395,0.6119045272244769,True,,0.11785998955685821,-0.925,0.13662467564744535,-3.368618593581636,-0.8991755790718358,1.3963
12:06:02.730009,,0.09232527151135402,-0.8949488991295073,0.14635373358,-3.5210979571676457,-0.8403962998532146,1.3943887601116964,,0.1472921467452026,0.403648167550528,-0.4628541687593358,0.5371841612280422,-0.24466075143130062,-0.8072015198417283,0.6911730251299267,0.6762011052955105,0.25501355754131144,0.4834387512999661,-0.6949051603680904,0.5323474352669769,,0.006921754231167544,0.2646327130725999,-0.1313509850233831,-0.11715193126626278,0.8072015145598359,0.5785336004122563,-0.9531337232806383,-0.25501355587263996,0.1628010404741197,0.27894715890083716,-0.5323474317835818,0.7992463208095814,,0.08406490089203714,0.7868533960728825,1.1379740049053018,0.9955127382176558,-0.04261132681277414,-0.08449060819783663,0.018378947159807577,-0.7888042094138061,0.6143697042598681,-0.09282565565447079,-0.6131657149892806,-0.7844814871072501,,0.13475590709534102,0.6116749279466523,-0.4621844406881688,0.9968392352501286,-0.07103584538541545,-0.035573132225290856,-0.03459035300234059,-0.7911799266591576,0.610604480110311,-0.07151955358580017,-0.607444015792393,-0.7911363480038688,,0.0,0.0,0.045,1.0,0.0,0.0,0.0,1.0,0.0,0.0,0.0,1.0,,-0.019150839222606658,-0.1589250388481224,0.2593265970793276,True,,0.1433954644611631,0.4232656845992371,-0.4525169029495795,0.3154585392420054,-0.5346057632764282,-0.7840169563797252,0.761249714312804,0.6358462163511348,-0.1272731771058628,0.5665551892604768,-0.5566832735259554,0.6075516031568445,True,,0.11328918138820154,-0.925,0.1409456025998474,-3.38199997161175,-0.8971647631810373,1.3963
12:06:02.794754,,0.09261873536057455,-0.8956207768895649,0.14622799345,-3.5173237796395673,-0.8409328657270235,1.3946606916965427,,0.14728615125189654,0.4037084534004405,-0.4629140070126606,0.5372081130413855,-0.24467596663912333,-0.8071809677090539,0.6911621632422413,0.6762106482509768,0.2550176921201728,0.4834276651008083,-0.6948905169458025,0.5323766167610822,,0.006922585045087734,0.26463018485621337,-0.13135136102816,-0.11718126289051195,0.8071809642317579,0.5785563360584453,-0.9531428409441934,-0.25501769102156907,0.1627411853433479,0.2789036890546899,-0.5323766144676298,0.7992420559403566,,0.08406490089203714,0.7868533960728825,1.1379740049053018,0.9955127382176558,-0.04261132681277414,-0.08449060819783663,0.018378947159807577,-0.7888042094138061,0.6143697042598681,-0.09282565565447079,-0.6131657149892806,-0.7844814871072501,,0.13475590709534102,0.6116749279466523,-0.4621844406881688,0.9968392352501286,-0.07103584538541545,-0.035573132225290856,-0.03459035300234059,-0.7911799266591576,0.610604480110311,-0.07151955358580017,-0.607444015792393,-0.7911363480038688,,0.0,0.0,0.045,1.0,0.0,0.0,0.0,1.0,0.0,0.0,0.0,1.0,,-0.019150839222606658,-0.1589250388481224,0.2593265970793276,True,,0.14338582824119528,0.42338942537517193,-0.45263168031986584,0.3131473810522788,-0.532678618344051,-0.7862519998697439,0.7611991792693539,0.6358399254920805,-0.12760642080196305,0.5679036249397966,-0.5585347605201474,0.604586134534146,True,,0.10927094478432649,-0.925,0.13758569943918728,-3.3767784829969103,-0.8991684087859069,1.3963
12:06:02.877002,,0.09348368144248768,-0.8964007729098615,0.14603095737000002,-3.511872189876788,-0.8420059974746414,1.3953423181543363,,0.14730752769068456,0.40380710519354746,-0.462984684467334,0.5372304609470097,-0.244689504312087,-0.8071619901297191,0.6911520280226301,0.6762193448351513,0.2550221006715387,0.48341732073940946,-0.694877287116383,0.5324032774682241,,0.006923033073718658,0.26462747503829365,-0.13135118791387718,-0.11721223171553974,0.8071619901104633,0.5785765415305624,-0.9531520406709398,-0.25502210066545483,0.16268040905188658,0.27885924774583526,-0.532403277455523,0.7992398076006549,,0.08406490089203714,0.7868533960728825,1.1379740049053018,0.9955127382176558,-0.04261132681277414,-0.08449060819783663,0.018378947159807577,-0.7888042094138061,0.6143697042598681,-0.09282565565447079,-0.6131657149892806,-0.7844814871072501,,0.13475590709534102,0.6116749279466523,-0.4621844406881688,0.9968392352501286,-0.07103584538541545,-0.035573132225290856,-0.03459035300234059,-0.7911799266591576,0.610604480110311,-0.07151955358580017,-0.607444015792393,-0.7911363480038688,,0.0,0.0,0.045,1.0,0.0,0.0,0.0,1.0,0.0,0.0,0.0,1.0,,-0.019150839222606658,-0.1589250388481224,0.2593265970793276,True,,0.14343107461493734,0.4235901221047673,-0.45276907593388854,0.3096633476610237,-0.5301214472828125,-0.7893540791344176,0.7614962988148665,0.6354055855829653,-0.12799659644392458,0.5694137318388341,-0.5614543551712333,0.6004473407823763,True,,0.12686282426602435,-0.925,0.1357961648242594,-3.352110760726071,-0.9004576283071929,1.3963
12:06:02.935456,,0.0937385316273371,-0.8971653234644097,0.14586373596000002,-3.5089367184660603,-0.8426767048169026,1.395613350991344,,0.14730155672313577,0.4038899025413658,-0.46305179006528724,0.5372309045964766,-0.24468998990332352,-0.8071615476393577,0.6911518268120637,0.6762195859977016,0.2550220065159953,0.48341711537842624,-0.6948768814359914,0.5324039934157075,,0.006923211229511228,0.2646276658102486,-0.13135130122221045,-0.11721129266805452,0.8071615476191387,0.5785773490779447,-0.953151891116665,-0.25502200650960716,0.1626814328878392,0.2788601536284995,-0.5324039934023711,0.7992390146116486,,0.08406490089203714,0.7868533960728825,1.1379740049053018,0.9955127382176558,-0.04261132681277414,-0.08449060819783663,0.018378947159807577,-0.7888042094138061,0.6143697042598681,-0.09282565565447079,-0.6131657149892806,-0.7844814871072501,,0.1348155386528624,0.6116828239318948,-0.462197664943754,0.9968453353580933,-0.07092454440735359,-0.035624238594245086,-0.03447025006391165,-0.7911798735765436,0.6106113407953833,-0.07149251174313134,-0.6074570903759489,-0.7911287531853741,,0.0,0.0,0.045,1.0,0.0,0.0,0.0,1.0,0.0,0.0,0.0,1.0,,-0.019150839222606658,-0.1589250388481224,0.2593265970793276,True,,0.14341902311005322,0.42375551143433987,-0.4529030628496018,0.3077966195893427,-0.5286364516396215,-0.7910782154548587,0.7614731205764836,0.6353706641758721,-0.1283074656605114,0.5704558945342625,-0.562892193144106,0.5981073911000707,True,,0.09074409053841813,-0.925,0.13821724906248212,-3.4034986307409003,-0.8977730691699507,1.3963
12:06:03.017413,,0.09383892715470202,-0.8974201736492592,0.14575744018,-3.507259306231359,-0.8430791292222592,1.3958172996799787,,0.1472771236847688,0.4039411661959373,-0.46306469090488,0.5372332434135205,-0.24468792497786584,-0.8071606169415201,0.6911507660723276,0.6762193961279666,0.2550253847325063,0.4834160327595928,-0.6948777933351695,0.53240378623806,,0.006921941928406228,0.26462590224013127,-0.13135283312166754,-0.11721295915712032,0.807160616915134,0.5785783098608446,-0.9531507273162301,-0.2550253847241695,0.16268295576811645,0.27886343101380806,-0.5324037862206557,0.799238009103507,,0.08406490089203714,0.7868533960728825,1.1379740049053018,0.9955127382176558,-0.04261132681277414,-0.08449060819783663,0.018378947159807577,-0.7888042094138061,0.6143697042598681,-0.09282565565447079,-0.6131657149892806,-0.7844814871072501,,0.1348155386528624,0.6116828239318948,-0.462197664943754,0.9968453353580933,-0.07092454440735359,-0.035624238594245086,-0.03447025006391165,-0.7911798735765436,0.6106113407953833,-0.07149251174313134,-0.6074570903759489,-0.7911287531853741,,0.0,0.0,0.045,1.0,0.0,0.0,0.0,1.0,0.0,0.0,0.0,1.0,,-0.019150839222606658,-0.1589250388481224,0.2593265970793276,True,,0.14337157059258915,0.4238603259371594,-0.45292736474186557,0.30674194660402027,-0.5276661759015039,-0.7921349537819045,0.7615596451279366,0.6352737463138215,-0.1282738249098929,0.5709082983336184,-0.5639110515443777,0.5967143712362948,True,,0.12961057677195043,-0.925,0.1358405129713264,-3.3426396398764653,-0.9015222817927715,1.3963
12:06:03.074094,,0.09427912292853281,-0.8978989830874611,0.14555651523000002,-3.5047431878793063,-0.8436156950960682,1.3960203496207748,,0.14728623123306697,0.40404039405338,-0.46310932886040435,0.5372375577763799,-0.24468771383883137,-0.807157809359977,0.6911488093306966,0.6762201826665246,0.25502860215123435,0.48341403566221713,-0.6948771022639746,0.5324065015324198,,0.006920960888818807,0.2646229082172494,-0.13135454392973156,-0.11721747493166901,0.8071578093173298,0.5785813117644054,-0.9531507252694557,-0.2550286021377596,0.16267792383817337,0.27886153980655304,-0.5324065015042894,0.799236860177888,,0.08406490089203714,0.7868533960728825,1.1379740049053018,0.9955127382176558,-0.04261132681277414,-0.08449060819783663,0.018378947159807577,-0.7888042094138061,0.6143697042598681,-0.09282565565447079,-0.6131657149892806,-0.7844814871072501,,0.1348155386528624,0.6116828239318948,-0.462197664943754,0.9968453353580933,-0.07092454440735359,-0.035624238594245086,-0.03447025006391165,-0.7911798735765436,0.6106113407953833,-0.07149251174313134,-0.6074570903759489,-0.7911287531853741,,0.0,0.0,0.045,1.0,0.0,0.0,0.0,1.0,0.0,0.0,0.0,1.0,,-0.019150839222606658,-0.1589250388481224,0.2593265970793276,True,,0.14339120190391205,0.42406227437482946,-0.45301450897422446,0.3051323881590937,-0.5265944734460878,-0.7934686422489332,0.7616526586112974,0.6350977911999214,-0.12859246962137288,0.571646265908097,-0.5651097735387511,0.5948709864536263,True,,0.11439589815720895,-0.925,0.13695065606134985,-3.374780184820805,-0.8982329319684054,1.3963
12:06:03.129791,,0.09458030951062757,-0.8982851197311723,0.14546707122000002,-3.503904481761956,-0.8438839780329727,1.396156315413198,,0.1472951119263192,0.40408360523720244,-0.4631476532147236,0.5372429309738392,-0.24468873886546305,-0.8071539222422622,0.6911463723293234,0.6762215692029765,0.2550315301304536,0.4834115484084498,-0.6948753920071522,0.5324109920430378,,0.006920531333843353,0.26462088949060353,-0.1313566066087413,-0.11721799164170527,0.80715392217383,0.5785866298017295,-0.9531499093639733,-0.25503153010883145,0.16267811395585224,0.2788641112537972,-0.5324109919978988,0.7992329715951907,,0.08406490089203714,0.7868533960728825,1.1379740049053018,0.9955127382176558,-0.04261132681277414,-0.08449060819783663,0.018378947159807577,-0.7888042094138061,0.6143697042598681,-0.09282565565447079,-0.6131657149892806,-0.7844814871072501,,0.1348155386528624,0.6116828239318948,-0.462197664943754,0.9968453353580933,-0.07092454440735359,-0.035624238594245086,-0.03447025006391165,-0.7911798735765436,0.6106113407953833,-0.07149251174313134,-0.6074570903759489,-0.7911287531853741,,0.0,0.0,0.045,1.0,0.0,0.0,0.0,1.0,0.0,0.0,0.0,1.0,,-0.019150839222606658,-0.1589250388481224,0.2593265970793276,True,,0.14340999534863774,0.4241511693058993,-0.45308839897470754,0.3045884933596317,-0.5263195168070816,-0.7938599473086357,0.7616253499602628,0.6350821839947731,-0.1288310749405457,0.5719726182351889,-0.5653833971743327,0.5942970117616222,True,,0.07561552186506326,-0.925,0.1402758551955006,-3.4133773190074614,-0.898986268048322,1.3963
12:06:03.185716,,0.09475793236673473,-0.8987639291693742,0.14532318303000002,-3.50264642258593,-0.844152260969877,1.396292281205621,,0.1472927472105946,0.40415264285457353,-0.4631921035990913,0.537245642322764,-0.24468685031737658,-0.8071526900698297,0.691145142588694,0.6762215087172635,0.2550350231325136,0.483410293313304,-0.6948761158867887,0.5324111868554564,,0.0069190328333897,0.2646177261529033,-0.13135798942148033,-0.11722414275259341,0.8071526899946081,0.5785871025213059,-0.953149990712259,-0.25503502310874593,0.16267216113015326,0.27886124753137126,-0.532411186805839,0.7992338410020298,,0.08406490089203714,0.7868533960728825,1.1379740049053018,0.9955127382176558,-0.04261132681277414,-0.08449060819783663,0.018378947159807577,-0.7888042094138061,0.6143697042598681,-0.09282565565447079,-0.6131657149892806,-0.7844814871072501,,0.1348155386528624,0.6116828239318948,-0.462197664943754,0.9968453353580933,-0.07092454440735359,-0.035624238594245086,-0.03447025006391165,-0.7911798735765436,0.6106113407953833,-0.07149251174313134,-0.6074570903759489,-0.7911287531853741,,0.0,0.0,0.045,1.0,0.0,0.0,0.0,1.0,0.0,0.0,0.0,1.0,,-0.019150839222606658,-0.1589250388481224,0.2593265970793276,True,,0.14340695540436926,0.4242929492936609,-0.45317588673477893,0.3038141909169642,-0.5256993273450477,-0.7945672750789798,0.7615185897821748,0.6351641425333219,-0.1290579306206253,0.5725263092763848,-0.565868120032287,0.5933016904724668,True,,0.07555715314538917,-0.925,0.14019133878971043,-3.4138545192911463,-0.8988107223171669,1.3963
12:06:03.248121,,0.09485060516122543,-0.899204124943205,0.14519096145000002,-3.5013883634099034,-0.844688826843686,1.3964953311464172,,0.14728647178523468,0.404217368779046,-0.4632313725969551,0.5372489688725905,-0.2446857123113735,-0.8071508208730349,0.6911436338084759,0.6762218070407472,0.25503832090209894,0.4834087534285593,-0.694876226297333,0.5324124409096993,,0.006917907663870182,0.26461534734893544,-0.13135961077781783,-0.11722723386811057,0.8071508208104543,0.578589083849303,-0.9531494077824711,-0.2550383208823251,0.16267040655996162,0.2788619406238333,-0.5324124408684199,0.7992327637959893,,0.08406490089203714,0.7868533960728825,1.1379740049053018,0.9955127382176558,-0.04261132681277414,-0.08449060819783663,0.018378947159807577,-0.7888042094138061,0.6143697042598681,-0.09282565565447079,-0.6131657149892806,-0.7844814871072501,,0.1348155386528624,0.6116828239318948,-0.462197664943754,0.9968453353580933,-0.07092454440735359,-0.035624238594245086,-0.03447025006391165,-0.7911798735765436,0.6106113407953833,-0.07149251174313134,-0.6074570903759489,-0.7911287531853741,,0.0,0.0,0.045,1.0,0.0,0.0,0.0,1.0,0.0,0.0,0.0,1.0,,-0.019150839222606658,-0.1589250388481224,0.2593265970793276,True,,0.1433958194486721,0.42442529110085947,-0.45325260899576136,0.3029342446523984,-0.5250368229981418,-0.7953409192999558,0.7615965453391454,0.635053369525622,-0.12914302142056672,0.572888772402078,-0.5666070528595384,0.5922456433824299,True,,0.07591358742815255,-0.925,0.14011735577057768,-3.4138074270890146,-0.8987430453529706,1.3963
12:06:03.304964,,0.09478882329823163,-0.8996597661827842,0.14509633228000002,-3.5009690103512283,-0.8449571097805905,1.3965624152947904,,0.14727441852376078,0.4042633029555705,-0.46327206777763974,0.5372501282091486,-0.24468690414001898,-0.8071496879028242,0.6911431079797228,0.6762224129133871,0.255038139433548,0.48340821676030976,-0.6948752170109175,0.5324142454448862,,0.00691824696293847,0.2646153258851755,-0.13135982547242606,-0.117226537604954,0.8071496878373553,0.5785908054428377,-0.953149473911313,-0.2550381394128615,0.16267030357502466,0.2788620072751381,-0.5324142454017015,0.7992315384352617,,0.08406490089203714,0.7868533960728825,1.1379740049053018,0.9955127382176558,-0.04261132681277414,-0.08449060819783663,0.018378947159807577,-0.7888042094138061,0.6143697042598681,-0.09282565565447079,-0.6131657149892806,-0.7844814871072501,,0.1348155386528624,0.6116828239318948,-0.462197664943754,0.9968453353580933,-0.07092454440735359,-0.035624238594245086,-0.03447025006391165,-0.7911798735765436,0.6106113407953833,-0.07149251174313134,-0.6074570903759489,-0.7911287531853741,,0.0,0.0,0.045,1.0,0.0,0.0,0.0,1.0,0.0,0.0,0.0,1.0,,-0.019150839222606658,-0.1589250388481224,0.2593265970793276,True,,0.14337154923703868,0.42451715279004304,-0.4533335049595685,0.3026464848122656,-0.5247408459975997,-0.795645743891402,0.7614783676197538,0.6351720882142009,-0.12925600179785296,0.5731978723599156,-0.5667481476770215,0.5918114025825549,True,,0.07684282691595004,-0.925,0.14010584787060248,-3.4129271589453554,-0.8986582874363783,1.3963
12:06:03.381961,,0.09470387323661517,-0.9000381800936212,0.14501596230000002,-3.5001303042338776,-0.8453595341859471,1.3967663639834251,,0.1472609807108111,0.4043028778655364,-0.4633041814413855,0.5372520032297948,-0.24468880221553221,-0.8071478644560119,0.691142257541479,0.6762233834898913,0.25503787064267824,0.48340734879192776,-0.694873604112152,0.5324171385691372,,0.0069187474037034,0.26461509218882506,-0.1313601415497403,-0.11722608413149899,0.8071478643934316,0.5785934410700244,-0.9531497557182993,-0.25503787062290445,0.16266907378852177,0.27886123469976176,-0.5324171385278574,0.7992298807154716,,0.08406490089203714,0.7868533960728825,1.1379740049053018,0.9955127382176558,-0.04261132681277414,-0.08449060819783663,0.018378947159807577,-0.7888042094138061,0.6143697042598681,-0.09282565565447079,-0.6131657149892806,-0.7844814871072501,,0.1348155386528624,0.6116828239318948,-0.462197664943754,0.9968453353580933,-0.07092454440735359,-0.035624238594245086,-0.03447025006391165,-0.7911798735765436,0.6106113407953833,-0.07149251174313134,-0.6074570903759489,-0.7911287531853741,,0.0,0.0,0.045,1.0,0.0,0.0,0.0,1.0,0.0,0.0,0.0,1.0,,-0.019150839222606658,-0.1589250388481224,0.2593265970793276,True,,0.1433444558046303,0.42459649464374055,-0.4533969677754869,0.3020551460898371,-0.5241271383356427,-0.7962747211740038,0.7614860989080576,0.6351691316882326,-0.12922497947457676,0.5734994419268735,-0.5673190610322438,0.5909716347668965,True,,0.12868807323147854,-0.925,0.13610174474249434,-3.3426695445623964,-0.9016601399636393,1.3963
