AlexandreBanks6/RCL_Autocam_Public/optimizationData/Data_33.csv
System Time,q_des,q0,q1,q2,q3,q4,q5,T_des,Tx,Ty,Tz,R00,R01,R02,R10,R11,R12,R20,R21,R22,T_target,Tx,Ty,Tz,R00,R01,R02,R10,R11,R12,R20,R21,R22,worldFrame,Tx,Ty,Tz,R00,R01,R02,R10,R11,R12,R20,R21,R22,ECM_T_PSM_RCM,Tx,Ty,Tz,R00,R01,R02,R10,R11,R12,R20,R21,R22,psm3_T_cam,Tx,Ty,Tz,R00,R01,R02,R10,R11,R12,R20,R21,R22,offset,x,y,z,IK Trigered,ECM_T_PSM3,Tx,Ty,Tz,R00,R01,R02,R10,R11,R12,R20,R21,R22
08:40:05.165909,,-0.5339420281910083,-0.9330760313295537,0.09260177244000001,-2.9878905430619276,-0.9285272446263291,0.9738268990075278,,0.11497876792590228,0.5197782395953792,-0.4030422943587881,0.07675889636754124,-0.6414829671460522,-0.7632874128989249,0.725764953043589,0.5608600654208634,-0.39837321690814226,0.6836470615471656,-0.5233885649090947,0.5086168551673492,,-0.04238920541832643,0.26330664458920594,-0.14507336532889029,0.9273484511652806,-0.12930419845807112,0.3511485075896953,0.19683712496167766,0.9666432065213496,-0.16387817891026263,-0.3182451827729297,0.2210912380607583,0.9218669470669753,,-0.09238737736575744,0.614064795812981,1.184690025145093,0.9963149889270091,0.045169590894683045,-0.072911939336304,0.08303179706206477,-0.7210212578723798,0.6879201017362229,-0.021497988650522628,-0.6914391178943653,-0.722114798857802,,0.0,0.0,0.0,1.0,0.0,0.0,0.0,1.0,0.0,0.0,0.0,1.0,,0.0,0.0,0.045,1.0,0.0,0.0,0.0,1.0,0.0,0.0,0.0,1.0,,-0.02272741252427273,-0.20692986320293497,0.201818166158785,True,,0.11497876792590228,0.5197782395953792,-0.4030422943587881,-0.09741656899717908,0.028871672334774667,-0.9948248281086534,0.7819436206252703,0.6205923993973844,-0.05855978119529809,0.6156900082413728,-0.7836016209444638,-0.08303200229398035
08:40:27.389691,,-0.5645008821743147,-0.9330991995281764,0.09264325372000001,-3.316453664534071,-0.9364415912650106,0.47830820723181927,,0.1151555279137301,0.5200720970869549,-0.40208383042483203,-0.023834219782756242,-0.47843052263706337,-0.8778018939240074,0.7225395045131038,0.5985906183247197,-0.34586982532679655,0.6909186597460707,-0.6424900829295787,0.3314180124130818,,-0.04377734356802287,0.26313293935652105,-0.15028510557670083,0.534357860951988,-0.6207605729125625,0.2996780680686383,0.6868248267053925,0.5116605281707708,-0.16481540661717253,-0.05850034859034528,0.33696998672662737,0.8023203189409659,,-0.09238737736575744,0.614064795812981,1.184690025145093,0.9963149889270091,0.045169590894683045,-0.072911939336304,0.08303179706206477,-0.7210212578723798,0.6879201017362229,-0.021497988650522628,-0.6914391178943653,-0.722114798857802,,0.15595545560623456,0.6474564293521036,-0.39250663083850057,0.9992688401529719,0.017661776787636512,-0.03390939014547621,0.03552403521308481,-0.7568169953866755,0.6526607682525928,-0.014136053958369189,-0.6533881672746981,-0.7568910587686299,,0.0,0.0,0.045,1.0,0.0,0.0,0.0,1.0,0.0,0.0,0.0,1.0,,-0.02272741252427273,-0.20692986320293497,0.201818166158785,True,,0.11515710324940512,0.5197437888976623,-0.4029625735461019,0.07677040229860249,-0.6434156458138764,-0.7616578050888887,0.7258751174583329,0.5597689553396481,-0.3997049292826033,0.6835287990902523,-0.5221829405101931,0.5100130953753699
08:40:27.438461,,-0.5645008821743147,-0.9330991995281764,0.09264325372000001,-3.316453664534071,-0.9364415912650106,0.47830820723181927,,0.11518829200616368,0.5200855592231698,-0.4020724892209552,-0.02477331990564245,-0.48038826005818386,-0.876705995313779,0.7225178086433631,0.5974916037286402,-0.3478100051277574,0.6909083143326948,-0.6420521030820232,0.33228722231513214,,-0.043468232401785545,0.2627376091644593,-0.15034747470130932,0.3696418358185154,-0.7452873080487314,0.3059036682913606,0.8048849327171848,0.32722949211001384,-0.17534656306353136,0.03450320126435072,0.3509031213238427,0.8132292672719139,,-0.09238737736575744,0.614064795812981,1.184690025145093,0.9963149889270091,0.045169590894683045,-0.072911939336304,0.08303179706206477,-0.7210212578723798,0.6879201017362229,-0.021497988650522628,-0.6914391178943653,-0.722114798857802,,0.15595545560623456,0.6474564293521036,-0.39250663083850057,0.9992688401529719,0.017661776787636512,-0.03390939014547621,0.03552403521308481,-0.7568169953866755,0.6526607682525928,-0.014136053958369189,-0.6533881672746981,-0.7568910587686299,,0.0,0.0,0.045,1.0,0.0,0.0,0.0,1.0,0.0,0.0,0.0,1.0,,-0.02272741252427273,-0.20692986320293497,0.201818166158785,True,,0.11515693324681237,0.5197439419272059,-0.40296378017478096,0.07676618234913649,-0.6434101807326532,-0.7616628470505266,0.7258703178135727,0.5597737981962242,-0.39970686330133975,0.68353436999522,-0.5221844829009643,0.5100040498394992
08:40:27.549005,,-0.5642460319894653,-0.9330991995281764,0.09262510566000001,-3.307227897243213,-0.9344294692382272,0.4805259010590057,,-0.02125736992472077,0.5142029015579508,-0.347155032536645,-0.4519881947865758,-0.11147866142214923,0.8850306095390702,-0.6682112404582297,0.6995818307181849,-0.2531383026218413,-0.5909318149320161,-0.7058029258769893,-0.3906940234053175,,-0.04316922977557969,0.26247610475026917,-0.15006463082264154,0.28096326050126297,-0.8001837795713879,0.31339875033994546,0.8554261824477903,0.22887023517946326,-0.18253129426755335,0.08221255492070813,0.35323865291759504,0.8282009185298357,,-0.09238737736575744,0.614064795812981,1.184690025145093,0.9963149889270091,0.045169590894683045,-0.072911939336304,0.08303179706206477,-0.7210212578723798,0.6879201017362229,-0.021497988650522628,-0.6914391178943653,-0.722114798857802,,0.15595545560623456,0.6474564293521036,-0.39250663083850057,0.9992688401529719,0.017661776787636512,-0.03390939014547621,0.03552403521308481,-0.7568169953866755,0.6526607682525928,-0.014136053958369189,-0.6533881672746981,-0.7568910587686299,,0.0,0.0,0.045,1.0,0.0,0.0,0.0,1.0,0.0,0.0,0.0,1.0,,-0.02272741252427273,-0.20692986320293497,0.201818166158785,True,,0.11510682188042132,0.5197633982563121,-0.4029848417196876,0.07096934570978067,-0.6365253183176681,-0.7679836398713954,0.7263736211251278,0.5606505453762318,-0.39755795615595885,0.6836261511258147,-0.5296286294281354,0.502144202781412
08:40:27.660436,,-0.5574731952587705,-0.9326435582885971,0.09231269977,-3.225454050801518,-0.9116254196013482,0.5303423535517812,,-0.02270975189274224,0.5087461206292552,-0.3475074667430618,-0.39810147076549585,-0.15127413359953018,0.9047824907004227,-0.6839337909958556,0.7062589589881929,-0.18284652685504163,-0.6113507900611452,-0.6916027901567674,-0.38462422198684776,,-0.04294336027446234,0.2622991398426853,-0.14979445896867646,0.22573243454161201,-0.8307640048320623,0.31930002226002785,0.8830350469209486,0.16788821012897243,-0.18745432177720667,0.11122248805515603,0.35315886668612395,0.8402290407833672,,-0.09238737736575744,0.614064795812981,1.184690025145093,0.9963149889270091,0.045169590894683045,-0.072911939336304,0.08303179706206477,-0.7210212578723798,0.6879201017362229,-0.021497988650522628,-0.6914391178943653,-0.722114798857802,,0.15595545560623456,0.6474564293521036,-0.39250663083850057,0.9992688401529719,0.017661776787636512,-0.03390939014547621,0.03552403521308481,-0.7568169953866755,0.6526607682525928,-0.014136053958369189,-0.6533881672746981,-0.7568910587686299,,0.0,0.0,0.045,1.0,0.0,0.0,0.0,1.0,0.0,0.0,0.0,1.0,,-0.02272741252427273,-0.20692986320293497,0.201818166158785,True,,0.11503773002327064,0.5199220265503586,-0.4030190627666236,0.01720238964295004,-0.5510960398393562,-0.8342644860378217,0.7284618459065527,0.5784401376083844,-0.36708356849906953,0.684870364995442,-0.6014151328965476,0.41140299108542966
08:40:27.767162,,-0.5575195316560158,-0.9245346887706614,0.09248510634000001,-3.2191637549213876,-0.8894920773067305,0.5207783351340741,,-0.024723319361997065,0.4869806731066594,-0.3495163524002495,-0.17466959398729168,-0.3074203189779724,0.9354054096571157,-0.7216591742017036,0.6862696379947851,0.09078557295640145,-0.6698496616606073,-0.6591864163087621,-0.34172313256082254,,-0.04169309155874159,0.2614400440469947,-0.14795972985909434,-0.010365649921075915,-0.9354054096370319,0.35342505978007405,0.9731001068600473,-0.09078557295445222,-0.21174078900711357,0.23014937603160443,0.3417231325534855,0.911184155561956,,-0.09238737736575744,0.614064795812981,1.184690025145093,0.9963149889270091,0.045169590894683045,-0.072911939336304,0.08303179706206477,-0.7210212578723798,0.6879201017362229,-0.021497988650522628,-0.6914391178943653,-0.722114798857802,,0.15595545560623456,0.6474564293521036,-0.39250663083850057,0.9992688401529719,0.017661776787636512,-0.03390939014547621,0.03552403521308481,-0.7568169953866755,0.6526607682525928,-0.014136053958369189,-0.6533881672746981,-0.7568910587686299,,0.0,0.0,0.045,1.0,0.0,0.0,0.0,1.0,0.0,0.0,0.0,1.0,,-0.02272741252427273,-0.20692986320293497,0.201818166158785,True,,0.11450687880732766,0.5196632027716312,-0.4022218943295471,0.007927137671113166,-0.55452877901862,-0.8321267894548654,0.7209057154246807,0.5798591386910187,-0.3795501663081432,0.6929878137141896,-0.5968762120545839,0.40435958938424965
08:40:27.870191,,-0.592202324994158,-0.8956053314238164,0.09503750135000001,-3.214970224334634,-0.8599809542472401,0.502240252476913,,-0.027249213939343417,0.486311034416367,-0.3486026426220077,-0.17467077518279583,-0.3074218889388921,0.9354046731218979,-0.7216590812241761,0.6862696899355406,0.09078591940634231,-0.6698494538205724,-0.659185630059561,-0.3417250566453394,,-0.04169278127397366,0.2614397254800595,-0.14795992737144142,-0.01036475397183495,-0.9354046731085087,0.3534270354305676,0.9730996339521397,-0.09078591940504283,-0.21174281383642113,0.2301514159171904,0.34172505664044805,0.9111829187307934,,-0.09238737736575744,0.614064795812981,1.184690025145093,0.9963149889270091,0.045169590894683045,-0.072911939336304,0.08303179706206477,-0.7210212578723798,0.6879201017362229,-0.021497988650522628,-0.6914391178943653,-0.722114798857802,,0.15595545560623456,0.6474564293521036,-0.39250663083850057,0.9992688401529719,0.017661776787636512,-0.03390939014547621,0.03552403521308481,-0.7568169953866755,0.6526607682525928,-0.014136053958369189,-0.6533881672746981,-0.7568910587686299,,0.0,0.0,0.045,1.0,0.0,0.0,0.0,1.0,0.0,0.0,0.0,1.0,,-0.02272741252427273,-0.20692986320293497,0.201818166158785,True,,0.10945466520490828,0.5183242976577227,-0.4003945754938165,0.004850428022385778,-0.537191109965376,-0.8434466104752374,0.7202610939152446,0.5869777315727585,-0.369704069804099,0.6936861177362676,-0.6057085553398318,0.38976494974294307
08:40:27.971139,,-0.624776812257637,-0.8560803845735353,0.09953562765000001,-3.2116153998652313,-0.8308722555931064,0.4833550653559849,,-0.03045411767264747,0.48492671214426764,-0.3470858355634735,-0.17459843605862146,-0.3074660249127707,0.9354036720316117,-0.7216647734183238,0.6862528907182166,0.09086762233034815,-0.6698621805513152,-0.6591825342841169,-0.34170608066261604,,-0.041692878359942044,0.2614398158950278,-0.14795986785195042,-0.010442799407184677,-0.9354036654025104,0.3534273850712665,0.9730917573427356,-0.09086762168637946,-0.21174393249137363,0.23018115813070297,0.34170607824098326,0.9111825153946924,,-0.09238737736575744,0.614064795812981,1.184690025145093,0.9963149889270091,0.045169590894683045,-0.072911939336304,0.08303179706206477,-0.7210212578723798,0.6879201017362229,-0.021497988650522628,-0.6914391178943653,-0.722114798857802,,0.15595545560623456,0.6474564293521036,-0.39250663083850057,0.9992688401529719,0.017661776787636512,-0.03390939014547621,0.03552403521308481,-0.7568169953866755,0.6526607682525928,-0.014136053958369189,-0.6533881672746981,-0.7568910587686299,,0.0,0.0,0.045,1.0,0.0,0.0,0.0,1.0,0.0,0.0,0.0,1.0,,-0.02272741252427273,-0.20692986320293497,0.201818166158785,True,,0.10304479965527416,0.5155682266517765,-0.3973580796189171,0.008244841204647024,-0.5219339706070861,-0.8529460433813102,0.7259224908362737,0.5897580316816563,-0.35386720866030963,0.6877270969589396,-0.6162551374173689,0.3837460693155427
08:40:28.067884,,-0.6508873721053902,-0.823320551721075,0.10606115151,-3.209099281513179,-0.800153859317546,0.46461842649722074,,-0.03375396318226981,0.4826125921562727,-0.34589303879723143,-0.1745266844056907,-0.30751094314549676,0.9354022964885876,-0.7216704154430479,0.68623611122983,0.09094949762598589,-0.6698748001713568,-0.6591790496442735,-0.34168806330549106,,-0.04169282028380366,0.2614397470042331,-0.14795990697124523,-0.010520396814749089,-0.9354022865970011,0.3534287231261604,0.9730836409012371,-0.09094949666422342,-0.21174606423152859,0.23021191956950976,0.34168805969224675,0.9111814971796206,,-0.09238737736575744,0.614064795812981,1.184690025145093,0.9963149889270091,0.045169590894683045,-0.072911939336304,0.08303179706206477,-0.7210212578723798,0.6879201017362229,-0.021497988650522628,-0.6914391178943653,-0.722114798857802,,0.15595545560623456,0.6474564293521036,-0.39250663083850057,0.9992688401529719,0.017661776787636512,-0.03390939014547621,0.03552403521308481,-0.7568169953866755,0.6526607682525928,-0.014136053958369189,-0.6533881672746981,-0.7568910587686299,,0.0,0.0,0.045,1.0,0.0,0.0,0.0,1.0,0.0,0.0,0.0,1.0,,-0.02272741252427273,-0.20692986320293497,0.201818166158785,True,,0.09644483735072235,0.5109527462374052,-0.39496965427678377,0.008011677492124558,-0.5127751090690204,-0.8584855855184852,0.7266420168409397,0.5927767060983347,-0.34728541010030967,0.6869695716588136,-0.6210293585865831,0.3773530752338495
08:40:28.177244,,-0.6775153550557163,-0.7960670274079367,0.11420314900000002,-3.205954133573114,-0.7686306142312721,0.44574941683738795,,-0.037438193938479816,0.4796768947630288,-0.34505523445791747,-0.1744537494727869,-0.3075542900546124,0.9354016506099877,-0.7216761464881083,0.686219273920694,0.09103102597373026,-0.6698876240720981,-0.6591763548313598,-0.34166812017845705,,-0.04169307243272265,0.2614399966597286,-0.1479597484792255,-0.010598890245326675,-0.9354016407139457,0.35342808733363446,0.9730759939828392,-0.0910310250106714,-0.21174617177389787,0.23024063998556396,0.3416681165637937,0.9111817187937172,,-0.09238737736575744,0.614064795812981,1.184690025145093,0.9963149889270091,0.045169590894683045,-0.072911939336304,0.08303179706206477,-0.7210212578723798,0.6879201017362229,-0.021497988650522628,-0.6914391178943653,-0.722114798857802,,0.15595545560623456,0.6474564293521036,-0.39250663083850057,0.9992688401529719,0.017661776787636512,-0.03390939014547621,0.03552403521308481,-0.7568169953866755,0.6526607682525928,-0.014136053958369189,-0.6533881672746981,-0.7568910587686299,,0.0,0.0,0.045,1.0,0.0,0.0,0.0,1.0,0.0,0.0,0.0,1.0,,-0.02272741252427273,-0.20692986320293497,0.201818166158785,True,,0.08907652787603838,0.5050937386893223,-0.3932911129054853,0.0035784865156412993,-0.5031096567797088,-0.8642151744150649,0.7241065803850714,0.5973421990181682,-0.34474912257347,0.6896788054430089,-0.6245502145761723,0.36644259413387187
08:40:28.286162,,-0.7014712724315607,-0.7626353167954187,0.12185385258000002,-3.2030186621623864,-0.738046359424164,0.4272185241629358,,-0.041333475854762186,0.4772080939562812,-0.34361086593075657,-0.1743818674446142,-0.3075993821905046,0.9354002268454659,-0.7216817908290785,0.6862024431014693,0.09111311578092952,-0.669900259062693,-0.6591728355731862,-0.34165013647025233,,-0.04169300611470311,0.2614402636286871,-0.1479597173937488,-0.010677444005302628,-0.935400220267916,0.3534294923300015,0.9730683124324208,-0.09111311514024006,-0.21174618184457705,0.23026948878613723,0.34165013406783595,0.9111811753773205,,-0.09238737736575744,0.614064795812981,1.184690025145093,0.9963149889270091,0.045169590894683045,-0.072911939336304,0.08303179706206477,-0.7210212578723798,0.6879201017362229,-0.021497988650522628,-0.6914391178943653,-0.722114798857802,,0.15592269906735498,0.6474493926818524,-0.3925105435438532,0.9992694777563178,0.01760572317064439,-0.03391974846980156,0.035488479758551905,-0.7568128798725264,0.6526674748012802,-0.014180219640147384,-0.6533944470001956,-0.7568848115798505,,0.0,0.0,0.045,1.0,0.0,0.0,0.0,1.0,0.0,0.0,0.0,1.0,,-0.02272741252427273,-0.20692986320293497,0.201818166158785,True,,0.08128567704195322,0.5001685940269844,-0.3903996194618684,0.003455741073354557,-0.4953766830793067,-0.8686713991579201,0.7256055335704736,0.5989840322740709,-0.33869564321467654,0.6881022216978686,-0.6291423296377692,0.3615179961667447
08:40:28.395768,,-0.7270489637109923,-0.7257901582524936,0.12884344826000002,-3.2017606029863606,-0.7071938216801512,0.4082072574758094,,-0.04545277337501542,0.47538675972459477,-0.34187331224985784,-0.17429588914839547,-0.3076381243468239,0.9354035105099501,-0.7216885368658974,0.68618378517942,0.09120015741874547,-0.669915366880273,-0.6591741783513761,-0.3416179208010869,,-0.04168679714111227,0.261442131024793,-0.14795509668861703,-0.010765370055793533,-0.935403510271479,0.3534181365882039,0.9730609998279256,-0.09120015739549497,-0.21174234672128323,0.2302963241381873,0.3416179207139951,0.911186478623123,,-0.09238737736575744,0.614064795812981,1.184690025145093,0.9963149889270091,0.045169590894683045,-0.072911939336304,0.08303179706206477,-0.7210212578723798,0.6879201017362229,-0.021497988650522628,-0.6914391178943653,-0.722114798857802,,0.15592269906735498,0.6474493926818524,-0.3925105435438532,0.9992694777563178,0.01760572317064439,-0.03391974846980156,0.035488479758551905,-0.7568128798725264,0.6526674748012802,-0.014180219640147384,-0.6533944470001956,-0.7568848115798505,,0.0,0.0,0.045,1.0,0.0,0.0,0.0,1.0,0.0,0.0,0.0,1.0,,-0.02272741252427273,-0.20692986320293497,0.201818166158785,True,,0.0730413819958509,0.4965375496213671,-0.3869241393764822,0.006188425468675596,-0.48753165611621563,-0.8730833795662352,0.7282186159693241,0.6005589308803667,-0.3301917895641152,0.6853169710038856,-0.6337522030134577,0.35874614204148364
08:40:28.418013,,-0.750054984943307,-0.6971465420219949,0.13444342106,-3.2015509264570228,-0.6803655279897055,0.3934396902846378,,-0.04904323036390938,0.4741679882510694,-0.3405704080404614,-0.1742828507061174,-0.30763352322295046,0.9354074531129114,-0.7216895593970689,0.6861819767765752,0.09120567199607861,-0.6699176574826295,-0.6591782081777479,-0.3416056528463194,,-0.04168033610920658,0.26144374881953286,-0.14795063468353936,-0.010774802803613814,-0.9354074527568597,0.3534074138868485,0.9730613411194591,-0.09120567196136226,-0.21173840242053316,0.23029444040633396,0.34160565271629123,0.9111915539495161,,-0.09238737736575744,0.614064795812981,1.184690025145093,0.9963149889270091,0.045169590894683045,-0.072911939336304,0.08303179706206477,-0.7210212578723798,0.6879201017362229,-0.021497988650522628,-0.6914391178943653,-0.722114798857802,,0.15592269906735498,0.6474493926818524,-0.3925105435438532,0.9992694777563178,0.01760572317064439,-0.03391974846980156,0.035488479758551905,-0.7568128798725264,0.6526674748012802,-0.014180219640147384,-0.6533944470001956,-0.7568848115798505,,0.0,0.0,0.045,1.0,0.0,0.0,0.0,1.0,0.0,0.0,0.0,1.0,,-0.02272741252427273,-0.20692986320293497,0.201818166158785,True,,0.06585461808961636,0.49409924363906316,-0.38432089142977793,0.007033676346697215,-0.47906798859626887,-0.877749616746926,0.7283851202799062,0.6038584613149183,-0.32374384203132944,0.685131844210935,-0.6370626507657665,0.3531933394720497
08:40:28.441206,,-0.7537541739900606,-0.6925901296262025,0.13531063907000002,-3.201970279515698,-0.6762071424676863,0.3913322205020785,,-0.04962023586060964,0.47400344246526727,-0.34035966293110187,-0.17426850638314134,-0.30762753069843873,0.9354120963721659,-0.721690684191302,0.6861800780784212,0.0912110563461597,-0.6699201773603176,-0.6591829812765748,-0.34159150042243075,,-0.04167417722608102,0.2614460210730478,-0.14794590519330136,-0.010786088195234966,-0.9354120960203939,0.3533947794861379,0.9730625972111057,-0.09121105631185877,-0.21173031044970952,0.2302886047074411,0.3415915002939715,0.911198334456715,,-0.09238737736575744,0.614064795812981,1.184690025145093,0.9963149889270091,0.045169590894683045,-0.072911939336304,0.08303179706206477,-0.7210212578723798,0.6879201017362229,-0.021497988650522628,-0.6914391178943653,-0.722114798857802,,0.15592269906735498,0.6474493926818524,-0.3925105435438532,0.9992694777563178,0.01760572317064439,-0.03391974846980156,0.035488479758551905,-0.7568128798725264,0.6526674748012802,-0.014180219640147384,-0.6533944470001956,-0.7568848115798505,,0.0,0.0,0.045,1.0,0.0,0.0,0.0,1.0,0.0,0.0,0.0,1.0,,-0.02272741252427273,-0.20692986320293497,0.201818166158785,True,,0.06469516791827472,0.49376871438820646,-0.38390193707559406,0.007508732715172384,-0.4777156518337874,-0.8784824272152701,0.7283124454550555,0.6045862962425208,-0.32254672869373263,0.6852040577290021,-0.6373877676805315,0.35246593152096256
08:40:28.551763,,-0.7591369188033951,-0.6857477882996396,0.13657452182000002,-3.2032283386917237,-0.6721828984141195,0.3892927336157308,,-0.050473705731959,0.4737839464003947,-0.34002758815519846,-0.1742554678529903,-0.307622929521267,0.9354160385390499,-0.7216917064571033,0.686178269831016,0.09121657109729375,-0.6699224677187426,-0.659187010828086,-0.34157923239149546,,-0.041667716195151194,0.2614476388572639,-0.14794144320010585,-0.010795520906129397,-0.93541603828543,0.35338405666426903,0.9730629385672391,-0.09121657107256215,-0.21172636634673714,0.23028672079169882,0.3415792322988829,0.9112034096439998,,-0.09238737736575744,0.614064795812981,1.184690025145093,0.9963149889270091,0.045169590894683045,-0.072911939336304,0.08303179706206477,-0.7210212578723798,0.6879201017362229,-0.021497988650522628,-0.6914391178943653,-0.722114798857802,,0.15592269906735498,0.6474493926818524,-0.3925105435438532,0.9992694777563178,0.01760572317064439,-0.03391974846980156,0.035488479758551905,-0.7568128798725264,0.6526674748012802,-0.014180219640147384,-0.6533944470001956,-0.7568848115798505,,0.0,0.0,0.045,1.0,0.0,0.0,0.0,1.0,0.0,0.0,0.0,1.0,,-0.02272741252427273,-0.20692986320293497,0.201818166158785,True,,0.06298237818051317,0.493328959260671,-0.38324034797218787,0.010018458800605062,-0.47518531281578347,-0.8798287043325117,0.7291501495828645,0.6055815451538662,-0.3187648844090922,0.6842804175530282,-0.6383336985098167,0.3525484356797397
08:40:28.663053,,-0.7694699353891075,-0.6687423305105972,0.14015228222,-3.20721219274914,-0.6676220884867438,0.38732572336478793,,-0.05257360215053823,0.47302808755761716,-0.33905316642204203,-0.17431359776278393,-0.307572630635283,0.9354217479399793,-0.7216871478719735,0.6861932336085383,0.0911400392049188,-0.6699122556211451,-0.6591949051941693,-0.3415840258774402,,-0.04166146853725922,0.26144948487430036,-0.14793684364978674,-0.010727802561619204,-0.9354217413420586,0.3533710032953377,0.9730716455139333,-0.09114003856206998,-0.21171927630915943,0.23025306261191994,0.34158402346810524,0.9112101118635242,,-0.09238737736575744,0.614064795812981,1.184690025145093,0.9963149889270091,0.045169590894683045,-0.072911939336304,0.08303179706206477,-0.7210212578723798,0.6879201017362229,-0.021497988650522628,-0.6914391178943653,-0.722114798857802,,0.15592269906735498,0.6474493926818524,-0.3925105435438532,0.9992694777563178,0.01760572317064439,-0.03391974846980156,0.035488479758551905,-0.7568128798725264,0.6526674748012802,-0.014180219640147384,-0.6533944470001956,-0.7568848115798505,,0.0,0.0,0.045,1.0,0.0,0.0,0.0,1.0,0.0,0.0,0.0,1.0,,-0.02272741252427273,-0.20692986320293497,0.201818166158785,True,,0.05877722264260679,0.4918035331147615,-0.38129684704651556,0.020454747402492812,-0.46927282654171265,-0.8828162988857038,0.7336767543297084,0.6068970127803219,-0.30560503273759565,0.6791907121456573,-0.6414507230862507,0.35670848936800087
08:40:28.769760,,-0.7783510781944657,-0.6623479076907393,0.14135523934000002,-3.2174863426866867,-0.6585004686319922,0.3864224952011116,,-0.05359432471995715,0.472943721560136,-0.3388909731785976,-0.17438501423452998,-0.30752657553536894,0.935423579000397,-0.7216815438184258,0.6862100771953503,0.09105756018807531,-0.6698997060174577,-0.6591988586876046,-0.3416010078771478,,-0.04166169812886156,0.26144904128074525,-0.14793684598282503,-0.01064873862774568,-0.9354235690895039,0.3533685463751983,0.9730791241053982,-0.09105755922331266,-0.21172037679069128,0.23022511028499335,0.34160100425785583,0.911210805079766,,-0.09238737736575744,0.614064795812981,1.184690025145093,0.9963149889270091,0.045169590894683045,-0.072911939336304,0.08303179706206477,-0.7210212578723798,0.6879201017362229,-0.021497988650522628,-0.6914391178943653,-0.722114798857802,,0.15592269906735498,0.6474493926818524,-0.3925105435438532,0.9992694777563178,0.01760572317064439,-0.03391974846980156,0.035488479758551905,-0.7568128798725264,0.6526674748012802,-0.014180219640147384,-0.6533944470001956,-0.7568848115798505,,0.0,0.0,0.045,1.0,0.0,0.0,0.0,1.0,0.0,0.0,0.0,1.0,,-0.02272741252427273,-0.20692986320293497,0.201818166158785,True,,0.05673629090973606,0.4916224604657434,-0.3809750904365431,0.024776971639934448,-0.4673071203983847,-0.8837477903233046,0.7282603209082958,0.6140460135957533,-0.3042768446295411,0.6848525437398183,-0.6360593906327723,0.35553543412853605
08:40:28.871104,,-0.7933331799704612,-0.6435121622105057,0.14143560932000002,-3.222937932449466,-0.6532689513623552,0.38590649321441645,,-0.055146707952945476,0.473963706822614,-0.3380117248120017,-0.17445630268320667,-0.30748069606535855,0.9354253684828459,-0.7216759459317278,0.6862268754065277,0.09097529628058278,-0.6698871752150889,-0.6592027738237731,-0.341618025673986,,-0.04166191955551562,0.261448933573134,-0.14793677821193615,-0.010570630962022598,-0.9354253585920866,0.3533661544585833,0.9730870409592198,-0.09097529531865167,-0.2117193548351923,0.23019524610905998,0.3416180220618735,0.9112119701388031,,-0.09238737736575744,0.614064795812981,1.184690025145093,0.9963149889270091,0.045169590894683045,-0.072911939336304,0.08303179706206477,-0.7210212578723798,0.6879201017362229,-0.021497988650522628,-0.6914391178943653,-0.722114798857802,,0.15592269906735498,0.6474493926818524,-0.3925105435438532,0.9992694777563178,0.01760572317064439,-0.03391974846980156,0.035488479758551905,-0.7568128798725264,0.6526674748012802,-0.014180219640147384,-0.6533944470001956,-0.7568848115798505,,0.0,0.0,0.045,1.0,0.0,0.0,0.0,1.0,0.0,0.0,0.0,1.0,,-0.02272741252427273,-0.20692986320293497,0.201818166158785,True,,0.05363202324019305,0.49364978779264945,-0.3792192992327501,0.03693302557484873,-0.4564145580452871,-0.8890003952902457,0.7322296562048835,0.6177554140374781,-0.28673677650671586,0.6800556463966503,-0.6403623971094099,0.3570158514300517
08:40:28.969102,,-0.7944375307714753,-0.6349399287201165,0.14308967536,-3.2273411395655573,-0.6497812731825973,0.38489663599746754,,-0.05597038275318887,0.4735705438705613,-0.3373506711617685,-0.17452864413562044,-0.30743656198048186,0.9354263801784741,-0.7216702613963899,0.6862436800579971,0.09089359381454631,-0.6698744555454016,-0.6592058646114117,-0.34163700307442246,,-0.041661822498387784,0.26144884318153006,-0.14793683783277964,-0.010492583558442459,-0.9354263735872388,0.35336580365850906,0.9730949231000521,-0.09089359317408857,-0.21171823554983268,0.23016551052384077,0.3416370006671674,0.9112123701135586,,-0.09238737736575744,0.614064795812981,1.184690025145093,0.9963149889270091,0.045169590894683045,-0.072911939336304,0.08303179706206477,-0.7210212578723798,0.6879201017362229,-0.021497988650522628,-0.6914391178943653,-0.722114798857802,,0.15592269906735498,0.6474493926818524,-0.3925105435438532,0.9992694777563178,0.01760572317064439,-0.03391974846980156,0.035488479758551905,-0.7568128798725264,0.6526674748012802,-0.014180219640147384,-0.6533944470001956,-0.7568848115798505,,0.0,0.0,0.045,1.0,0.0,0.0,0.0,1.0,0.0,0.0,0.0,1.0,,-0.02272741252427273,-0.20692986320293497,0.201818166158785,True,,0.051984733395400815,0.4928508883979123,-0.37790007380850776,0.04316770596405292,-0.4581282012839888,-0.8878373163762031,0.7328653953059364,0.6184899858833006,-0.283510934048668,0.6790028435322452,-0.6384267291948009,0.36244509918710965
08:40:29.061778,,-0.7990634477631358,-0.634476564747663,0.14508985083,-3.228389522212246,-0.6432083412284381,0.3818410006593005,,-0.0567930061436973,0.4728861353424611,-0.3374780591284414,-0.17460039252628515,-0.30739164109670064,0.9354277534441366,-0.7216646195210359,0.6862604526630695,0.0908117175381984,-0.669861836397048,-0.6592093522505248,-0.34165501612623533,,-0.041661880544969665,0.261448912054281,-0.147936798607797,-0.010414984087542767,-0.9354277534396735,0.3533644665097488,0.9731030382799128,-0.09081171753776512,-0.21171610434424112,0.23013475397539734,0.34165501612460525,0.911213391560965,,-0.09238737736575744,0.614064795812981,1.184690025145093,0.9963149889270091,0.045169590894683045,-0.072911939336304,0.08303179706206477,-0.7210212578723798,0.6879201017362229,-0.021497988650522628,-0.6914391178943653,-0.722114798857802,,0.15592269906735498,0.6474493926818524,-0.3925105435438532,0.9992694777563178,0.01760572317064439,-0.03391974846980156,0.035488479758551905,-0.7568128798725264,0.6526674748012802,-0.014180219640147384,-0.6533944470001956,-0.7568848115798505,,0.0,0.0,0.045,1.0,0.0,0.0,0.0,1.0,0.0,0.0,0.0,1.0,,-0.02272741252427273,-0.20692986320293497,0.201818166158785,True,,0.05033975751714352,0.49146931164612695,-0.37815768098986724,0.039656781533687596,-0.4571417476109722,-0.8885092921683916,0.7292478114599887,0.6211374851354391,-0.28702936093793496,0.6830995309317717,-0.6365607961151935,0.3580019325226962
08:40:29.169073,,-0.8031796643850975,-0.6272558095102632,0.14654947337000002,-3.2281798456829085,-0.6362329848689221,0.3776170736157956,,-0.057706315273184136,0.47263068571895084,-0.33706486222859394,-0.17453088066884917,-0.30743987888548374,0.9354248727523954,-0.721670085587735,0.6862437446269404,0.09089450218899851,-0.669874062239125,-0.6592042504651148,-0.3416408888115987,,-0.04166119376413398,0.26144854194518446,-0.14793716282276437,-0.010491747919321615,-0.9354248661186824,0.3533698188712886,0.9730944188789998,-0.09089450154440581,-0.21172016283816747,0.23016768015693156,0.34164088638879847,0.9112103651601737,,-0.09238737736575744,0.614064795812981,1.184690025145093,0.9963149889270091,0.045169590894683045,-0.072911939336304,0.08303179706206477,-0.7210212578723798,0.6879201017362229,-0.021497988650522628,-0.6914391178943653,-0.722114798857802,,0.15592269906735498,0.6474493926818524,-0.3925105435438532,0.9992694777563178,0.01760572317064439,-0.03391974846980156,0.035488479758551905,-0.7568128798725264,0.6526674748012802,-0.014180219640147384,-0.6533944470001956,-0.7568848115798505,,0.0,0.0,0.045,1.0,0.0,0.0,0.0,1.0,0.0,0.0,0.0,1.0,,-0.02272741252427273,-0.20692986320293497,0.201818166158785,True,,0.04851200597011422,0.4909716141290769,-0.37732873324143634,0.03978756658486421,-0.45667990934139124,-0.8887409127238339,0.7291031343377633,0.6214607215231789,-0.286697037136311,0.6832463457963784,-0.6365768076264077,0.35769316312737526
08:40:29.254991,,-0.8058362844938307,-0.6201508952659766,0.14809335476000002,-3.227550816094895,-0.6303307602570241,0.37345483823363196,,-0.058560409245176095,0.4722992423436194,-0.3365866607998511,-0.17448628086790507,-0.3075223814212782,0.9354060736994775,-0.7216735907534562,0.6862280077928986,0.09098543690944395,-0.6698819046652175,-0.6591821495198238,-0.3416681541445224,,-0.04165921388884,0.2614461887931719,-0.1479384879750647,-0.01054862240527965,-0.9354060585444073,0.35341788268362734,0.9730748056072296,-0.09098543543533477,-0.21177119924084392,0.23024794647208807,0.3416681486089534,0.9111798543472782,,-0.09238737736575744,0.614064795812981,1.184690025145093,0.9963149889270091,0.045169590894683045,-0.072911939336304,0.08303179706206477,-0.7210212578723798,0.6879201017362229,-0.021497988650522628,-0.6914391178943653,-0.722114798857802,,0.15592269906735498,0.6474493926818524,-0.3925105435438532,0.9992694777563178,0.01760572317064439,-0.03391974846980156,0.035488479758551905,-0.7568128798725264,0.6526674748012802,-0.014180219640147384,-0.6533944470001956,-0.7568848115798505,,0.0,0.0,0.045,1.0,0.0,0.0,0.0,1.0,0.0,0.0,0.0,1.0,,-0.02272741252427273,-0.20692986320293497,0.201818166158785,True,,0.04679892429763409,0.4903251754120958,-0.3763752313582534,0.04034715827085836,-0.45727351787853976,-0.8884103987833838,0.7296515087282712,0.6209263247963325,-0.28645972663792896,0.6826278507576613,-0.6366721519132937,0.35870292492266065
08:40:29.322691,,-0.8083538954108279,-0.6180889255885587,0.14902409098000002,-3.2258734038601933,-0.6272455064826228,0.3725111664172174,,-0.05904707047073805,0.4720589267037719,-0.33651452871465903,-0.1744410839676955,-0.30760409546717565,0.935387635515884,-0.7216771412984752,0.686212233687997,0.09107619921906268,-0.6698898506108567,-0.6591604438896123,-0.34169445014488237,,-0.041657388987815,0.26144399506369537,-0.14793971436562667,-0.010605940561623228,-0.9353876181439837,0.35346496389880416,0.9730554251151462,-0.0910761975276071,-0.21182121884775684,0.23032719451910216,0.3416944437989765,0.9111499620798558,,-0.09238737736575744,0.614064795812981,1.184690025145093,0.9963149889270091,0.045169590894683045,-0.072911939336304,0.08303179706206477,-0.7210212578723798,0.6879201017362229,-0.021497988650522628,-0.6914391178943653,-0.722114798857802,,0.15592269906735498,0.6474493926818524,-0.3925105435438532,0.9992694777563178,0.01760572317064439,-0.03391974846980156,0.035488479758551905,-0.7568128798725264,0.6526674748012802,-0.014180219640147384,-0.6533944470001956,-0.7568848115798505,,0.0,0.0,0.045,1.0,0.0,0.0,0.0,1.0,0.0,0.0,0.0,1.0,,-0.02272741252427273,-0.20692986320293497,0.201818166158785,True,,0.04582091902702819,0.48986080601986826,-0.3762338166773632,0.03862620897458108,-0.45490446855045785,-0.8897021639139009,0.7296423891730514,0.621180218149854,-0.285932020769171,0.6827371382179921,-0.6381199425438181,0.3559114201957854
08:40:29.381321,,-0.8094505234789677,-0.6163204197603612,0.14967742114000002,-3.225244374272181,-0.6253675259242916,0.3733503286155608,,-0.059361485405508146,0.4718767851547674,-0.3364064904498404,-0.17439587994452665,-0.30768580558616615,0.9353691902661568,-0.7216806908447981,0.6861964481295292,0.0911669624161801,-0.6698977963242968,-0.6591387407937803,-0.3417207381249206,,-0.04165556393862761,0.2614418014755543,-0.14794094075931294,-0.010663254623968388,-0.9353691764820931,0.3535120496037505,0.973036040373791,-0.09116696107269856,-0.211871234171778,0.23040644448783923,0.3417207330891545,0.9111200697177579,,-0.09238737736575744,0.614064795812981,1.184690025145093,0.9963149889270091,0.045169590894683045,-0.072911939336304,0.08303179706206477,-0.7210212578723798,0.6879201017362229,-0.021497988650522628,-0.6914391178943653,-0.722114798857802,,0.15600130552468247,0.647466692407958,-0.3925314810588998,0.9992671327723864,0.017696061408196774,-0.03394181449910391,0.035571849437037555,-0.7567847878260171,0.6526955097461289,-0.01413650906281259,-0.6534245437124073,-0.7568596466887038,,0.0,0.0,0.045,1.0,0.0,0.0,0.0,1.0,0.0,0.0,0.0,1.0,,-0.02272741252427273,-0.20692986320293497,0.201818166158785,True,,0.045187405094592875,0.48951278480555344,-0.37602058839094554,0.03818995550814819,-0.4527603576505204,-0.8908140018199414,0.7297453570229324,0.6216402237401473,-0.2846667281783608,0.6826516250634423,-0.6391959721153385,0.35414018132622105
08:40:29.469607,,-0.8106243788758499,-0.6137641951789929,0.15047982465,-3.226292756918869,-0.624428535645126,0.3730810932742304,,-0.05981561421965778,0.4716649444883644,-0.3362080458616009,-0.17435719808274597,-0.30776858716547867,0.9353491670124581,-0.7216837270154679,0.6861816770828798,0.09125406400150182,-0.6699045944295334,-0.6591154699973988,-0.341752295635758,,-0.04165529594289058,0.2614410352453225,-0.14794145538456818,-0.01071427441981787,-0.9353491623429164,0.3535634862983812,0.9730159859520677,-0.09125406354593435,-0.21192587615363123,0.2304887967359509,0.3417522939296287,0.911087413033708,,-0.09238737736575744,0.614064795812981,1.184690025145093,0.9963149889270091,0.045169590894683045,-0.072911939336304,0.08303179706206477,-0.7210212578723798,0.6879201017362229,-0.021497988650522628,-0.6914391178943653,-0.722114798857802,,0.15600130552468247,0.647466692407958,-0.3925314810588998,0.9992671327723864,0.017696061408196774,-0.03394181449910391,0.035571849437037555,-0.7567847878260171,0.6526955097461289,-0.01413650906281259,-0.6534245437124073,-0.7568596466887038,,0.0,0.0,0.045,1.0,0.0,0.0,0.0,1.0,0.0,0.0,0.0,1.0,,-0.02272741252427273,-0.20692986320293497,0.201818166158785,True,,0.04427577586623327,0.48910337044870417,-0.37562807600339115,0.0400562147743424,-0.4523079028331606,-0.8909618738715033,0.7300531507764599,0.6220529395094383,-0.28297091279675857,0.682215432762493,-0.639114779583711,0.35512589573044273
08:40:29.534180,,-0.8130415942654822,-0.6096479785570312,0.15169315209,-3.2302766109762846,-0.6233554038975081,0.3721928218842865,,-0.06044888673443946,0.47139283446824354,-0.33593623169442466,-0.17438850703262504,-0.3078041051483335,0.9353316425037516,-0.7216812696386468,0.6861836349775114,0.09125877569746425,-0.669899092153201,-0.6590968456478025,-0.34179899705738476,,-0.041655551878688975,0.2614408155824088,-0.1479416349871997,-0.010689039552249813,-0.9353316424125986,0.3536106092021146,0.9730047712938812,-0.0912587756885706,-0.21197535400195583,0.23053732729838303,0.3417989970240746,0.9110576195612132,,-0.09238737736575744,0.614064795812981,1.184690025145093,0.9963149889270091,0.045169590894683045,-0.072911939336304,0.08303179706206477,-0.7210212578723798,0.6879201017362229,-0.021497988650522628,-0.6914391178943653,-0.722114798857802,,0.15600130552468247,0.647466692407958,-0.3925314810588998,0.9992671327723864,0.017696061408196774,-0.03394181449910391,0.035571849437037555,-0.7567847878260171,0.6526955097461289,-0.01413650906281259,-0.6534245437124073,-0.7568596466887038,,0.0,0.0,0.045,1.0,0.0,0.0,0.0,1.0,0.0,0.0,0.0,1.0,,-0.02272741252427273,-0.20692986320293497,0.201818166158785,True,,0.04300677047361878,0.4885601003842503,-0.3750915067867592,0.04454055189601491,-0.45267439795799125,-0.8905627595347613,0.7297949098303778,0.6235054540731853,-0.28042884717279437,0.6822136973283882,-0.6374377131723239,0.3581307484748677
08:40:29.632890,,-0.814478022580088,-0.6076014543453617,0.15220129777000002,-3.231954023210986,-0.6230871209606037,0.3708169864989594,,-0.060753330549306414,0.4713099403615539,-0.3358139978823318,-0.1743964325818514,-0.307808067847575,0.9353288607065787,-0.721680647459579,0.6861846212971473,0.09125627966125592,-0.669897699193725,-0.6590939681587394,-0.3418072757442711,,-0.041656619231393466,0.26144277266297056,-0.14794100949411462,-0.0106842732592895,-0.9353288605716165,0.3536181112416822,0.9730047223110604,-0.09125627964808819,-0.2119766531875108,0.23053775477502403,0.3418072756949504,0.9110544054098522,,-0.09238737736575744,0.614064795812981,1.184690025145093,0.9963149889270091,0.045169590894683045,-0.072911939336304,0.08303179706206477,-0.7210212578723798,0.6879201017362229,-0.021497988650522628,-0.6914391178943653,-0.722114798857802,,0.15600130552468247,0.647466692407958,-0.3925314810588998,0.9992671327723864,0.017696061408196774,-0.03394181449910391,0.035571849437037555,-0.7567847878260171,0.6526955097461289,-0.01413650906281259,-0.6534245437124073,-0.7568596466887038,,0.0,0.0,0.045,1.0,0.0,0.0,0.0,1.0,0.0,0.0,0.0,1.0,,-0.02272741252427273,-0.20692986320293497,0.201818166158785,True,,0.04239851901802759,0.4883919682046969,-0.37484894785212597,0.046756144362195606,-0.4533277272262921,-0.8901167534049822,0.7298928909300577,0.6238590826910564,-0.2793854196511273,0.6819605785777828,-0.636626905394139,0.3600499306959209
08:40:29.735476,,-0.8161152419494235,-0.6049988933667481,0.15331092201000002,-3.235308847680389,-0.6222822721498903,0.3684804030882837,,-0.0612597093408207,0.4710052846274521,-0.33563530558310417,-0.17440389264007822,-0.3078110681538812,0.935326482333284,-0.7216800617791665,0.6861856209065151,0.09125339495908395,-0.6698963880051946,-0.6590915262564881,-0.3418145540413496,,-0.04165784986108301,0.2614445531205483,-0.14794035523867136,-0.010678998969114062,-0.935326482238946,0.35362456136673326,0.9730044678969141,-0.09125339494988005,-0.21197906302520136,0.23053907311329844,0.3418145540068738,0.9110513411632855,,-0.09238737736575744,0.614064795812981,1.184690025145093,0.9963149889270091,0.045169590894683045,-0.072911939336304,0.08303179706206477,-0.7210212578723798,0.6879201017362229,-0.021497988650522628,-0.6914391178943653,-0.722114798857802,,0.15600130552468247,0.647466692407958,-0.3925314810588998,0.9992671327723864,0.017696061408196774,-0.03394181449910391,0.035571849437037555,-0.7567847878260171,0.6526955097461289,-0.01413650906281259,-0.6534245437124073,-0.7568596466887038,,0.0,0.0,0.045,1.0,0.0,0.0,0.0,1.0,0.0,0.0,0.0,1.0,,-0.02272741252427273,-0.20692986320293497,0.201818166158785,True,,0.04138662341682786,0.4877804291500789,-0.3744933456451612,0.05001431485184882,-0.45542043638515883,-0.8888705161229346,0.7293110501485274,0.6246969337021575,-0.2790324948001127,0.6823517864277581,-0.6343074705108511,0.3633869458483249
08:40:29.812589,,-0.8179841433049858,-0.6021723731347819,0.15394480782,-3.237615289503103,-0.622148130681438,0.3667592607348668,,-0.061657067020946185,0.47092527682634133,-0.33546045188232876,-0.1744832376697906,-0.30776897498815853,0.935325535739833,-0.7216738298677043,0.686203470038839,0.09116842101701722,-0.6698824397283056,-0.659092600278136,-0.3418398180467838,,-0.041659147765842605,0.2614460659149565,-0.14793973196852567,-0.010595170837573997,-0.935325529137037,0.35362958414240775,0.9730118991123198,-0.09116842037342687,-0.21198148313883186,0.23051154509492,0.3418398156336148,0.9110488208141301,,-0.09238737736575744,0.614064795812981,1.184690025145093,0.9963149889270091,0.045169590894683045,-0.072911939336304,0.08303179706206477,-0.7210212578723798,0.6879201017362229,-0.021497988650522628,-0.6914391178943653,-0.722114798857802,,0.15600130552468247,0.647466692407958,-0.3925314810588998,0.9992671327723864,0.017696061408196774,-0.03394181449910391,0.035571849437037555,-0.7567847878260171,0.6526955097461289,-0.01413650906281259,-0.6534245437124073,-0.7568596466887038,,0.0,0.0,0.045,1.0,0.0,0.0,0.0,1.0,0.0,0.0,0.0,1.0,,-0.02272741252427273,-0.20692986320293497,0.201818166158785,True,,0.040593059239351595,0.4876057297924289,-0.3741481774345983,0.05323520439323981,-0.4562433090614487,-0.8882612543333575,0.7295421430435131,0.6251615797298131,-0.2773828775415002,0.6818608908983477,-0.6332574848877697,0.3661293259176704
08:40:29.882293,,-0.8187409711266599,-0.6008749540119122,0.15439591674000003,-3.239292701737805,-0.622148130681438,0.36607044429436464,,-0.06187794324782546,0.4708223091330176,-0.33536865159564644,-0.17455605095040233,-0.30772580428337837,0.9353261540525575,-0.721668106747612,0.6862202870484004,0.09108710856388166,-0.6698696356604902,-0.6590952488232327,-0.3418598019637921,,-0.04165888841276515,0.2614461514721958,-0.14793982035941555,-0.010517633101433332,-0.9353261441483012,0.3536302621219339,0.9730199923416756,-0.09108710759935174,-0.21197927293582797,0.2304809161712999,0.34185979834380664,0.9110490680413337,,-0.09238737736575744,0.614064795812981,1.184690025145093,0.9963149889270091,0.045169590894683045,-0.072911939336304,0.08303179706206477,-0.7210212578723798,0.6879201017362229,-0.021497988650522628,-0.6914391178943653,-0.722114798857802,,0.15600130552468247,0.647466692407958,-0.3925314810588998,0.9992671327723864,0.017696061408196774,-0.03394181449910391,0.035571849437037555,-0.7567847878260171,0.6526955097461289,-0.01413650906281259,-0.6534245437124073,-0.7568596466887038,,0.0,0.0,0.045,1.0,0.0,0.0,0.0,1.0,0.0,0.0,0.0,1.0,,-0.02272741252427273,-0.20692986320293497,0.201818166158785,True,,0.04015114327098791,0.48738710541830604,-0.37396758597748014,0.05513395199916318,-0.4569132709304561,-0.8878009406306044,0.7294335694529194,0.6256030643644376,-0.2766721410135088,0.6818261619299508,-0.6323377805456966,0.36777984746640957
08:40:29.972986,,-0.8194282943524658,-0.5999868397313763,0.15497665466000002,-3.240550760913831,-0.622148130681438,0.36531274620981224,,-0.062118404985707906,0.47064974689810124,-0.33530541610212117,-0.1746148999686938,-0.30766179209152794,0.9353362274583148,-0.7216634782631008,0.6862367082331348,0.09100002425579051,-0.6698592843651016,-0.6591080351204808,-0.3418554331724055,,-0.041659705950791874,0.26144614593318016,-0.14793950389298882,-0.010440036291148536,-0.9353362168710174,0.3536059168243201,0.973028113075273,-0.09100002322573919,-0.21197939593178372,0.23045015549773118,0.34185542930286106,0.9110584880504343,,-0.09238737736575744,0.614064795812981,1.184690025145093,0.9963149889270091,0.045169590894683045,-0.072911939336304,0.08303179706206477,-0.7210212578723798,0.6879201017362229,-0.021497988650522628,-0.6914391178943653,-0.722114798857802,,0.15600130552468247,0.647466692407958,-0.3925314810588998,0.9992671327723864,0.017696061408196774,-0.03394181449910391,0.035571849437037555,-0.7567847878260171,0.6526955097461289,-0.01413650906281259,-0.6534245437124073,-0.7568596466887038,,0.0,0.0,0.045,1.0,0.0,0.0,0.0,1.0,0.0,0.0,0.0,1.0,,-0.02272741252427273,-0.20692986320293497,0.201818166158785,True,,0.03967259871114211,0.4870284884197349,-0.37384075429419134,0.05649376916791515,-0.4575256360338064,-0.887399992346779,0.7293052050616233,0.6259238740518499,-0.2762846752209534,0.6818521628001382,-0.6315770707235857,0.36903662666595716
08:40:30.050368,,-0.8209419499958138,-0.5979248700539584,0.15563257740000003,-3.240550760913831,-0.6205384330600113,0.362223857201616,,-0.06248011796182658,0.47051913756214614,-0.33518723645321924,-0.17467269081295395,-0.30759603130399793,0.9353470653239856,-0.7216589304335347,0.6862531076848035,0.09091237714676802,-0.6698491167492041,-0.6591216532014249,-0.3418490998544997,,-0.04166084186692302,0.26144612311568,-0.14793905978536503,-0.010362378824350316,-0.9353470577972032,0.353579533459052,0.9730362616373234,-0.09091237641519179,-0.21197961519756936,0.23041926688076184,0.34184909710362366,0.9110686802681093,,-0.09238737736575744,0.614064795812981,1.184690025145093,0.9963149889270091,0.045169590894683045,-0.072911939336304,0.08303179706206477,-0.7210212578723798,0.6879201017362229,-0.021497988650522628,-0.6914391178943653,-0.722114798857802,,0.15600130552468247,0.647466692407958,-0.3925314810588998,0.9992671327723864,0.017696061408196774,-0.03394181449910391,0.035571849437037555,-0.7567847878260171,0.6526955097461289,-0.01413650906281259,-0.6534245437124073,-0.7568596466887038,,0.0,0.0,0.045,1.0,0.0,0.0,0.0,1.0,0.0,0.0,0.0,1.0,,-0.02272741252427273,-0.20692986320293497,0.201818166158785,True,,0.03895198854421489,0.4867537072634263,-0.37360385743973584,0.056816767882989366,-0.4587793252227729,-0.8867318566711515,0.7293861011244949,0.6255513081422612,-0.27691420398367766,0.6817387845602878,-0.6310365216290124,0.3701690667743842
08:40:30.152160,,-0.821806896077727,-0.5959632959039054,0.15601239037,-3.23971205479648,-0.6183921695647757,0.3590007998966737,,-0.06272252899608426,0.4704726646613271,-0.33505990477250025,-0.17473060393359505,-0.30753009140896914,0.9353579309157496,-0.7216543704260148,0.6862695369245082,0.0908245139510995,-0.6698389251857745,-0.6591353165833342,-0.3418427251508423,,-0.041661985909697635,0.2614457644396735,-0.14793868558965706,-0.010283763893604358,-0.9353579299888408,0.35355308657291834,0.9730439640472051,-0.09082451386109541,-0.21198195614547785,0.23039029113560366,0.34184272481208744,0.9110784067584774,,-0.09238737736575744,0.614064795812981,1.184690025145093,0.9963149889270091,0.045169590894683045,-0.072911939336304,0.08303179706206477,-0.7210212578723798,0.6879201017362229,-0.021497988650522628,-0.6914391178943653,-0.722114798857802,,0.15600130552468247,0.647466692407958,-0.3925314810588998,0.9992671327723864,0.017696061408196774,-0.03394181449910391,0.035571849437037555,-0.7567847878260171,0.6526955097461289,-0.01413650906281259,-0.6534245437124073,-0.7568596466887038,,0.0,0.0,0.045,1.0,0.0,0.0,0.0,1.0,0.0,0.0,0.0,1.0,,-0.02272741252427273,-0.20692986320293497,0.201818166158785,True,,0.03846999468519757,0.48664750134246615,-0.37334858019493894,0.056229242850516975,-0.46032524847790574,-0.8859677973054167,0.7295284942694455,0.624765036250994,-0.2783106636966143,0.6816351284209268,-0.6306895552425525,0.3709504503441641
08:40:30.174519,,-0.8224401601734134,-0.594573203986545,0.15662812812000002,-3.236776583385753,-0.6135630767004955,0.3544180846674997,,-0.06300210285340808,0.4702862372815654,-0.3349751766105812,-0.17471828879246512,-0.30751178385316996,0.935366250381568,-0.7216553403191611,0.6862691834792977,0.09081947806221953,-0.6698410926109779,-0.6591442259461123,-0.3418212984172168,,-0.04166258928292524,0.26144553150914773,-0.14793850714628373,-0.010283315661844261,-0.9353662497816393,0.35353108902282343,0.9730437276693613,-0.09081947800396939,-0.21198520036934881,0.23039131098968407,0.3418212981979782,0.9110861883685517,,-0.09238737736575744,0.614064795812981,1.184690025145093,0.9963149889270091,0.045169590894683045,-0.072911939336304,0.08303179706206477,-0.7210212578723798,0.6879201017362229,-0.021497988650522628,-0.6914391178943653,-0.722114798857802,,0.15600130552468247,0.647466692407958,-0.3925314810588998,0.9992671327723864,0.017696061408196774,-0.03394181449910391,0.035571849437037555,-0.7567847878260171,0.6526955097461289,-0.01413650906281259,-0.6534245437124073,-0.7568596466887038,,0.0,0.0,0.045,1.0,0.0,0.0,0.0,1.0,0.0,0.0,0.0,1.0,,-0.02272741252427273,-0.20692986320293497,0.201818166158785,True,,0.03791273986097933,0.48627409895069207,-0.3731759811707623,0.05218075442123765,-0.46227678605705036,-0.8851990408607519,0.7289709009540585,0.6234770822350054,-0.28262652651503356,0.6825529975249244,-0.6305366769669221,0.3695198297375291
08:40:30.236625,,-0.8226718421596401,-0.5943260765345698,0.15667738714,-3.236776583385753,-0.6134289352320432,0.3542812201272379,,-0.06304119353283916,0.4702846689396335,-0.33496559776235313,-0.17470479274191836,-0.3074919059879691,0.9353753060375762,-0.7216564030833383,0.6862687782206063,0.09081409542804808,-0.6698434677458768,-0.6591539211682522,-0.3417979475167984,,-0.0416635029396319,0.26144561713618397,-0.14793813117425408,-0.010283763874699314,-0.9353753060264189,0.35350711598593926,0.9730439650023408,-0.09081409542696484,-0.21198641989629746,0.2303902913519505,0.34179794751272136,0.9110952072659576,,-0.09238737736575744,0.614064795812981,1.184690025145093,0.9963149889270091,0.045169590894683045,-0.072911939336304,0.08303179706206477,-0.7210212578723798,0.6879201017362229,-0.021497988650522628,-0.6914391178943653,-0.722114798857802,,0.15600130552468247,0.647466692407958,-0.3925314810588998,0.9992671327723864,0.017696061408196774,-0.03394181449910391,0.035571849437037555,-0.7567847878260171,0.6526955097461289,-0.01413650906281259,-0.6534245437124073,-0.7568596466887038,,0.0,0.0,0.045,1.0,0.0,0.0,0.0,1.0,0.0,0.0,0.0,1.0,,-0.02272741252427273,-0.20692986320293497,0.201818166158785,True,,0.03783687578550515,0.4862700423314955,-0.37315358005677085,0.05225638205538388,-0.4621773603190935,-0.8852464956965133,0.7290074809490958,0.6234973252568428,-0.28248748311706984,0.6825081415300008,-0.6305895440031002,0.3695124676370565
08:40:30.291170,,-0.8232587698580812,-0.5934688531855309,0.15694701546,-3.2330024058576745,-0.6080632764939541,0.34956433660131797,,-0.06319816304701387,0.47021574327826576,-0.3349365663518631,-0.1747053832564943,-0.3074926909920048,0.9353749376841871,-0.7216563565854011,0.6862688041788785,0.09081426876199991,-0.6698433638255185,-0.6591535279412436,-0.34179890950897773,,-0.041663347799187664,0.26144545785822415,-0.14793822994196948,-0.010283315666705317,-0.9353749376741457,0.3535081036815374,0.9730437282828562,-0.090814268761025,-0.21198743221551863,0.23039131113570166,0.34179890950530845,0.9110945884992863,,-0.09238737736575744,0.614064795812981,1.184690025145093,0.9963149889270091,0.045169590894683045,-0.072911939336304,0.08303179706206477,-0.7210212578723798,0.6879201017362229,-0.021497988650522628,-0.6914391178943653,-0.722114798857802,,0.15600130552468247,0.647466692407958,-0.3925314810588998,0.9992671327723864,0.017696061408196774,-0.03394181449910391,0.035571849437037555,-0.7567847878260171,0.6526955097461289,-0.01413650906281259,-0.6534245437124073,-0.7568596466887038,,0.0,0.0,0.045,1.0,0.0,0.0,0.0,1.0,0.0,0.0,0.0,1.0,,-0.02272741252427273,-0.20692986320293497,0.201818166158785,True,,0.037522724521936196,0.48613237715348234,-0.37309556757686324,0.0469511002498767,-0.4639239474760811,-0.8846299594426682,0.7282870190965615,0.6220223588614423,-0.2875520872674935,0.6836619135221526,-0.6307636292896553,0.3670744229234332
08:40:30.372454,,-0.8237144110976604,-0.592611629836492,0.15717386621,-3.23069596403496,-0.6061852959356229,0.3476482330376526,,-0.06333090047269242,0.4701709307474651,-0.33488810137191216,-0.17470479274191844,-0.30749190598796894,0.9353753060375762,-0.7216564030833383,0.6862687782206062,0.09081409542804789,-0.6698434677458768,-0.6591539211682522,-0.3417979475167983,,-0.0416635029396319,0.26144561713618397,-0.1479381311742541,-0.010283763874699148,-0.9353753060264192,0.35350711598593926,0.973043965002341,-0.09081409542696467,-0.21198641989629752,0.2303902913519505,0.3417979475127214,0.9110952072659577,,-0.09238737736575744,0.614064795812981,1.184690025145093,0.9963149889270091,0.045169590894683045,-0.072911939336304,0.08303179706206477,-0.7210212578723798,0.6879201017362229,-0.021497988650522628,-0.6914391178943653,-0.722114798857802,,0.15600130552468247,0.647466692407958,-0.3925314810588998,0.9992671327723864,0.017696061408196774,-0.03394181449910391,0.035571849437037555,-0.7567847878260171,0.6526955097461289,-0.01413650906281259,-0.6534245437124073,-0.7568596466887038,,0.0,0.0,0.045,1.0,0.0,0.0,0.0,1.0,0.0,0.0,0.0,1.0,,-0.02272741252427273,-0.20692986320293497,0.201818166158785,True,,0.037257461905798636,0.4860425659471587,-0.37299858727588897,0.044877089363449696,-0.4640599002757695,-0.8846662962983884,0.7286716443245373,0.6209989875537434,-0.2887869322088531,0.6833913092860049,-0.6316713278385119,0.3660159176580869
08:40:30.435051,,-0.8243399524604726,-0.5910748059945213,0.15772219688000003,-3.228599198741583,-0.6020269104136037,0.3442320120181391,,-0.06359372346971558,0.4700199435704965,-0.33478686277248143,-0.17470631350514387,-0.3074946153050163,0.9353741313398947,-0.7216562833357918,0.68626877830529,0.09081504635981999,-0.6698432001173213,-0.6591526571908702,-0.3418009095581832,,-0.041663021214968295,0.2614458111005713,-0.14793828744284512,-0.01028433213035651,-0.9353741313298533,0.35351020767452346,0.9730441396050081,-0.09081504635884508,-0.21198521107313095,0.2303895285630655,0.3418009095545139,0.9110942889376078,,-0.09238737736575744,0.614064795812981,1.184690025145093,0.9963149889270091,0.045169590894683045,-0.072911939336304,0.08303179706206477,-0.7210212578723798,0.6879201017362229,-0.021497988650522628,-0.6914391178943653,-0.722114798857802,,0.15600130552468247,0.647466692407958,-0.3925314810588998,0.9992671327723864,0.017696061408196774,-0.03394181449910391,0.035571849437037555,-0.7567847878260171,0.6526955097461289,-0.01413650906281259,-0.6534245437124073,-0.7568596466887038,,0.0,0.0,0.045,1.0,0.0,0.0,0.0,1.0,0.0,0.0,0.0,1.0,,-0.02272741252427273,-0.20692986320293497,0.201818166158785,True,,0.03673115210894805,0.4857405450232588,-0.3727964129248511,0.041863722355279354,-0.46540544628173675,-0.8841070067146044,0.7281760368218837,0.6201010946891505,-0.2919491253004396,0.684110435638088,-0.6315634591524549,0.36485683344902653
08:40:30.527621,,-0.8250581666177755,-0.5897928323374,0.15792052925000002,-3.228389522212246,-0.6006854957290815,0.3430700115476717,,-0.06374641873374588,0.47000705997066555,-0.33471219803532715,-0.1746327930749659,-0.3075371828174959,0.9353738657710693,-0.7216620704438321,0.6862519217008717,0.09089640281431449,-0.669856136543928,-0.6591503479074701,-0.3417800099302235,,-0.041663427683463,0.2614462204575114,-0.14793803066355996,-0.010363274678124867,-0.935373859185828,0.3535086024544654,0.9730367357285532,-0.0908964021743835,-0.2119842940267678,0.2304172289135952,0.3417800075240158,0.9110951174252973,,-0.09238737736575744,0.614064795812981,1.184690025145093,0.9963149889270091,0.045169590894683045,-0.072911939336304,0.08303179706206477,-0.7210212578723798,0.6879201017362229,-0.021497988650522628,-0.6914391178943653,-0.722114798857802,,0.1558859762247865,0.647449227019069,-0.3925088577499869,0.9992699472270296,0.01757936903406947,-0.03391958657256617,0.03546837187893767,-0.756815766833696,0.6526652202072529,-0.014197435160873092,-0.6533918126639549,-0.7568867629827888,,0.0,0.0,0.045,1.0,0.0,0.0,0.0,1.0,0.0,0.0,0.0,1.0,,-0.02272741252427273,-0.20692986320293497,0.201818166158785,True,,0.03642612688621426,0.48572697871710346,-0.372644100787494,0.04170922339182237,-0.46561590826182087,-0.8840034879216092,0.7281700496014843,0.6199899687535211,-0.29219996151330996,0.684126245328611,-0.6315174301779228,0.36490685912167986
08:40:30.603239,,-0.8258149944394495,-0.5883641267556685,0.15841830461,-3.2309056405642975,-0.6010879201344381,0.3438938950327584,,-0.06398736365128989,0.4698878098660708,-0.33460102545213705,-0.17455793571972325,-0.3075859740672882,0.9353717954024199,-0.7216679585511526,0.6862342226878356,0.0909832358879036,-0.6698693041764795,-0.6591460082326978,-0.3417625713167251,,-0.04165592918924137,0.2614478106988991,-0.14793895684420605,-0.010446226194281205,-0.9353717849563105,0.35351163761636795,0.9730287656599647,-0.09098323487181476,-0.2119836074671073,0.23044712022675903,0.3417625674999656,0.9110940949755342,,-0.09238737736575744,0.614064795812981,1.184690025145093,0.9963149889270091,0.045169590894683045,-0.072911939336304,0.08303179706206477,-0.7210212578723798,0.6879201017362229,-0.021497988650522628,-0.6914391178943653,-0.722114798857802,,0.1558859762247865,0.647449227019069,-0.3925088577499869,0.9992699472270296,0.01757936903406947,-0.03391958657256617,0.03546837187893767,-0.756815766833696,0.6526652202072529,-0.014197435160873092,-0.6533918126639549,-0.7568867629827888,,0.0,0.0,0.045,1.0,0.0,0.0,0.0,1.0,0.0,0.0,0.0,1.0,,-0.02272741252427273,-0.20692986320293497,0.201818166158785,True,,0.03593641764976392,0.4855003473929326,-0.3724181264553754,0.04448260328501677,-0.4653242030483936,-0.8840218798549986,0.7279804940002467,0.6211037860180331,-0.29030068437608336,0.6841532711024225,-0.6306373546273983,0.36637525651770275
08:40:30.671108,,-0.8265100403981297,-0.5877926445229759,0.15866719229,-3.2334217589163496,-0.6024293348189604,0.3459513568758787,,-0.06411509947421846,0.46983271014176425,-0.33456981143087705,-0.17448142950063777,-0.30763223116908234,0.9353708575240873,-0.7216739719382538,0.6862164781170641,0.0910693328595166,-0.6698827576421702,-0.6591428946037007,-0.34174220621277723,,-0.041648904227734804,0.2614495428503421,-0.14793965661724018,-0.010529566081453168,-0.9353708469027937,0.35351164661457807,0.9730210597042832,-0.091069331825409,-0.21198200740272924,0.23047586185922705,0.34174220233223696,0.9110944635629297,,-0.09238737736575744,0.614064795812981,1.184690025145093,0.9963149889270091,0.045169590894683045,-0.072911939336304,0.08303179706206477,-0.7210212578723798,0.6879201017362229,-0.021497988650522628,-0.6914391178943653,-0.722114798857802,,0.1558859762247865,0.647449227019069,-0.3925088577499869,0.9992699472270296,0.01757936903406947,-0.03391958657256617,0.03546837187893767,-0.756815766833696,0.6526652202072529,-0.014197435160873092,-0.6533918126639549,-0.7568867629827888,,0.0,0.0,0.045,1.0,0.0,0.0,0.0,1.0,0.0,0.0,0.0,1.0,,-0.02272741252427273,-0.20692986320293497,0.201818166158785,True,,0.03567377567125864,0.4854017608234765,-0.37235184204870936,0.047291847053704705,-0.4640514994220249,-0.8845449039401108,0.7278472316088898,0.6224884733079736,-0.2876569276725037,0.6841066354315859,-0.6302097321391341,0.36719722885064987
08:40:30.748959,,-0.8271201362951934,-0.587352448749145,0.15897441302,-3.235937877268402,-0.6036366080350305,0.3476653092465865,,-0.06424939997945676,0.46974503729611194,-0.3345439635299101,-0.17440597627131743,-0.3076802336602339,0.9353691406368035,-0.7216798981881418,0.6861987392890638,0.09115599129652788,-0.6698960217765156,-0.6591389565280474,-0.3417238007442777,,-0.041641560789713365,0.2614512923264682,-0.14794048379169153,-0.01061296572562137,-0.9353691334866018,0.35351369675094224,0.9730133187004274,-0.09115599059970808,-0.21198030974798826,0.23050473162513152,0.3417237981320533,0.9110940671522982,,-0.09238737736575744,0.614064795812981,1.184690025145093,0.9963149889270091,0.045169590894683045,-0.072911939336304,0.08303179706206477,-0.7210212578723798,0.6879201017362229,-0.021497988650522628,-0.6914391178943653,-0.722114798857802,,0.1558859762247865,0.647449227019069,-0.3925088577499869,0.9992699472270296,0.01757936903406947,-0.03391958657256617,0.03546837187893767,-0.756815766833696,0.6526652202072529,-0.014197435160873092,-0.6533918126639549,-0.7568867629827888,,0.0,0.0,0.045,1.0,0.0,0.0,0.0,1.0,0.0,0.0,0.0,1.0,,-0.02272741252427273,-0.20692986320293497,0.201818166158785,True,,0.03539756510523165,0.48523809771378257,-0.3722964662247068,0.04991970277419891,-0.4631599745035683,-0.8848677083568987,0.7275885635761458,0.6237990595825604,-0.2854638600893539,0.684195078488684,-0.6295693538298757,0.3681297642002018
08:40:30.830687,,-0.8277842913223767,-0.5864257208042382,0.15929848552,-3.2382443190911165,-0.604575598314196,0.3498632306213231,,-0.06441207290706037,0.46967143875780004,-0.334480331600811,-0.17433017989939192,-0.30772709377809404,0.9353678549806669,-0.7216858470177192,0.6861810457349029,0.09124204452154826,-0.6699093420684344,-0.6591355006590399,-0.34170435347006345,,-0.041634388741541496,0.261452529248364,-0.14794135211359222,-0.010694900609925728,-0.9353678549449771,0.35351463188991833,0.9730049259520381,-0.09124204451806683,-0.21198184664947178,0.2305364029772758,0.3417043534570254,0.9110933550709849,,-0.09238737736575744,0.614064795812981,1.184690025145093,0.9963149889270091,0.045169590894683045,-0.072911939336304,0.08303179706206477,-0.7210212578723798,0.6879201017362229,-0.021497988650522628,-0.6914391178943653,-0.722114798857802,,0.1558859762247865,0.647449227019069,-0.3925088577499869,0.9992699472270296,0.01757936903406947,-0.03391958657256617,0.03546837187893767,-0.756815766833696,0.6526652202072529,-0.014197435160873092,-0.6533918126639549,-0.7568867629827888,,0.0,0.0,0.045,1.0,0.0,0.0,0.0,1.0,0.0,0.0,0.0,1.0,,-0.02272741252427273,-0.20692986320293497,0.201818166158785,True,,0.03506484792515138,0.4851030019651411,-0.37216531971710454,0.052582064915207144,-0.46166111428408296,-0.8854965510984398,0.7274982637929517,0.6251493558832576,-0.28272700439998477,0.6840916624455335,-0.6293308338201196,0.3687293031151432
08:40:30.929193,,-0.8285333964111765,-0.5853831518662178,0.15955903981000003,-3.2399217313258175,-0.605648730061814,0.35157808173986965,,-0.06456776295380673,0.46963974865112956,-0.3344121974522372,-0.17432555297796226,-0.30772825493512257,0.9353683353062108,-0.7216862100167895,0.6861801312126946,0.09124605087636281,-0.6699101550585199,-0.6591359106007755,-0.34170196883535264,,-0.04162743096919922,0.2614539940183126,-0.14794208258609765,-0.01069968653838127,-0.9353683352838964,0.3535132161723241,0.9730048985185462,-0.09124605087418602,-0.2119802481625748,0.2305362967499516,0.34170196882720094,0.9110942763143233,,-0.09238737736575744,0.614064795812981,1.184690025145093,0.9963149889270091,0.045169590894683045,-0.072911939336304,0.08303179706206477,-0.7210212578723798,0.6879201017362229,-0.021497988650522628,-0.6914391178943653,-0.722114798857802,,0.1558859762247865,0.647449227019069,-0.3925088577499869,0.9992699472270296,0.01757936903406947,-0.03391958657256617,0.03546837187893767,-0.756815766833696,0.6526652202072529,-0.014197435160873092,-0.6533918126639549,-0.7568867629827888,,0.0,0.0,0.045,1.0,0.0,0.0,0.0,1.0,0.0,0.0,0.0,1.0,,-0.02272741252427273,-0.20692986320293497,0.201818166158785,True,,0.03474658450977569,0.4850387779668478,-0.3720279513290714,0.05503171902494916,-0.46021676166568937,-0.8860993410352506,0.7277687948258678,0.6260752293781688,-0.2799685490135946,0.683611067185767,-0.629468298996081,0.3693853941077223
08:40:31.027789,,-0.8291589377739887,-0.5845259285171789,0.15988959376,-3.2420184966191945,-0.6064535788725273,0.35405242843864576,,-0.06473211630155032,0.46956561885956016,-0.334351227398719,-0.17432403204699434,-0.3077255451369001,0.9353695102584199,-0.7216863293358744,0.6861801321730715,0.09124509992683462,-0.6699104222958397,-0.6591371747073168,-0.3416990064636797,,-0.04162791269004312,0.2614538000423017,-0.14794192631977457,-0.010699118809929686,-0.9353695102372213,0.353510124508401,0.9730047243233695,-0.0912450999247667,-0.2119814570635754,0.2305370583133396,0.34169900645593565,0.91109519463442,,-0.09238737736575744,0.614064795812981,1.184690025145093,0.9963149889270091,0.045169590894683045,-0.072911939336304,0.08303179706206477,-0.7210212578723798,0.6879201017362229,-0.021497988650522628,-0.6914391178943653,-0.722114798857802,,0.1558859762247865,0.647449227019069,-0.3925088577499869,0.9992699472270296,0.01757936903406947,-0.03391958657256617,0.03546837187893767,-0.756815766833696,0.6526652202072529,-0.014197435160873092,-0.6533918126639549,-0.7568867629827888,,0.0,0.0,0.045,1.0,0.0,0.0,0.0,1.0,0.0,0.0,0.0,1.0,,-0.02272741252427273,-0.20692986320293497,0.201818166158785,True,,0.03441854165272484,0.484890564962543,-0.37190570832074876,0.05742796211907447,-0.45840466854557355,-0.8868862322882646,0.7276591920861923,0.6274389924487619,-0.27718659947290525,0.6835306352602789,-0.6294326577248005,0.3695949134527885
08:40:31.119503,,-0.8296145790135679,-0.5839235553529895,0.16012940741,-3.243066879265883,-0.606856003277884,0.35632282644878716,,-0.0648517974057181,0.4695112523787928,-0.3343099693709338,-0.17432356671826094,-0.3077245825879343,0.9353699136479138,-0.7216863658411884,0.6861801454884032,0.09124471106016052,-0.6699105040567452,-0.6591376102215647,-0.3416980060606766,,-0.041628075978295515,0.26145362341738826,-0.14794189757055198,-0.010698610759673433,-0.9353699136255994,0.3535090725344107,0.9730045188306028,-0.09124471105798376,-0.21198256765937068,0.2305379491869562,0.3416980060525249,0.9110953444051224,,-0.09238737736575744,0.614064795812981,1.184690025145093,0.9963149889270091,0.045169590894683045,-0.072911939336304,0.08303179706206477,-0.7210212578723798,0.6879201017362229,-0.021497988650522628,-0.6914391178943653,-0.722114798857802,,0.1558859762247865,0.647449227019069,-0.3925088577499869,0.9992699472270296,0.01757936903406947,-0.03391958657256617,0.03546837187893767,-0.756815766833696,0.6526652202072529,-0.014197435160873092,-0.6533918126639549,-0.7568867629827888,,0.0,0.0,0.045,1.0,0.0,0.0,0.0,1.0,0.0,0.0,0.0,1.0,,-0.02272741252427273,-0.20692986320293497,0.201818166158785,True,,0.03417940525801319,0.4847819483515873,-0.3718230659519356,0.05874366724372912,-0.4564435271572783,-0.8878110655285736,0.7276730023159285,0.6284134931513,-0.27493359803033157,0.6834041141661944,-0.6298855357456656,0.3690569449273581
08:40:31.203756,,-0.8299543792600338,-0.5834215777161648,0.1603640359,-3.2436959088538964,-0.6069901447463362,0.3581128504462541,,-0.06495982489682943,0.4694562775519551,-0.3342719137394031,-0.1743965070657559,-0.30768123777823386,0.9353705758909234,-0.7216806416121451,0.6861970019095354,0.09116318386633857,-0.6698976861025469,-0.6591402965148004,-0.34171795338383154,,-0.041627824822365295,0.26145337345616865,-0.14794205599267732,-0.010620116688566716,-0.9353705693203422,0.353509684622231,0.9730121750613894,-0.0911631832259559,-0.21198246898567819,0.23050923247166144,0.34171795098340796,0.9110951221864134,,-0.09238737736575744,0.614064795812981,1.184690025145093,0.9963149889270091,0.045169590894683045,-0.072911939336304,0.08303179706206477,-0.7210212578723798,0.6879201017362229,-0.021497988650522628,-0.6914391178943653,-0.722114798857802,,0.1558859762247865,0.647449227019069,-0.3925088577499869,0.9992699472270296,0.01757936903406947,-0.03391958657256617,0.03546837187893767,-0.756815766833696,0.6526652202072529,-0.014197435160873092,-0.6533918126639549,-0.7568867629827888,,0.0,0.0,0.045,1.0,0.0,0.0,0.0,1.0,0.0,0.0,0.0,1.0,,-0.02272741252427273,-0.20692986320293497,0.201818166158785,True,,0.03396320176752686,0.48465961194408913,-0.37174988810183784,0.05955821409356932,-0.4548162779700867,-0.8885915667095999,0.727688549011169,0.6291330797590461,-0.27324154806858575,0.6833170528912652,-0.6303441292233429,0.3684346400403488
08:40:31.267139,,-0.8303250704379966,-0.5828809864149691,0.16057792375000002,-3.244534614971247,-0.6071242862147884,0.3590074130710684,,-0.06506523178394834,0.4694126276516548,-0.3342325958477947,-0.17446708347987178,-0.3076347518212233,0.93537270446273,-0.7216750990381474,0.6862137492118423,0.09108096299944744,-0.6698852798877636,-0.6591445591556688,-0.34173405145693553,,-0.04162819420102866,0.2614537605556013,-0.1479418192468102,-0.010543415704325598,-0.9353726946196355,0.3535063471833704,0.9730207748091031,-0.09108096204098615,-0.21197832223419188,0.23047643508354654,0.34173404786080686,0.9110973780872652,,-0.09238737736575744,0.614064795812981,1.184690025145093,0.9963149889270091,0.045169590894683045,-0.072911939336304,0.08303179706206477,-0.7210212578723798,0.6879201017362229,-0.021497988650522628,-0.6914391178943653,-0.722114798857802,,0.1558859762247865,0.647449227019069,-0.3925088577499869,0.9992699472270296,0.01757936903406947,-0.03391958657256617,0.03546837187893767,-0.756815766833696,0.6526652202072529,-0.014197435160873092,-0.6533918126639549,-0.7568867629827888,,0.0,0.0,0.045,1.0,0.0,0.0,0.0,1.0,0.0,0.0,0.0,1.0,,-0.02272741252427273,-0.20692986320293497,0.201818166158785,True,,0.03375308730058239,0.48455918080968774,-0.37167398426581916,0.06052603142066537,-0.4540504316332413,-0.8889177718181428,0.7276338425644905,0.6296924174275521,-0.27209639944159425,0.6832902682427863,-0.6303377388098484,0.36849524332993566
08:40:31.331808,,-0.8307343752803306,-0.5824021769767672,0.16075033032000002,-3.245792674147273,-0.6072584276832407,0.3601086206280333,,-0.06515682531607354,0.4693840710289787,-0.33420104767102915,-0.17454082380001995,-0.30759350498262666,0.9353725121681271,-0.7216693039352291,0.6862305282699036,0.09100042762564906,-0.6698723136425719,-0.6591463401725841,-0.3417560323567614,,-0.04162760824378788,0.2614541996810448,-0.1479419649451074,-0.01046689411861701,-0.9353725023362599,0.35350912997878364,0.9730292775329635,-0.09100042666912733,-0.21197388138013412,0.23044402393820515,0.3417560287645028,0.9110973315798525,,-0.09238737736575744,0.614064795812981,1.184690025145093,0.9963149889270091,0.045169590894683045,-0.072911939336304,0.08303179706206477,-0.7210212578723798,0.6879201017362229,-0.021497988650522628,-0.6914391178943653,-0.722114798857802,,0.1558859762247865,0.647449227019069,-0.3925088577499869,0.9992699472270296,0.01757936903406947,-0.03391958657256617,0.03546837187893767,-0.756815766833696,0.6526652202072529,-0.014197435160873092,-0.6533918126639549,-0.7568867629827888,,0.0,0.0,0.045,1.0,0.0,0.0,0.0,1.0,0.0,0.0,0.0,1.0,,-0.02272741252427273,-0.20692986320293497,0.201818166158785,True,,0.03356928447342776,0.48448914545595334,-0.3716141492534639,0.06170222784260762,-0.45326208632590914,-0.8892391782747446,0.7273783910162228,0.6304999803371072,-0.2709067202517469,0.6834570296382281,-0.630097814545005,0.36859630050191594
08:40:31.388859,,-0.8311127891911675,-0.5819233675385652,0.16097458849000001,-3.246631380264624,-0.6073925691516929,0.3609343016087973,,-0.0652632228122154,0.46933404556497726,-0.33416684704577315,-0.17461257564058946,-0.30754858448891986,0.9353738913434676,-0.7216636611219731,0.6862473148495882,0.09091855188992025,-0.6698596932523925,-0.6591498244258219,-0.3417740486274795,,-0.04162766723329462,0.26145426817623835,-0.14794192553229035,-0.010389296240027268,-0.93537388476838,0.3535077710011616,0.9730373967932119,-0.09091855125082027,-0.21197176090603367,0.230413265474863,0.34177404622502383,0.9110983560304831,,-0.09238737736575744,0.614064795812981,1.184690025145093,0.9963149889270091,0.045169590894683045,-0.072911939336304,0.08303179706206477,-0.7210212578723798,0.6879201017362229,-0.021497988650522628,-0.6914391178943653,-0.722114798857802,,0.1558859762247865,0.647449227019069,-0.3925088577499869,0.9992699472270296,0.01757936903406947,-0.03391958657256617,0.03546837187893767,-0.756815766833696,0.6526652202072529,-0.014197435160873092,-0.6533918126639549,-0.7568867629827888,,0.0,0.0,0.045,1.0,0.0,0.0,0.0,1.0,0.0,0.0,0.0,1.0,,-0.02272741252427273,-0.20692986320293497,0.201818166158785,True,,0.03335676224282853,0.4843763352937188,-0.3715485799377302,0.06262574338167406,-0.452552159327721,-0.8895361484243968,0.7272937545522036,0.6310526473630665,-0.26984504969597783,0.683463101312172,-0.63005483836241,0.36865850024225055
08:40:31.448069,,-0.8314448667047591,-0.5813209943743758,0.16117421715000002,-3.2474700863819743,-0.6077949935570496,0.3616204218057835,,-0.06536414264286385,0.4692983317656987,-0.3341196872399316,-0.17468584565446887,-0.3075063712789674,0.9353740893090983,-0.721657894862125,0.6862640952437271,0.09083762635865614,-0.6698468019712785,-0.6591520486216745,-0.3417950243738201,,-0.041627244454981234,0.2614545306271553,-0.14794204228106694,-0.010312266538397619,-0.9353740892856683,0.35350950510806667,0.9730456871917326,-0.09083762635638076,-0.2119684321435865,0.23038174351782462,0.34179502436525855,0.9110984653278384,,-0.09238737736575744,0.614064795812981,1.184690025145093,0.9963149889270091,0.045169590894683045,-0.072911939336304,0.08303179706206477,-0.7210212578723798,0.6879201017362229,-0.021497988650522628,-0.6914391178943653,-0.722114798857802,,0.1558859762247865,0.647449227019069,-0.3925088577499869,0.9992699472270296,0.01757936903406947,-0.03391958657256617,0.03546837187893767,-0.756815766833696,0.6526652202072529,-0.014197435160873092,-0.6533918126639549,-0.7568867629827888,,0.0,0.0,0.045,1.0,0.0,0.0,0.0,1.0,0.0,0.0,0.0,1.0,,-0.02272741252427273,-0.20692986320293497,0.201818166158785,True,,0.03315453048789105,0.4842921017868988,-0.37145739481795337,0.06381969622186637,-0.45200562194415117,-0.8897291521047459,0.7273926951723525,0.6314599707276289,-0.2686227324307522,0.6832473295842802,-0.6300390647408646,0.36908517108711747
08:40:31.547757,,-0.8318464488142189,-0.5807495121416831,0.16142569741,-3.2493571751460135,-0.6083315594308585,0.36223676161088103,,-0.06548164513389094,0.4692359739235006,-0.3340762472165439,-0.17468373431540918,-0.30750287697743606,0.9353756323617927,-0.7216580610792047,0.6862640692573868,0.09083650216567937,-0.6698471734993187,-0.6591537058204958,-0.3417911003201826,,-0.04162788132066846,0.26145449592539355,-0.14794178724804768,-0.010312146488471008,-0.935375632340594,0.35350542571919286,0.9730457493133884,-0.09083650216362071,-0.21196862874609185,0.2303814865231586,0.3417911003124365,0.9111000023977979,,-0.09238737736575744,0.614064795812981,1.184690025145093,0.9963149889270091,0.045169590894683045,-0.072911939336304,0.08303179706206477,-0.7210212578723798,0.6879201017362229,-0.021497988650522628,-0.6914391178943653,-0.722114798857802,,0.1558859762247865,0.647449227019069,-0.3925088577499869,0.9992699472270296,0.01757936903406947,-0.03391958657256617,0.03546837187893767,-0.756815766833696,0.6526652202072529,-0.014197435160873092,-0.6533918126639549,-0.7568867629827888,,0.0,0.0,0.045,1.0,0.0,0.0,0.0,1.0,0.0,0.0,0.0,1.0,,-0.02272741252427273,-0.20692986320293497,0.201818166158785,True,,0.03292040154469171,0.4841672465543529,-0.3713701615758834,0.06571353719285139,-0.45194416212735583,-0.8896225072178683,0.7271094958981155,0.632265259571085,-0.2674928457254452,0.6833692354828333,-0.6292750716964012,0.37016127854909014
08:40:31.639855,,-0.8324565447112826,-0.5798227841967762,0.16169662202,-3.251034587380715,-0.6087339838362151,0.3625784735876162,,-0.06563220664923973,0.46918877623816013,-0.3340123783217139,-0.17468314378668554,-0.3075020919779048,0.9353760007109507,-0.7216581075685049,0.6862640433112103,0.09083632884916434,-0.6698472774128774,-0.659154099044648,-0.3417901383234954,,-0.041628036466614254,0.26145465520026506,-0.14794168848398642,-0.010312594691284205,-0.9353760006864046,0.35350443798933656,0.9730459860083255,-0.09083632884678061,-0.2119676164470447,0.2303804667313078,0.34179013831452615,0.9111006211429767,,-0.09238737736575744,0.614064795812981,1.184690025145093,0.9963149889270091,0.045169590894683045,-0.072911939336304,0.08303179706206477,-0.7210212578723798,0.6879201017362229,-0.021497988650522628,-0.6914391178943653,-0.722114798857802,,0.15587850469675818,0.6474582954401557,-0.39249852939463836,0.9992698406384162,0.017587279586079203,-0.03391862596326127,0.0354736881709913,-0.7568176728344347,0.6526627211148329,-0.014191653815599219,-0.6533893920796633,-0.756888960997415,,0.0,0.0,0.045,1.0,0.0,0.0,0.0,1.0,0.0,0.0,0.0,1.0,,-0.02272741252427273,-0.20692986320293497,0.201818166158785,True,,0.032619490754059385,0.4840726650447406,-0.37124237344079813,0.06763478357372324,-0.4518192166976751,-0.8895419784774831,0.726990313361674,0.6329429190786111,-0.2662110919299603,0.6833085835325287,-0.6286832720941015,0.37127715127627137
08:40:31.687560,,-0.8327268403618804,-0.5793516974914485,0.16189106552000002,-3.251873293498066,-0.6088681253046674,0.3626464564838278,,-0.06568336842076099,0.46913429035554977,-0.3339942939611668,-0.17469024521277698,-0.3075037449271199,0.9353741310744577,-0.7216575484919877,0.6862651115563947,0.09083269986642273,-0.6698460277795444,-0.6591522157410125,-0.34179621933497123,,-0.04164024768160801,0.26144798129634467,-0.14794597676360235,-0.010307473644513898,-0.9353741309813156,0.35350953435354715,0.9730461169737842,-0.09083269985737785,-0.21196857002797775,0.23038014243886965,0.34179621930093607,0.9110984218196616,,-0.09238737736575744,0.614064795812981,1.184690025145093,0.9963149889270091,0.045169590894683045,-0.072911939336304,0.08303179706206477,-0.7210212578723798,0.6879201017362229,-0.021497988650522628,-0.6914391178943653,-0.722114798857802,,0.15587850469675818,0.6474582954401557,-0.39249852939463836,0.9992698406384162,0.017587279586079203,-0.03391862596326127,0.0354736881709913,-0.7568176728344347,0.6526627211148329,-0.014191653815599219,-0.6533893920796633,-0.756888960997415,,0.0,0.0,0.045,1.0,0.0,0.0,0.0,1.0,0.0,0.0,0.0,1.0,,-0.02272741252427273,-0.20692986320293497,0.201818166158785,True,,0.03252908863235425,0.4839698046911154,-0.3712028589968668,0.06845444007561624,-0.4518941274737281,-0.8894412218852303,0.7268908083285996,0.6332374916897154,-0.2657819254311933,0.6833328196430555,-0.6283326958493209,0.3718256055268327
08:40:31.789276,,-0.8329121859508618,-0.5791200155052217,0.16197402808000003,-3.251663616968728,-0.6088681253046674,0.3626464564838278,,-0.06573505435566622,0.4691156464673105,-0.33398215823359545,-0.17469650529176184,-0.3075049671948718,0.9353725601006939,-0.7216570556206064,0.6862660760592872,0.09082932854087145,-0.6698449261671259,-0.659150641356488,-0.34180141440241024,,-0.041652597746274604,0.2614421384781362,-0.1479500262384586,-0.010304713771207064,-0.9353725599978058,0.35351377152418095,0.9730473693564297,-0.0908293285308805,-0.211964265495784,0.23037497616414707,0.3418014143648131,0.9110977792068138,,-0.09238737736575744,0.614064795812981,1.184690025145093,0.9963149889270091,0.045169590894683045,-0.072911939336304,0.08303179706206477,-0.7210212578723798,0.6879201017362229,-0.021497988650522628,-0.6914391178943653,-0.722114798857802,,0.15587850469675818,0.6474582954401557,-0.39249852939463836,0.9992698406384162,0.017587279586079203,-0.03391862596326127,0.0354736881709913,-0.7568176728344347,0.6526627211148329,-0.014191653815599219,-0.6533893920796633,-0.756888960997415,,0.0,0.0,0.045,1.0,0.0,0.0,0.0,1.0,0.0,0.0,0.0,1.0,,-0.02272741252427273,-0.20692986320293497,0.201818166158785,True,,0.03243782332627697,0.48393783717738503,-0.3711753433023208,0.06848508340884468,-0.4516196992089643,-0.8895782375018447,0.7270675569513667,0.6331652787492716,-0.2654703324575621,0.683141684410529,-0.6286027179966389,0.371720408301701
08:40:31.887735,,-0.8336381228410389,-0.5780311101699561,0.16229291542000002,-3.2520829700274034,-0.6088681253046674,0.3626464564838278,,-0.0659227697379125,0.4690520278799287,-0.33391442936825155,-0.1746302118666441,-0.30754901116166483,0.9353704586081887,-0.721662273546885,0.6862503255009098,0.09090684071639812,-0.669856590653964,-0.6591464909133459,-0.34178655835780064,,-0.04166522359443729,0.26143553800249886,-0.1479541277342331,-0.010377578325763914,-0.9353704523051943,0.35351719809008986,0.9730396535043194,-0.09090684010382233,-0.2119664257695803,0.23040426449891407,0.34178655605467173,0.9110959398021704,,-0.09238737736575744,0.614064795812981,1.184690025145093,0.9963149889270091,0.045169590894683045,-0.072911939336304,0.08303179706206477,-0.7210212578723798,0.6879201017362229,-0.021497988650522628,-0.6914391178943653,-0.722114798857802,,0.15587850469675818,0.6474582954401557,-0.39249852939463836,0.9992698406384162,0.017587279586079203,-0.03391862596326127,0.0354736881709913,-0.7568176728344347,0.6526627211148329,-0.014191653815599219,-0.6533893920796633,-0.756888960997415,,0.0,0.0,0.045,1.0,0.0,0.0,0.0,1.0,0.0,0.0,0.0,1.0,,-0.02272741252427273,-0.20692986320293497,0.201818166158785,True,,0.032074692678608796,0.4838292148654653,-0.37103348138894415,0.06948606981367636,-0.4510997281138627,-0.8897644190444168,0.7273317479681174,0.6333512404326626,-0.26430046280710684,0.6827592654072826,-0.6287887097730105,0.3721082422662806
08:40:31.944428,,-0.8339393094231337,-0.5774055688071439,0.16245365538,-3.2520829700274034,-0.608599842367763,0.36140838438660117,,-0.06601965452504782,0.4690150362473273,-0.33387326279939133,-0.17456674264554112,-0.3075971546468749,0.9353664751397026,-0.7216672660404635,0.6862346595067695,0.09098543409420522,-0.6698677552232293,-0.6591403360019584,-0.3417765468364046,,-0.04167706557182836,0.2614284770337868,-0.1479586529513218,-0.01044915780601785,-0.935366465579434,0.353525628107528,0.9730311932614506,-0.090985433164254,-0.21197152509323142,0.23043674099323289,0.3417765433431475,0.9110914786008413,,-0.09238737736575744,0.614064795812981,1.184690025145093,0.9963149889270091,0.045169590894683045,-0.072911939336304,0.08303179706206477,-0.7210212578723798,0.6879201017362229,-0.021497988650522628,-0.6914391178943653,-0.722114798857802,,0.15587850469675818,0.6474582954401557,-0.39249852939463836,0.9992698406384162,0.017587279586079203,-0.03391862596326127,0.0354736881709913,-0.7568176728344347,0.6526627211148329,-0.014191653815599219,-0.6533893920796633,-0.756888960997415,,0.0,0.0,0.045,1.0,0.0,0.0,0.0,1.0,0.0,0.0,0.0,1.0,,-0.02272741252427273,-0.20692986320293497,0.201818166158785,True,,0.03189214764411388,0.48377447454253464,-0.37094507124831855,0.0697402032957967,-0.4518889638444117,-0.8893439539345197,0.727461426689409,0.633066760471048,-0.26462492223088563,0.6825951777761622,-0.6285084256732895,0.3728819949185169
08:40:32.040576,,-0.834055150416247,-0.5773128960126532,0.16254180310000002,-3.2520829700274034,-0.6081974179624062,0.3605156192574641,,-0.06606414627489865,0.4689785969904499,-0.33387243095540037,-0.1744932355535948,-0.3076319562045007,0.9353687456120341,-0.7216730442740399,0.6862185486576716,0.09106108195271208,-0.6698806818488479,-0.6591408673416869,-0.34175018520224915,,-0.04169154487768185,0.2614241238852576,-0.1479614991987524,-0.010528358904688784,-0.9353687352156338,0.35351727059700705,0.9730267542495826,-0.0910610809405899,-0.21195941315009229,0.2304518755483978,0.34175018140377744,0.9110975383224285,,-0.09238737736575744,0.614064795812981,1.184690025145093,0.9963149889270091,0.045169590894683045,-0.072911939336304,0.08303179706206477,-0.7210212578723798,0.6879201017362229,-0.021497988650522628,-0.6914391178943653,-0.722114798857802,,0.15587850469675818,0.6474582954401557,-0.39249852939463836,0.9992698406384162,0.017587279586079203,-0.03391862596326127,0.0354736881709913,-0.7568176728344347,0.6526627211148329,-0.014191653815599219,-0.6533893920796633,-0.756888960997415,,0.0,0.0,0.045,1.0,0.0,0.0,0.0,1.0,0.0,0.0,0.0,1.0,,-0.02272741252427273,-0.20692986320293497,0.201818166158785,True,,0.03181799537347707,0.4837176745953776,-0.37093647525961193,0.06953113025720103,-0.4525643276627918,-0.8890168453141264,0.72730554211374,0.6329516299974893,-0.2653278773407728,0.6827825937557247,-0.6281383314291896,0.3731623859039901
08:40:32.140080,,-0.8342482187381026,-0.5766950773827153,0.16275698724,-3.249986204734027,-0.6071242862147884,0.3585941232067671,,-0.06616967372607777,0.4689160021431157,-0.33382928238100623,-0.17442301268494814,-0.30767306787369053,0.9353683210110859,-0.7216785604931049,0.6862023872488813,0.09113911925477663,-0.6698930272592083,-0.659138503684262,-0.34173054442113565,,-0.04169168149359258,0.26141845431121347,-0.1479623955700525,-0.01059014607148695,-0.9353683125696962,0.35351654925528636,0.973011345798937,-0.09113911843227623,-0.21199661315358442,0.23051410304661962,0.34173054133713054,0.9110891654304236,,-0.09238737736575744,0.614064795812981,1.184690025145093,0.9963149889270091,0.045169590894683045,-0.072911939336304,0.08303179706206477,-0.7210212578723798,0.6879201017362229,-0.021497988650522628,-0.6914391178943653,-0.722114798857802,,0.15587850469675818,0.6474582954401557,-0.39249852939463836,0.9992698406384162,0.017587279586079203,-0.03391862596326127,0.0354736881709913,-0.7568176728344347,0.6526627211148329,-0.014191653815599219,-0.6533893920796633,-0.756888960997415,,0.0,0.0,0.045,1.0,0.0,0.0,0.0,1.0,0.0,0.0,0.0,1.0,,-0.02272741252427273,-0.20692986320293497,0.201818166158785,True,,0.03160701127388266,0.4836102502565732,-0.37084623741845096,0.06797469281254703,-0.45308456946636977,-0.8888722146903425,0.7279169241920774,0.6318043872060441,-0.2663834975780981,0.6822876172200294,-0.6289177920989909,0.372754635342802
08:40:32.180868,,-0.8344567325257067,-0.5761313178828968,0.16289828285000002,-3.248308792499325,-0.6060511544671706,0.35598381071556773,,-0.06625644362189566,0.46888214370888437,-0.33379578197856274,-0.17432708192503216,-0.30767277222586864,0.935386301876584,-0.7216860900670524,0.686185807053624,0.09120430692624612,-0.6699098864110256,-0.6591559022181441,-0.3416639294098094,,-0.041699436218747374,0.26141337652206637,-0.14796002203007755,-0.01065336785803056,-0.9353862971001008,0.3534670716457004,0.9729980102061817,-0.09120430646051786,-0.2120298007474667,0.23056749049949773,0.341663927665127,0.9111006435319571,,-0.09238737736575744,0.614064795812981,1.184690025145093,0.9963149889270091,0.045169590894683045,-0.072911939336304,0.08303179706206477,-0.7210212578723798,0.6879201017362229,-0.021497988650522628,-0.6914391178943653,-0.722114798857802,,0.15587850469675818,0.6474582954401557,-0.39249852939463836,0.9992698406384162,0.017587279586079203,-0.03391862596326127,0.0354736881709913,-0.7568176728344347,0.6526627211148329,-0.014191653815599219,-0.6533893920796633,-0.756888960997415,,0.0,0.0,0.045,1.0,0.0,0.0,0.0,1.0,0.0,0.0,0.0,1.0,,-0.02272741252427273,-0.20692986320293497,0.201818166158785,True,,0.03144401324155384,0.4835577152663357,-0.37077128482678334,0.06663211515132428,-0.45439756603310844,-0.8883034465843572,0.728332798554031,0.6306538584620633,-0.2679683663370842,0.6819761695110135,-0.6291252361732911,0.372974451442705
08:40:32.252436,,-0.8345725735188201,-0.5760154768897835,0.16293198639,-3.24788943944065,-0.6053804471249095,0.35543725130235915,,-0.06628612244973182,0.4688765816513528,-0.33379605006667334,-0.17429545557247894,-0.30761867488020456,0.9354099876694332,-0.7216885708708843,0.6861856062636423,0.09118618552685644,-0.6699154430531682,-0.6591813594311847,-0.3416039146984892,,-0.04170918562328123,0.26141133648899084,-0.1479564491258091,-0.010647240639250377,-0.9354099809525079,0.3534045690702677,0.9729969722800492,-0.0911861848720732,-0.21204234780080145,0.2305721445430255,0.3416039122455242,0.9111219671031564,,-0.09238737736575744,0.614064795812981,1.184690025145093,0.9963149889270091,0.045169590894683045,-0.072911939336304,0.08303179706206477,-0.7210212578723798,0.6879201017362229,-0.021497988650522628,-0.6914391178943653,-0.722114798857802,,0.15587850469675818,0.6474582954401557,-0.39249852939463836,0.9992698406384162,0.017587279586079203,-0.03391862596326127,0.0354736881709913,-0.7568176728344347,0.6526627211148329,-0.014191653815599219,-0.6533893920796633,-0.756888960997415,,0.0,0.0,0.045,1.0,0.0,0.0,0.0,1.0,0.0,0.0,0.0,1.0,,-0.02272741252427273,-0.20692986320293497,0.201818166158785,True,,0.031398076288307,0.48354582236744265,-0.37076609162701835,0.06600443496349853,-0.45456726720748564,-0.8882634823905954,0.7282327772997623,0.6305200190133122,-0.2685545153031823,0.6821439999233475,-0.629136793715779,0.3726479010562186
08:40:32.278370,,-0.8346884145119334,-0.5756061720474496,0.16314068908,-3.2455829976179356,-0.6040390324403871,0.35303538123898776,,-0.0663830775269089,0.46880926053900285,-0.3337699275251431,-0.17427188861160792,-0.3075677274477934,0.9354311315496951,-0.7216904189917315,0.6861864932805742,0.0911648812583427,-0.6699195832152413,-0.6592042092340645,-0.34155169821391473,,-0.04171771885336589,0.26140047337938827,-0.1479553065902194,-0.010616048503607145,-0.9354311225318521,0.35334953690694804,0.9729840661444642,-0.09116488037948528,-0.2121107077301042,0.23062802792059034,0.3415516949212516,0.9111273967746039,,-0.09238737736575744,0.614064795812981,1.184690025145093,0.9963149889270091,0.045169590894683045,-0.072911939336304,0.08303179706206477,-0.7210212578723798,0.6879201017362229,-0.021497988650522628,-0.6914391178943653,-0.722114798857802,,0.15587850469675818,0.6474582954401557,-0.39249852939463836,0.9992698406384162,0.017587279586079203,-0.03391862596326127,0.0354736881709913,-0.7568176728344347,0.6526627211148329,-0.014191653815599219,-0.6533893920796633,-0.756888960997415,,0.0,0.0,0.045,1.0,0.0,0.0,0.0,1.0,0.0,0.0,0.0,1.0,,-0.02272741252427273,-0.20692986320293497,0.201818166158785,True,,0.031215976665478082,0.4834187410907256,-0.37070689552443864,0.06399261934048237,-0.4554947001557137,-0.8879355397775228,0.7287176931636987,0.6292278315474612,-0.27026442547301277,0.6818177676917212,-0.6297594097241713,0.37219298424841607
08:40:32.302340,,-0.8347501963749272,-0.5754285491913425,0.16315883714,-3.2455829976179356,-0.6040390324403871,0.35296649959493753,,-0.06640382039940808,0.4688048096876588,-0.3337605706247699,-0.17425880308226918,-0.3075262381010534,0.9354472098561998,-0.7216914449759467,0.6861882718941615,0.0911433692784855,-0.6699218818615086,-0.6592217141404844,-0.3415134020925335,,-0.041724031710913975,0.26138285469516964,-0.1479565570644382,-0.010565707997088614,-0.9354472004922995,0.3533084783662604,0.9729618460232542,-0.09114336836613318,-0.21222184752220768,0.2307240602481329,0.3415133986739574,0.9111174383846579,,-0.09238737736575744,0.614064795812981,1.184690025145093,0.9963149889270091,0.045169590894683045,-0.072911939336304,0.08303179706206477,-0.7210212578723798,0.6879201017362229,-0.021497988650522628,-0.6914391178943653,-0.722114798857802,,0.15587850469675818,0.6474582954401557,-0.39249852939463836,0.9992698406384162,0.017587279586079203,-0.03391862596326127,0.0354736881709913,-0.7568176728344347,0.6526627211148329,-0.014191653815599219,-0.6533893920796633,-0.756888960997415,,0.0,0.0,0.045,1.0,0.0,0.0,0.0,1.0,0.0,0.0,0.0,1.0,,-0.02272741252427273,-0.20692986320293497,0.201818166158785,True,,0.031183295915536077,0.4834241237153783,-0.37068099535065924,0.06411722539986853,-0.45549082391962104,-0.887928539203492,0.7287923777728552,0.6291950486640674,-0.2701393359672186,0.6817262291471632,-0.6297949666849099,0.3723004813737727
08:40:32.327210,,-0.8348583146351664,-0.5751814217393673,0.16321457761000002,-3.245792674147273,-0.6035024665665782,0.3524879230779405,,-0.0664438272961327,0.4687904152415358,-0.3337482502125507,-0.17423012455266002,-0.307464696433176,0.9354727810821752,-0.7216936930885096,0.6861893056859415,0.09111778157151096,-0.6699269191894236,-0.6592493437308076,-0.34145018045956116,,-0.04173436275629674,0.26137004934836766,-0.14795510103133475,-0.010528943831973392,-0.9354727715138199,0.3532418642252207,0.9729466649305102,-0.09111778063952519,-0.21230241825094337,0.23078974865806817,0.34145017696708474,0.9111244964914322,,-0.09238737736575744,0.614064795812981,1.184690025145093,0.9963149889270091,0.045169590894683045,-0.072911939336304,0.08303179706206477,-0.7210212578723798,0.6879201017362229,-0.021497988650522628,-0.6914391178943653,-0.722114798857802,,0.15587850469675818,0.6474582954401557,-0.39249852939463836,0.9992698406384162,0.017587279586079203,-0.03391862596326127,0.0354736881709913,-0.7568176728344347,0.6526627211148329,-0.014191653815599219,-0.6533893920796633,-0.756888960997415,,0.0,0.0,0.045,1.0,0.0,0.0,0.0,1.0,0.0,0.0,0.0,1.0,,-0.02272741252427273,-0.20692986320293497,0.201818166158785,True,,0.031117576707495764,0.4834041740753532,-0.3706480112062137,0.06405387615851948,-0.4558889774318274,-0.8877287542967346,0.7285565149563433,0.629273778912682,-0.2705917879160804,0.6819842413602656,-0.6294281145842758,0.3724483093090197
08:40:32.352288,,-0.8349200964981602,-0.575034689814757,0.16325605889000003,-3.244744291500585,-0.6032341836296737,0.35193866742121604,,-0.06647483013281834,0.46877569405883396,-0.3337441522784193,-0.17420746071706156,-0.30740597629449706,0.9354962994950544,-0.7216954692649996,0.6861911043462255,0.09109016389533815,-0.669930899625391,-0.659274854711246,-0.34139311017151447,,-0.041743830680294455,0.26135114202266396,-0.1479556260923975,-0.010474707834024544,-0.9354962842310517,0.3531811858702779,0.9729231630613884,-0.0910901624090677,-0.212421911435618,0.23089124418536033,0.34139310460118205,0.9111201615903093,,-0.09238737736575744,0.614064795812981,1.184690025145093,0.9963149889270091,0.045169590894683045,-0.072911939336304,0.08303179706206477,-0.7210212578723798,0.6879201017362229,-0.021497988650522628,-0.6914391178943653,-0.722114798857802,,0.15587850469675818,0.6474582954401557,-0.39249852939463836,0.9992698406384162,0.017587279586079203,-0.03391862596326127,0.0354736881709913,-0.7568176728344347,0.6526627211148329,-0.014191653815599219,-0.6533893920796633,-0.756888960997415,,0.0,0.0,0.045,1.0,0.0,0.0,0.0,1.0,0.0,0.0,0.0,1.0,,-0.02272741252427273,-0.20692986320293497,0.201818166158785,True,,0.03106868431211847,0.4833893582958464,-0.37063044438224085,0.06334128623370666,-0.4558309502178919,-0.8878096790876487,0.7289203408489555,0.6287547761606783,-0.27081833053133264,0.6816619529905587,-0.6299885524980509,0.3720905878499326
08:40:32.376181,,-0.8349509874296571,-0.5748493442257756,0.16327420695000003,-3.2443249384419097,-0.6031000421612216,0.35152627630475336,,-0.06650099944755951,0.4687685151362862,-0.3337368120808104,-0.17416829557333174,-0.3073138981861397,0.9355338437484342,-0.721698537734261,0.6861932960823626,0.09104933302255777,-0.6699377772967502,-0.65931549988853,-0.34130110775886424,,-0.04175890240711953,0.26132667682237737,-0.14795477644743973,-0.010404617911251635,-0.9355338264126786,0.35308379529950595,0.972893324169129,-0.09104933133538312,-0.21257601461560047,0.2310201001051493,0.34130110143444037,0.9111219646383106,,-0.09238737736575744,0.614064795812981,1.184690025145093,0.9963149889270091,0.045169590894683045,-0.072911939336304,0.08303179706206477,-0.7210212578723798,0.6879201017362229,-0.021497988650522628,-0.6914391178943653,-0.722114798857802,,0.15587850469675818,0.6474582954401557,-0.39249852939463836,0.9992698406384162,0.017587279586079203,-0.03391862596326127,0.0354736881709913,-0.7568176728344347,0.6526627211148329,-0.014191653815599219,-0.6533893920796633,-0.756888960997415,,0.0,0.0,0.045,1.0,0.0,0.0,0.0,1.0,0.0,0.0,0.0,1.0,,-0.02272741252427273,-0.20692986320293497,0.201818166158785,True,,0.031037236768735085,0.48339313686575647,-0.37060235325802,0.06312852706002345,-0.4559654882496118,-0.8877557448963791,0.7291085475939436,0.6284797246319422,-0.27095010897212796,0.6814803848216631,-0.6301656204934152,0.37212333419374144
08:40:32.400347,,-0.8349741556282798,-0.5747875623627818,0.16328198469000002,-3.2443249384419097,-0.6031000421612216,0.35152627630475336,,-0.0665234502965313,0.46876260837833145,-0.3337408488144236,-0.17409917410628334,-0.3071767366953451,0.9355917539229964,-0.7217039503361493,0.68619469520856,0.09099586988884863,-0.6699499127880433,-0.6593779589134218,-0.3411565940363209,,-0.041782380098583274,0.2613057268376943,-0.1479494178468441,-0.010344405148723368,-0.9355917255870185,0.35293208372411256,0.9728696241176162,-0.09099586713288488,-0.21270727787408297,0.23112253714855902,0.34115658370381674,0.9111500961115976,,-0.09238737736575744,0.614064795812981,1.184690025145093,0.9963149889270091,0.045169590894683045,-0.072911939336304,0.08303179706206477,-0.7210212578723798,0.6879201017362229,-0.021497988650522628,-0.6914391178943653,-0.722114798857802,,0.15587850469675818,0.6474582954401557,-0.39249852939463836,0.9992698406384162,0.017587279586079203,-0.03391862596326127,0.0354736881709913,-0.7568176728344347,0.6526627211148329,-0.014191653815599219,-0.6533893920796633,-0.756888960997415,,0.0,0.0,0.045,1.0,0.0,0.0,0.0,1.0,0.0,0.0,0.0,1.0,,-0.02272741252427273,-0.20692986320293497,0.201818166158785,True,,0.03102478883931241,0.48339398654880517,-0.37059338569884787,0.06317182662588905,-0.45594141573808233,-0.887765028448126,0.7291344579119838,0.6284753299950813,-0.2708905717683275,0.6814486500141785,-0.6301874205364044,0.3721445315889068
08:40:32.424148,,-0.8350050465597767,-0.5747798396299075,0.16328328098000003,-3.244534614971247,-0.6029659006927693,0.35132053012044134,,-0.066543274239118,0.4687569545890453,-0.3337508736120089,-0.17402303409482336,-0.3070284544794493,0.9356545899766605,-0.7217099083130827,0.6861959616649077,0.09093904792493898,-0.669963276491446,-0.6594456993071782,-0.3409993809644132,,-0.04180791744479479,0.2612851693271461,-0.1479431295654085,-0.010285257222224453,-0.9356545602481685,0.3527671949385474,0.9728467869234088,-0.09093904503553857,-0.21283598313010005,0.23122127737473602,0.3409993701298622,0.9111838930283858,,-0.09238737736575744,0.614064795812981,1.184690025145093,0.9963149889270091,0.045169590894683045,-0.072911939336304,0.08303179706206477,-0.7210212578723798,0.6879201017362229,-0.021497988650522628,-0.6914391178943653,-0.722114798857802,,0.15587850469675818,0.6474582954401557,-0.39249852939463836,0.9992698406384162,0.017587279586079203,-0.03391862596326127,0.0354736881709913,-0.7568176728344347,0.6526627211148329,-0.014191653815599219,-0.6533893920796633,-0.756888960997415,,0.0,0.0,0.045,1.0,0.0,0.0,0.0,1.0,0.0,0.0,0.0,1.0,,-0.02272741252427273,-0.20692986320293497,0.201818166158785,True,,0.031020417888668425,0.48339442907637503,-0.37059535554930834,0.06321211146620448,-0.45618860061831823,-0.8876351669632545,0.7289872540241782,0.6285473252026166,-0.27111961096704984,0.6816023858777729,-0.6299366798707127,0.3722874788643728
