AlexandreBanks6/RCL_Autocam_Public/optimizationData/Data_25.csv
System Time,q_des,q0,q1,q2,q3,q4,q5,T_des,Tx,Ty,Tz,R00,R01,R02,R10,R11,R12,R20,R21,R22,T_target,Tx,Ty,Tz,R00,R01,R02,R10,R11,R12,R20,R21,R22,worldFrame,Tx,Ty,Tz,R00,R01,R02,R10,R11,R12,R20,R21,R22,ECM_T_PSM_RCM,Tx,Ty,Tz,R00,R01,R02,R10,R11,R12,R20,R21,R22,psm3_T_cam,Tx,Ty,Tz,R00,R01,R02,R10,R11,R12,R20,R21,R22,offset,x,y,z,IK Trigered,ECM_T_PSM3,Tx,Ty,Tz,R00,R01,R02,R10,R11,R12,R20,R21,R22
15:33:46.219866,,0.04633639724534706,-0.8901994184118592,0.02681764752,-2.2835870810166634,-0.5007501017321708,-0.04179098306162804,,0.029084022342115,0.5711411508957324,-0.3806977585655295,-0.26209329743050114,-0.8855575681563238,-0.38352952549062613,0.7108657923641303,0.09162051267248028,-0.6973345731455949,0.6526690805366253,-0.45540473772095297,0.605499460092894,,-0.01200960134310006,0.2771912440816949,-0.06485844308621373,-0.9371784836641908,0.0644285630940718,-0.34284901927017547,-0.21497530111827579,-0.8806729202281331,0.4221383984974107,-0.27474007655599614,0.4693230953559448,0.8391982617352827,,0.040966537702897335,0.7186092617918066,1.1780730744869672,0.9903429130656627,-0.03682277027501626,-0.13366000946390297,0.05839782646669344,-0.7635868956834075,0.6430588982391451,-0.12574024178672163,-0.6446542765931601,-0.7540625009013286,,0.049746019969654234,0.6521309383464892,-0.3934909666098758,0.934375510868156,-0.353249088464383,-0.04644874798048744,-0.2710649456751602,-0.7894123836613767,0.5507738953038586,-0.23122759332742876,-0.5020390124493772,-0.8333610442436454,,0.0,0.0,0.045,1.0,0.0,0.0,0.0,1.0,0.0,0.0,0.0,1.0,,0.019037333378670685,-0.19337877532911046,0.2249495411038443,False,,0.03152358355095189,0.5841906343852982,-0.38014221117426605,-0.345760942481555,-0.8474312380602708,-0.40287673972805127,0.6614351668525377,0.08441964390633383,-0.7452360993493833,0.6655470612248415,-0.5241503796453503,0.5313318067014364
15:33:46.564653,,0.05625238625585133,-0.8971421552657871,0.030887998120000003,-2.2974257319529503,-0.5364317323404637,-0.0470584100023696,,0.03268765993346395,0.5685700663619595,-0.3813476900561291,-0.23334999093318118,-0.8749058198842676,-0.42436727968131804,0.7200468790421094,0.13783082158567794,-0.6800993725939873,0.6535137899946737,-0.4642655177305922,0.5978103840961139,,-0.012009051520502304,0.27719186414882074,-0.06485877305060554,-0.9371788260772039,0.06443152712419992,-0.3428475262526216,-0.21497762185333086,-0.8806718851229703,0.42213937609370766,-0.2747370925946929,0.4693246307822997,0.8391983799354107,,0.040966537702897335,0.7186092617918066,1.1780730744869672,0.9903429130656627,-0.03682277027501626,-0.13366000946390297,0.05839782646669344,-0.7635868956834075,0.6430588982391451,-0.12574024178672163,-0.6446542765931601,-0.7540625009013286,,0.049746019969654234,0.6521309383464892,-0.3934909666098758,0.934375510868156,-0.353249088464383,-0.04644874798048744,-0.2710649456751602,-0.7894123836613767,0.5507738953038586,-0.23122759332742876,-0.5020390124493772,-0.8333610442436454,,0.0,0.0,0.045,1.0,0.0,0.0,0.0,1.0,0.0,0.0,0.0,1.0,,0.019037333378670685,-0.19337877532911046,0.2249495411038443,False,,0.030942288102790316,0.5806866983230705,-0.3799591671135854,-0.31934790755812736,-0.85964636364316,-0.3987794420645798,0.6778594359450817,0.08684239498634672,-0.7300445079125321,0.6622110683448756,-0.5034545936905602,0.5549864620451668
15:33:46.679151,,0.06303294571942045,-0.9008181761139179,0.03589556639,-2.3049740870091067,-0.560577196661865,-0.048184527630026064,,0.0356204415154302,0.5663201362197691,-0.3822273385513224,-0.2258026891516679,-0.86849826818355,-0.44127531511976703,0.7211918427920377,0.1554871073346827,-0.6750600605449248,0.6549011157893229,-0.4706745346997939,0.5912444595284024,,-0.012009460177437125,0.27719162222454863,-0.06486022066138236,-0.9371787119401562,0.064430539113856,-0.3428480239246845,-0.21497684827537306,-0.8806722301582548,0.4221390502275839,-0.2747380872488385,0.4693241189742513,0.8391983405353385,,0.040966537702897335,0.7186092617918066,1.1780730744869672,0.9903429130656627,-0.03682277027501626,-0.13366000946390297,0.05839782646669344,-0.7635868956834075,0.6430588982391451,-0.12574024178672163,-0.6446542765931601,-0.7540625009013286,,0.049746019969654234,0.6521309383464892,-0.3934909666098758,0.934375510868156,-0.353249088464383,-0.04644874798048744,-0.2710649456751602,-0.7894123836613767,0.5507738953038586,-0.23122759332742876,-0.5020390124493772,-0.8333610442436454,,0.0,0.0,0.045,1.0,0.0,0.0,0.0,1.0,0.0,0.0,0.0,1.0,,0.019037333378670685,-0.19337877532911046,0.2249495411038443,False,,0.030001970283427364,0.5754925184297939,-0.37950575426892985,-0.30070632478162357,-0.8670139317941405,-0.39731920204187765,0.690510818983386,0.08943730322087173,-0.71777139651805,0.6578529585729798,-0.4901916062800785,0.5717881373632494
15:33:46.714813,,0.08089562685750173,-0.9050270655303703,0.03944869728000001,-2.3085385880078473,-0.5967953931439668,-0.036717310057918895,,0.02994348281216324,0.5718059207075337,-0.3794693998468672,-0.2790849382387114,-0.8718881793410457,-0.4023960735067516,0.7056436819263534,0.0980050933965168,-0.7017563650055191,0.6512899441920732,-0.4797978786881998,0.5878906396606343,,-0.01200966450591017,0.2771915012624211,-0.0648609444667704,-0.9371786548713984,0.06443004510879698,-0.3428482727608866,-0.21497646148624644,-0.8806724026758105,0.4221388872947813,-0.2747385845757696,0.46932386306995094,0.8391983208353132,,0.040966537702897335,0.7186092617918066,1.1780730744869672,0.9903429130656627,-0.03682277027501626,-0.13366000946390297,0.05839782646669344,-0.7635868956834075,0.6430588982391451,-0.12574024178672163,-0.6446542765931601,-0.7540625009013286,,0.049746019969654234,0.6521309383464892,-0.3934909666098758,0.934375510868156,-0.353249088464383,-0.04644874798048744,-0.2710649456751602,-0.7894123836613767,0.5507738953038586,-0.23122759332742876,-0.5020390124493772,-0.8333610442436454,,0.0,0.0,0.045,1.0,0.0,0.0,0.0,1.0,0.0,0.0,0.0,1.0,,0.019037333378670685,-0.19337877532911046,0.2249495411038443,False,,0.02985474977753281,0.5722177773835146,-0.37935892417573724,-0.28109890940078985,-0.8707347622343518,-0.40349024395934735,0.7063676722136198,0.09688532127370225,-0.7011832472137394,0.6496369099621718,-0.4821143104683563,0.5878245289679758
15:33:46.752084,,0.09276546728518481,-0.9060310208040194,0.03993999119,-2.3085385880078473,-0.6076608520885973,-0.030590760668328165,,0.030446485719204185,0.5714030534000455,-0.3796232158319087,-0.27238620337832176,-0.8746539256889705,-0.4009816286141011,0.7077140558281095,0.10021888380590845,-0.6993546957817794,0.6518792613609296,-0.4742749050978465,0.5917066359286144,,-0.012009266763227923,0.27719090560591114,-0.06486153918172033,-0.9371794952754365,0.06442962101383182,-0.3428460551726319,-0.21497452310896525,-0.8806734240700703,0.4221377435469545,-0.2747372345087108,0.4693220046501712,0.8391998021340291,,0.040966537702897335,0.7186092617918066,1.1780730744869672,0.9903429130656627,-0.03682277027501626,-0.13366000946390297,0.05839782646669344,-0.7635868956834075,0.6430588982391451,-0.12574024178672163,-0.6446542765931601,-0.7540625009013286,,0.049746019969654234,0.6521309383464892,-0.3934909666098758,0.934375510868156,-0.353249088464383,-0.04644874798048744,-0.2710649456751602,-0.7894123836613767,0.5507738953038586,-0.23122759332742876,-0.5020390124493772,-0.8333610442436454,,0.0,0.0,0.045,1.0,0.0,0.0,0.0,1.0,0.0,0.0,0.0,1.0,,0.019037333378670685,-0.19337877532911046,0.2249495411038443,False,,0.03041547936114097,0.5714317291873325,-0.3794969794761576,-0.2725396739771423,-0.8741752700728345,-0.4019200459065462,0.7094016305374762,0.09962609354503615,-0.6977277177206922,0.6499780401668993,-0.4752812206242141,0.592989298910827
15:33:46.844268,,0.11265150443631293,-0.9067260667626997,0.04043258139000001,-2.3076998818904966,-0.6159776231326356,-0.024929306578154897,,0.0315819331243204,0.5725704051864235,-0.3798457620208294,-0.2666127688802296,-0.8788960625974443,-0.39554941868333776,0.7094580357203952,0.09882574386955763,-0.697784184329501,0.6523702376885198,-0.46666388707434586,0.5971916689630613,,-0.012008921893928012,0.27719087095142286,-0.06486268594103795,-0.9371800695650834,0.06443074277521453,-0.3428442745171308,-0.21497459825046356,-0.8806734689743327,0.42213761159783536,-0.27473521669199125,0.46932176638624723,0.8392005959715803,,0.040966537702897335,0.7186092617918066,1.1780730744869672,0.9903429130656627,-0.03682277027501626,-0.13366000946390297,0.05839782646669344,-0.7635868956834075,0.6430588982391451,-0.12574024178672163,-0.6446542765931601,-0.7540625009013286,,0.04973975680158182,0.6521293468908972,-0.393465280133376,0.9343611368253745,-0.3532918679324032,-0.046412520328325116,-0.2711305684533347,-0.7894176145005124,0.550734096244723,-0.23120873867690506,-0.5020006832357439,-0.833389364697127,,0.0,0.0,0.045,1.0,0.0,0.0,0.0,1.0,0.0,0.0,0.0,1.0,,0.019037333378670685,-0.19337877532911046,0.2249495411038443,True,,0.03130001395343886,0.5707237799595107,-0.37971943833725486,-0.2664006915972273,-0.8798868846188906,-0.39348410614938667,0.7076363888868892,0.09863713202593316,-0.6996581002952955,0.6544321298955623,-0.4648330737602064,0.5963629774717711
15:33:46.895567,,0.14791350274002205,-0.9071585398036562,0.04082665355,-2.3066514992438085,-0.6197335842492979,-0.020477164654372326,,0.031584666284281505,0.5695458451987259,-0.38032075465357223,-0.26285562355663833,-0.8740323392709836,-0.4086250005483555,0.710767404653482,0.1109892187268975,-0.6946157857467292,0.652469629673906,-0.47302099661102304,0.5920595570703259,,-0.0120115571546634,0.27719108895265154,-0.06486539638708089,-0.9371824671080619,0.06443928152992927,-0.3428361152427159,-0.2149795081152876,-0.8806705514179657,0.4221411973845349,-0.27472319525172834,0.4693260683518937,0.8392021253128462,,0.040966537702897335,0.7186092617918066,1.1780730744869672,0.9903429130656627,-0.03682277027501626,-0.13366000946390297,0.05839782646669344,-0.7635868956834075,0.6430588982391451,-0.12574024178672163,-0.6446542765931601,-0.7540625009013286,,0.04973975680158182,0.6521293468908972,-0.393465280133376,0.9343611368253745,-0.3532918679324032,-0.046412520328325116,-0.2711305684533347,-0.7894176145005124,0.550734096244723,-0.23120873867690506,-0.5020006832357439,-0.833389364697127,,0.0,0.0,0.045,1.0,0.0,0.0,0.0,1.0,0.0,0.0,0.0,1.0,,0.019037333378670685,-0.19337877532911046,0.2249495411038443,False,,0.03304674182427425,0.5698920844799948,-0.38024059724197673,-0.25966439465798735,-0.8920204260573268,-0.3699648113583316,0.6972096054833112,0.09191079097587301,-0.7109508931874231,0.6681864770920662,-0.44255165348091774,0.5980592494331971
15:33:46.945179,,0.1516204145196498,-0.9071353716050335,0.040859060800000006,-2.306232146185133,-0.6218798477445336,-0.018493976942333956,,0.0317469603678676,0.5694625549171458,-0.38031239246477366,-0.26205889292602014,-0.8741646116808776,-0.40885372484937577,0.7109135255447886,0.11163947526135391,-0.6943619997961069,0.6526309032185558,-0.472623379921254,0.5921993287027115,,-0.012014357602526258,0.27719209919745874,-0.06486714382459023,-0.9371841268883793,0.06444913372952014,-0.34282972575020304,-0.21498705257870376,-0.880666301944787,0.4221462202014766,-0.27471162865806514,0.46933268921777255,0.839202208826708,,0.040966537702897335,0.7186092617918066,1.1780730744869672,0.9903429130656627,-0.03682277027501626,-0.13366000946390297,0.05839782646669344,-0.7635868956834075,0.6430588982391451,-0.12574024178672163,-0.6446542765931601,-0.7540625009013286,,0.04973975680158182,0.6521293468908972,-0.393465280133376,0.9343611368253745,-0.3532918679324032,-0.046412520328325116,-0.2711305684533347,-0.7894176145005124,0.550734096244723,-0.23120873867690506,-0.5020006832357439,-0.833389364697127,,0.0,0.0,0.045,1.0,0.0,0.0,0.0,1.0,0.0,0.0,0.0,1.0,,0.019037333378670685,-0.19337877532911046,0.2249495411038443,False,,0.03323634024813117,0.5698237487815412,-0.3802871238866778,-0.25854637840661887,-0.892764006540314,-0.3689528409416406,0.6971503024358945,0.09194106879629932,-0.711005130559643,0.6686817075607513,-0.4410433861817682,0.5986196667993439
15:33:47.001956,,0.14907191267115572,-0.9070195306119202,0.04086035709000001,-2.30560311659712,-0.6226846965552469,-0.01732838148051208,,0.03155872098928748,0.569420979488214,-0.3811617602907245,-0.2503111738596022,-0.8761631284727139,-0.4119253434130197,0.7145576830777884,0.11989533151156272,-0.6892259622476761,0.653262300914059,-0.4668653786549596,0.596057953908704,,-0.01201663770728309,0.27719258637279637,-0.06486905169957062,-0.9371866612298391,0.0644588582072098,-0.34282096935091516,-0.21499289062796678,-0.8806629703740385,0.4221501972125775,-0.27469841355113317,0.4693376051690401,0.8392037853715224,,0.040966537702897335,0.7186092617918066,1.1780730744869672,0.9903429130656627,-0.03682277027501626,-0.13366000946390297,0.05839782646669344,-0.7635868956834075,0.6430588982391451,-0.12574024178672163,-0.6446542765931601,-0.7540625009013286,,0.04973975680158182,0.6521293468908972,-0.393465280133376,0.9343611368253745,-0.3532918679324032,-0.046412520328325116,-0.2711305684533347,-0.7894176145005124,0.550734096244723,-0.23120873867690506,-0.5020006832357439,-0.833389364697127,,0.0,0.0,0.045,1.0,0.0,0.0,0.0,1.0,0.0,0.0,0.0,1.0,,0.019037333378670685,-0.19337877532911046,0.2249495411038443,False,,0.03309154386170593,0.5698674695997212,-0.3802268995319401,-0.2590849005092709,-0.8908928408045552,-0.3730750065754752,0.6990381551874739,0.0935862154938481,-0.7089339023220941,0.6664988161431306,-0.44446773389384375,0.5985213125754812
15:33:47.079304,,0.13697039025724592,-0.9066642848997059,0.04086035709000001,-2.304764410479769,-0.6242943941766738,-0.014583900692566765,,0.03167937767660329,0.5690854241455978,-0.381111101875528,-0.24144891838065666,-0.8823636350836708,-0.40390201199640163,0.7168214737490476,0.11838507727016102,-0.6871331372099452,0.6541172636347817,-0.455433188252315,0.6039132524239529,,-0.012019958500491978,0.27719411970161284,-0.0648706387054579,-0.9371874462712624,0.06446883820328729,-0.34281694691746795,-0.21500214124545736,-0.880657802918503,0.4221562661623885,-0.27468849530507106,0.4693459307387456,0.839202375763774,,0.040966537702897335,0.7186092617918066,1.1780730744869672,0.9903429130656627,-0.03682277027501626,-0.13366000946390297,0.05839782646669344,-0.7635868956834075,0.6430588982391451,-0.12574024178672163,-0.6446542765931601,-0.7540625009013286,,0.04973975680158182,0.6521293468908972,-0.393465280133376,0.9343611368253745,-0.3532918679324032,-0.046412520328325116,-0.2711305684533347,-0.7894176145005124,0.550734096244723,-0.23120873867690506,-0.5020006832357439,-0.833389364697127,,0.0,0.0,0.045,1.0,0.0,0.0,0.0,1.0,0.0,0.0,0.0,1.0,,0.019037333378670685,-0.19337877532911046,0.2249495411038443,False,,0.032597937587044455,0.5700074167282947,-0.3800463457688418,-0.26083608469702907,-0.8858441077547141,-0.38372484109864313,0.7036990158843326,0.0976455219408417,-0.7037563833375314,0.6608874578650636,-0.45359185266179025,0.59789815122268
15:33:47.108146,,0.12440550387088263,-0.9065484439065925,0.04091609756,-2.303716027833081,-0.6271113650141705,-0.012123035211370148,,0.031853992431987416,0.5706531869692437,-0.379882795644872,-0.26265788391646516,-0.8780544039990315,-0.40003912262981245,0.7106970742093865,0.10436966790631283,-0.6957130451064889,0.6526258535537358,-0.46704115026304854,0.596617179801442,,-0.012022758965392946,0.2771951299569165,-0.06487238616851396,-0.9371891058149017,0.06447869051476159,-0.3428105575718743,-0.21500968546749072,-0.880653553331698,0.42216128923765334,-0.27467692853315595,0.4693525513354843,0.8392024591585965,,0.040966537702897335,0.7186092617918066,1.1780730744869672,0.9903429130656627,-0.03682277027501626,-0.13366000946390297,0.05839782646669344,-0.7635868956834075,0.6430588982391451,-0.12574024178672163,-0.6446542765931601,-0.7540625009013286,,0.04973975680158182,0.6521293468908972,-0.393465280133376,0.9343611368253745,-0.3532918679324032,-0.046412520328325116,-0.2711305684533347,-0.7894176145005124,0.550734096244723,-0.23120873867690506,-0.5020006832357439,-0.833389364697127,,0.0,0.0,0.045,1.0,0.0,0.0,0.0,1.0,0.0,0.0,0.0,1.0,,0.019037333378670685,-0.19337877532911046,0.2249495411038443,False,,0.03183425360878134,0.570179018766279,-0.37979710506789305,-0.26297975266704404,-0.8785379558615073,-0.398763977557984,0.7108026204547288,0.10305076085797665,-0.6958018219588699,0.6523812416385614,-0.4664242712351879,0.5973668175927189
15:33:47.147028,,0.12474530411734851,-0.9065870575709637,0.04096665287,-2.303506351303743,-0.6284527796986928,-0.011305442961153822,,0.03186029546352158,0.5704552560965086,-0.379874650280896,-0.262141998315879,-0.8781815309549469,-0.40009845214469836,0.7108266434611133,0.10469761243701357,-0.6955313744870149,0.6526921599534998,-0.46672862419141886,0.5967891886551064,,-0.012023019137800836,0.2771953914928177,-0.06487230594859211,-0.9371886685152144,0.0644787543965466,-0.34281174107179974,-0.21501053863938274,-0.8806530943544717,0.42216181217209336,-0.2746777527562277,0.46935340375232515,0.839201712644478,,0.040966537702897335,0.7186092617918066,1.1780730744869672,0.9903429130656627,-0.03682277027501626,-0.13366000946390297,0.05839782646669344,-0.7635868956834075,0.6430588982391451,-0.12574024178672163,-0.6446542765931601,-0.7540625009013286,,0.04973975680158182,0.6521293468908972,-0.393465280133376,0.9343611368253745,-0.3532918679324032,-0.046412520328325116,-0.2711305684533347,-0.7894176145005124,0.550734096244723,-0.23120873867690506,-0.5020006832357439,-0.833389364697127,,0.0,0.0,0.045,1.0,0.0,0.0,0.0,1.0,0.0,0.0,0.0,1.0,,0.019037333378670685,-0.19337877532911046,0.2249495411038443,False,,0.0317833547204924,0.5701595986718085,-0.37977139055504006,-0.26243496029705693,-0.8777663577452365,-0.40081680706345657,0.7121837931381526,0.10408109208830696,-0.6942343776139718,0.6510930320662598,-0.46764660533395014,0.5978164568781938
15:33:47.179390,,0.12679955106189222,-0.9066179485024606,0.04100943044,-2.303716027833081,-0.6289893455725017,-0.010964629732257258,,0.03196274762607267,0.5705759806048241,-0.3799039982702682,-0.26150756590058877,-0.8786254729211668,-0.39953857299490503,0.7110429916252375,0.10455927236959602,-0.695331016582874,0.6527110057578174,-0.46592342385374524,0.597397443974296,,-0.01202297888028328,0.27719488193056274,-0.06487225416114521,-0.9371889689386974,0.06447750488553021,-0.34281115477694357,-0.21500875722015933,-0.880653967428719,0.42216089817372127,-0.27467812216193643,0.46935193724106106,0.8392024119303991,,0.040966537702897335,0.7186092617918066,1.1780730744869672,0.9903429130656627,-0.03682277027501626,-0.13366000946390297,0.05839782646669344,-0.7635868956834075,0.6430588982391451,-0.12574024178672163,-0.6446542765931601,-0.7540625009013286,,0.04973975680158182,0.6521293468908972,-0.393465280133376,0.9343611368253745,-0.3532918679324032,-0.046412520328325116,-0.2711305684533347,-0.7894176145005124,0.550734096244723,-0.23120873867690506,-0.5020006832357439,-0.833389364697127,,0.0,0.0,0.045,1.0,0.0,0.0,0.0,1.0,0.0,0.0,0.0,1.0,,0.019037333378670685,-0.19337877532911046,0.2249495411038443,False,,0.03189491630233997,0.5700717002337238,-0.379799310713871,-0.2616616233791914,-0.8785710659135979,-0.3995573513151909,0.7119243839939577,0.10383259081959817,-0.6945375904575029,0.6516877061333828,-0.46618845462230674,0.5983071606219296
15:33:47.215162,,0.12778806086979297,-0.9065021075093471,0.041006837860000006,-2.303716027833081,-0.629123487040954,-0.010896646836045631,,0.03109296531618772,0.5700525887522723,-0.3810960023420348,-0.25549999756219915,-0.8723271646311094,-0.41685137530343563,0.7126414039177006,0.1214431062375753,-0.690936901149141,0.6533467537746896,-0.4735999258805038,0.5906277419306145,,-0.012023198796921883,0.2771946339033127,-0.06487212215591336,-0.937188832054912,0.06447631926014306,-0.34281175198290126,-0.21500782897417614,-0.8806543815216685,0.42216050710348435,-0.2746793157897651,0.46935132313941946,0.8392023646987149,,0.040966537702897335,0.7186092617918066,1.1780730744869672,0.9903429130656627,-0.03682277027501626,-0.13366000946390297,0.05839782646669344,-0.7635868956834075,0.6430588982391451,-0.12574024178672163,-0.6446542765931601,-0.7540625009013286,,0.04973975680158182,0.6521293468908972,-0.393465280133376,0.9343611368253745,-0.3532918679324032,-0.046412520328325116,-0.2711305684533347,-0.7894176145005124,0.550734096244723,-0.23120873867690506,-0.5020006832357439,-0.833389364697127,,0.0,0.0,0.045,1.0,0.0,0.0,0.0,1.0,0.0,0.0,0.0,1.0,,0.019037333378670685,-0.19337877532911046,0.2249495411038443,False,,0.03194833340493636,0.5700622528224625,-0.3798071394567852,-0.2614609925833433,-0.8789658926485754,-0.3988196445986908,0.7117023730695459,0.10355368470905113,-0.6948067116474591,0.6520106452539788,-0.4655057399685546,0.5984868624554917
15:33:47.270384,,0.127170242239855,-0.9063476528518627,0.040996467540000005,-2.303716027833081,-0.6288552041040495,-0.01103261262846883,,0.03138112178009699,0.569751303017377,-0.3811117138335933,-0.2491684115993317,-0.8777949784123239,-0.40913454820532286,0.714631634657335,0.11846959297408942,-0.6893958095952851,0.6536181831987625,-0.4641561498188527,0.5977811800126258,,-0.012023158539520927,0.2771941243410406,-0.06487207036842937,-0.9371891324776835,0.06447506974832302,-0.34281116569157843,-0.21500604755352648,-0.8806552545924632,0.4221595931045955,-0.2746796851921901,0.4693498566269897,0.8392030639857594,,0.040966537702897335,0.7186092617918066,1.1780730744869672,0.9903429130656627,-0.03682277027501626,-0.13366000946390297,0.05839782646669344,-0.7635868956834075,0.6430588982391451,-0.12574024178672163,-0.6446542765931601,-0.7540625009013286,,0.04973975680158182,0.6521293468908972,-0.393465280133376,0.9343611368253745,-0.3532918679324032,-0.046412520328325116,-0.2711305684533347,-0.7894176145005124,0.550734096244723,-0.23120873867690506,-0.5020006832357439,-0.833389364697127,,0.0,0.0,0.045,1.0,0.0,0.0,0.0,1.0,0.0,0.0,0.0,1.0,,0.019037333378670685,-0.19337877532911046,0.2249495411038443,False,,0.03192502561020631,0.5700800544013752,-0.3797856293052932,-0.2616876070318144,-0.878787955935235,-0.39906305871269854,0.7118358801663529,0.10348627109518893,-0.6946799776894443,0.651773945500859,-0.4658565446550955,0.5984717234492024
15:33:47.298883,,0.1265987600071624,-0.9063013164546173,0.04099128238,-2.303716027833081,-0.6287210626355973,-0.011100595524680401,,0.03196468313755886,0.5705774798937007,-0.3798806911721574,-0.26167783524327026,-0.8786665916732238,-0.39933661392333675,0.7110146688437788,0.10429631678115514,-0.6953994672092125,0.6526736176921565,-0.46590481751452767,0.59745280130349,,-0.012023118281923652,0.2771936147782393,-0.06487201858120198,-0.9371894329001709,0.06447382023544115,-0.34281057940237303,-0.21500426613235,-0.8806561276611512,0.4221586791047206,-0.27468005459230616,0.46934839011421026,0.8392037632732907,,0.040966537702897335,0.7186092617918066,1.1780730744869672,0.9903429130656627,-0.03682277027501626,-0.13366000946390297,0.05839782646669344,-0.7635868956834075,0.6430588982391451,-0.12574024178672163,-0.6446542765931601,-0.7540625009013286,,0.04973975680158182,0.6521293468908972,-0.393465280133376,0.9343611368253745,-0.3532918679324032,-0.046412520328325116,-0.2711305684533347,-0.7894176145005124,0.550734096244723,-0.23120873867690506,-0.5020006832357439,-0.833389364697127,,0.0,0.0,0.045,1.0,0.0,0.0,0.0,1.0,0.0,0.0,0.0,1.0,,0.019037333378670685,-0.19337877532911046,0.2249495411038443,False,,0.03189581892613995,0.5700929956496067,-0.3797735841039122,-0.2618453444419838,-0.8785621864503397,-0.3994565059348236,0.711993981883529,0.10356970868423798,-0.6945054968858773,0.6515378617975289,-0.4662636592987502,0.5984117434188965
15:33:47.328969,,0.1267300464660242,-0.9063322073861142,0.04098998609000001,-2.303716027833081,-0.6287210626355973,-0.011100595524680401,,0.0319708137430989,0.5705894529908628,-0.3798851028262225,-0.26165884939353,-0.8786882404993567,-0.3993014181570088,0.711004418508724,0.10428953320250124,-0.6954109649160527,0.6526923956927376,-0.46586550556201206,0.5974629422251442,,-0.012023118281923652,0.27719361477823923,-0.06487201858120198,-0.9371894329001709,0.06447382023544115,-0.34281057940237303,-0.21500426613235,-0.8806561276611512,0.4221586791047206,-0.27468005459230616,0.46934839011421026,0.8392037632732907,,0.040966537702897335,0.7186092617918066,1.1780730744869672,0.9903429130656627,-0.03682277027501626,-0.13366000946390297,0.05839782646669344,-0.7635868956834075,0.6430588982391451,-0.12574024178672163,-0.6446542765931601,-0.7540625009013286,,0.04973975680158182,0.6521293468908972,-0.393465280133376,0.9343611368253745,-0.3532918679324032,-0.046412520328325116,-0.2711305684533347,-0.7894176145005124,0.550734096244723,-0.23120873867690506,-0.5020006832357439,-0.833389364697127,,0.0,0.0,0.045,1.0,0.0,0.0,0.0,1.0,0.0,0.0,0.0,1.0,,0.019037333378670685,-0.19337877532911046,0.2249495411038443,False,,0.031904120415552545,0.5700915566324956,-0.37977940879456523,-0.26181328231145273,-0.8786318646728775,-0.3993242436751946,0.7119099600719787,0.10354854544027187,-0.6945947793408167,0.6516425507558706,-0.46613704542619927,0.5983963911369422
15:33:47.361362,,0.126791828329018,-0.9063322073861142,0.04098998609000001,-2.303716027833081,-0.6287210626355973,-0.011100595524680401,,0.03197470947060592,0.5705982074322347,-0.37988669477025794,-0.26165101127589924,-0.8787009878070066,-0.39927850220778244,0.7110012508843202,0.1042793363320169,-0.6954157326772856,0.6526989884619334,-0.4658437442331335,0.5974727076776176,,-0.012023378455096951,0.27719387631452885,-0.06487193836406757,-0.9371889955947635,0.0644738841160379,-0.3428117628950526,-0.2150051192996813,-0.8806556686807132,0.42215920204538887,-0.2746808788160397,0.4693492425301881,0.8392030167518052,,0.040966537702897335,0.7186092617918066,1.1780730744869672,0.9903429130656627,-0.03682277027501626,-0.13366000946390297,0.05839782646669344,-0.7635868956834075,0.6430588982391451,-0.12574024178672163,-0.6446542765931601,-0.7540625009013286,,0.04973975680158182,0.6521293468908972,-0.393465280133376,0.9343611368253745,-0.3532918679324032,-0.046412520328325116,-0.2711305684533347,-0.7894176145005124,0.550734096244723,-0.23120873867690506,-0.5020006832357439,-0.833389364697127,,0.0,0.0,0.045,1.0,0.0,0.0,0.0,1.0,0.0,0.0,0.0,1.0,,0.019037333378670685,-0.19337877532911046,0.2249495411038443,False,,0.03190750583667516,0.5700893276993783,-0.3797803187389623,-0.26180236779348504,-0.8786610522106237,-0.39926717313829396,0.7118848250595875,0.10352933017723259,-0.6946234041859907,0.6516743942089527,-0.4660862936422538,0.59840124566316
15:33:47.398278,,0.12674549193177265,-0.9062935937217431,0.04098350464,-2.303716027833081,-0.6287210626355973,-0.011100595524680401,,0.031972845695486654,0.5705893087594319,-0.37988284072505013,-0.2616600535984772,-0.8787015770139485,-0.39927127983871086,0.7110084202991783,0.1042619526633748,-0.695411009037452,0.652687553592459,-0.46584652384666386,0.5974830320649038,,-0.012023418710724529,0.2771943858777145,-0.06487199014943426,-0.9371886951791022,0.06447513362418912,-0.34281234918472603,-0.215006900719315,-0.8806547956150039,0.422160116051109,-0.2746805094149969,0.46935070904959136,0.8392023174676528,,0.040966537702897335,0.7186092617918066,1.1780730744869672,0.9903429130656627,-0.03682277027501626,-0.13366000946390297,0.05839782646669344,-0.7635868956834075,0.6430588982391451,-0.12574024178672163,-0.6446542765931601,-0.7540625009013286,,0.04973975680158182,0.6521293468908972,-0.393465280133376,0.9343611368253745,-0.3532918679324032,-0.046412520328325116,-0.2711305684533347,-0.7894176145005124,0.550734096244723,-0.23120873867690506,-0.5020006832357439,-0.833389364697127,,0.0,0.0,0.045,1.0,0.0,0.0,0.0,1.0,0.0,0.0,0.0,1.0,,0.019037333378670685,-0.19337877532911046,0.2249495411038443,False,,0.03190688488975606,0.5700938236461088,-0.3797782859025782,-0.26181094406872923,-0.8786477920351773,-0.39929073006713867,0.7119106637058733,0.10352324586817613,-0.6945978292989261,0.6516427214875524,-0.4661126420905412,0.5984152140576569
15:33:47.430109,,0.1267300464660242,-0.9062009209272525,0.040969245450000004,-2.303716027833081,-0.6285869211671451,-0.011168578420891973,,0.03197668174471214,0.5706051513961814,-0.37987819077487567,-0.26172939853054245,-0.8787164976184375,-0.39919298435471934,0.7109846445508141,0.10416671766879906,-0.695449588498736,0.6526856495724361,-0.46583968459470637,0.5974904443578256,,-0.012023198794496655,0.2771946339043383,-0.0648721221543576,-0.9371888320626902,0.06447631925293763,-0.3428117519803904,-0.21500782896906312,-0.8806543815238972,0.4221605071155674,-0.27467931578894245,0.46935132314893524,0.8392023647007693,,0.040966537702897335,0.7186092617918066,1.1780730744869672,0.9903429130656627,-0.03682277027501626,-0.13366000946390297,0.05839782646669344,-0.7635868956834075,0.6430588982391451,-0.12574024178672163,-0.6446542765931601,-0.7540625009013286,,0.04973975680158182,0.6521293468908972,-0.393465280133376,0.9343611368253745,-0.3532918679324032,-0.046412520328325116,-0.2711305684533347,-0.7894176145005124,0.550734096244723,-0.23120873867690506,-0.5020006832357439,-0.833389364697127,,0.0,0.0,0.045,1.0,0.0,0.0,0.0,1.0,0.0,0.0,0.0,1.0,,0.019037333378670685,-0.19337877532911046,0.2249495411038443,False,,0.031912127254408916,0.5701117229182111,-0.3797719605658449,-0.2618823807906701,-0.878675357476359,-0.3991832095607273,0.7118842320212821,0.10340529020349531,-0.6946424880162462,0.6516428921049322,-0.4660868611339778,0.5984351084682418
15:33:47.481711,,0.12673776919889843,-0.9061005253998875,0.040953689970000005,-2.303716027833081,-0.6283186382302406,-0.01130454421331517,,0.03137763080403032,0.5697713322191862,-0.3811103675092574,-0.24905193321295657,-0.8779563765569625,-0.40885906548083006,0.7146462421541393,0.11832655241986705,-0.6894052332027919,0.6536466041660863,-0.4638873008128129,0.5979587686511054,,-0.012023678883057087,0.27719464741366784,-0.06487190992957129,-0.9371882578780018,0.06447519750650037,-0.3428135326823687,-0.2150077538922035,-0.8806543366408189,0.42216063898712813,-0.27468133363935987,0.4693515614656975,0.8392015709517504,,0.040966537702897335,0.7186092617918066,1.1780730744869672,0.9903429130656627,-0.03682277027501626,-0.13366000946390297,0.05839782646669344,-0.7635868956834075,0.6430588982391451,-0.12574024178672163,-0.6446542765931601,-0.7540625009013286,,0.04973975680158182,0.6521293468908972,-0.393465280133376,0.9343611368253745,-0.3532918679324032,-0.046412520328325116,-0.2711305684533347,-0.7894176145005124,0.550734096244723,-0.23120873867690506,-0.5020006832357439,-0.833389364697127,,0.0,0.0,0.045,1.0,0.0,0.0,0.0,1.0,0.0,0.0,0.0,1.0,,0.019037333378670685,-0.19337877532911046,0.2249495411038443,False,,0.03191729846105265,0.5701225359061598,-0.3797680301884764,-0.2619443948133171,-0.8787151830001675,-0.3990548348170553,0.711827995873756,0.1032989964735474,-0.6947159287204449,0.6516793984132361,-0.46603534682740555,0.5984354745427636
15:33:47.532994,,0.12672232373314998,-0.9059924071396483,0.04093813449000001,-2.303716027833081,-0.6281844967617883,-0.011372527109526798,,0.03137201808619462,0.5697783166326644,-0.3811097591796922,-0.24914121263533098,-0.8779081808483117,-0.40890815859579654,0.714621675782817,0.11831840757284724,-0.6894320959534623,0.6536394393455426,-0.46398058195255754,0.5978942238414844,,-0.012023898799281478,0.2771943993870942,-0.06487177792466614,-0.9371881209930455,0.06447401187836099,-0.3428141298865988,-0.2150068256422204,-0.8806547507326086,0.4221602479241917,-0.2746825272653008,0.4693509473650481,0.8392015237180824,,0.040966537702897335,0.7186092617918066,1.1780730744869672,0.9903429130656627,-0.03682277027501626,-0.13366000946390297,0.05839782646669344,-0.7635868956834075,0.6430588982391451,-0.12574024178672163,-0.6446542765931601,-0.7540625009013286,,0.04973975680158182,0.6521293468908972,-0.393465280133376,0.9343611368253745,-0.3532918679324032,-0.046412520328325116,-0.2711305684533347,-0.7894176145005124,0.550734096244723,-0.23120873867690506,-0.5020006832357439,-0.833389364697127,,0.0,0.0,0.045,1.0,0.0,0.0,0.0,1.0,0.0,0.0,0.0,1.0,,0.019037333378670685,-0.19337877532911046,0.2249495411038443,False,,0.031924586182978436,0.5701391982261498,-0.37976177022184077,-0.2620686851821148,-0.8787811321028428,-0.39882794047930425,0.7117080466750597,0.1031151313712354,-0.6948661209040657,0.6517604318650285,-0.4659517051608876,0.5984123560829713
15:33:47.589068,,0.12671460100027576,-0.9060001298725225,0.040935541910000005,-2.304135380891756,-0.6281844967617883,-0.011372527109526798,,0.031428382559041526,0.5692903885093107,-0.38108187610753336,-0.24569643312856335,-0.879898438571729,-0.40670874166525506,0.7156505154048697,0.11834233234462703,-0.6883599582892502,0.6538177135476264,-0.46018890705260124,0.600623482122608,,-0.01202319879519524,0.2771946339042418,-0.06487212215377507,-0.9371888320615959,0.0644763192567326,-0.3428117519826681,-0.21500782897226078,-0.880654381525409,0.42216050711078484,-0.2746793157901729,0.469351323145577,0.8392023647022446,,0.040966537702897335,0.7186092617918066,1.1780730744869672,0.9903429130656627,-0.03682277027501626,-0.13366000946390297,0.05839782646669344,-0.7635868956834075,0.6430588982391451,-0.12574024178672163,-0.6446542765931601,-0.7540625009013286,,0.04973975680158182,0.6521293468908972,-0.393465280133376,0.9343611368253745,-0.3532918679324032,-0.046412520328325116,-0.2711305684533347,-0.7894176145005124,0.550734096244723,-0.23120873867690506,-0.5020006832357439,-0.833389364697127,,0.0,0.0,0.045,1.0,0.0,0.0,0.0,1.0,0.0,0.0,0.0,1.0,,0.019037333378670685,-0.19337877532911046,0.2249495411038443,False,,0.03192700893104959,0.5701429790764194,-0.3797600600367035,-0.26177531135011695,-0.8789627635770607,-0.3986203038136986,0.7116799153801934,0.10318403089846379,-0.6948847054094553,0.6519090307795943,-0.4655937241979544,0.5985291133900579
15:33:47.684980,,0.1267300464660242,-0.9060232980711452,0.040936838200000006,-2.303925704362418,-0.6281844967617883,-0.011234763821426408,,0.03799482453672145,0.5641320556834515,-0.3828480889246138,-0.19873445316746846,-0.8690016880170387,-0.45314532254869955,0.7280370386541898,0.17863115619234426,-0.6618557096414778,0.6560996017921861,-0.4614401112397188,0.5971652503848587,,-0.012023418711423109,0.277194385877618,-0.06487199014885171,-0.9371886951780077,0.06447513362798407,-0.34281234918700365,-0.21500690072251266,-0.8806547956165157,0.4221601160463264,-0.27468050941622724,0.4693507090462331,0.8392023174691281,,0.040966537702897335,0.7186092617918066,1.1780730744869672,0.9903429130656627,-0.03682277027501626,-0.13366000946390297,0.05839782646669344,-0.7635868956834075,0.6430588982391451,-0.12574024178672163,-0.6446542765931601,-0.7540625009013286,,0.04973975680158182,0.6521293468908972,-0.393465280133376,0.9343611368253745,-0.3532918679324032,-0.046412520328325116,-0.2711305684533347,-0.7894176145005124,0.550734096244723,-0.23120873867690506,-0.5020006832357439,-0.833389364697127,,0.0,0.0,0.045,1.0,0.0,0.0,0.0,1.0,0.0,0.0,0.0,1.0,,0.019037333378670685,-0.19337877532911046,0.2249495411038443,False,,0.031926650695649025,0.5701412903107343,-0.3797626071534195,-0.26176953638595435,-0.8789103842192081,-0.3987395720666894,0.7116584872189815,0.10329782074168764,-0.6948897450669487,0.6519347416647415,-0.4656673670568534,0.5984438117892644
15:33:47.719700,,0.12675321466464687,-0.9060541890026421,0.04094202336,-2.3022482921277168,-0.6276479308879794,-0.011851103626523807,,0.03198502560883949,0.5706459090163118,-0.3798812810958423,-0.2631612753317339,-0.8783569632926499,-0.39904284005741786,0.710548818823321,0.10332155348494125,-0.6960208564793454,0.6525844920273226,-0.466705154911292,0.5969252709884785,,-0.012023458970840032,0.2771948954394098,-0.06487204193820631,-0.9371883947486936,0.06447638314189423,-0.3428129354792605,-0.21500868214545016,-0.880653922541218,0.42216103003645944,-0.27468014001205976,0.4693521755529714,0.8392016181784024,,0.040966537702897335,0.7186092617918066,1.1780730744869672,0.9903429130656627,-0.03682277027501626,-0.13366000946390297,0.05839782646669344,-0.7635868956834075,0.6430588982391451,-0.12574024178672163,-0.6446542765931601,-0.7540625009013286,,0.04973975680158182,0.6521293468908972,-0.393465280133376,0.9343611368253745,-0.3532918679324032,-0.046412520328325116,-0.2711305684533347,-0.7894176145005124,0.550734096244723,-0.23120873867690506,-0.5020006832357439,-0.833389364697127,,0.0,0.0,0.045,1.0,0.0,0.0,0.0,1.0,0.0,0.0,0.0,1.0,,0.019037333378670685,-0.19337877532911046,0.2249495411038443,False,,0.031917147096120695,0.5701329170873756,-0.3797742477411513,-0.26331663802000865,-0.8783172858125566,-0.39902768523587895,0.7114314231624247,0.10256495845314434,-0.6952307238856694,0.6515594203746324,-0.4669466508503608,0.5978554565952414
15:33:47.767345,,0.12686133292488602,-0.906085079934139,0.04094850481,-2.3022482921277168,-0.6275137894195273,-0.0119879681667856,,0.03143002668797186,0.5692073877225479,-0.3810873015731284,-0.24653918014426895,-0.8806175542552742,-0.40463706675396277,0.7154395153168857,0.1162639226809074,-0.688933233489275,0.6537313917634151,-0.4593423814762874,0.6013649840178271,,-0.012023458970840032,0.2771948954394098,-0.06487204193820631,-0.9371883947486936,0.06447638314189423,-0.3428129354792605,-0.21500868214545016,-0.880653922541218,0.42216103003645944,-0.27468014001205976,0.4693521755529714,0.8392016181784024,,0.040966537702897335,0.7186092617918066,1.1780730744869672,0.9903429130656627,-0.03682277027501626,-0.13366000946390297,0.05839782646669344,-0.7635868956834075,0.6430588982391451,-0.12574024178672163,-0.6446542765931601,-0.7540625009013286,,0.04973975680158182,0.6521293468908972,-0.393465280133376,0.9343611368253745,-0.3532918679324032,-0.046412520328325116,-0.2711305684533347,-0.7894176145005124,0.550734096244723,-0.23120873867690506,-0.5020006832357439,-0.833389364697127,,0.0,0.0,0.045,1.0,0.0,0.0,0.0,1.0,0.0,0.0,0.0,1.0,,0.019037333378670685,-0.19337877532911046,0.2249495411038443,False,,0.03192106826839161,0.5701238505698231,-0.3797786087682391,-0.26335119867205536,-0.8784129396879419,-0.3987942496410648,0.7112833262540852,0.10246117640260088,-0.6953975389107441,0.6517071243671626,-0.4667894758014403,0.5978172039428945
15:33:47.799302,,0.12884607527356173,-0.9061700299957555,0.04098998609000001,-2.3030869982450675,-0.6307331846623807,-0.00946091728505466,,0.03206515254562404,0.5703615482855747,-0.37988074955146295,-0.2609186648729363,-0.8790206296100584,-0.39905411041719746,0.7111934313617425,0.1044952683841385,-0.6951867677633381,0.6527827766637494,-0.4651918653687567,0.5978889318978081,,-0.012023458970840032,0.2771948954394098,-0.06487204193820631,-0.9371883947486936,0.06447638314189423,-0.3428129354792605,-0.21500868214545016,-0.880653922541218,0.42216103003645944,-0.27468014001205976,0.4693521755529714,0.8392016181784024,,0.040966537702897335,0.7186092617918066,1.1780730744869672,0.9903429130656627,-0.03682277027501626,-0.13366000946390297,0.05839782646669344,-0.7635868956834075,0.6430588982391451,-0.12574024178672163,-0.6446542765931601,-0.7540625009013286,,0.04973975680158182,0.6521293468908972,-0.393465280133376,0.9343611368253745,-0.3532918679324032,-0.046412520328325116,-0.2711305684533347,-0.7894176145005124,0.550734096244723,-0.23120873867690506,-0.5020006832357439,-0.833389364697127,,0.0,0.0,0.045,1.0,0.0,0.0,0.0,1.0,0.0,0.0,0.0,1.0,,0.019037333378670685,-0.19337877532911046,0.2249495411038443,False,,0.031984854173058686,0.5700898569836347,-0.3797830981971768,-0.26168714236290147,-0.8785606663531709,-0.39956350566463295,0.7123502354588214,0.10351414895003813,-0.6941483724744383,0.6512119329094797,-0.46627886130964796,0.598754575708677
15:33:47.830943,,0.13083854035511164,-0.9062395345916235,0.041030171080000004,-2.304135380891756,-0.6328794481576164,-0.00775325614921718,,0.032157308601583126,0.5702932299149962,-0.37989492595858937,-0.25898504025674884,-0.8796508820238613,-0.3989248985433885,0.7117696186675159,0.10538356102838671,-0.694462608789613,0.652924772745765,-0.46379804960739,0.5988160070633315,,-0.012023939059107187,0.2771949089482292,-0.06487182971373684,-0.937187820563205,0.06447526139448753,-0.34281471618041814,-0.21500860706962746,-0.8806538776594055,0.4221611619076176,-0.27468215786200356,0.4693524138697101,0.8392008244280436,,0.040966537702897335,0.7186092617918066,1.1780730744869672,0.9903429130656627,-0.03682277027501626,-0.13366000946390297,0.05839782646669344,-0.7635868956834075,0.6430588982391451,-0.12574024178672163,-0.6446542765931601,-0.7540625009013286,,0.04973975680158182,0.6521293468908972,-0.393465280133376,0.9343611368253745,-0.3532918679324032,-0.046412520328325116,-0.2711305684533347,-0.7894176145005124,0.550734096244723,-0.23120873867690506,-0.5020006832357439,-0.833389364697127,,0.0,0.0,0.045,1.0,0.0,0.0,0.0,1.0,0.0,0.0,0.0,1.0,,0.019037333378670685,-0.19337877532911046,0.2249495411038443,False,,0.03210429461176024,0.5700277312014591,-0.3797995327524526,-0.2591885533419708,-0.8792279545228009,-0.39972427722387394,0.7133180440193766,0.10476402424668785,-0.6929659928885477,0.6511517963523311,-0.4647393927883578,0.6000155288805794
15:33:47.860973,,0.1321436822108556,-0.9062472573244977,0.04104572656,-2.3043450574210937,-0.6328794481576164,-0.00775325614921718,,0.03222626763316,0.5704918517886821,-0.37993035857632823,-0.258700533820281,-0.8798113681753272,-0.39875555197459056,0.7119092501654088,0.10535674578920917,-0.6943235381618812,0.6528853293879615,-0.4634996359719896,0.5990900050274636,,-0.012023759402439455,0.2771956665365295,-0.0648720135079645,-0.9371876570182778,0.06447769653441322,-0.34281470527267927,-0.21501131674149432,-0.8806525904881037,0.42216246695871484,-0.27468059482727686,0.4693544944763982,0.8392001723719587,,0.040966537702897335,0.7186092617918066,1.1780730744869672,0.9903429130656627,-0.03682277027501626,-0.13366000946390297,0.05839782646669344,-0.7635868956834075,0.6430588982391451,-0.12574024178672163,-0.6446542765931601,-0.7540625009013286,,0.04973975680158182,0.6521293468908972,-0.393465280133376,0.9343611368253745,-0.3532918679324032,-0.046412520328325116,-0.2711305684533347,-0.7894176145005124,0.550734096244723,-0.23120873867690506,-0.5020006832357439,-0.833389364697127,,0.0,0.0,0.045,1.0,0.0,0.0,0.0,1.0,0.0,0.0,0.0,1.0,,0.019037333378670685,-0.19337877532911046,0.2249495411038443,False,,0.032170411161029186,0.5699944416194143,-0.3798177447797575,-0.2588354939714994,-0.8798670397678532,-0.39854507824170315,0.7128254266476601,0.10444189575159807,-0.6935213057551972,0.651831341824794,-0.46360099519087283,0.6001583283375489
15:33:47.891884,,0.13226724593684316,-0.9062318118587493,0.04104702285,-2.3045547339504315,-0.6328794481576164,-0.00775325614921718,,0.032237377142525225,0.570533421757648,-0.37993407212201674,-0.2585439747185907,-0.8798998373130177,-0.39866187356359745,0.7119280798640819,0.10538282675960124,-0.6943002728828478,0.6529268123134123,-0.463325734360483,0.5991793067534666,,-0.012023239055520822,0.2771951434663066,-0.06487217394586679,-0.9371885316273604,0.06447756876672148,-0.34281233827201907,-0.2150096103898189,-0.8806535084420022,0.42216142110365207,-0.2746789463821624,0.4693527896520585,0.839201665405676,,0.040966537702897335,0.7186092617918066,1.1780730744869672,0.9903429130656627,-0.03682277027501626,-0.13366000946390297,0.05839782646669344,-0.7635868956834075,0.6430588982391451,-0.12574024178672163,-0.6446542765931601,-0.7540625009013286,,0.049755945375375234,0.6521384881357717,-0.3934798619901889,0.9343780119454901,-0.35324367672792434,-0.04643959134758745,-0.2710673223421439,-0.7894173221343905,0.5507656473241842,-0.23121470011885803,-0.5020350549173884,-0.833367005636197,,0.0,0.0,0.045,1.0,0.0,0.0,0.0,1.0,0.0,0.0,0.0,1.0,,0.019037333378670685,-0.19337877532911046,0.2249495411038443,False,,0.03217824948655027,0.5699914404428454,-0.37981764973450605,-0.25866963920694935,-0.880013835287188,-0.3983285923150389,0.7127702648786667,0.10443083957892768,-0.6935796632324477,0.6519574888421346,-0.4633247775027514,0.6002346068785802
15:33:47.929372,,0.13179615923151547,-0.9062009209272525,0.041048319140000004,-2.3051837635384445,-0.6328794481576164,-0.007684374505166958,,0.03223336736805232,0.5705322513375533,-0.379941115455334,-0.2582232499396986,-0.8799363055175841,-0.3987892318288502,0.7120265647073147,0.10564565770353394,-0.6941593233253353,0.6529463410891277,-0.4631966032263757,0.5992578597047084,,-0.0120163450854668,0.27719820185109967,-0.06487262632459032,-0.9371866597476244,0.06448075564692674,-0.3428168561102233,-0.21501401598237907,-0.8806538437238963,0.42215847777400156,-0.27468188439215546,0.4693517226734491,0.8392013004644631,,0.040966537702897335,0.7186092617918066,1.1780730744869672,0.9903429130656627,-0.03682277027501626,-0.13366000946390297,0.05839782646669344,-0.7635868956834075,0.6430588982391451,-0.12574024178672163,-0.6446542765931601,-0.7540625009013286,,0.049755945375375234,0.6521384881357717,-0.3934798619901889,0.9343780119454901,-0.35324367672792434,-0.04643959134758745,-0.2710673223421439,-0.7894173221343905,0.5507656473241842,-0.23121470011885803,-0.5020350549173884,-0.833367005636197,,0.0,0.0,0.045,1.0,0.0,0.0,0.0,1.0,0.0,0.0,0.0,1.0,,0.019037333378670685,-0.19337877532911046,0.2249495411038443,False,,0.032198646444135726,0.569987409208194,-0.37982468250162615,-0.2583224953367181,-0.8801282839894545,-0.3983010069341897,0.7128556928580624,0.10460028936663551,-0.6934663226316532,0.6520017251226129,-0.4630690911583219,0.6003838499251479
15:33:47.965774,,0.13163398184115677,-0.9061545845300071,0.04104443027,-2.3049740870091067,-0.6327453066891642,-0.007752357401378529,,0.032225350116822996,0.5705074160955588,-0.37993352085470716,-0.25844863131784074,-0.8798637279422696,-0.3988033666125026,0.7119772104003136,0.10552864279012536,-0.694227741754434,0.6529109869197499,-0.46336111813833236,0.5991691892588206,,-0.012009931208948247,0.27720127373215075,-0.0648728664900177,-0.9371842136436728,0.06448282076953539,-0.3428231546236258,-0.2150183464576942,-0.8806541341212727,0.4221556662714717,-0.2746868402510201,0.46935089400587615,0.8392001417493894,,0.040966537702897335,0.7186092617918066,1.1780730744869672,0.9903429130656627,-0.03682277027501626,-0.13366000946390297,0.05839782646669344,-0.7635868956834075,0.6430588982391451,-0.12574024178672163,-0.6446542765931601,-0.7540625009013286,,0.049755945375375234,0.6521384881357717,-0.3934798619901889,0.9343780119454901,-0.35324367672792434,-0.04643959134758745,-0.2710673223421439,-0.7894173221343905,0.5507656473241842,-0.23121470011885803,-0.5020350549173884,-0.833367005636197,,0.0,0.0,0.045,1.0,0.0,0.0,0.0,1.0,0.0,0.0,0.0,1.0,,0.019037333378670685,-0.19337877532911046,0.2249495411038443,False,,0.0321875275102036,0.5699936200499303,-0.37981777509575715,-0.2585131936363455,-0.8799176644421329,-0.3986424870966959,0.7129853859456521,0.10463880927003738,-0.6933271659342928,0.6517842957174306,-0.4634604874174828,0.6003179228199691
15:33:47.997067,,0.13163398184115677,-0.906115970865636,0.04104313398000001,-2.304764410479769,-0.6326111652207119,-0.007820340297590156,,0.03222786079863926,0.5705113849352281,-0.3799316812377116,-0.25865354407734614,-0.8798182276480915,-0.39877089968351354,0.7119151438554745,0.10539870060069534,-0.6943111275652459,0.6528975203548155,-0.46347707625065515,0.599094172651243,,-0.012002970831225406,0.2772034654738144,-0.06487307678397969,-0.937182641991495,0.06448897048330615,-0.3428262937381476,-0.2150209706192618,-0.8806605291621992,0.4221409883108913,-0.27469014759576277,0.46933804928233636,0.8392062426793901,,0.040966537702897335,0.7186092617918066,1.1780730744869672,0.9903429130656627,-0.03682277027501626,-0.13366000946390297,0.05839782646669344,-0.7635868956834075,0.6430588982391451,-0.12574024178672163,-0.6446542765931601,-0.7540625009013286,,0.049755945375375234,0.6521384881357717,-0.3934798619901889,0.9343780119454901,-0.35324367672792434,-0.04643959134758745,-0.2710673223421439,-0.7894173221343905,0.5507656473241842,-0.23121470011885803,-0.5020350549173884,-0.833367005636197,,0.0,0.0,0.045,1.0,0.0,0.0,0.0,1.0,0.0,0.0,0.0,1.0,,0.019037333378670685,-0.19337877532911046,0.2249495411038443,False,,0.03218689246051709,0.5699948873149954,-0.3798176067962555,-0.2587785510445677,-0.8798691469513438,-0.3985774024733325,0.7128451147396144,0.10449469554004509,-0.6934931153197266,0.6518324201135904,-0.4635850977405423,0.6001694371106812
15:33:48.031581,,0.13160309090965988,-0.9060773572012648,0.041039245110000004,-2.3049740870091067,-0.6326111652207119,-0.007820340297590156,,0.032230027430402375,0.5705272800154235,-0.3799290345623051,-0.25851758895123766,-0.8798867812741928,-0.39870779819534435,0.7119473657649886,0.10542448431463358,-0.6942741724184232,0.6529162309080175,-0.46334105175986107,0.5991789925981498,,-0.011995984295751749,0.2772053001337153,-0.06487309679136491,-0.9371810701235055,0.06449933251423055,-0.3428286401283035,-0.2150235946340755,-0.8806721102991067,0.4221154895011561,-0.2746934548503912,0.4693148930423779,0.8392181096805642,,0.040966537702897335,0.7186092617918066,1.1780730744869672,0.9903429130656627,-0.03682277027501626,-0.13366000946390297,0.05839782646669344,-0.7635868956834075,0.6430588982391451,-0.12574024178672163,-0.6446542765931601,-0.7540625009013286,,0.049755945375375234,0.6521384881357717,-0.3934798619901889,0.9343780119454901,-0.35324367672792434,-0.04643959134758745,-0.2710673223421439,-0.7894173221343905,0.5507656473241842,-0.23121470011885803,-0.5020350549173884,-0.833367005636197,,0.0,0.0,0.045,1.0,0.0,0.0,0.0,1.0,0.0,0.0,0.0,1.0,,0.019037333378670685,-0.19337877532911046,0.2249495411038443,False,,0.03218903676007211,0.5699988120595326,-0.37981541000829583,-0.25863412392082885,-0.8799619967635623,-0.3984661518819257,0.7128411753531834,0.10451462378038945,-0.6934941615739356,0.6518940471156318,-0.4634043349688565,0.6002420958807159
15:33:48.070070,,0.1314563589850496,-0.9060387435368937,0.04103535624,-2.3051837635384445,-0.6326111652207119,-0.007820340297590156,,0.032224927835383624,0.5705267380484347,-0.37992330596403323,-0.258395892492385,-0.8799314276158919,-0.3986881556265773,0.7119877207881075,0.1054684722889403,-0.694226106394734,0.652920399581771,-0.46324624558316213,0.5992477515711555,,-0.011989998197749343,0.27720767135461755,-0.06487274415401115,-0.9371780496868987,0.06450870087594107,-0.34283513414243416,-0.21502784986912638,-0.8806827283366889,0.4220911682281542,-0.2747004285978144,0.4692936799349059,0.8392276896095796,,0.040966537702897335,0.7186092617918066,1.1780730744869672,0.9903429130656627,-0.03682277027501626,-0.13366000946390297,0.05839782646669344,-0.7635868956834075,0.6430588982391451,-0.12574024178672163,-0.6446542765931601,-0.7540625009013286,,0.049755945375375234,0.6521384881357717,-0.3934798619901889,0.9343780119454901,-0.35324367672792434,-0.04643959134758745,-0.2710673223421439,-0.7894173221343905,0.5507656473241842,-0.23121470011885803,-0.5020350549173884,-0.833367005636197,,0.0,0.0,0.045,1.0,0.0,0.0,0.0,1.0,0.0,0.0,0.0,1.0,,0.019037333378670685,-0.19337877532911046,0.2249495411038443,False,,0.03218390278888715,0.5700036119686954,-0.3798092848544042,-0.2586620273943614,-0.8799106791638293,-0.39856135321639974,0.7129189254114766,0.10451412061338922,-0.6934143093292465,0.6517979452057091,-0.46350188272094334,0.6002711415183616
15:33:48.102672,,0.1314254680535527,-0.9060001298725225,0.041030171080000004,-2.3051837635384445,-0.6326111652207119,-0.007820340297590156,,0.03222363971068409,0.5705203645538229,-0.37992025437906923,-0.2584034569410555,-0.8799294767348175,-0.39868755863972233,0.7119961992415051,0.10545650826189558,-0.6942192284364208,0.6529081602389134,-0.46325267493928074,0.5992561167439499,,-0.01198968570438799,0.2772066956458343,-0.06487244381338668,-0.9371784871253208,0.06451706160462904,-0.3428323653822458,-0.21502699670063657,-0.8806935594676196,0.4220690035104982,-0.2746996044438099,0.46927220437220124,0.8392399682118671,,0.040966537702897335,0.7186092617918066,1.1780730744869672,0.9903429130656627,-0.03682277027501626,-0.13366000946390297,0.05839782646669344,-0.7635868956834075,0.6430588982391451,-0.12574024178672163,-0.6446542765931601,-0.7540625009013286,,0.049755945375375234,0.6521384881357717,-0.3934798619901889,0.9343780119454901,-0.35324367672792434,-0.04643959134758745,-0.2710673223421439,-0.7894173221343905,0.5507656473241842,-0.23121470011885803,-0.5020350549173884,-0.833367005636197,,0.0,0.0,0.045,1.0,0.0,0.0,0.0,1.0,0.0,0.0,0.0,1.0,,0.019037333378670685,-0.19337877532911046,0.2249495411038443,False,,0.032184793406608736,0.5700108651857712,-0.37980480604848804,-0.2585274714228912,-0.8799870570337983,-0.39848001954010337,0.7129435364092654,0.10453018476292919,-0.6933865836354772,0.6518244091869657,-0.4633532345051913,0.6003571600819304
15:33:48.166758,,0.13143319078642693,-0.905946070742403,0.041023689630000006,-2.3051837635384445,-0.6322087408153553,-0.00802428898622487,,0.03155666206812335,0.5696494165682706,-0.38115234559934263,-0.2471414973831069,-0.8778548482634264,-0.41023401327977665,0.7151916305331222,0.12039018261634461,-0.6884817612289936,0.6537751998100033,-0.4635483462488023,0.5980810302988976,,-0.01198901805408976,0.27720598911995026,-0.06487205529649588,-0.9371790617692036,0.06452660793608862,-0.3428289992613075,-0.21502707202068005,-0.8807039762697185,0.42204722978094794,-0.27469758674669953,0.4692513428172809,0.8392522938810296,,0.040966537702897335,0.7186092617918066,1.1780730744869672,0.9903429130656627,-0.03682277027501626,-0.13366000946390297,0.05839782646669344,-0.7635868956834075,0.6430588982391451,-0.12574024178672163,-0.6446542765931601,-0.7540625009013286,,0.049755945375375234,0.6521384881357717,-0.3934798619901889,0.9343780119454901,-0.35324367672792434,-0.04643959134758745,-0.2710673223421439,-0.7894173221343905,0.5507656473241842,-0.23121470011885803,-0.5020350549173884,-0.833367005636197,,0.0,0.0,0.045,1.0,0.0,0.0,0.0,1.0,0.0,0.0,0.0,1.0,,0.019037333378670685,-0.19337877532911046,0.2249495411038443,False,,0.03218883051104021,0.5700126211513348,-0.3798037382986112,-0.2586378175419971,-0.8800562195527296,-0.3982556085777962,0.7127731135605656,0.10439438529744866,-0.6935822236069387,0.6519669991052386,-0.46325248271857755,0.6002800757419692
15:33:48.302057,,0.13137913165630735,-0.9058688434136608,0.04101720818000001,-2.3051837635384445,-0.6322087408153553,-0.00802428898622487,,0.03767574594291832,0.5640268404665091,-0.3826961951383809,-0.1953955391126487,-0.8697836564196793,-0.45309709149374466,0.7288500585180053,0.18033800679232428,-0.6604966279281611,0.6561997984556058,-0.45929793634566357,0.5987046268198014,,-0.011988991891780725,0.27720563202461107,-0.06487186502864496,-0.9371790619059104,0.06453082024189553,-0.34282820646406403,-0.21502707205987048,-0.8807091619756049,0.42203640871006365,-0.2746975867928548,0.46924103106445925,0.8392580595734819,,0.040966537702897335,0.7186092617918066,1.1780730744869672,0.9903429130656627,-0.03682277027501626,-0.13366000946390297,0.05839782646669344,-0.7635868956834075,0.6430588982391451,-0.12574024178672163,-0.6446542765931601,-0.7540625009013286,,0.049755945375375234,0.6521384881357717,-0.3934798619901889,0.9343780119454901,-0.35324367672792434,-0.04643959134758745,-0.2710673223421439,-0.7894173221343905,0.5507656473241842,-0.23121470011885803,-0.5020350549173884,-0.833367005636197,,0.0,0.0,0.045,1.0,0.0,0.0,0.0,1.0,0.0,0.0,0.0,1.0,,0.019037333378670685,-0.19337877532911046,0.2249495411038443,False,,0.0321895180255974,0.5700219548569962,-0.3797983915391757,-0.25871181080609074,-0.8800637133230561,-0.39819098362653504,0.7127447935883463,0.10430988215687437,-0.693624039157471,0.6519686021290744,-0.4632572816226993,0.6002746311992602
15:33:48.369469,,0.13137913165630735,-0.905876566146535,0.04101720818000001,-2.3058127931264574,-0.6322087408153553,-0.00802428898622487,,0.0316684750750388,0.5691196726124776,-0.38113019798399894,-0.24258646340983311,-0.8805857191397626,-0.4070879499781545,0.7164965456027639,0.12027831691101526,-0.687143235883436,0.6540523739805671,-0.4583687573648102,0.6017587343464353,,-0.011988459451332253,0.27720490432065514,-0.06487169675150556,-0.9371796355812891,0.06454036612360116,-0.34282483941132325,-0.21502714687199626,-0.8807195770346857,0.42201463417869667,-0.2746955687390261,0.46922016846414616,0.8392703835753215,,0.040966537702897335,0.7186092617918066,1.1780730744869672,0.9903429130656627,-0.03682277027501626,-0.13366000946390297,0.05839782646669344,-0.7635868956834075,0.6430588982391451,-0.12574024178672163,-0.6446542765931601,-0.7540625009013286,,0.049755945375375234,0.6521384881357717,-0.3934798619901889,0.9343780119454901,-0.35324367672792434,-0.04643959134758745,-0.2710673223421439,-0.7894173221343905,0.5507656473241842,-0.23121470011885803,-0.5020350549173884,-0.833367005636197,,0.0,0.0,0.045,1.0,0.0,0.0,0.0,1.0,0.0,0.0,0.0,1.0,,0.019037333378670685,-0.19337877532911046,0.2249495411038443,False,,0.03219277070214821,0.5700214662682821,-0.37979714126088293,-0.25826591331943816,-0.8803418566185012,-0.3978654716141711,0.712685050662739,0.10441929215257484,-0.6936689628260764,0.6522106535308402,-0.46270382201992405,0.6004385368287323
15:33:48.405135,,0.1320587321492391,-0.9059151798109061,0.041031467370000005,-2.307070852302483,-0.6347574287159476,-0.005354981077200283,,0.03224388128153409,0.570217862452316,-0.3798715184347731,-0.25605740095567864,-0.880498555767298,-0.3989447339012324,0.7126253802582706,0.10691163848471241,-0.6933505383053142,0.6531459827845362,-0.46183567948807996,0.6000901018382205,,-0.011988146926792734,0.27720392857553305,-0.0648713964813736,-0.937180072650781,0.06454872657478121,-0.3428220697476059,-0.21502629372361698,-0.8807304058812071,0.42199246835220927,-0.2746947444272333,0.4691986916393519,0.8392826599722877,,0.040966537702897335,0.7186092617918066,1.1780730744869672,0.9903429130656627,-0.03682277027501626,-0.13366000946390297,0.05839782646669344,-0.7635868956834075,0.6430588982391451,-0.12574024178672163,-0.6446542765931601,-0.7540625009013286,,0.049755945375375234,0.6521384881357717,-0.3934798619901889,0.9343780119454901,-0.35324367672792434,-0.04643959134758745,-0.2710673223421439,-0.7894173221343905,0.5507656473241842,-0.23121470011885803,-0.5020350549173884,-0.833367005636197,,0.0,0.0,0.045,1.0,0.0,0.0,0.0,1.0,0.0,0.0,0.0,1.0,,0.019037333378670685,-0.19337877532911046,0.2249495411038443,False,,0.03222469476234021,0.570016575170234,-0.37978699728209686,-0.2562349762912328,-0.880119897850216,-0.399665613148238,0.7140773438904875,0.10632125438343526,-0.6919460512270009,0.6514884372476138,-0.4626929395122195,0.6012304548658557
15:33:48.450363,,0.1332557557447439,-0.9059846844067742,0.041057393170000005,-2.3087482645371846,-0.636769550742731,-0.003784184481624764,,0.03230190788456788,0.570167624477981,-0.37987736959328244,-0.25385987948598016,-0.8811400682540773,-0.3989327533614696,0.7132723368905551,0.10803498620794169,-0.6925106606989784,0.6532975853422769,-0.4603483701201184,0.6010670870324717,,-0.011988054324669293,0.2772027047860528,-0.06487096423457364,-0.9371803730005075,0.06455590136018795,-0.3428198974476455,-0.21502451230000152,-0.8807416483990831,0.42196991114204263,-0.27469511389281565,0.46917660043809783,0.8392948885990987,,0.040966537702897335,0.7186092617918066,1.1780730744869672,0.9903429130656627,-0.03682277027501626,-0.13366000946390297,0.05839782646669344,-0.7635868956834075,0.6430588982391451,-0.12574024178672163,-0.6446542765931601,-0.7540625009013286,,0.049755945375375234,0.6521384881357717,-0.3934798619901889,0.9343780119454901,-0.35324367672792434,-0.04643959134758745,-0.2710673223421439,-0.7894173221343905,0.5507656473241842,-0.23121470011885803,-0.5020350549173884,-0.833367005636197,,0.0,0.0,0.045,1.0,0.0,0.0,0.0,1.0,0.0,0.0,0.0,1.0,,0.019037333378670685,-0.19337877532911046,0.2249495411038443,False,,0.03226654727904349,0.5699984494934852,-0.37978801935122186,-0.2545880379355121,-0.880351693586274,-0.400207229494827,0.7149254897788005,0.1073396063635857,-0.6909122614125852,0.6512038659319278,-0.46201634657822377,0.602058485937888
15:33:48.493251,,0.13385812890893342,-0.9059846844067742,0.041067763490000006,-2.308957941066523,-0.636769550742731,-0.0036464211935243185,,0.03232306342980307,0.5701289595638641,-0.37986981691060884,-0.25364160908979627,-0.8813436263078983,-0.39862180886748033,0.7133182962851383,0.10791610364322363,-0.6924818573503081,0.6533321837497418,-0.45998644212727435,0.6013065197849475,,-0.011988262156246049,0.2772022520973468,-0.06487050354008311,-0.9371799359786411,0.06456438991650888,-0.34281949455911587,-0.21502536558155638,-0.8807515589439899,0.42194879105199257,-0.27469593817815496,0.46915682843632256,0.8393056717167965,,0.040966537702897335,0.7186092617918066,1.1780730744869672,0.9903429130656627,-0.03682277027501626,-0.13366000946390297,0.05839782646669344,-0.7635868956834075,0.6430588982391451,-0.12574024178672163,-0.6446542765931601,-0.7540625009013286,,0.049755945375375234,0.6521384881357717,-0.3934798619901889,0.9343780119454901,-0.35324367672792434,-0.04643959134758745,-0.2710673223421439,-0.7894173221343905,0.5507656473241842,-0.23121470011885803,-0.5020350549173884,-0.833367005636197,,0.0,0.0,0.045,1.0,0.0,0.0,0.0,1.0,0.0,0.0,0.0,1.0,,0.019037333378670685,-0.19337877532911046,0.2249495411038443,False,,0.03231499809393634,0.5699700573001215,-0.3797967366583657,-0.2538005969261859,-0.8810181187815983,-0.39923969163704776,0.7146207502573191,0.10736730901010383,-0.691223150840302,0.6518454113527055,-0.4607378162626356,0.6023439419168752
15:33:48.535408,,0.1337500106486943,-0.9059769616739,0.04107035607,-2.308957941066523,-0.636769550742731,-0.003577539549474096,,0.03231905498664455,0.570133464671711,-0.3798699532749092,-0.25365540360139627,-0.8812847496052508,-0.39874318343643567,0.7133186138536437,0.10800127251558272,-0.6924682521711237,0.653326481442264,-0.4600792488780875,0.6012417096293687,,-0.011987769961337533,0.2772020339437731,-0.06487038706860368,-0.9371802103052992,0.06457518525788687,-0.3428167131093092,-0.21502722227664683,-0.8807611000404367,0.4219279301748049,-0.27469355110404464,0.4691374319221555,0.8393172957096621,,0.040966537702897335,0.7186092617918066,1.1780730744869672,0.9903429130656627,-0.03682277027501626,-0.13366000946390297,0.05839782646669344,-0.7635868956834075,0.6430588982391451,-0.12574024178672163,-0.6446542765931601,-0.7540625009013286,,0.049755945375375234,0.6521384881357717,-0.3934798619901889,0.9343780119454901,-0.35324367672792434,-0.04643959134758745,-0.2710673223421439,-0.7894173221343905,0.5507656473241842,-0.23121470011885803,-0.5020350549173884,-0.833367005636197,,0.0,0.0,0.045,1.0,0.0,0.0,0.0,1.0,0.0,0.0,0.0,1.0,,0.019037333378670685,-0.19337877532911046,0.2249495411038443,False,,0.032309157824329617,0.5699690389818333,-0.37979423358242886,-0.25381833544007687,-0.8809464305158953,-0.3993865785873776,0.7146633823324958,0.10743955377898867,-0.6911678466456964,0.6517917631786287,-0.4608580354567714,0.6023100269856212
15:33:48.571177,,0.13371139698432316,-0.9059615162081515,0.04107165236,-2.308957941066523,-0.636769550742731,-0.003577539549474096,,0.03231827077339232,0.5701358746257086,-0.3798693636058656,-0.2536614136379266,-0.8812769073411598,-0.39875669250610596,0.7133186854708493,0.10800749095850258,-0.6924672085052028,0.6533240698071272,-0.460092810728498,0.6012339522403923,,-0.011988209803509758,0.27720153786936896,-0.06487012307553328,-0.9371799365546695,0.06457281434098625,-0.3428179080909136,-0.2150253657578781,-0.8807619280856006,0.42192714780633134,-0.2746959383398967,0.4691362037014193,0.8393172009297462,,0.040966537702897335,0.7186092617918066,1.1780730744869672,0.9903429130656627,-0.03682277027501626,-0.13366000946390297,0.05839782646669344,-0.7635868956834075,0.6430588982391451,-0.12574024178672163,-0.6446542765931601,-0.7540625009013286,,0.049755945375375234,0.6521384881357717,-0.3934798619901889,0.9343780119454901,-0.35324367672792434,-0.04643959134758745,-0.2710673223421439,-0.7894173221343905,0.5507656473241842,-0.23121470011885803,-0.5020350549173884,-0.833367005636197,,0.0,0.0,0.045,1.0,0.0,0.0,0.0,1.0,0.0,0.0,0.0,1.0,,0.019037333378670685,-0.19337877532911046,0.2249495411038443,False,,0.0323073965217947,0.5699683967794213,-0.3797923021935846,-0.2538261396725992,-0.8809322531613847,-0.3994128893249598,0.7146851186302979,0.10743916835547707,-0.6911454306522476,0.6517648901462119,-0.46088522480449495,0.6023183025025944
15:33:48.613493,,0.13373456518294582,-0.905946070742403,0.04107165236,-2.3087482645371846,-0.636769550742731,-0.003508657905423873,,0.0323208131941195,0.57014080501562,-0.3798721960295306,-0.2538027587004855,-0.8811855035696126,-0.39886873526862326,0.7132819698553062,0.10801919074944932,-0.692503202815097,0.6533092614951641,-0.4602651004894921,0.601118163189269,,-0.011988294490608353,0.2772013109848335,-0.06486977090410453,-0.9371797996707187,0.06457162887881349,-0.34281850557735516,-0.21502443749252162,-0.8807623420982961,0.4219267566245966,-0.2746971319533187,0.4691355895886217,0.839317153530869,,0.040966537702897335,0.7186092617918066,1.1780730744869672,0.9903429130656627,-0.03682277027501626,-0.13366000946390297,0.05839782646669344,-0.7635868956834075,0.6430588982391451,-0.12574024178672163,-0.6446542765931601,-0.7540625009013286,,0.049755945375375234,0.6521384881357717,-0.3934798619901889,0.9343780119454901,-0.35324367672792434,-0.04643959134758745,-0.2710673223421439,-0.7894173221343905,0.5507656473241842,-0.23121470011885803,-0.5020350549173884,-0.833367005636197,,0.0,0.0,0.045,1.0,0.0,0.0,0.0,1.0,0.0,0.0,0.0,1.0,,0.019037333378670685,-0.19337877532911046,0.2249495411038443,False,,0.03230790271577756,0.569968330705845,-0.3797920525678755,-0.2539725857834498,-0.8808237624713572,-0.3995590383613794,0.7147032826660283,0.10743480472575712,-0.6911273258090305,0.6516879187286437,-0.46109355037707966,0.6022421393291804
15:33:48.656695,,0.13371911971719738,-0.9058997343451577,0.04107035607,-2.306022469655795,-0.6352939945897565,-0.004669759628052661,,0.03231843590475094,0.5701765444027096,-0.3798899038655249,-0.2563280151529806,-0.8804467017143117,-0.39888538966490417,0.7125426330390819,0.10672762735696428,-0.6934639209508197,0.653130113185317,-0.4619770762701784,0.5999985302076936,,-0.011988375002330551,0.2772023301254001,-0.06486987444101454,-0.9371791987731373,0.06457412809104149,-0.3428196775642856,-0.2150280003201482,-0.8807605963852753,0.42192858505964154,-0.27469639317311273,0.4691385230327974,0.8393157556851574,,0.040966537702897335,0.7186092617918066,1.1780730744869672,0.9903429130656627,-0.03682277027501626,-0.13366000946390297,0.05839782646669344,-0.7635868956834075,0.6430588982391451,-0.12574024178672163,-0.6446542765931601,-0.7540625009013286,,0.049755945375375234,0.6521384881357717,-0.3934798619901889,0.9343780119454901,-0.35324367672792434,-0.04643959134758745,-0.2710673223421439,-0.7894173221343905,0.5507656473241842,-0.23121470011885803,-0.5020350549173884,-0.833367005636197,,0.0,0.0,0.045,1.0,0.0,0.0,0.0,1.0,0.0,0.0,0.0,1.0,,0.019037333378670685,-0.19337877532911046,0.2249495411038443,False,,0.03229811105378684,0.569961568838767,-0.3798056697103878,-0.256299048689217,-0.8801164064100016,-0.39963221693070183,0.7140234332832469,0.1062867981157884,-0.6920069748699781,0.6515223206946998,-0.4627074969289332,0.6011825329484832
15:33:48.733688,,0.13371139698432316,-0.9058379524821638,0.04106905978000001,-2.306232146185133,-0.6352939945897565,-0.004738641272102884,,0.03232036113297523,0.5701759371907682,-0.3798832297386232,-0.2561909462122654,-0.88056333988306,-0.39871594341442396,0.7125803276687726,0.10666670166354669,-0.6934345617112577,0.6531427682354972,-0.461768794106109,0.6001450700384545,,-0.011988334739333757,0.2772018205559423,-0.06486982266740295,-0.937179499239933,0.06457287848281786,-0.34281909157361884,-0.21502621890724793,-0.8807614692570878,0.4219276708549441,-0.2746967625680549,0.4691370563226369,0.839316454621313,,0.040966537702897335,0.7186092617918066,1.1780730744869672,0.9903429130656627,-0.03682277027501626,-0.13366000946390297,0.05839782646669344,-0.7635868956834075,0.6430588982391451,-0.12574024178672163,-0.6446542765931601,-0.7540625009013286,,0.049755945375375234,0.6521384881357717,-0.3934798619901889,0.9343780119454901,-0.35324367672792434,-0.04643959134758745,-0.2710673223421439,-0.7894173221343905,0.5507656473241842,-0.23121470011885803,-0.5020350549173884,-0.833367005636197,,0.0,0.0,0.045,1.0,0.0,0.0,0.0,1.0,0.0,0.0,0.0,1.0,,0.019037333378670685,-0.19337877532911046,0.2249495411038443,False,,0.032300429669105804,0.5699623817955588,-0.3798011203964944,-0.25636243623486565,-0.8802040012708331,-0.39939856964508536,0.7139690330900329,0.10609572496776837,-0.6920924193574494,0.6515569975652232,-0.46258470931320167,0.6012394411824734
15:33:48.772778,,0.13369595151857472,-0.9058379524821638,0.04106905978000001,-2.306232146185133,-0.6352939945897565,-0.004807522916153106,,0.032319995582671374,0.5701778454661344,-0.37988338095190965,-0.2561931184288162,-0.8805859952703964,-0.39866450933505904,0.7125800965117356,0.10662478978414937,-0.6934412449939872,0.653142168386825,-0.46173526953995075,0.600171516100044,,-0.011988730155274203,0.277202060937527,-0.06486996262397605,-0.9371790619014153,0.06457294262575983,-0.3428202750503627,-0.21502707205539048,-0.8807610104093251,0.42192819388777936,-0.2746975867899861,0.46913790892952567,0.8393157082935855,,0.040966537702897335,0.7186092617918066,1.1780730744869672,0.9903429130656627,-0.03682277027501626,-0.13366000946390297,0.05839782646669344,-0.7635868956834075,0.6430588982391451,-0.12574024178672163,-0.6446542765931601,-0.7540625009013286,,0.049755945375375234,0.6521384881357717,-0.3934798619901889,0.9343780119454901,-0.35324367672792434,-0.04643959134758745,-0.2710673223421439,-0.7894173221343905,0.5507656473241842,-0.23121470011885803,-0.5020350549173884,-0.833367005636197,,0.0,0.0,0.045,1.0,0.0,0.0,0.0,1.0,0.0,0.0,0.0,1.0,,0.019037333378670685,-0.19337877532911046,0.2249495411038443,False,,0.032299625523110075,0.5699625921332324,-0.3798008853849214,-0.25636484430084816,-0.880225048180917,-0.39935063686127337,0.7139745755597845,0.1060523543870987,-0.6920933488939041,0.651549976640954,-0.4625546050833956,0.6012702098518741
15:33:48.815251,,0.1336882287857005,-0.9058147842835412,0.041067763490000006,-2.306232146185133,-0.6352939945897565,-0.004807522916153106,,0.032321006510162634,0.5701805395324492,-0.379882358567903,-0.25619586971202524,-0.8805896962501211,-0.39865456626083956,0.7125805134777371,0.10661467421185832,-0.6934423718338125,0.6531406342850699,-0.46173054707352723,0.6001768187333447,,-0.011989210257107861,0.27720207443384315,-0.06486975040671837,-0.9371784876816994,0.06457182131009065,-0.34282205601552695,-0.21502699694435778,-0.8807609655843145,0.42192832573726274,-0.2746996046285952,0.4691381474225436,0.8393149145709313,,0.040966537702897335,0.7186092617918066,1.1780730744869672,0.9903429130656627,-0.03682277027501626,-0.13366000946390297,0.05839782646669344,-0.7635868956834075,0.6430588982391451,-0.12574024178672163,-0.6446542765931601,-0.7540625009013286,,0.049755945375375234,0.6521384881357717,-0.3934798619901889,0.9343780119454901,-0.35324367672792434,-0.04643959134758745,-0.2710673223421439,-0.7894173221343905,0.5507656473241842,-0.23121470011885803,-0.5020350549173884,-0.833367005636197,,0.0,0.0,0.045,1.0,0.0,0.0,0.0,1.0,0.0,0.0,0.0,1.0,,0.019037333378670685,-0.19337877532911046,0.2249495411038443,False,,0.03230015692554772,0.5699641221176128,-0.37979906148999476,-0.2563687292342931,-0.8802247448710884,-0.3993488114260785,0.7139892114291714,0.10603770956758463,-0.6920804939545768,0.6515324095035827,-0.4625585397182592,0.6012862186181951
15:33:48.854017,,0.13369595151857472,-0.9057916160849185,0.041067763490000006,-2.3064418227144703,-0.6352939945897565,-0.004807522916153106,,0.032321347173209516,0.5701753347034768,-0.37987742320559253,-0.25605356975946664,-0.8806737226087131,-0.39856036396002165,0.7126173329826286,0.10661744450834425,-0.6934041081932202,0.6531562647224315,-0.4615696207865302,0.6002835821683111,,-0.011988895355775686,0.27720285319581867,-0.06486971399843743,-0.9371783241005504,0.06457425637732127,-0.3428220445234373,-0.21502970662236315,-0.8807596786952394,0.4219296311192058,-0.27469804161627015,0.4691402282471677,0.8393142630351347,,0.040966537702897335,0.7186092617918066,1.1780730744869672,0.9903429130656627,-0.03682277027501626,-0.13366000946390297,0.05839782646669344,-0.7635868956834075,0.6430588982391451,-0.12574024178672163,-0.6446542765931601,-0.7540625009013286,,0.049755945375375234,0.6521384881357717,-0.3934798619901889,0.9343780119454901,-0.35324367672792434,-0.04643959134758745,-0.2710673223421439,-0.7894173221343905,0.5507656473241842,-0.23121470011885803,-0.5020350549173884,-0.833367005636197,,0.0,0.0,0.045,1.0,0.0,0.0,0.0,1.0,0.0,0.0,0.0,1.0,,0.019037333378670685,-0.19337877532911046,0.2249495411038443,False,,0.03230243800080199,0.5699640254061947,-0.3797967292435717,-0.256221970233565,-0.8803238382071339,-0.3992245506652743,0.713979847401621,0.1060531469011669,-0.692087788894384,0.6516003986140495,-0.4623663806080839,0.6013603334186521
15:33:48.902483,,0.13367278331995203,-0.9057530024205473,0.041066467200000005,-2.3066514992438085,-0.6352939945897565,-0.004807522916153106,,0.03232126589875969,0.570172481203914,-0.3798718840197073,-0.25591623931820545,-0.8807524041945193,-0.39847469299668276,0.7126541468616994,0.10662336014510075,-0.6933653625846844,0.6531699207817596,-0.46141809844970527,0.600385203855831,,-0.011989595382716144,0.2772026186573359,-0.06486936979335525,-0.9371776129853062,0.0645719495894456,-0.3428244229610603,-0.21502870324098333,-0.8807600478763146,0.4219293717917911,-0.27470125306388216,0.46913985262854446,0.8393134218955411,,0.040966537702897335,0.7186092617918066,1.1780730744869672,0.9903429130656627,-0.03682277027501626,-0.13366000946390297,0.05839782646669344,-0.7635868956834075,0.6430588982391451,-0.12574024178672163,-0.6446542765931601,-0.7540625009013286,,0.049755945375375234,0.6521384881357717,-0.3934798619901889,0.9343780119454901,-0.35324367672792434,-0.04643959134758745,-0.2710673223421439,-0.7894173221343905,0.5507656473241842,-0.23121470011885803,-0.5020350549173884,-0.833367005636197,,0.0,0.0,0.045,1.0,0.0,0.0,0.0,1.0,0.0,0.0,0.0,1.0,,0.019037333378670685,-0.19337877532911046,0.2249495411038443,False,,0.032303347343346354,0.569964400827802,-0.37979331711092934,-0.25608090581362786,-0.880410948972912,-0.39912295174079926,0.7139855218473047,0.1060715987397246,-0.6920791071353268,0.6516496330622032,-0.46219625362979244,0.601437759756137
15:33:48.952937,,0.13364961512132936,-0.9057298342219248,0.041066467200000005,-2.306861175773146,-0.6352939945897565,-0.004807522916153106,,0.03232758928834123,0.5702108553231114,-0.3798690319751528,-0.2557811550256289,-0.8808204613015975,-0.3984109884104545,0.7127219901340824,0.10662304611982527,-0.6932956734434753,0.6531488080928172,-0.4612882406788297,0.6005079462408156,,-0.011989775049375262,0.2772018610469877,-0.06486918602864397,-0.9371777765509225,0.06456951452812086,-0.34282443445401845,-0.21502599356063729,-0.8807613347548195,0.4219280664049444,-0.27470281607288916,0.4691377717905021,0.8393140734237172,,0.040966537702897335,0.7186092617918066,1.1780730744869672,0.9903429130656627,-0.03682277027501626,-0.13366000946390297,0.05839782646669344,-0.7635868956834075,0.6430588982391451,-0.12574024178672163,-0.6446542765931601,-0.7540625009013286,,0.049755945375375234,0.6521384881357717,-0.3934798619901889,0.9343780119454901,-0.35324367672792434,-0.04643959134758745,-0.2710673223421439,-0.7894173221343905,0.5507656473241842,-0.23121470011885803,-0.5020350549173884,-0.833367005636197,,0.0,0.0,0.045,1.0,0.0,0.0,0.0,1.0,0.0,0.0,0.0,1.0,,0.019037333378670685,-0.19337877532911046,0.2249495411038443,False,,0.03230448058575105,0.5699660471412188,-0.3797900291570995,-0.25593982653209163,-0.8804980254856275,-0.3990213431768215,0.7139911950536039,0.10609005938519522,-0.6920704246574714,0.6516988404014925,-0.462026110101537,0.6015151660629954
15:33:49.002935,,0.13364961512132936,-0.9056989432904278,0.041065170910000004,-2.306861175773146,-0.6352939945897565,-0.004945286204253552,,0.03232950096646955,0.5702147375930703,-0.3798676821682001,-0.2557839220901108,-0.8808833979739481,-0.3982700395134824,0.7127214875081169,0.10651045991826512,-0.6933134955935998,0.6531482729399327,-0.46119406013290165,0.6005808625436816,,-0.011988939786856431,0.2772021167407494,-0.06486931006159838,-0.9371784876593419,0.06457182130855021,-0.34282205600734844,-0.21502699693922805,-0.8807609655633027,0.42192832572719713,-0.27469960462204185,0.4691381474113518,0.8393149145509085,,0.040966537702897335,0.7186092617918066,1.1780730744869672,0.9903429130656627,-0.03682277027501626,-0.13366000946390297,0.05839782646669344,-0.7635868956834075,0.6430588982391451,-0.12574024178672163,-0.6446542765931601,-0.7540625009013286,,0.04979029622569057,0.6521313045103279,-0.3934959388391188,0.9343911336660247,-0.35320999279660636,-0.04643178130270671,-0.2710430734206609,-0.7894262371507443,0.550764803204325,-0.231190098570426,-0.5020447361407526,-0.8333679986874698,,0.0,0.0,0.045,1.0,0.0,0.0,0.0,1.0,0.0,0.0,0.0,1.0,,0.019037333378670685,-0.19337877532911046,0.2249495411038443,False,,0.03230565053315872,0.5699675236740847,-0.3797877129319047,-0.2559433992623986,-0.8805568872893896,-0.3988891382592782,0.71400702368924,0.10597233681840734,-0.6920721305988843,0.6516800952127061,-0.461940940030722,0.6016008821694755
15:33:49.054490,,0.1336264469227067,-0.9056680523589309,0.04106387462,-2.3072805288318214,-0.6352939945897565,-0.004945286204253552,,0.03236584880675619,0.5702069120360591,-0.37987534179715643,-0.2555397059267957,-0.8810258847478766,-0.3981116038236866,0.7127951390389754,0.10651053394750983,-0.6932377629072326,0.6531634928999435,-0.46092179007119827,0.6007732974927463,,-0.011984892416836892,0.2772020455223904,-0.0648681032225536,-0.9371784120749399,0.06457437088326339,-0.3428217823811206,-0.21502911949567843,-0.880760637341834,0.42192792913880833,-0.27469820097490794,0.46913841267101625,0.8393152256732341,,0.040966537702897335,0.7186092617918066,1.1780730744869672,0.9903429130656627,-0.03682277027501626,-0.13366000946390297,0.05839782646669344,-0.7635868956834075,0.6430588982391451,-0.12574024178672163,-0.6446542765931601,-0.7540625009013286,,0.04979029622569057,0.6521313045103279,-0.3934959388391188,0.9343911336660247,-0.35320999279660636,-0.04643178130270671,-0.2710430734206609,-0.7894262371507443,0.550764803204325,-0.231190098570426,-0.5020447361407526,-0.8333679986874698,,0.0,0.0,0.045,1.0,0.0,0.0,0.0,1.0,0.0,0.0,0.0,1.0,,0.019037333378670685,-0.19337877532911046,0.2249495411038443,False,,0.032274840861493376,0.5699725515336539,-0.3797670676962532,-0.25560180601864213,-0.880750142372928,-0.398681456140207,0.7140029309208167,0.10605984669527385,-0.6920629476828384,0.6518186338211669,-0.46155226749420525,0.6017490947018247
15:33:49.109262,,0.13369595151857472,-0.9056603296260567,0.04106257833,-2.3072805288318214,-0.6352939945897565,-0.004945286204253552,,0.032369829284730256,0.5702093016153618,-0.379874873833475,-0.25553194923488165,-0.881049055468604,-0.3980653021529288,0.7127980231291786,0.10647768050750825,-0.693239844337352,0.6531633801303904,-0.46088508916173637,0.6008015757677584,,-0.011982025176329623,0.2772017532556637,-0.06486633995045128,-0.937177051166963,0.06457349237424986,-0.3428256681766292,-0.21503016357259724,-0.8807606335069458,0.4219274050480125,-0.27470202662539933,0.46913854079493433,0.8393139019585355,,0.040966537702897335,0.7186092617918066,1.1780730744869672,0.9903429130656627,-0.03682277027501626,-0.13366000946390297,0.05839782646669344,-0.7635868956834075,0.6430588982391451,-0.12574024178672163,-0.6446542765931601,-0.7540625009013286,,0.04979029622569057,0.6521313045103279,-0.3934959388391188,0.9343911336660247,-0.35320999279660636,-0.04643178130270671,-0.2710430734206609,-0.7894262371507443,0.550764803204325,-0.231190098570426,-0.5020447361407526,-0.8333679986874698,,0.0,0.0,0.045,1.0,0.0,0.0,0.0,1.0,0.0,0.0,0.0,1.0,,0.019037333378670685,-0.19337877532911046,0.2249495411038443,False,,0.03227892055971404,0.5699729270546788,-0.37976763980230405,-0.25559184826703885,-0.880780140259089,-0.39862156442498,0.7139819665780872,0.10603485283978947,-0.6920884057579143,0.6518455020177145,-0.4615007632804345,0.6017594926470625
15:33:49.165056,,0.13371911971719738,-0.905637161427434,0.04106257833,-2.3072805288318214,-0.6352939945897565,-0.004945286204253552,,0.03237204822052745,0.5702106808592411,-0.37987373095455595,-0.255530749744664,-0.8810623091277884,-0.3980367362057666,0.712798423894509,0.10645578931827858,-0.6932427942749394,0.6531634120405352,-0.4608648091957459,0.6008170976399844,,-0.011977757879738005,0.2772019300693041,-0.06486526509869944,-0.9371771124740865,0.06457722742854916,-0.342824797080742,-0.21503321440932982,-0.8807598912834101,0.4219273996178771,-0.27469942937072456,0.46913942015690174,0.8393142605123074,,0.040966537702897335,0.7186092617918066,1.1780730744869672,0.9903429130656627,-0.03682277027501626,-0.13366000946390297,0.05839782646669344,-0.7635868956834075,0.6430588982391451,-0.12574024178672163,-0.6446542765931601,-0.7540625009013286,,0.04979029622569057,0.6521313045103279,-0.3934959388391188,0.9343911336660247,-0.35320999279660636,-0.04643178130270671,-0.2710430734206609,-0.7894262371507443,0.550764803204325,-0.231190098570426,-0.5020447361407526,-0.8333679986874698,,0.0,0.0,0.045,1.0,0.0,0.0,0.0,1.0,0.0,0.0,0.0,1.0,,0.019037333378670685,-0.19337877532911046,0.2249495411038443,False,,0.03228083671391822,0.5699727659472944,-0.37976616253764417,-0.2555909110755391,-0.8807927370029923,-0.39859433089088725,0.713985535391411,0.10601160696305506,-0.6920882851493381,0.6518419604684993,-0.46148206209113807,0.6017776706896784
15:33:49.203791,,0.13371911971719738,-0.9056139932288113,0.04106128204,-2.307490205361159,-0.6352939945897565,-0.004945286204253552,,0.0323696170485341,0.5703206230904773,-0.3798991247640886,-0.2554107960154582,-0.8808806412476629,-0.39851552184809114,0.7128885059494553,0.10685573760140936,-0.6930886158542873,0.6531120144078681,-0.46111945005254884,0.6006775752592496,,-0.011974271131454115,0.2772028914905377,-0.06486394958465315,-0.9371758617338358,0.06458115488372324,-0.3428274764221604,-0.2150388246820335,-0.8807577724925469,0.4219289632698811,-0.27469930475971727,0.4691428573478568,0.839312380068754,,0.040966537702897335,0.7186092617918066,1.1780730744869672,0.9903429130656627,-0.03682277027501626,-0.13366000946390297,0.05839782646669344,-0.7635868956834075,0.6430588982391451,-0.12574024178672163,-0.6446542765931601,-0.7540625009013286,,0.04979029622569057,0.6521313045103279,-0.3934959388391188,0.9343911336660247,-0.35320999279660636,-0.04643178130270671,-0.2710430734206609,-0.7894262371507443,0.550764803204325,-0.231190098570426,-0.5020447361407526,-0.8333679986874698,,0.0,0.0,0.045,1.0,0.0,0.0,0.0,1.0,0.0,0.0,0.0,1.0,,0.019037333378670685,-0.19337877532911046,0.2249495411038443,False,,0.03228294033796832,0.5699740455057797,-0.37976383840724937,-0.2554452685691845,-0.8808883703681969,-0.3984763402206962,0.7139789424776983,0.10602921206802085,-0.692092389704339,0.651906269692235,-0.4612954423558697,0.6018510865634935
15:33:49.246990,,0.1337268424500716,-0.9055908250301887,0.04105998575000001,-2.307490205361159,-0.6352939945897565,-0.004945286204253552,,0.032370984157535185,0.5703203927574327,-0.37989758543500296,-0.25541161096924125,-0.8808908127865348,-0.39849251552617,0.7128900531606931,0.10683595389642722,-0.6930900742757642,0.6531100068798833,-0.4611046029951536,0.6006911552620368,,-0.01197157938944986,0.27720308763447965,-0.06486245827131404,-0.9371742003320783,0.06458152595665002,-0.3428319482095914,-0.21504165017317184,-0.8807568957749429,0.421929353342274,-0.2747027609960857,0.46914445219584644,0.8393103574072767,,0.040966537702897335,0.7186092617918066,1.1780730744869672,0.9903429130656627,-0.03682277027501626,-0.13366000946390297,0.05839782646669344,-0.7635868956834075,0.6430588982391451,-0.12574024178672163,-0.6446542765931601,-0.7540625009013286,,0.04979029622569057,0.6521313045103279,-0.3934959388391188,0.9343911336660247,-0.35320999279660636,-0.04643178130270671,-0.2710430734206609,-0.7894262371507443,0.550764803204325,-0.231190098570426,-0.5020447361407526,-0.8333679986874698,,0.0,0.0,0.045,1.0,0.0,0.0,0.0,1.0,0.0,0.0,0.0,1.0,,0.019037333378670685,-0.19337877532911046,0.2249495411038443,False,,0.032284276041762226,0.5699753656495778,-0.37976225017049936,-0.2554467426053756,-0.8808945158794717,-0.39846180944448695,0.7139880524669591,0.10601028016023306,-0.6920858916599788,0.651895714533193,-0.4612880579354081,0.6018681790719939
15:33:49.288689,,0.13371911971719738,-0.9055444886329433,0.041057393170000005,-2.307490205361159,-0.6352939945897565,-0.004945286204253552,,0.032375347140787,0.570243262911987,-0.37987359911699664,-0.25540043709134874,-0.8810922364379388,-0.3980541264983186,0.7128520980209984,0.1065259181159772,-0.693176828173453,0.6531558030673914,-0.460791384097337,0.6008816832464204,,-0.01197253959771674,0.2772031146176672,-0.06486203384556824,-0.9371730518593611,0.06457928332004079,-0.3428355101296449,-0.21504149996322194,-0.8807568061497169,0.42192961698118603,-0.2747067966642827,0.46914492916175976,0.8393087699289389,,0.040966537702897335,0.7186092617918066,1.1780730744869672,0.9903429130656627,-0.03682277027501626,-0.13366000946390297,0.05839782646669344,-0.7635868956834075,0.6430588982391451,-0.12574024178672163,-0.6446542765931601,-0.7540625009013286,,0.04979029622569057,0.6521313045103279,-0.3934959388391188,0.9343911336660247,-0.35320999279660636,-0.04643178130270671,-0.2710430734206609,-0.7894262371507443,0.550764803204325,-0.231190098570426,-0.5020447361407526,-0.8333679986874698,,0.0,0.0,0.045,1.0,0.0,0.0,0.0,1.0,0.0,0.0,0.0,1.0,,0.019037333378670685,-0.19337877532911046,0.2249495411038443,False,,0.03228551714519696,0.569977050822696,-0.3797585969047906,-0.2554533092518061,-0.8808971367792943,-0.3984518053746815,0.7140145779910289,0.10597888683932488,-0.6920633337784852,0.6518640879881286,-0.4612902664899179,0.6019007400170451
15:33:49.318858,,0.1337268424500716,-0.9054827067699496,0.04105220801000001,-2.30560311659712,-0.633818438436782,-0.005899742994731616,,0.03238822980954543,0.5705210290826112,-0.3799286094652494,-0.2573710647132375,-0.8802476962523599,-0.3986528919884905,0.7122847765260781,0.10597206075156643,-0.6938445931685718,0.6530011731823834,-0.46252990777081526,0.5997128915072208,,-0.011972674832441948,0.27720309346115324,-0.06486225402431736,-0.9371730518593611,0.0645792833200408,-0.34283551012964486,-0.21504149996322192,-0.8807568061497169,0.42192961698118603,-0.27470679666428266,0.46914492916175976,0.8393087699289389,,0.040966537702897335,0.7186092617918066,1.1780730744869672,0.9903429130656627,-0.03682277027501626,-0.13366000946390297,0.05839782646669344,-0.7635868956834075,0.6430588982391451,-0.12574024178672163,-0.6446542765931601,-0.7540625009013286,,0.04979029622569057,0.6521313045103279,-0.3934959388391188,0.9343911336660247,-0.35320999279660636,-0.04643178130270671,-0.2710430734206609,-0.7894262371507443,0.550764803204325,-0.231190098570426,-0.5020447361407526,-0.8333679986874698,,0.0,0.0,0.045,1.0,0.0,0.0,0.0,1.0,0.0,0.0,0.0,1.0,,0.019037333378670685,-0.19337877532911046,0.2249495411038443,False,,0.032282463379167195,0.569973752336891,-0.3797703160377264,-0.2573891156900415,-0.8804509833376715,-0.39819205047819106,0.7131883927609683,0.10495554655364547,-0.6930704507325736,0.6520070241610327,-0.462374738915691,0.6009130063972001
15:33:49.373580,,0.1337268424500716,-0.9054054794412073,0.041048319140000004,-2.3051837635384445,-0.6332818725629731,-0.0067227277319797385,,0.031622917475148477,0.569603233905349,-0.38117539109512805,-0.2470658469149981,-0.877317587221432,-0.41142717270513324,0.7152342403823452,0.12135011475385411,-0.688268938013271,0.6537571786778821,-0.46431454941794725,0.5975061091954997,,-0.011973909087236716,0.2772031505354239,-0.06486224814069172,-0.937165471248929,0.06457293575319917,-0.34285742456009144,-0.21504104706507637,-0.8807656961303563,0.4219112877207211,-0.27473300800035144,0.46912911079703284,0.8393090311839,,0.040966537702897335,0.7186092617918066,1.1780730744869672,0.9903429130656627,-0.03682277027501626,-0.13366000946390297,0.05839782646669344,-0.7635868956834075,0.6430588982391451,-0.12574024178672163,-0.6446542765931601,-0.7540625009013286,,0.04979029622569057,0.6521313045103279,-0.3934959388391188,0.9343911336660247,-0.35320999279660636,-0.04643178130270671,-0.2710430734206609,-0.7894262371507443,0.550764803204325,-0.231190098570426,-0.5020447361407526,-0.8333679986874698,,0.0,0.0,0.045,1.0,0.0,0.0,0.0,1.0,0.0,0.0,0.0,1.0,,0.019037333378670685,-0.19337877532911046,0.2249495411038443,False,,0.032284647217910335,0.5699742750545704,-0.37976957089120567,-0.2579112132669414,-0.8806014104235963,-0.397521020867007,0.712893149386412,0.10425772927424509,-0.6934794037637322,0.6521235800284311,-0.46224612691352146,0.600885475381417
15:33:49.432648,,0.13371911971719738,-0.9053514203110877,0.04104313398000001,-2.3049740870091067,-0.6332818725629731,-0.006791609376029961,,0.031650460394134675,0.5696018263138429,-0.3811788719443696,-0.24656518236098818,-0.8776688611028447,-0.4109780786097087,0.7153660939304385,0.12126331969537062,-0.6881471927946561,0.6538019291054439,-0.4636729208686804,0.5979552323971306,,-0.011975898082541828,0.27720193278063415,-0.06486201471951565,-0.9371577799416366,0.06456178276974602,-0.34288054566441317,-0.21503602741676264,-0.8807767009001012,0.42189087091216104,-0.2747631694793735,0.4691099831082223,0.8393098482327747,,0.040966537702897335,0.7186092617918066,1.1780730744869672,0.9903429130656627,-0.03682277027501626,-0.13366000946390297,0.05839782646669344,-0.7635868956834075,0.6430588982391451,-0.12574024178672163,-0.6446542765931601,-0.7540625009013286,,0.04979029622569057,0.6521313045103279,-0.3934959388391188,0.9343911336660247,-0.35320999279660636,-0.04643178130270671,-0.2710430734206609,-0.7894262371507443,0.550764803204325,-0.231190098570426,-0.5020447361407526,-0.8333679986874698,,0.0,0.0,0.045,1.0,0.0,0.0,0.0,1.0,0.0,0.0,0.0,1.0,,0.019037333378670685,-0.19337877532911046,0.2249495411038443,False,,0.03228476792942656,0.5699787511434886,-0.3797666682245497,-0.2580673514428351,-0.8805352407791172,-0.39756626097462333,0.7129408363905587,0.10414623515758165,-0.6934471324544015,0.6520096670495084,-0.4623972874580514,0.6008927879625661
15:33:49.485597,,0.13371139698432316,-0.9053591430439619,0.04104313398000001,-2.3049740870091067,-0.6332818725629731,-0.006860491020080184,,0.03164827647416861,0.5696021754833855,-0.3811785347609022,-0.246596732378338,-0.8776614841815777,-0.4109749028402051,0.7153571427558522,0.12124455364697222,-0.6881598044924812,0.6537998240199441,-0.46369179138209493,0.5979429008829804,,-0.01197683189907287,0.27720121876711773,-0.06486203731779522,-0.9371509368209469,0.06455412246560262,-0.3429006909516069,-0.21503293893773023,-0.8807869226669601,0.4218711047197241,-0.27478892582161285,0.46909184505631096,0.8393115536642171,,0.040966537702897335,0.7186092617918066,1.1780730744869672,0.9903429130656627,-0.03682277027501626,-0.13366000946390297,0.05839782646669344,-0.7635868956834075,0.6430588982391451,-0.12574024178672163,-0.6446542765931601,-0.7540625009013286,,0.04979029622569057,0.6521313045103279,-0.3934959388391188,0.9343911336660247,-0.35320999279660636,-0.04643178130270671,-0.2710430734206609,-0.7894262371507443,0.550764803204325,-0.231190098570426,-0.5020447361407526,-0.8333679986874698,,0.0,0.0,0.045,1.0,0.0,0.0,0.0,1.0,0.0,0.0,0.0,1.0,,0.019037333378670685,-0.19337877532911046,0.2249495411038443,False,,0.03228522818216746,0.5699800734064038,-0.37976618268763623,-0.2580682418418344,-0.8805362116112607,-0.3975635327767803,0.7129447898976766,0.10414063659732281,-0.6934439085945328,0.6520049916299895,-0.4623966996534404,0.6008983133935258
15:33:49.552409,,0.13371139698432316,-0.9053591430439619,0.041041837690000006,-2.3049740870091067,-0.6332818725629731,-0.006860491020080184,,0.031897302967224,0.568945064288802,-0.3811707820114377,-0.23950819461675643,-0.8830128314280408,-0.4036386555384113,0.7173834698055294,0.11918466815592581,-0.6864080216069309,0.6542146298893056,-0.45396404528331996,0.60491310419663,,-0.011977765720730522,0.2772005047584006,-0.06486205993723453,-0.9371440934956914,0.06454646261895987,-0.3429208364001097,-0.21502984998138602,-0.8807971443862178,0.4218513386323428,-0.27481468208768284,0.46907370684392036,0.8393132585063711,,0.040966537702897335,0.7186092617918066,1.1780730744869672,0.9903429130656627,-0.03682277027501626,-0.13366000946390297,0.05839782646669344,-0.7635868956834075,0.6430588982391451,-0.12574024178672163,-0.6446542765931601,-0.7540625009013286,,0.04979029622569057,0.6521313045103279,-0.3934959388391188,0.9343911336660247,-0.35320999279660636,-0.04643178130270671,-0.2710430734206609,-0.7894262371507443,0.550764803204325,-0.231190098570426,-0.5020447361407526,-0.8333679986874698,,0.0,0.0,0.045,1.0,0.0,0.0,0.0,1.0,0.0,0.0,0.0,1.0,,0.019037333378670685,-0.19337877532911046,0.2249495411038443,False,,0.032285215319653754,0.5699812926794643,-0.3797669170375819,-0.2580673514428352,-0.8805626237078411,-0.39750560731648,0.7129408363905588,0.10409846913200382,-0.6934543045732027,0.6520096670495086,-0.4623558958779877,0.6009246372223831
15:33:49.612299,,0.13371139698432316,-0.9053745885097104,0.04104313398000001,-2.3049740870091067,-0.6332818725629731,-0.006791609376029961,,0.03164837813673948,0.5695986057336925,-0.38117834504979986,-0.24658270028968665,-0.8776514706707784,-0.41100470550501755,0.7153610989344866,0.12127517779015659,-0.688150295635488,0.653800787739729,-0.4637027359002592,0.5979333597229076,,-0.011979179652588262,0.2771998042482896,-0.06486187036544651,-0.9371366756800602,0.06453768200859265,-0.3429427629580051,-0.21502668534982478,-0.8808073214847909,0.42183170456384944,-0.2748424560576115,0.469055806902263,0.8393141690263985,,0.040966537702897335,0.7186092617918066,1.1780730744869672,0.9903429130656627,-0.03682277027501626,-0.13366000946390297,0.05839782646669344,-0.7635868956834075,0.6430588982391451,-0.12574024178672163,-0.6446542765931601,-0.7540625009013286,,0.04979029622569057,0.6521313045103279,-0.3934959388391188,0.9343911336660247,-0.35320999279660636,-0.04643178130270671,-0.2710430734206609,-0.7894262371507443,0.550764803204325,-0.231190098570426,-0.5020447361407526,-0.8333679986874698,,0.0,0.0,0.045,1.0,0.0,0.0,0.0,1.0,0.0,0.0,0.0,1.0,,0.019037333378670685,-0.19337877532911046,0.2249495411038443,False,,0.032285291063300636,0.5699787905655275,-0.379769066026519,-0.25811848886565997,-0.8805633098458454,-0.3974708832845977,0.7128372193044505,0.10410748011721754,-0.693559464904014,0.652102710069516,-0.46235256021457616,0.6008262357645677
15:33:49.644663,,0.13371139698432316,-0.9053977567083331,0.04104572656,-2.3051837635384445,-0.6335501554998776,-0.006655643583606763,,0.03239259831643672,0.5705391441614732,-0.3799265322389127,-0.2577904790355826,-0.8803742206553563,-0.3981021232348286,0.7121637396046537,0.10531992932560023,-0.6940680949872031,0.6529677456895704,-0.46243804351753387,0.599820122200611,,-0.01197917965258826,0.27719980424828955,-0.06486187036544651,-0.9371366756800602,0.06453768200859268,-0.342942762958005,-0.21502668534982478,-0.8808073214847909,0.42183170456384933,-0.27484245605761154,0.4690558069022629,0.8393141690263985,,0.040966537702897335,0.7186092617918066,1.1780730744869672,0.9903429130656627,-0.03682277027501626,-0.13366000946390297,0.05839782646669344,-0.7635868956834075,0.6430588982391451,-0.12574024178672163,-0.6446542765931601,-0.7540625009013286,,0.04979029622569057,0.6521313045103279,-0.3934959388391188,0.9343911336660247,-0.35320999279660636,-0.04643178130270671,-0.2710430734206609,-0.7894262371507443,0.550764803204325,-0.231190098570426,-0.5020447361407526,-0.8333679986874698,,0.0,0.0,0.045,1.0,0.0,0.0,0.0,1.0,0.0,0.0,0.0,1.0,,0.019037333378670685,-0.19337877532911046,0.2249495411038443,False,,0.03228378674590516,0.5699791251266096,-0.37976710267793756,-0.25780627995467714,-0.8805697274212824,-0.39765924755390714,0.713088490192097,0.1043042320706139,-0.6932715429957557,0.6519514760865925,-0.46229598994731563,0.6010338513820541
15:33:49.675724,,0.13371911971719738,-0.9054209249069557,0.04104572656,-2.305393440067782,-0.6336842969683297,-0.0065876606873951915,,0.032392012605298115,0.5705377969355357,-0.3799273105270583,-0.2575858637998353,-0.8804316447124612,-0.3981075756116722,0.712225408841114,0.10542873983320761,-0.6939882908365889,0.65298123232724,-0.46230390416488215,0.5999088350927221,,-0.011978519883714114,0.2772005483500293,-0.06486226631843335,-0.9371370867982448,0.06454123818538686,-0.34294097028051285,-0.2150294703544252,-0.8808060796704535,0.421832877892188,-0.27483887534797147,0.4690576495114512,0.8393143118095857,,0.040966537702897335,0.7186092617918066,1.1780730744869672,0.9903429130656627,-0.03682277027501626,-0.13366000946390297,0.05839782646669344,-0.7635868956834075,0.6430588982391451,-0.12574024178672163,-0.6446542765931601,-0.7540625009013286,,0.04979029622569057,0.6521313045103279,-0.3934959388391188,0.9343911336660247,-0.35320999279660636,-0.04643178130270671,-0.2710430734206609,-0.7894262371507443,0.550764803204325,-0.231190098570426,-0.5020447361407526,-0.8333679986874698,,0.0,0.0,0.045,1.0,0.0,0.0,0.0,1.0,0.0,0.0,0.0,1.0,,0.019037333378670685,-0.19337877532911046,0.2249495411038443,False,,0.03228310919116143,0.5699798890766985,-0.3797681144004065,-0.25774826683301355,-0.8805158284275303,-0.3978161721614114,0.7131667469933984,0.10441438205347231,-0.6931744569754755,0.6518888110156759,-0.4623737803000637,0.6010419830291366
15:33:49.706335,,0.1337268424500716,-0.90542864763983,0.04104572656,-2.305393440067782,-0.633818438436782,-0.0064507961471333974,,0.032388384594282074,0.5705070840699725,-0.3799251152789976,-0.25752443363495947,-0.8804077366631301,-0.3982001799405641,0.7122654225769149,0.10551788707145585,-0.6939336735663605,0.6529618165576927,-0.4623290957009736,0.5999105544879152,,-0.011978519883714114,0.27720054835002933,-0.06486226631843336,-0.9371370867982448,0.06454123818538687,-0.34294097028051285,-0.2150294703544252,-0.8808060796704535,0.4218328778921879,-0.27483887534797147,0.46905764951145107,0.8393143118095857,,0.040966537702897335,0.7186092617918066,1.1780730744869672,0.9903429130656627,-0.03682277027501626,-0.13366000946390297,0.05839782646669344,-0.7635868956834075,0.6430588982391451,-0.12574024178672163,-0.6446542765931601,-0.7540625009013286,,0.04979029622569057,0.6521313045103279,-0.3934959388391188,0.9343911336660247,-0.35320999279660636,-0.04643178130270671,-0.2710430734206609,-0.7894262371507443,0.550764803204325,-0.231190098570426,-0.5020447361407526,-0.8333679986874698,,0.0,0.0,0.045,1.0,0.0,0.0,0.0,1.0,0.0,0.0,0.0,1.0,,0.019037333378670685,-0.19337877532911046,0.2249495411038443,False,,0.03228430791635079,0.5699806628344204,-0.37976667695511,-0.25754459229258353,-0.8805851564779137,-0.3977946268762508,0.7132384464139849,0.10449440807782662,-0.6930886214889337,0.6518908662788677,-0.462223648109044,0.6011552192162641
