AlexandreBanks6/RCL_Autocam_Public/optimizationData/Data_27.csv
System Time,q_des,q0,q1,q2,q3,q4,q5,T_des,Tx,Ty,Tz,R00,R01,R02,R10,R11,R12,R20,R21,R22,T_target,Tx,Ty,Tz,R00,R01,R02,R10,R11,R12,R20,R21,R22,worldFrame,Tx,Ty,Tz,R00,R01,R02,R10,R11,R12,R20,R21,R22,ECM_T_PSM_RCM,Tx,Ty,Tz,R00,R01,R02,R10,R11,R12,R20,R21,R22,psm3_T_cam,Tx,Ty,Tz,R00,R01,R02,R10,R11,R12,R20,R21,R22,offset,x,y,z,IK Trigered,ECM_T_PSM3,Tx,Ty,Tz,R00,R01,R02,R10,R11,R12,R20,R21,R22
15:39:18.215712,,0.40863296457384146,-0.6918487472702769,0.028743934460000002,-2.672537042938058,-0.7096083681122913,0.8451073482252569,,0.06194670107874488,0.5430601789313811,-0.3950699192256521,0.07622690941620261,-0.8090663102553746,-0.5827530899880397,0.7653017029415216,0.4221129659547631,-0.48593615573208854,0.6391422077719963,-0.40894052083723287,0.6513561918502897,,-0.00666260220528681,0.2828499186734595,-0.07084431753372544,-0.9651835803162507,0.013364021413289295,0.2612318112703132,0.09544450688064407,-0.9118429185250718,0.3992904181695194,0.24353850289885187,0.4103216968030622,0.8788202903543144,,0.04098147374178401,0.718612019268799,1.1780691719863874,0.9903422347485268,-0.0368410089900275,-0.13366000946390297,0.058383763803984356,-0.7635879710416723,0.643058898239145,-0.12575211408709788,-0.644651960779659,-0.754062500901329,,0.04951141349210302,0.6521894536294949,-0.39337925491380776,0.9344445744877716,-0.35304075149920344,-0.046642952214084085,-0.2707647119838966,-0.7894516392541102,0.5508653011610697,-0.23130025498179885,-0.5021238264212088,-0.8332897785197408,,0.0,0.0,0.045,1.0,0.0,0.0,0.0,1.0,0.0,0.0,0.0,1.0,,0.019037333378670685,-0.19337877532911046,0.2249495411038443,False,,0.05701810551390796,0.5833139989511827,-0.3723546320161899,0.013931475501996249,-0.7588262698518703,-0.6511440748198773,0.7925904490518866,0.40539190113176804,-0.45547534133968204,0.6095951886802145,-0.5097451310993247,0.6070861613135868
15:39:20.506027,,0.6676302569767089,-0.9088575410359856,0.06790485536,-2.6169727626635733,-0.9281248202209724,0.8988174848803547,,0.06275845973157611,0.5437698668654584,-0.3937279601300215,0.06995331624960159,-0.8053488256801472,-0.5886593263690735,0.7660184654524494,0.42137089217721857,-0.4854505966745224,0.6390009734981301,-0.4169650347467797,0.6463883628802883,,-0.006668884807861958,0.2828505590332433,-0.07082474836246365,-0.9652151132870951,0.013510912135239014,0.26110765369098277,0.09522296788255304,-0.9119103222633489,0.3991893247792952,0.2435001805961848,0.4101670219354369,0.8789030905889433,,0.04098147374178401,0.718612019268799,1.1780691719863874,0.9903422347485268,-0.0368410089900275,-0.13366000946390297,0.058383763803984356,-0.7635879710416723,0.643058898239145,-0.12575211408709788,-0.644651960779659,-0.754062500901329,,0.04956530963995987,0.6521949285649569,-0.3934041919319671,0.9344671253507219,-0.35298120920212994,-0.046641800876046094,-0.27071064686531765,-0.7894592490503122,0.5508809669635344,-0.23127243093918454,-0.5021537215227221,-0.8332794865159953,,0.0,0.0,0.045,1.0,0.0,0.0,0.0,1.0,0.0,0.0,0.0,1.0,,0.019037333378670685,-0.19337877532911046,0.2249495411038443,False,,0.06257441342166475,0.5431287073651875,-0.39406839924430365,0.07288722027366235,-0.805110578655824,-0.5886292629977405,0.761360936218544,0.42614795403429606,-0.4885974274111626,0.6442181136239507,-0.412546818444729,0.64404048371972
15:39:20.534550,,0.6676302569767089,-0.9088729865017341,0.06790615165000001,-2.6169727626635733,-0.9281248202209724,0.8988174848803547,,0.06275746685194283,0.5437719747966316,-0.39372803833954173,0.06995525532964124,-0.8053456648490043,-0.5886634202672018,0.7660224033367468,0.42137197265416937,-0.48544344495288927,0.6389960405495166,-0.41697004780973135,0.6463900056402414,,-0.0066714043848579724,0.28285120943059494,-0.07081809253525936,-0.9652261574196546,0.01356007632098493,0.2610642823903753,0.0951485063869496,-0.9119321438612562,0.39915723330774033,0.2434855169043226,0.4101168851677852,0.8789305511444307,,0.04098147374178401,0.718612019268799,1.1780691719863874,0.9903422347485268,-0.0368410089900275,-0.13366000946390297,0.058383763803984356,-0.7635879710416723,0.643058898239145,-0.12575211408709788,-0.644651960779659,-0.754062500901329,,0.04956530963995987,0.6521949285649569,-0.3934041919319671,0.9344671253507219,-0.35298120920212994,-0.046641800876046094,-0.27071064686531765,-0.7894592490503122,0.5508809669635344,-0.23127243093918454,-0.5021537215227221,-0.8332794865159953,,0.0,0.0,0.045,1.0,0.0,0.0,0.0,1.0,0.0,0.0,0.0,1.0,,0.019037333378670685,-0.19337877532911046,0.2249495411038443,False,,0.06257336611297017,0.5431272884461292,-0.394069718916731,0.07289670128743003,-0.80510680575379,-0.5886332493754838,0.7613531366403918,0.4261611200269195,-0.4885980977298608,0.6442262585996075,-0.41254058116303033,0.6440363317580935
15:39:20.567649,,0.6676070887780862,-0.9087880364401176,0.06790226278,-2.6169727626635733,-0.9281248202209724,0.8988174848803547,,0.06276155980868776,0.5437575756112518,-0.3937261786705113,0.06994123624052512,-0.8053468138530123,-0.5886635141487442,0.7660077758346712,0.42137302597579296,-0.48546561190348425,0.639015110020074,-0.4169667641393083,0.6463732720102427,,-0.0066729253289511264,0.28285122512319755,-0.07081458673234942,-0.965231921520406,0.013583228668644455,0.2610417751388581,0.09511195925594476,-0.9119434653959277,0.39914008307716736,0.24347695512143724,0.4100909491945511,0.8789450270091935,,0.04098147374178401,0.718612019268799,1.1780691719863874,0.9903422347485268,-0.0368410089900275,-0.13366000946390297,0.058383763803984356,-0.7635879710416723,0.643058898239145,-0.12575211408709788,-0.644651960779659,-0.754062500901329,,0.04956530963995987,0.6521949285649569,-0.3934041919319671,0.9344671253507219,-0.35298120920212994,-0.046641800876046094,-0.27071064686531765,-0.7894592490503122,0.5508809669635344,-0.23127243093918454,-0.5021537215227221,-0.8332794865159953,,0.0,0.0,0.045,1.0,0.0,0.0,0.0,1.0,0.0,0.0,0.0,1.0,,0.019037333378670685,-0.19337877532911046,0.2249495411038443,False,,0.06257471216106703,0.5431274359531011,-0.39406752146556706,0.07288150458756676,-0.8051082973108707,-0.5886330910594844,0.7613663096344205,0.4261433683350032,-0.4885930537551281,0.6442124097242432,-0.41255600737995374,0.6440403030338981
15:39:20.604716,,0.667498970517847,-0.9080312086184437,0.06786337408000001,-2.617182439192911,-0.9282589616894247,0.8988854677765663,,0.06280335903106489,0.5436074863879025,-0.39372392072144263,0.06998058219204178,-0.8054585916031081,-0.5885058838523205,0.7658537534264219,0.42140244028428175,-0.48568303623362646,0.6391953899072836,-0.4167210584254058,0.646353473717041,,-0.006673791509692906,0.2828507246778482,-0.07081242058537973,-0.9652352525591074,0.013595858404639123,0.261028807403793,0.09509094740804228,-0.9119509720351051,0.39912794285606834,0.2434719642616915,0.410073841742822,0.8789543932310059,,0.04098147374178401,0.718612019268799,1.1780691719863874,0.9903422347485268,-0.0368410089900275,-0.13366000946390297,0.058383763803984356,-0.7635879710416723,0.643058898239145,-0.12575211408709788,-0.644651960779659,-0.754062500901329,,0.04956530963995987,0.6521949285649569,-0.3934041919319671,0.9344671253507219,-0.35298120920212994,-0.046641800876046094,-0.27071064686531765,-0.7894592490503122,0.5508809669635344,-0.23127243093918454,-0.5021537215227221,-0.8332794865159953,,0.0,0.0,0.045,1.0,0.0,0.0,0.0,1.0,0.0,0.0,0.0,1.0,,0.019037333378670685,-0.19337877532911046,0.2249495411038443,False,,0.06260430537337319,0.5431539381620754,-0.39402401431176265,0.07254719988497316,-0.8052303048494613,-0.5885074850338724,0.7617043290872885,0.4256476785512533,-0.4884982792125401,0.6438504631034551,-0.4128295167450756,0.6442269563325442
15:39:20.637701,,0.6671360020727585,-0.9062395345916235,0.06773374508,-2.617182439192911,-0.9270516884733546,0.8993757280154654,,0.06291466676547128,0.5435234039128073,-0.393604194807243,0.06935078508776625,-0.805303543298874,-0.5887925540952339,0.7657541138751968,0.4212563860351295,-0.48596676255463633,0.6393833792732828,-0.41716814400778557,0.6458789622941569,,-0.006676304160329357,0.2828509804057456,-0.07080459283358947,-0.9652478599746598,0.013654626179489676,0.2609791562021701,0.0950023339547475,-0.9119779216258183,0.39908749289342826,0.24345661899247867,0.41001197741616024,0.8789875158486609,,0.04098147374178401,0.718612019268799,1.1780691719863874,0.9903422347485268,-0.0368410089900275,-0.13366000946390297,0.058383763803984356,-0.7635879710416723,0.643058898239145,-0.12575211408709788,-0.644651960779659,-0.754062500901329,,0.04956530963995987,0.6521949285649569,-0.3934041919319671,0.9344671253507219,-0.35298120920212994,-0.046641800876046094,-0.27071064686531765,-0.7894592490503122,0.5508809669635344,-0.23127243093918454,-0.5021537215227221,-0.8332794865159953,,0.0,0.0,0.045,1.0,0.0,0.0,0.0,1.0,0.0,0.0,0.0,1.0,,0.019037333378670685,-0.19337877532911046,0.2249495411038443,False,,0.0627089812485564,0.5432740388610772,-0.39387102805874985,0.07181607077177865,-0.8052417848494199,-0.5885814471349092,0.7620507362794448,0.4250263224937431,-0.48849902817037527,0.6435224373049159,-0.4134468443705498,0.644158815483554
15:39:20.670211,,0.6667498654290472,-0.9050811246604898,0.06764689365000001,-2.617182439192911,-0.9262468396626412,0.899932173654899,,0.06298251196230599,0.5434352182967247,-0.39352364296496034,0.06894684912507876,-0.8049966664962749,-0.5892594495853327,0.7656840617281035,0.4213377519522124,-0.48600660118501476,0.6395109456540032,-0.4176779449644686,0.6454230276950003,,-0.006676513109731929,0.282850732826318,-0.0708044505308727,-0.9652480540782443,0.013653481704150428,0.26097849817879887,0.0950028807527185,-0.9119782509889798,0.39908661008346336,0.24345563604688153,0.4100112829381406,0.8789881120450791,,0.04098147374178401,0.718612019268799,1.1780691719863874,0.9903422347485268,-0.0368410089900275,-0.13366000946390297,0.058383763803984356,-0.7635879710416723,0.643058898239145,-0.12575211408709788,-0.644651960779659,-0.754062500901329,,0.049478830155201214,0.6521952560632625,-0.39336848796150203,0.9344503827346585,-0.3530235084350983,-0.046657096986679164,-0.2707406033708452,-0.7894540247802572,0.550873731852086,-0.23130501052385558,-0.5021321989779459,-0.8332834132851391,,0.0,0.0,0.045,1.0,0.0,0.0,0.0,1.0,0.0,0.0,0.0,1.0,,0.019037333378670685,-0.19337877532911046,0.2249495411038443,False,,0.06276923332454379,0.5433748659112512,-0.3937577433995654,0.07128387917367801,-0.8050373771160136,-0.588925657461213,0.762125378808164,0.4248640337646672,-0.4885237556042986,0.6434932132870286,-0.4140113214145056,0.6438253724373946
15:39:20.697882,,0.6664255106483299,-0.9043165741059417,0.06760541237,-2.617182439192911,-0.9257102737888323,0.9000046502903037,,0.06293172762719318,0.5434057110636137,-0.39343113524845863,0.06873727543958819,-0.804951080956736,-0.5893462006594464,0.7656280167328452,0.42129905108316046,-0.48612842907009546,0.639600599561064,-0.41780481905192407,0.6452520485966061,,-0.006673238461119238,0.2828492936975234,-0.07080687670665797,-0.9652482928394197,0.013652477750577298,0.2609776674966011,0.09500161578735963,-0.9119813015640179,0.3990799399938581,0.24345518289510168,0.4100045309005505,0.8789913870298405,,0.04098147374178401,0.718612019268799,1.1780691719863874,0.9903422347485268,-0.0368410089900275,-0.13366000946390297,0.058383763803984356,-0.7635879710416723,0.643058898239145,-0.12575211408709788,-0.644651960779659,-0.754062500901329,,0.049478830155201214,0.6521952560632625,-0.39336848796150203,0.9344503827346585,-0.3530235084350983,-0.046657096986679164,-0.2707406033708452,-0.7894540247802572,0.550873731852086,-0.23130501052385558,-0.5021321989779459,-0.8332834132851391,,0.0,0.0,0.045,1.0,0.0,0.0,0.0,1.0,0.0,0.0,0.0,1.0,,0.019037333378670685,-0.19337877532911046,0.2249495411038443,False,,0.06287897385520357,0.543426395441723,-0.3936887952908934,0.07080471953928735,-0.8048556761282321,-0.5892317305569428,0.7622944151900307,0.42465001966533666,-0.4884460925919244,0.6433458760737123,-0.41458376886028236,0.6436042124913044
15:39:20.726916,,0.6662787787237195,-0.9040308329895953,0.06759244947000001,-2.617182439192911,-0.92557613232038,0.9000055490381423,,0.06294362012542208,0.5433796431600515,-0.3934134430255562,0.06865594110444931,-0.8049247655832735,-0.5893916215062571,0.7655985317018851,0.4212961923367362,-0.4861773406674625,0.6396446279044173,-0.41785839715540063,0.645173705229638,,-0.006669754863355104,0.28284810214727035,-0.07080944518543658,-0.9652483375189449,0.013652618277281967,0.2609774948431113,0.09499980401621183,-0.9119840227575685,0.3990741527026052,0.24345571268157315,0.40999847332959144,0.8789940658011348,,0.04098147374178401,0.718612019268799,1.1780691719863874,0.9903422347485268,-0.0368410089900275,-0.13366000946390297,0.058383763803984356,-0.7635879710416723,0.643058898239145,-0.12575211408709788,-0.644651960779659,-0.754062500901329,,0.049478830155201214,0.6521952560632625,-0.39336848796150203,0.9344503827346585,-0.3530235084350983,-0.046657096986679164,-0.2707406033708452,-0.7894540247802572,0.550873731852086,-0.23130501052385558,-0.5021321989779459,-0.8332834132851391,,0.0,0.0,0.045,1.0,0.0,0.0,0.0,1.0,0.0,0.0,0.0,1.0,,0.019037333378670685,-0.19337877532911046,0.2249495411038443,False,,0.06290490485406372,0.543449408408399,-0.39363517364980827,0.070514979230836,-0.8048052335042092,-0.5893353661781294,0.7624401565870192,0.424443033895523,-0.4883985243641973,0.6432049792466134,-0.41489353706920895,0.6435454199748178
15:39:20.758337,,0.6659775921416248,-0.9037219236746263,0.06759115318,-2.617182439192911,-0.9250395664465711,0.899733617453296,,0.06294836056828995,0.5434487028769461,-0.39336110816835945,0.06846997831482902,-0.8049743057600938,-0.5893455939731984,0.7656215399357177,0.4211400589185139,-0.4862763703497952,0.639637021799104,-0.4179203486792264,0.6451411182863848,,-0.006666526593024691,0.28284717286204747,-0.07081193403280192,-0.965248703460763,0.01365287629944352,0.2609761278238277,0.09499762268507542,-0.9119863593022421,0.39906933230790415,0.243455112925054,0.409993267351117,0.8789966601616046,,0.04098147374178401,0.718612019268799,1.1780691719863874,0.9903422347485268,-0.0368410089900275,-0.13366000946390297,0.058383763803984356,-0.7635879710416723,0.643058898239145,-0.12575211408709788,-0.644651960779659,-0.754062500901329,,0.049478830155201214,0.6521952560632625,-0.39336848796150203,0.9344503827346585,-0.3530235084350983,-0.046657096986679164,-0.2707406033708452,-0.7894540247802572,0.550873731852086,-0.23130501052385558,-0.5021321989779459,-0.8332834132851391,,0.0,0.0,0.045,1.0,0.0,0.0,0.0,1.0,0.0,0.0,0.0,1.0,,0.019037333378670685,-0.19337877532911046,0.2249495411038443,False,,0.06291139060127797,0.5434470972484052,-0.3935997893283791,0.07042953112798545,-0.8048480424307498,-0.5892871199512866,0.7623119898057524,0.42444452411780986,-0.4885972535174551,0.6433662342270432,-0.41480896150131064,0.6434387415401077
15:39:20.784602,,0.6652902689158189,-0.9035443008185192,0.06758985689000001,-2.617182439192911,-0.9247712835096666,0.8995976516608728,,0.06292618971714456,0.5434150869609657,-0.3933238155702288,0.06840079704583549,-0.8047305176728259,-0.5896864632069487,0.7655973058341959,0.42131967547366594,-0.4861589208871785,0.6396734293863672,-0.41820870983850955,0.6449181178663648,,-0.006664180504848766,0.28284576310140763,-0.07081391634294844,-0.9652499729868735,0.013649818405278222,0.2609715923254024,0.09499671227211583,-0.9119892992665611,0.3990628303604443,0.24345043479287923,0.40998682951444043,0.8790009586561145,,0.04098147374178401,0.718612019268799,1.1780691719863874,0.9903422347485268,-0.0368410089900275,-0.13366000946390297,0.058383763803984356,-0.7635879710416723,0.643058898239145,-0.12575211408709788,-0.644651960779659,-0.754062500901329,,0.049478830155201214,0.6521952560632625,-0.39336848796150203,0.9344503827346585,-0.3530235084350983,-0.046657096986679164,-0.2707406033708452,-0.7894540247802572,0.550873731852086,-0.23130501052385558,-0.5021321989779459,-0.8332834132851391,,0.0,0.0,0.045,1.0,0.0,0.0,0.0,1.0,0.0,0.0,0.0,1.0,,0.019037333378670685,-0.19337877532911046,0.2249495411038443,False,,0.06289468488054119,0.5434451982075628,-0.39356317086451337,0.07030552421601804,-0.8046384251648555,-0.5895881087784355,0.7624035994616365,0.42449285674106624,-0.4884122911063451,0.6432712373428889,-0.41516601417268006,0.6433034244299642
15:39:20.812550,,0.6649736368679756,-0.9034747962226511,0.06759115318,-2.617182439192911,-0.9246371420412145,0.8995985504087115,,0.06291574961572992,0.5434005625484124,-0.39330640621191404,0.06836907732538486,-0.8045813206795472,-0.5898936918455998,0.7655892048750788,0.42143084806295183,-0.48607531276509636,0.6396865159157419,-0.4183837218565,0.6447916117949137,,-0.006661207564726433,0.2828450960868751,-0.07081632553817999,-0.9652506602355472,0.013650193946026151,0.2609690309094817,0.09499416140471412,-0.9119912511915226,0.3990589768729606,0.24344870545479033,0.4099824751487737,0.8790034686262789,,0.04098147374178401,0.718612019268799,1.1780691719863874,0.9903422347485268,-0.0368410089900275,-0.13366000946390297,0.058383763803984356,-0.7635879710416723,0.643058898239145,-0.12575211408709788,-0.644651960779659,-0.754062500901329,,0.049478830155201214,0.6521952560632625,-0.39336848796150203,0.9344503827346585,-0.3530235084350983,-0.046657096986679164,-0.2707406033708452,-0.7894540247802572,0.550873731852086,-0.23130501052385558,-0.5021321989779459,-0.8332834132851391,,0.0,0.0,0.045,1.0,0.0,0.0,0.0,1.0,0.0,0.0,0.0,1.0,,0.019037333378670685,-0.19337877532911046,0.2249495411038443,False,,0.06287512839775591,0.5434392874121102,-0.3935340401334748,0.0702585596173173,-0.804422490396815,-0.5898882875123784,0.7623728769740253,0.42466639834218567,-0.4883093758811358,0.6433127787125389,-0.415406917447053,0.6431063377718258
15:39:20.845740,,0.6646183911557613,-0.9033126188322924,0.06759244947000001,-2.617182439192911,-0.92436885910431,0.8995314662603385,,0.06290909964683077,0.5434060270169496,-0.39327625736724586,0.06828562546711162,-0.8044643720294299,-0.5900628335100091,0.7655874158134884,0.4214833909769149,-0.48603257080017387,0.6396975708118566,-0.41855564178003474,0.6446690566728899,,-0.006661671844868591,0.2828451107700884,-0.07081610360075495,-0.9652511755834906,0.013649166957987187,0.2609671784960449,0.09499433869103144,-0.9119911959312921,0.39905906096292226,0.24344659296750729,0.40998263226789095,0.8790039804161005,,0.04098147374178401,0.718612019268799,1.1780691719863874,0.9903422347485268,-0.0368410089900275,-0.13366000946390297,0.058383763803984356,-0.7635879710416723,0.643058898239145,-0.12575211408709788,-0.644651960779659,-0.754062500901329,,0.049478830155201214,0.6521952560632625,-0.39336848796150203,0.9344503827346585,-0.3530235084350983,-0.046657096986679164,-0.2707406033708452,-0.7894540247802572,0.550873731852086,-0.23130501052385558,-0.5021321989779459,-0.8332834132851391,,0.0,0.0,0.045,1.0,0.0,0.0,0.0,1.0,0.0,0.0,0.0,1.0,,0.019037333378670685,-0.19337877532911046,0.2249495411038443,False,,0.06286714946771649,0.5434372030678013,-0.3935154490080869,0.07020898752842347,-0.8043337394257025,-0.5900151978480722,0.7623806673555619,0.42470832544728737,-0.48826074625987426,0.6433089585204935,-0.4155358876405588,0.6430268345645078
15:39:20.874630,,0.6644253228339057,-0.9030346004488203,0.06759244947000001,-2.617182439192911,-0.9241005761674056,0.8993955004679154,,0.06291660926687107,0.5434237700776533,-0.39324656166780353,0.06817130059203709,-0.8044870016612082,-0.5900451999073878,0.7655789845307507,0.4214086438582504,-0.48611065954823,0.6397198544835504,-0.41858740907928615,0.6446263171325196,,-0.006661927174562047,0.28284537303682955,-0.07081602395531068,-0.9652514968391864,0.013649284440122589,0.26096598411002153,0.09499396914098097,-0.9119908113318865,0.39906002787999095,0.24344546341035342,0.4099834838856432,0.8790038960462224,,0.04098147374178401,0.718612019268799,1.1780691719863874,0.9903422347485268,-0.0368410089900275,-0.13366000946390297,0.058383763803984356,-0.7635879710416723,0.643058898239145,-0.12575211408709788,-0.644651960779659,-0.754062500901329,,0.049478830155201214,0.6521952560632625,-0.39336848796150203,0.9344503827346585,-0.3530235084350983,-0.046657096986679164,-0.2707406033708452,-0.7894540247802572,0.550873731852086,-0.23130501052385558,-0.5021321989779459,-0.8332834132851391,,0.0,0.0,0.045,1.0,0.0,0.0,0.0,1.0,0.0,0.0,0.0,1.0,,0.019037333378670685,-0.19337877532911046,0.2249495411038443,False,,0.06287829361012655,0.5434339790080448,-0.3934764342593769,0.070061566553628,-0.8043229551763227,-0.5900474223894877,0.7623583236065241,0.42465287260970863,-0.48834385857935453,0.6433515083684048,-0.41561342803228757,0.6429341452430013
15:39:20.905519,,0.664332650039415,-0.9027565820653483,0.06759374576,-2.617182439192911,-0.9241005761674056,0.8993955004679154,,0.06292877940848834,0.5433840211064852,-0.3932387093989795,0.06812220815734442,-0.8044847700677205,-0.5900539123545021,0.7655355314172018,0.4214124491304447,-0.4861757890471956,0.6397770821884372,-0.41858786705656875,0.6445692225505982,,-0.006662182503757741,0.2828456353041311,-0.0708159443102437,-0.9652518180940138,0.013649401917139953,0.260964789726135,0.09499359959517223,-0.9119904267312445,0.39906099479880924,0.2434443338536627,0.4099843355070624,0.8790038116735783,,0.04098147374178401,0.718612019268799,1.1780691719863874,0.9903422347485268,-0.0368410089900275,-0.13366000946390297,0.058383763803984356,-0.7635879710416723,0.643058898239145,-0.12575211408709788,-0.644651960779659,-0.754062500901329,,0.049478830155201214,0.6521952560632625,-0.39336848796150203,0.9344503827346585,-0.3530235084350983,-0.046657096986679164,-0.2707406033708452,-0.7894540247802572,0.550873731852086,-0.23130501052385558,-0.5021321989779459,-0.8332834132851391,,0.0,0.0,0.045,1.0,0.0,0.0,0.0,1.0,0.0,0.0,0.0,1.0,,0.019037333378670685,-0.19337877532911046,0.2249495411038443,False,,0.06289441438604733,0.5434346359547857,-0.3934501544103687,0.06987985337631142,-0.8043402967479959,-0.5900453314106053,0.7625160764280415,0.42443939112992246,-0.48828315191704674,0.6431842965129748,-0.41579789595981187,0.6429821696085383
15:39:20.940212,,0.6641781953819305,-0.9025557910106184,0.06759374576,-2.617601792251586,-0.9238322932305011,0.8993972979635926,,0.06293798271344156,0.5433906426676374,-0.39321630361255866,0.06828011027718625,-0.8046119718498956,-0.5898621883934908,0.7655417636742935,0.42138866333209535,-0.48618659225203087,0.6397527917961654,-0.4183672658932735,0.6447365324052917,,-0.006661973551783088,0.28284588288745593,-0.07081608660011694,-0.9652516240103396,0.01365054638806551,0.2609654477542039,0.09499305276033777,-0.9119900973941361,0.39906187762695233,0.24344531678698716,0.4099850300086386,0.8790032155209343,,0.04098147374178401,0.718612019268799,1.1780691719863874,0.9903422347485268,-0.0368410089900275,-0.13366000946390297,0.058383763803984356,-0.7635879710416723,0.643058898239145,-0.12575211408709788,-0.644651960779659,-0.754062500901329,,0.049478830155201214,0.6521952560632625,-0.39336848796150203,0.9344503827346585,-0.3530235084350983,-0.046657096986679164,-0.2707406033708452,-0.7894540247802572,0.550873731852086,-0.23130501052385558,-0.5021321989779459,-0.8332834132851391,,0.0,0.0,0.045,1.0,0.0,0.0,0.0,1.0,0.0,0.0,0.0,1.0,,0.019037333378670685,-0.19337877532911046,0.2249495411038443,False,,0.06290461781961833,0.5434337155649142,-0.393434236217862,0.07007610078706678,-0.8045749239009992,-0.5897020704798164,0.7624816001569439,0.424372406976163,-0.48839519819441746,0.6432038164692335,-0.4154121471827218,0.6432119389846969
15:39:20.971332,,0.6639619588614523,-0.9025094546133731,0.06759504205000001,-2.617601792251586,-0.9236981517620488,0.8993293150673809,,0.06293022710429486,0.543395751326304,-0.3932009130718722,0.06824683672830856,-0.8045472091624919,-0.5899543690027436,0.7655434770481729,0.42142298191096683,-0.48615414743295443,0.6397542919164931,-0.41845723622147446,0.6446766533916923,,-0.006661973551783088,0.28284588288745593,-0.07081608660011694,-0.9652516240103396,0.01365054638806551,0.2609654477542039,0.09499305276033777,-0.9119900973941361,0.39906187762695233,0.24344531678698716,0.4099850300086386,0.8790032155209343,,0.04098147374178401,0.718612019268799,1.1780691719863874,0.9903422347485268,-0.0368410089900275,-0.13366000946390297,0.058383763803984356,-0.7635879710416723,0.643058898239145,-0.12575211408709788,-0.644651960779659,-0.754062500901329,,0.049478830155201214,0.6521952560632625,-0.39336848796150203,0.9344503827346585,-0.3530235084350983,-0.046657096986679164,-0.2707406033708452,-0.7894540247802572,0.550873731852086,-0.23130501052385558,-0.5021321989779459,-0.8332834132851391,,0.0,0.0,0.045,1.0,0.0,0.0,0.0,1.0,0.0,0.0,0.0,1.0,,0.019037333378670685,-0.19337877532911046,0.2249495411038443,False,,0.06290037782994676,0.5434308051343449,-0.39342011823664685,0.07004096785985314,-0.804444863120509,-0.5898836537998665,0.7624707208336035,0.4244683363605858,-0.4883288147332306,0.6432205397006071,-0.41556599190297366,0.643095827758941
15:39:21.001179,,0.6637379996080998,-0.9024245045517566,0.06759633834,-2.617601792251586,-0.9235640102935966,0.8992613321711693,,0.0629244094007595,0.5433959783548645,-0.39318453413456095,0.06820648404239545,-0.804484804881135,-0.5900441290699676,0.7655394761755123,0.42145526821545504,-0.4861324586060486,0.6397633827842111,-0.4185446877082556,0.6446108581459842,,-0.006661973551783088,0.28284588288745593,-0.07081608660011694,-0.9652516240103396,0.01365054638806551,0.2609654477542039,0.09499305276033777,-0.9119900973941361,0.39906187762695233,0.24344531678698716,0.4099850300086386,0.8790032155209343,,0.04098147374178401,0.718612019268799,1.1780691719863874,0.9903422347485268,-0.0368410089900275,-0.13366000946390297,0.058383763803984356,-0.7635879710416723,0.643058898239145,-0.12575211408709788,-0.644651960779659,-0.754062500901329,,0.049478830155201214,0.6521952560632625,-0.39336848796150203,0.9344503827346585,-0.3530235084350983,-0.046657096986679164,-0.2707406033708452,-0.7894540247802572,0.550873731852086,-0.23130501052385558,-0.5021321989779459,-0.8332834132851391,,0.0,0.0,0.045,1.0,0.0,0.0,0.0,1.0,0.0,0.0,0.0,1.0,,0.019037333378670685,-0.19337877532911046,0.2249495411038443,False,,0.06289243614077496,0.5434274423443931,-0.3934049464458332,0.07000947928522872,-0.8043672146985725,-0.589993268375387,0.7624609597400811,0.42452207466881287,-0.4882973407577816,0.6432355382614097,-0.41566139108287065,0.6430191678951781
15:39:21.029605,,0.6635526540191183,-0.9023163862915174,0.06759763463,-2.617601792251586,-0.9234298688251444,0.8991933492749578,,0.06292187308006138,0.5433983272131767,-0.3931684570987335,0.06815973425978157,-0.8044458444102185,-0.5901026470341976,0.7655345135648797,0.421465413841269,-0.48613147756197744,0.6397743033028283,-0.41860935052473297,0.6445580287969751,,-0.006661973551783088,0.28284588288745593,-0.07081608660011694,-0.9652516240103396,0.01365054638806551,0.2609654477542039,0.09499305276033777,-0.9119900973941361,0.39906187762695233,0.24344531678698716,0.4099850300086386,0.8790032155209343,,0.04098147374178401,0.718612019268799,1.1780691719863874,0.9903422347485268,-0.0368410089900275,-0.13366000946390297,0.058383763803984356,-0.7635879710416723,0.643058898239145,-0.12575211408709788,-0.644651960779659,-0.754062500901329,,0.049478830155201214,0.6521952560632625,-0.39336848796150203,0.9344503827346585,-0.3530235084350983,-0.046657096986679164,-0.2707406033708452,-0.7894540247802572,0.550873731852086,-0.23130501052385558,-0.5021321989779459,-0.8332834132851391,,0.0,0.0,0.045,1.0,0.0,0.0,0.0,1.0,0.0,0.0,0.0,1.0,,0.019037333378670685,-0.19337877532911046,0.2249495411038443,False,,0.06288851434481552,0.5434245754693465,-0.39338885728590034,0.06996294714904588,-0.8043137825296551,-0.5900716272276262,0.762460835105371,0.424541487099002,-0.48828065767772155,0.6432407488309803,-0.41574495182095317,0.6429599319388053
15:39:21.068315,,0.6634213675602565,-0.9022082680312783,0.06759893092000001,-2.617601792251586,-0.9234298688251444,0.8991933492749578,,0.0629219624276222,0.5433717624487708,-0.3931633546235578,0.06814492046546893,-0.8043965689498805,-0.5901715256401441,0.7655128626873272,0.4215121868197898,-0.48612501830563326,0.6398017871770979,-0.4186569433606222,0.6444998346787475,,-0.006661973551783088,0.28284588288745593,-0.07081608660011694,-0.9652516240103396,0.01365054638806551,0.2609654477542039,0.09499305276033777,-0.9119900973941361,0.39906187762695233,0.24344531678698716,0.4099850300086386,0.8790032155209343,,0.04098147374178401,0.718612019268799,1.1780691719863874,0.9903422347485268,-0.0368410089900275,-0.13366000946390297,0.058383763803984356,-0.7635879710416723,0.643058898239145,-0.12575211408709788,-0.644651960779659,-0.754062500901329,,0.049478830155201214,0.6521952560632625,-0.39336848796150203,0.9344503827346585,-0.3530235084350983,-0.046657096986679164,-0.2707406033708452,-0.7894540247802572,0.550873731852086,-0.23130501052385558,-0.5021321989779459,-0.8332834132851391,,0.0,0.0,0.045,1.0,0.0,0.0,0.0,1.0,0.0,0.0,0.0,1.0,,0.019037333378670685,-0.19337877532911046,0.2249495411038443,False,,0.0628890994876216,0.5434246480247623,-0.3933735544438849,0.06987949128888937,-0.8042647704692756,-0.5901483166791295,0.7625419701671037,0.4244849456182056,-0.48820310801671624,0.6431536367236668,-0.4158974752574403,0.6429484346692267
15:39:21.101737,,0.6632900811013946,-0.902092427038165,0.06759893092000001,-2.617601792251586,-0.9232957273566922,0.8991253663787462,,0.06292237828111993,0.543381338427423,-0.3931481298572476,0.06809415590871218,-0.8043867322907128,-0.5901907919018637,0.7655097114766455,0.4214949885980289,-0.48614489220981316,0.6398109623678101,-0.4186931567406098,0.6444672008198403,,-0.006661040921641569,0.28284681921643373,-0.07081669380930578,-0.9652465916934552,0.013580718376396905,0.2609876765408233,0.0950731933045891,-0.9119748359508838,0.39907765221928293,0.24343395640843662,0.41002127831902546,0.8789894460041007,,0.04098147374178401,0.718612019268799,1.1780691719863874,0.9903422347485268,-0.0368410089900275,-0.13366000946390297,0.058383763803984356,-0.7635879710416723,0.643058898239145,-0.12575211408709788,-0.644651960779659,-0.754062500901329,,0.049478830155201214,0.6521952560632625,-0.39336848796150203,0.9344503827346585,-0.3530235084350983,-0.046657096986679164,-0.2707406033708452,-0.7894540247802572,0.550873731852086,-0.23130501052385558,-0.5021321989779459,-0.8332834132851391,,0.0,0.0,0.045,1.0,0.0,0.0,0.0,1.0,0.0,0.0,0.0,1.0,,0.019037333378670685,-0.19337877532911046,0.2249495411038443,False,,0.06289104474515664,0.5434225058709554,-0.39335707137735554,0.06981611727851306,-0.8042499752018561,-0.5901759798195508,0.7625509311898784,0.424457486121296,-0.4882129861208521,0.6431498947442987,-0.4159541078813909,0.6429155411303993
15:39:21.135990,,0.6632051310397782,-0.9020074769765485,0.06760022721,-2.617601792251586,-0.9231615858882399,0.8990573834825346,,0.06292312736977597,0.5434000612456785,-0.3931345096357702,0.06804721628454838,-0.8043952653713973,-0.5901845757083144,0.7655132448766618,0.4214603438618183,-0.4861693639774952,0.6398117287720883,-0.41871163776513004,0.6444544329320072,,-0.006660317171430306,0.2828475079388175,-0.0708171586372391,-0.9652417507970148,0.01350974672457049,0.26100924943695186,0.09515388018089155,-0.91195990043987,0.3990925432855296,0.24342161086214906,0.41005683235745477,0.8789762753522623,,0.04098147374178401,0.718612019268799,1.1780691719863874,0.9903422347485268,-0.0368410089900275,-0.13366000946390297,0.058383763803984356,-0.7635879710416723,0.643058898239145,-0.12575211408709788,-0.644651960779659,-0.754062500901329,,0.049478830155201214,0.6521952560632625,-0.39336848796150203,0.9344503827346585,-0.3530235084350983,-0.046657096986679164,-0.2707406033708452,-0.7894540247802572,0.550873731852086,-0.23130501052385558,-0.5021321989779459,-0.8332834132851391,,0.0,0.0,0.045,1.0,0.0,0.0,0.0,1.0,0.0,0.0,0.0,1.0,,0.019037333378670685,-0.19337877532911046,0.2249495411038443,False,,0.06289285954696791,0.543420347729891,-0.39334725408616317,0.06978877464242772,-0.8042573894694841,-0.590169110016476,0.7625246991908002,0.42445368850743526,-0.4882572574334282,0.6431839628425823,-0.4159436473804643,0.6428882267905891
15:39:21.164094,,0.6631433491767844,-0.9019379723806805,0.06760152350000001,-2.617392115722249,-0.9230274444197877,0.8990582822303732,,0.06292339525091079,0.5434233782005394,-0.39312023558088194,0.06787342051106818,-0.8042880482345587,-0.5903506875198603,0.7655188570281916,0.4214512769114219,-0.48616838721165706,0.6398234743445879,-0.4189266721716062,0.6443030071486899,,-0.006659802288280371,0.28284794904364097,-0.07081748108367086,-0.9652371008782576,0.013437631315106183,0.26103016682251917,0.09523511349871347,-0.9119452907702369,0.39910655048181276,0.24340828063901213,0.41009169163157144,0.8789637035792391,,0.04098147374178401,0.718612019268799,1.1780691719863874,0.9903422347485268,-0.0368410089900275,-0.13366000946390297,0.058383763803984356,-0.7635879710416723,0.643058898239145,-0.12575211408709788,-0.644651960779659,-0.754062500901329,,0.049478830155201214,0.6521952560632625,-0.39336848796150203,0.9344503827346585,-0.3530235084350983,-0.046657096986679164,-0.2707406033708452,-0.7894540247802572,0.550873731852086,-0.23130501052385558,-0.5021321989779459,-0.8332834132851391,,0.0,0.0,0.045,1.0,0.0,0.0,0.0,1.0,0.0,0.0,0.0,1.0,,0.019037333378670685,-0.19337877532911046,0.2249495411038443,False,,0.06289311310653181,0.5434179996754536,-0.39333601373460103,0.06963396615315848,-0.804128635994961,-0.5903628100843282,0.7624889106437215,0.4245005116561816,-0.48827244111150825,0.6432431670085054,-0.4161447493078868,0.6426988219378844
15:39:21.194156,,0.6630892900466648,-0.9018684677848124,0.06760152350000001,-2.617392115722249,-0.9230274444197877,0.8990582822303732,,0.06292487519093072,0.5434104720284142,-0.39311754977626634,0.06786248940260362,-0.804271933283834,-0.5903738983593072,0.7655065256134331,0.42146672780648986,-0.4861744096467244,0.639839387483556,-0.4189420660234237,0.6442771946458246,,-0.006659496288661497,0.28284814254982343,-0.07081766113946361,-0.9652326421101213,0.01336437213169514,0.2610504282084804,0.09531689310801192,-0.9119310068781743,0.39911967439301455,0.24339396541110309,0.4101258564841721,0.8789517309555593,,0.04098147374178401,0.718612019268799,1.1780691719863874,0.9903422347485268,-0.0368410089900275,-0.13366000946390297,0.058383763803984356,-0.7635879710416723,0.643058898239145,-0.12575211408709788,-0.644651960779659,-0.754062500901329,,0.049478830155201214,0.6521952560632625,-0.39336848796150203,0.9344503827346585,-0.3530235084350983,-0.046657096986679164,-0.2707406033708452,-0.7894540247802572,0.550873731852086,-0.23130501052385558,-0.5021321989779459,-0.8332834132851391,,0.0,0.0,0.045,1.0,0.0,0.0,0.0,1.0,0.0,0.0,0.0,1.0,,0.019037333378670685,-0.19337877532911046,0.2249495411038443,False,,0.06289450612399625,0.5434181733420639,-0.39333047939235366,0.0696008310271723,-0.8041189679838118,-0.5903798858777091,0.7625196638977295,0.4244708795486034,-0.4882501762258044,0.6432102972509232,-0.41619365413697124,0.6427000511642227
15:39:21.219712,,0.6630352309165453,-0.901783517723196,0.06760281979,-2.617182439192911,-0.9228933029513355,0.8989902993341616,,0.06292570315491644,0.5434386768555377,-0.3931026697337355,0.06768488345098012,-0.804209485438391,-0.5904793477194149,0.7655105333733315,0.4214197487856625,-0.48620882203833654,0.6398534049660946,-0.41910917296612327,0.6441545787223341,,-0.006658516991959166,0.282848568931927,-0.07081820534173422,-0.9652274714848292,0.01329328564167953,0.26107320203196743,0.09539794810897559,-0.9119164455988791,0.39913359632368245,0.24338274334671503,0.4101605597501152,0.8789386528295771,,0.04098147374178401,0.718612019268799,1.1780691719863874,0.9903422347485268,-0.0368410089900275,-0.13366000946390297,0.058383763803984356,-0.7635879710416723,0.643058898239145,-0.12575211408709788,-0.644651960779659,-0.754062500901329,,0.049478830155201214,0.6521952560632625,-0.39336848796150203,0.9344503827346585,-0.3530235084350983,-0.046657096986679164,-0.2707406033708452,-0.7894540247802572,0.550873731852086,-0.23130501052385558,-0.5021321989779459,-0.8332834132851391,,0.0,0.0,0.045,1.0,0.0,0.0,0.0,1.0,0.0,0.0,0.0,1.0,,0.019037333378670685,-0.19337877532911046,0.2249495411038443,False,,0.06289794534452484,0.5434172979893774,-0.39332223411333533,0.06954785996632634,-0.8041126120982364,-0.5903947850706813,0.762567454698155,0.42441686035292675,-0.4882224960848711,0.6431593676603661,-0.4162610187282928,0.64270739226961
15:39:21.247057,,0.6629888945193,-0.9017371813259506,0.06760281979,-2.617182439192911,-0.9228933029513355,0.8989902993341616,,0.0629263302023259,0.5434275932660925,-0.39310075914039305,0.0676780796765173,-0.8041936224262733,-0.5905017317334535,0.7655017454958332,0.42143489702151826,-0.48620952810007284,0.6398646381650827,-0.41912437917803236,0.6441335262230162,,-0.006658006334594789,0.28284804439785144,-0.0708183646365377,-0.9652268286067572,0.013293051151599754,0.26107559075080444,0.09539868729083228,-0.9119172146806852,0.3991316624740088,0.24338500314930367,0.41015885741644176,0.878938821467064,,0.04098147374178401,0.718612019268799,1.1780691719863874,0.9903422347485268,-0.0368410089900275,-0.13366000946390297,0.058383763803984356,-0.7635879710416723,0.643058898239145,-0.12575211408709788,-0.644651960779659,-0.754062500901329,,0.049478830155201214,0.6521952560632625,-0.39336848796150203,0.9344503827346585,-0.3530235084350983,-0.046657096986679164,-0.2707406033708452,-0.7894540247802572,0.550873731852086,-0.23130501052385558,-0.5021321989779459,-0.8332834132851391,,0.0,0.0,0.045,1.0,0.0,0.0,0.0,1.0,0.0,0.0,0.0,1.0,,0.019037333378670685,-0.19337877532911046,0.2249495411038443,False,,0.06289816240481202,0.543416248669868,-0.39331324432014725,0.06940532861668641,-0.8040332949762505,-0.5905195686251588,0.7625194398465931,0.4244372388436834,-0.488279770355877,0.643231687819908,-0.41639343276807805,0.642549223742406
15:39:21.281465,,0.6628344398618154,-0.9016290630657116,0.06760281979,-2.6169727626635733,-0.9227591614828833,0.8989911980820002,,0.06292477615665962,0.5434322583203675,-0.39308398628768143,0.06750106574449652,-0.8040454053284066,-0.5907237868019501,0.7654970792257337,0.4214644917972597,-0.4861912214869257,0.6398889183446048,-0.4193789078200719,0.643943711713544,,-0.006658168898644396,0.2828472869610591,-0.07081815968703978,-0.9652268945988259,0.013290644697119276,0.2610754693012306,0.09540015060369914,-0.9119182576325352,0.3991289298277544,0.24338416787481143,0.4101566165798034,0.8789400984526247,,0.04098147374178401,0.718612019268799,1.1780691719863874,0.9903422347485268,-0.0368410089900275,-0.13366000946390297,0.058383763803984356,-0.7635879710416723,0.643058898239145,-0.12575211408709788,-0.644651960779659,-0.754062500901329,,0.049478830155201214,0.6521952560632625,-0.39336848796150203,0.9344503827346585,-0.3530235084350983,-0.046657096986679164,-0.2707406033708452,-0.7894540247802572,0.550873731852086,-0.23130501052385558,-0.5021321989779459,-0.8332834132851391,,0.0,0.0,0.045,1.0,0.0,0.0,0.0,1.0,0.0,0.0,0.0,1.0,,0.019037333378670685,-0.19337877532911046,0.2249495411038443,False,,0.06289857294814663,0.543415225546759,-0.39330219311195797,0.06937503851104809,-0.8039875105560408,-0.5905854611328414,0.7624976666034793,0.4244729766482833,-0.4882827055298961,0.6432607655188056,-0.4164454045433161,0.6424864298791952
15:39:21.317363,,0.6626722624714567,-0.9015672812027177,0.06760411608000001,-2.6169727626635733,-0.922625020014431,0.8989232151857887,,0.0629205115238962,0.5434425479338594,-0.39306939103349015,0.06746225907373624,-0.8040106296907428,-0.5907755503953795,0.7654994982768532,0.4214705932292561,-0.4861821234690408,0.6398901169252067,-0.4194394430514073,0.6439030919899137,,-0.006658168898644399,0.28284728696105904,-0.07081815968703975,-0.9652268945988259,0.013290644697119262,0.26107546930123054,0.09540015060369911,-0.9119182576325352,0.39912892982775433,0.24338416787481137,0.41015661657980335,0.8789400984526247,,0.04098147374178401,0.718612019268799,1.1780691719863874,0.9903422347485268,-0.0368410089900275,-0.13366000946390297,0.058383763803984356,-0.7635879710416723,0.643058898239145,-0.12575211408709788,-0.644651960779659,-0.754062500901329,,0.049478830155201214,0.6521952560632625,-0.39336848796150203,0.9344503827346585,-0.3530235084350983,-0.046657096986679164,-0.2707406033708452,-0.7894540247802572,0.550873731852086,-0.23130501052385558,-0.5021321989779459,-0.8332834132851391,,0.0,0.0,0.045,1.0,0.0,0.0,0.0,1.0,0.0,0.0,0.0,1.0,,0.019037333378670685,-0.19337877532911046,0.2249495411038443,False,,0.06289326862039099,0.5434122017748495,-0.3932893722950516,0.06922555157378046,-0.8038560822422908,-0.590781873495947,0.7624635826458911,0.42452367505263217,-0.4882918537704674,0.6433172686537322,-0.41664739092172715,0.6422988739597939
15:39:21.348662,,0.6625332532797207,-0.9015054993397239,0.06760411608000001,-2.6169727626635733,-0.922625020014431,0.8989232151857887,,0.0629174328665727,0.5434199775575259,-0.39306512431482576,0.06745679050460575,-0.80394999314501,-0.5908586886362562,0.7654836263987448,0.4215279441898181,-0.4861573921915958,0.6399096804473621,-0.4194980343091544,0.6438454784189378,,-0.006657240349001798,0.28284725759569396,-0.07081860357714426,-0.9652258642914585,0.013292699415929178,0.26107917382374507,0.09539979604477417,-0.9119183683108192,0.3991287616940091,0.2433883928556722,0.41015630391231994,0.8789390744207258,,0.04098147374178401,0.718612019268799,1.1780691719863874,0.9903422347485268,-0.0368410089900275,-0.13366000946390297,0.058383763803984356,-0.7635879710416723,0.643058898239145,-0.12575211408709788,-0.644651960779659,-0.754062500901329,,0.049478830155201214,0.6521952560632625,-0.39336848796150203,0.9344503827346585,-0.3530235084350983,-0.046657096986679164,-0.2707406033708452,-0.7894540247802572,0.550873731852086,-0.23130501052385558,-0.5021321989779459,-0.8332834132851391,,0.0,0.0,0.045,1.0,0.0,0.0,0.0,1.0,0.0,0.0,0.0,1.0,,0.019037333378670685,-0.19337877532911046,0.2249495411038443,False,,0.06288896623018682,0.5434116885366559,-0.3932742252334803,0.06915523551089381,-0.8037743402798209,-0.5909013143572893,0.7625381162553905,0.42450529447947366,-0.4881914339852518,0.6432364842413044,-0.4168237815511906,0.6422653349467431
15:39:21.382114,,0.6624096895537331,-0.9014359947438559,0.06760411608000001,-2.6169727626635733,-0.9224908785459788,0.8988552322895771,,0.06291562546804629,0.543433160838943,-0.3930512483939187,0.067414718962361,-0.8039364570424746,-0.5908819075798644,0.7654869943419501,0.42151417970777566,-0.4861640235544055,0.639910085215535,-0.4195378044268175,0.6438191621070101,,-0.006656776075079944,0.2828472429135448,-0.0708188255248545,-0.9652253491279662,0.013293726770826755,0.26108102608505657,0.09539961877011797,-0.9119184236460512,0.39912867762878773,0.24339050534398324,0.41015614757764046,0.8789385623949816,,0.04098147374178401,0.718612019268799,1.1780691719863874,0.9903422347485268,-0.0368410089900275,-0.13366000946390297,0.058383763803984356,-0.7635879710416723,0.643058898239145,-0.12575211408709788,-0.644651960779659,-0.754062500901329,,0.049478830155201214,0.6521952560632625,-0.39336848796150203,0.9344503827346585,-0.3530235084350983,-0.046657096986679164,-0.2707406033708452,-0.7894540247802572,0.550873731852086,-0.23130501052385558,-0.5021321989779459,-0.8332834132851391,,0.0,0.0,0.045,1.0,0.0,0.0,0.0,1.0,0.0,0.0,0.0,1.0,,0.019037333378670685,-0.19337877532911046,0.2249495411038443,False,,0.06288804294099454,0.5434105035057353,-0.39326537354837793,0.06914001580815476,-0.8037678111602858,-0.5909119764877436,0.7625032032373916,0.4245251637791885,-0.48822868655064766,0.6432795063320186,-0.4168161357971363,0.6422272072034774
15:39:21.424134,,0.6623787986222361,-0.9013819356137364,0.06760411608000001,-2.6167630861342355,-0.9224908785459788,0.8988552322895771,,0.06291582941208386,0.5434307017257306,-0.3930474299569516,0.06727628268655395,-0.8038424420863793,-0.5910255748176086,0.7654769458599692,0.4215234317460375,-0.4861718233772274,0.6399366743239312,-0.4197086189127523,0.6436813870740534,,-0.006657031403143698,0.2828475051807956,-0.07081874587607975,-0.9652256705720523,0.013293844020877278,0.26107983172691424,0.09539924918446463,-0.9119180391057655,0.3991296445557622,0.2433893754428194,0.41015699874477,0.8789384780841663,,0.04098147374178401,0.718612019268799,1.1780691719863874,0.9903422347485268,-0.0368410089900275,-0.13366000946390297,0.058383763803984356,-0.7635879710416723,0.643058898239145,-0.12575211408709788,-0.644651960779659,-0.754062500901329,,0.049478830155201214,0.6521952560632625,-0.39336848796150203,0.9344503827346585,-0.3530235084350983,-0.046657096986679164,-0.2707406033708452,-0.7894540247802572,0.550873731852086,-0.23130501052385558,-0.5021321989779459,-0.8332834132851391,,0.0,0.0,0.045,1.0,0.0,0.0,0.0,1.0,0.0,0.0,0.0,1.0,,0.019037333378670685,-0.19337877532911046,0.2249495411038443,False,,0.06288728712356717,0.5434104180681774,-0.39325902463257634,0.06898403482810322,-0.8036605963494666,-0.591076009337255,0.7625205326616776,0.4245189879369049,-0.4882069910912556,0.6432757108800132,-0.4170291054066198,0.6420927386566273
15:39:21.466140,,0.6623247394921167,-0.9013124310178683,0.06760411608000001,-2.6167630861342355,-0.9223567370775265,0.8987872493933655,,0.06291735005483164,0.5434527590891948,-0.3930349614678786,0.0672309019450724,-0.8038644165112584,-0.5910008508375147,0.7654841124542777,0.42147616998082704,-0.48620151348836854,0.6399328710136236,-0.41971399548419586,0.6436816624628623,,-0.006656613509972258,0.2828480003508912,-0.07081903047193853,-0.9652252831379718,0.013296133232429272,0.26108114753176503,0.09539815546749225,-0.9119173807001196,0.3991314102831908,0.24339134062007617,0.4101583884090561,0.878937285415213,,0.04098147374178401,0.718612019268799,1.1780691719863874,0.9903422347485268,-0.0368410089900275,-0.13366000946390297,0.058383763803984356,-0.7635879710416723,0.643058898239145,-0.12575211408709788,-0.644651960779659,-0.754062500901329,,0.049478830155201214,0.6521952560632625,-0.39336848796150203,0.9344503827346585,-0.3530235084350983,-0.046657096986679164,-0.2707406033708452,-0.7894540247802572,0.550873731852086,-0.23130501052385558,-0.5021321989779459,-0.8332834132851391,,0.0,0.0,0.045,1.0,0.0,0.0,0.0,1.0,0.0,0.0,0.0,1.0,,0.019037333378670685,-0.19337877532911046,0.2249495411038443,False,,0.06289000356631025,0.5434107606276105,-0.39325128663223474,0.06893581817969119,-0.8036523309817476,-0.5910928724654869,0.7625644414158965,0.42447152561459667,-0.4881796765848395,0.6432288283806613,-0.4170933406924888,0.6420979827799035
15:39:21.510266,,0.6622706803619971,-0.9012660946206229,0.06760411608000001,-2.6167630861342355,-0.9223567370775265,0.8987872493933655,,0.06291756638803916,0.5434410165067792,-0.3930328484369018,0.06722431020636775,-0.8038444621201158,-0.5910287411252519,0.7654750837396611,0.4214949506388294,-0.48619944751072075,0.6399443634340702,-0.4197333526237737,0.6436576142672207,,-0.006656358181688641,0.2828477380828977,-0.07081911011765245,-0.9652249616991123,0.013296015990728029,0.2610823418875353,0.09539852504309412,-0.9119177652508823,0.3991304433555491,0.2433924705209833,0.4101575372370589,0.8789373697340905,,0.04098147374178401,0.718612019268799,1.1780691719863874,0.9903422347485268,-0.0368410089900275,-0.13366000946390297,0.058383763803984356,-0.7635879710416723,0.643058898239145,-0.12575211408709788,-0.644651960779659,-0.754062500901329,,0.049478830155201214,0.6521952560632625,-0.39336848796150203,0.9344503827346585,-0.3530235084350983,-0.046657096986679164,-0.2707406033708452,-0.7894540247802572,0.550873731852086,-0.23130501052385558,-0.5021321989779459,-0.8332834132851391,,0.0,0.0,0.045,1.0,0.0,0.0,0.0,1.0,0.0,0.0,0.0,1.0,,0.019037333378670685,-0.19337877532911046,0.2249495411038443,False,,0.06289076884450683,0.5434097827222075,-0.39324394571131305,0.06892443048603275,-0.8036625712778669,-0.5910802774659492,0.7625235918275006,0.42448345552426703,-0.4882331081488277,0.6432784737488604,-0.41706146730814775,0.6420689508908772
15:39:21.546220,,0.6622088984990032,-0.9011965900247549,0.06760411608000001,-2.6167630861342355,-0.9222225956090744,0.898719266497154,,0.06291870124014286,0.5434620058170319,-0.39302021692531597,0.06717921408381183,-0.8038622099132812,-0.5910097297578252,0.7654819266453001,0.42145152850503537,-0.48622631469323924,0.6399409138150809,-0.4197429649131783,0.6436547756611566,,-0.006656868839074551,0.2828482626169508,-0.07081895082250587,-0.9652256045845924,0.013296250488982322,0.26107995316804583,0.09539778586989106,-0.911916996160922,0.3991323772045435,0.24339021072018732,0.4101592395701477,0.8789372011070004,,0.04098147374178401,0.718612019268799,1.1780691719863874,0.9903422347485268,-0.0368410089900275,-0.13366000946390297,0.058383763803984356,-0.7635879710416723,0.643058898239145,-0.12575211408709788,-0.644651960779659,-0.754062500901329,,0.049478830155201214,0.6521952560632625,-0.39336848796150203,0.9344503827346585,-0.3530235084350983,-0.046657096986679164,-0.2707406033708452,-0.7894540247802572,0.550873731852086,-0.23130501052385558,-0.5021321989779459,-0.8332834132851391,,0.0,0.0,0.045,1.0,0.0,0.0,0.0,1.0,0.0,0.0,0.0,1.0,,0.019037333378670685,-0.19337877532911046,0.2249495411038443,False,,0.06289189436126622,0.543409930080476,-0.3932370449491964,0.06888468252484997,-0.8036463668761139,-0.5911069425410881,0.7625612127889226,0.42445115866412336,-0.4882024279523512,0.643238134179977,-0.41712555773472554,0.6420677314903438
15:39:21.581192,,0.6621702848346321,-0.9011734218261322,0.06760411608000001,-2.6165534096048977,-0.9222225956090744,0.898719266497154,,0.06291664131825418,0.5434619287205011,-0.393016911002951,0.06704719715928274,-0.8037590363633051,-0.5911650233373211,0.7654754947388778,0.42146937464346484,-0.4862209715673698,0.6399624522636893,-0.41992258536780097,0.6435161862693647,,-0.006657588441736717,0.2828485395664511,-0.07081864922891176,-0.965226441185883,0.01329534037317219,0.26107690655007176,0.09539759355598085,-0.9119165562792715,0.3991334281931802,0.24338696833051945,0.41016024707652265,0.8789376288103513,,0.04098147374178401,0.718612019268799,1.1780691719863874,0.9903422347485268,-0.0368410089900275,-0.13366000946390297,0.058383763803984356,-0.7635879710416723,0.643058898239145,-0.12575211408709788,-0.644651960779659,-0.754062500901329,,0.049478830155201214,0.6521952560632625,-0.39336848796150203,0.9344503827346585,-0.3530235084350983,-0.046657096986679164,-0.2707406033708452,-0.7894540247802572,0.550873731852086,-0.23130501052385558,-0.5021321989779459,-0.8332834132851391,,0.0,0.0,0.045,1.0,0.0,0.0,0.0,1.0,0.0,0.0,0.0,1.0,,0.019037333378670685,-0.19337877532911046,0.2249495411038443,False,,0.062892015632156,0.5434088686328173,-0.3932336469186446,0.06889600177343358,-0.8036658709878252,-0.5910791053226426,0.762498865507044,0.42448153581545445,-0.48827339252945606,0.6433108277031455,-0.41705706271580373,0.6420393955192784
15:39:21.610632,,0.6621162257045126,-0.9011193626960127,0.06760411608000001,-2.6165534096048977,-0.9222225956090744,0.898719266497154,,0.06291727440646298,0.5434497017455598,-0.3930145854871555,0.06703896769053456,-0.8037401046678221,-0.5911916956111155,0.7654655815754121,0.4214870087298828,-0.4862212921040706,0.6399751715765258,-0.419941121611702,0.6434914406152598,,-0.006658052716314245,0.28284855424880256,-0.0708184272840971,-0.9652269563396809,0.013294313009604514,0.26107505429087285,0.09539777083007728,-0.9119165009415305,0.39913351225793026,0.24338485583953576,0.4101604034134718,0.8789381408243757,,0.04098147374178401,0.718612019268799,1.1780691719863874,0.9903422347485268,-0.0368410089900275,-0.13366000946390297,0.058383763803984356,-0.7635879710416723,0.643058898239145,-0.12575211408709788,-0.644651960779659,-0.754062500901329,,0.049478830155201214,0.6521952560632625,-0.39336848796150203,0.9344503827346585,-0.3530235084350983,-0.046657096986679164,-0.2707406033708452,-0.7894540247802572,0.550873731852086,-0.23130501052385558,-0.5021321989779459,-0.8332834132851391,,0.0,0.0,0.045,1.0,0.0,0.0,0.0,1.0,0.0,0.0,0.0,1.0,,0.019037333378670685,-0.19337877532911046,0.2249495411038443,False,,0.06289157926597459,0.5434088271195667,-0.3932253260863719,0.06872861685837223,-0.8035539893433258,-0.5912506773232159,0.7625269460193683,0.42446608045259104,-0.4882429755148454,0.6432954483121348,-0.41728830891320334,0.6419045360684474
15:39:21.642656,,0.6620235529100219,-0.9010807490316416,0.06760411608000001,-2.6165534096048977,-0.9220884541406221,0.8986512836009424,,0.06291513086678432,0.5434692407022181,-0.3930020728931751,0.06700147586036029,-0.8037370084696197,-0.5912001551495398,0.7654747085680956,0.4214633317988705,-0.48622744728324874,0.6399681810645923,-0.41997080989671387,0.6434790175752242,,-0.006658725937790686,0.28284832134693466,-0.07081806304284821,-0.9652276651996933,0.013292141038041855,0.2610725441296038,0.0953984949705697,-0.9119167748088381,0.39913271346524243,0.24338176075669538,0.410159864915379,0.8789392491646388,,0.04098147374178401,0.718612019268799,1.1780691719863874,0.9903422347485268,-0.0368410089900275,-0.13366000946390297,0.058383763803984356,-0.7635879710416723,0.643058898239145,-0.12575211408709788,-0.644651960779659,-0.754062500901329,,0.049478830155201214,0.6521952560632625,-0.39336848796150203,0.9344503827346585,-0.3530235084350983,-0.046657096986679164,-0.2707406033708452,-0.7894540247802572,0.550873731852086,-0.23130501052385558,-0.5021321989779459,-0.8332834132851391,,0.0,0.0,0.045,1.0,0.0,0.0,0.0,1.0,0.0,0.0,0.0,1.0,,0.019037333378670685,-0.19337877532911046,0.2249495411038443,False,,0.06289043157310918,0.5434076122041539,-0.3932207941638079,0.06873700921774795,-0.8035609447222508,-0.591240248698347,0.7624690574093248,0.4245023782372275,-0.48830181994773864,0.6433631634288173,-0.4172379884286926,0.6418693799791693
15:39:21.671566,,0.6619463255812796,-0.9010498581001447,0.06760411608000001,-2.6165534096048977,-0.9220884541406221,0.8986512836009424,,0.06291310961900706,0.5434578945898517,-0.39299969751356384,0.0669989961904233,-0.8037025084085007,-0.5912473361355294,0.765466473011357,0.4214957708637031,-0.48621229297454654,0.6399782911982478,-0.42000427750428543,0.6434471180082124,,-0.006658772319193039,0.28284883119917936,-0.07081812569387866,-0.9652277929257247,0.013293402881071642,0.26107200767536876,0.09539757852201289,-0.9119160610595747,0.39913456325129054,0.24338161344674883,0.41016141092197295,0.8789385685101239,,0.04098147374178401,0.718612019268799,1.1780691719863874,0.9903422347485268,-0.0368410089900275,-0.13366000946390297,0.058383763803984356,-0.7635879710416723,0.643058898239145,-0.12575211408709788,-0.644651960779659,-0.754062500901329,,0.049478830155201214,0.6521952560632625,-0.39336848796150203,0.9344503827346585,-0.3530235084350983,-0.046657096986679164,-0.2707406033708452,-0.7894540247802572,0.550873731852086,-0.23130501052385558,-0.5021321989779459,-0.8332834132851391,,0.0,0.0,0.045,1.0,0.0,0.0,0.0,1.0,0.0,0.0,0.0,1.0,,0.019037333378670685,-0.19337877532911046,0.2249495411038443,False,,0.06288742805266383,0.5434072568130476,-0.3932124633014704,0.06869993393861862,-0.8035116511036957,-0.5913115470016146,0.7625093206319582,0.42449711015067837,-0.48824352471191335,0.6433194035828698,-0.4173382680923665,0.641848046627428
15:39:21.699083,,0.6618459300539147,-0.9010112444357735,0.06760411608000001,-2.6165534096048977,-0.9220884541406221,0.8986512836009424,,0.0629105643478945,0.5434416369729775,-0.39299675116178584,0.0669959684893192,-0.8036574032315885,-0.5913089872792718,0.7654561020741024,0.4215380329437385,-0.4861919811961581,0.639991012439784,-0.42004816987219906,0.6434058120527952,,-0.006658981264508448,0.2828485836147771,-0.07081798339534023,-0.9652279866391733,0.013292258273612946,0.2610713497756978,0.09539812538902065,-0.9119163902691066,0.399133680395494,0.24338063085623282,0.4101607160903872,0.8789391648433196,,0.04098147374178401,0.718612019268799,1.1780691719863874,0.9903422347485268,-0.0368410089900275,-0.13366000946390297,0.058383763803984356,-0.7635879710416723,0.643058898239145,-0.12575211408709788,-0.644651960779659,-0.754062500901329,,0.049478830155201214,0.6521952560632625,-0.39336848796150203,0.9344503827346585,-0.3530235084350983,-0.046657096986679164,-0.2707406033708452,-0.7894540247802572,0.550873731852086,-0.23130501052385558,-0.5021321989779459,-0.8332834132851391,,0.0,0.0,0.045,1.0,0.0,0.0,0.0,1.0,0.0,0.0,0.0,1.0,,0.019037333378670685,-0.19337877532911046,0.2249495411038443,False,,0.06288484651583316,0.5434069532544638,-0.3932045103270795,0.06866383174661317,-0.8034665398864503,-0.5913770349724174,0.7625480961589074,0.4244898569606993,-0.4881892690155232,0.6432772957708819,-0.4174324863021326,0.6418289804342908
15:39:21.728647,,0.6617918709237951,-0.9009726307714024,0.06760411608000001,-2.6163437330755603,-0.9220884541406221,0.8986512836009424,,0.06290865392237155,0.5434385268389145,-0.3929927580181004,0.06686157460827825,-0.803548964488178,-0.5914715475074679,0.7654468094252692,0.42156075123499126,-0.48618691360305644,0.64001618087481,-0.4202327863079787,0.6432602067050749,,-0.006658772319193037,0.2828488311991794,-0.07081812569387864,-0.9652277929257251,0.013293402881071635,0.2610720076753688,0.09539757852201292,-0.9119160610595751,0.3991345632512907,0.24338161344674886,0.4101614109219731,0.8789385685101243,,0.04098147374178401,0.718612019268799,1.1780691719863874,0.9903422347485268,-0.0368410089900275,-0.13366000946390297,0.058383763803984356,-0.7635879710416723,0.643058898239145,-0.12575211408709788,-0.644651960779659,-0.754062500901329,,0.049478830155201214,0.6521952560632625,-0.39336848796150203,0.9344503827346585,-0.3530235084350983,-0.046657096986679164,-0.2707406033708452,-0.7894540247802572,0.550873731852086,-0.23130501052385558,-0.5021321989779459,-0.8332834132851391,,0.0,0.0,0.045,1.0,0.0,0.0,0.0,1.0,0.0,0.0,0.0,1.0,,0.019037333378670685,-0.19337877532911046,0.2249495411038443,False,,0.06288308041240709,0.5434067471231174,-0.3931983916614104,0.06851152415281925,-0.8033531524620295,-0.591548716072968,0.7625630412356809,0.4244921465482633,-0.4881639331825296,0.6432758189141321,-0.4176483328688946,0.6416900270786402
15:39:21.760900,,0.6617455345265498,-0.9009417398399056,0.06760411608000001,-2.6163437330755603,-0.9219543126721699,0.8985833007047307,,0.06290826143429379,0.5434649027117358,-0.39298138377951175,0.06682366891757503,-0.8035685542364621,-0.5914492166828158,0.7654591546448666,0.4215160823555625,-0.4862062061368462,0.6400053748545873,-0.4202401348728382,0.6432661573558013,,-0.006658772319193039,0.2828488311991794,-0.07081812569387866,-0.9652277929257247,0.013293402881071642,0.26107200767536876,0.09539757852201289,-0.9119160610595747,0.39913456325129054,0.24338161344674883,0.41016141092197295,0.8789385685101239,,0.04098147374178401,0.718612019268799,1.1780691719863874,0.9903422347485268,-0.0368410089900275,-0.13366000946390297,0.058383763803984356,-0.7635879710416723,0.643058898239145,-0.12575211408709788,-0.644651960779659,-0.754062500901329,,0.049478830155201214,0.6521952560632625,-0.39336848796150203,0.9344503827346585,-0.3530235084350983,-0.046657096986679164,-0.2707406033708452,-0.7894540247802572,0.550873731852086,-0.23130501052385558,-0.5021321989779459,-0.8332834132851391,,0.0,0.0,0.045,1.0,0.0,0.0,0.0,1.0,0.0,0.0,0.0,1.0,,0.019037333378670685,-0.19337877532911046,0.2249495411038443,False,,0.0628830398977077,0.5434056655560504,-0.3931959791266361,0.06852844303663314,-0.8033750272202864,-0.5915170480499942,0.7624953200136511,0.4245271187449219,-0.48823929830300916,0.643354287661359,-0.4175707019044069,0.6416618809457253
15:39:21.798230,,0.6617069208621786,-0.9008954034426602,0.06760411608000001,-2.6163437330755603,-0.9219543126721699,0.8985833007047307,,0.0629772141487512,0.5434486133839733,-0.3929973309668922,0.06677410721881212,-0.8035358608125672,-0.5914992299177886,0.7654566495938637,0.42151784906550754,-0.48620861830260165,0.6400135437611202,-0.4203008723609727,0.6432183458942523,,-0.006658052715962547,0.2828485542482805,-0.07081842728444519,-0.9652269563396809,0.013294313009604465,0.26107505429087274,0.09539777083007725,-0.9119165009415305,0.3991335122579302,0.24338485583953562,0.41016040341347176,0.8789381408243758,,0.04098147374178401,0.718612019268799,1.1780691719863874,0.9903422347485268,-0.0368410089900275,-0.13366000946390297,0.058383763803984356,-0.7635879710416723,0.643058898239145,-0.12575211408709788,-0.644651960779659,-0.754062500901329,,0.04954524612396164,0.6521927178192339,-0.3933866837075042,0.9344626272767311,-0.35299231352594634,-0.04664788113804025,-0.2707173193362053,-0.7894579333901626,0.5508795734266724,-0.23128279493833476,-0.5021479841629691,-0.8332800674242595,,0.0,0.0,0.045,1.0,0.0,0.0,0.0,1.0,0.0,0.0,0.0,1.0,,0.019037333378670685,-0.19337877532911046,0.2249495411038443,False,,0.06288400134036616,0.5434057939696579,-0.3931900629452261,0.0684943885643911,-0.8033611175109227,-0.5915398833610392,0.7625275753013318,0.4244994171793868,-0.4882130085520388,0.6433196838588591,-0.41762562144337206,0.6416608330526146
15:39:21.833301,,0.6616683071978076,-0.9008490670454148,0.06760411608000001,-2.6161340565462226,-0.9219543126721699,0.8985833007047307,,0.06297588725714093,0.543453316942158,-0.392993024985494,0.06663766951083933,-0.8034373836483368,-0.5916483681702158,0.7654471252392396,0.42153138761238673,-0.4862118753388894,0.6400391546344238,-0.42047551630730085,0.6430787049195152,,-0.006654322339098823,0.2828529032849568,-0.0708183381597602,-0.9652269930964129,0.013300161640932708,0.26107462037467577,0.09539281169975658,-0.9119158219219261,0.39913624880468,0.24338665365929743,0.41016172338991086,0.8789370269773291,,0.04098147374178401,0.718612019268799,1.1780691719863874,0.9903422347485268,-0.0368410089900275,-0.13366000946390297,0.058383763803984356,-0.7635879710416723,0.643058898239145,-0.12575211408709788,-0.644651960779659,-0.754062500901329,,0.04954524612396164,0.6521927178192339,-0.3933866837075042,0.9344626272767311,-0.35299231352594634,-0.04664788113804025,-0.2707173193362053,-0.7894579333901626,0.5508795734266724,-0.23128279493833476,-0.5021479841629691,-0.8332800674242595,,0.0,0.0,0.045,1.0,0.0,0.0,0.0,1.0,0.0,0.0,0.0,1.0,,0.019037333378670685,-0.19337877532911046,0.2249495411038443,False,,0.06288414749119406,0.5434093558438495,-0.39318910669058765,0.06833529325146986,-0.8032591030338276,-0.5916967982755412,0.7625421739432732,0.42448887205160785,-0.48819937572903654,0.6433192991463126,-0.41783251536667726,0.6415265142207709
15:39:21.873087,,0.661614248067688,-0.9008104533810437,0.06760411608000001,-2.6161340565462226,-0.9218201712037176,0.8985153178085191,,0.06297487581298383,0.5434853946119346,-0.39298079898523847,0.06659870618097809,-0.8034550473304178,-0.5916287681091036,0.7654581348094918,0.421488601687182,-0.48623163461642227,0.6400300431925001,-0.420484655566716,0.6430817974752095,,-0.006650591962648963,0.2828572523217409,-0.07081824903464937,-0.9652270298398606,0.013306010271413857,0.2610741864459375,0.095387852573633,-0.9119151428848229,0.39913898535469355,0.24338845149090774,0.41016304336110104,0.878935913143187,,0.04098147374178401,0.718612019268799,1.1780691719863874,0.9903422347485268,-0.0368410089900275,-0.13366000946390297,0.058383763803984356,-0.7635879710416723,0.643058898239145,-0.12575211408709788,-0.644651960779659,-0.754062500901329,,0.04954524612396164,0.6521927178192339,-0.3933866837075042,0.9344626272767311,-0.35299231352594634,-0.04664788113804025,-0.2707173193362053,-0.7894579333901626,0.5508795734266724,-0.23128279493833476,-0.5021479841629691,-0.8332800674242595,,0.0,0.0,0.045,1.0,0.0,0.0,0.0,1.0,0.0,0.0,0.0,1.0,,0.019037333378670685,-0.19337877532911046,0.2249495411038443,False,,0.0628840037670105,0.5434082665015185,-0.3931843439620193,0.06833986539171061,-0.8032721694682051,-0.5916785314307814,0.7624866925611483,0.4245165711022136,-0.4882619425336982,0.6433845712055924,-0.4177792510614459,0.6414957450499057
15:39:21.906949,,0.6615601889375684,-0.9007641169837983,0.06760411608000001,-2.6161340565462226,-0.9218201712037176,0.8985153178085191,,0.06297447529650475,0.5434800949836204,-0.392978216672129,0.06659214948828879,-0.8034356592168352,-0.591655835030247,0.765449267091339,0.42150682125827466,-0.4862298007548256,0.640041330802833,-0.4205034377166907,0.6430582817541376,,-0.006647432501428853,0.282861009474516,-0.07081778527778355,-0.9652296864432517,0.013346198867958452,0.26106230550431303,0.09534309786372608,-0.9119222677291035,0.3991333953458991,0.24339544381355688,0.4101458918072626,0.8789419783667266,,0.04098147374178401,0.718612019268799,1.1780691719863874,0.9903422347485268,-0.0368410089900275,-0.13366000946390297,0.058383763803984356,-0.7635879710416723,0.643058898239145,-0.12575211408709788,-0.644651960779659,-0.754062500901329,,0.04954524612396164,0.6521927178192339,-0.3933866837075042,0.9344626272767311,-0.35299231352594634,-0.04664788113804025,-0.2707173193362053,-0.7894579333901626,0.5508795734266724,-0.23128279493833476,-0.5021479841629691,-0.8332800674242595,,0.0,0.0,0.045,1.0,0.0,0.0,0.0,1.0,0.0,0.0,0.0,1.0,,0.019037333378670685,-0.19337877532911046,0.2249495411038443,False,,0.06288454096768982,0.5434083445358426,-0.3931780494461086,0.06830484939765086,-0.8032540572536733,-0.5917071632609134,0.7625204387543008,0.42449083738666893,-0.4882316145608697,0.6433482944958455,-0.4178402188400222,0.641492418886622
15:39:21.944545,,0.6615370207389457,-0.9007255033194272,0.06760411608000001,-2.6161340565462226,-0.9218201712037176,0.8985841994525694,,0.06297596930904231,0.5434727348603261,-0.39297694626008717,0.06658604086637664,-0.8033924430417155,-0.5917152031384735,0.7654430584598333,0.4215431153612283,-0.4862081099150924,0.6400493913889751,-0.4205496217511246,0.6430200558517507,,-0.00664463497810115,0.2828644222528738,-0.07081708924444176,-0.9652347627990692,0.01342187264949151,0.26103963571174377,0.09525799982066291,-0.9119368604469146,0.3991203595685211,0.24340861025876973,0.4101109621633148,0.8789546248578984,,0.04098147374178401,0.718612019268799,1.1780691719863874,0.9903422347485268,-0.0368410089900275,-0.13366000946390297,0.058383763803984356,-0.7635879710416723,0.643058898239145,-0.12575211408709788,-0.644651960779659,-0.754062500901329,,0.04954524612396164,0.6521927178192339,-0.3933866837075042,0.9344626272767311,-0.35299231352594634,-0.04664788113804025,-0.2707173193362053,-0.7894579333901626,0.5508795734266724,-0.23128279493833476,-0.5021479841629691,-0.8332800674242595,,0.0,0.0,0.045,1.0,0.0,0.0,0.0,1.0,0.0,0.0,0.0,1.0,,0.019037333378670685,-0.19337877532911046,0.2249495411038443,False,,0.06288634735882195,0.5434085762920906,-0.3931728884403029,0.06827273190759797,-0.803207763135584,-0.5917737095517217,0.7625497169525169,0.42449280164087155,-0.4881841768541053,0.6433170005941937,-0.41792720729071453,0.641467135676236
15:39:21.979382,,0.6615061298074488,-0.9006946123879304,0.06760411608000001,-2.6159243800168848,-0.9218201712037176,0.8986530810966196,,0.06297492684523447,0.5434732597066808,-0.39297363776310723,0.06645256582658404,-0.8032566051453908,-0.5919145907860061,0.7654360183904694,0.42158727111399574,-0.48618090726107205,0.6400716821150646,-0.42076477885506985,0.6428570934736862,,-0.0066423480471669155,0.28286835953442785,-0.07081623381088895,-0.9652404788155616,0.01349778182036026,0.2610145791432592,0.09517216213482269,-0.9119506803411682,0.39910925667461133,0.24341951481749732,0.41007773542915943,0.8789671059230851,,0.04098147374178401,0.718612019268799,1.1780691719863874,0.9903422347485268,-0.0368410089900275,-0.13366000946390297,0.058383763803984356,-0.7635879710416723,0.643058898239145,-0.12575211408709788,-0.644651960779659,-0.754062500901329,,0.04954524612396164,0.6521927178192339,-0.3933866837075042,0.9344626272767311,-0.35299231352594634,-0.04664788113804025,-0.2707173193362053,-0.7894579333901626,0.5508795734266724,-0.23128279493833476,-0.5021479841629691,-0.8332800674242595,,0.0,0.0,0.045,1.0,0.0,0.0,0.0,1.0,0.0,0.0,0.0,1.0,,0.019037333378670685,-0.19337877532911046,0.2249495411038443,False,,0.06288526545304536,0.5434084524998392,-0.3931685121004821,0.06812797167532836,-0.8030642157242811,-0.59198517287053,0.7625563141189218,0.4245293228655448,-0.4881421123245631,0.6433245271810878,-0.41816589943522126,0.6413040100270405
15:39:22.010399,,0.6614829616088261,-0.9006714441893077,0.06760411608000001,-2.6159243800168848,-0.9216860297352655,0.898585098200408,,0.06297536704847884,0.5435015162979885,-0.3929630393643637,0.06641502058344181,-0.8032867620549531,-0.5918778784075055,0.7654507249799248,0.4215325583269116,-0.48620519320352434,0.6400579916449826,-0.42076202321221673,0.642872527919613,,-0.006642862870990899,0.28286791839419667,-0.07081591132006998,-0.965245125028843,0.013569897749798852,0.26099366361899395,0.09509092862285606,-0.9119652866572865,0.3990952482702437,0.24343284467763887,0.4100428755304798,0.8789796791308655,,0.04098147374178401,0.718612019268799,1.1780691719863874,0.9903422347485268,-0.0368410089900275,-0.13366000946390297,0.058383763803984356,-0.7635879710416723,0.643058898239145,-0.12575211408709788,-0.644651960779659,-0.754062500901329,,0.04954524612396164,0.6521927178192339,-0.3933866837075042,0.9344626272767311,-0.35299231352594634,-0.04664788113804025,-0.2707173193362053,-0.7894579333901626,0.5508795734266724,-0.23128279493833476,-0.5021479841629691,-0.8332800674242595,,0.0,0.0,0.045,1.0,0.0,0.0,0.0,1.0,0.0,0.0,0.0,1.0,,0.019037333378670685,-0.19337877532911046,0.2249495411038443,False,,0.06288564741618795,0.5434074229632764,-0.3931664770447826,0.06814579363416468,-0.8030903418465293,-0.591947678129406,0.7624871045708647,0.42456230851896154,-0.488221529173171,0.643404667509577,-0.41808222757954566,0.6412781649245636
15:39:22.043655,,0.6614597934102034,-0.9006328305249366,0.06760411608000001,-2.6159243800168848,-0.9216860297352655,0.898585098200408,,0.06297679109503031,0.5434925406532183,-0.39296183185204997,0.06640826714804333,-0.8032810780078947,-0.5918863503822913,0.7654446481280053,0.421537575414684,-0.48621041038392404,0.6400659596530566,-0.42076784837720677,0.6428607820247145,,-0.006643586568085997,0.2828672296460284,-0.07081544644019219,-0.9652499625741452,0.01364086998678516,0.2609720921863336,0.09501024141631156,-0.9119802188769417,0.39908035642797157,0.24344518943721763,0.4100073213086155,0.8789928513342462,,0.04098147374178401,0.718612019268799,1.1780691719863874,0.9903422347485268,-0.0368410089900275,-0.13366000946390297,0.058383763803984356,-0.7635879710416723,0.643058898239145,-0.12575211408709788,-0.644651960779659,-0.754062500901329,,0.04954524612396164,0.6521927178192339,-0.3933866837075042,0.9344626272767311,-0.35299231352594634,-0.04664788113804025,-0.2707173193362053,-0.7894579333901626,0.5508795734266724,-0.23128279493833476,-0.5021479841629691,-0.8332800674242595,,0.0,0.0,0.045,1.0,0.0,0.0,0.0,1.0,0.0,0.0,0.0,1.0,,0.019037333378670685,-0.19337877532911046,0.2249495411038443,False,,0.06288729338940939,0.5434076335297463,-0.3931623019305523,0.0681193523989847,-0.8030871240864877,-0.5919550869409246,0.7625110076163005,0.4245352580156776,-0.48820772010030383,0.6433791394603322,-0.4181158760775015,0.6412818390374284
15:39:22.074774,,0.6614366252115808,-0.9006019395934396,0.06760411608000001,-2.6159243800168848,-0.9216860297352655,0.898585098200408,,0.06297760367768644,0.543485842192653,-0.3929606999555886,0.06640311093021631,-0.8032742477303407,-0.5918961984943342,0.7654395049238141,0.4215437828224986,-0.486213125558828,0.6400726452214435,-0.42077466902958083,0.6428496610734665,,-0.006643739457642742,0.28286713282120557,-0.07081535633107967,-0.9652521841099357,0.013677500854771651,0.26096196469506827,0.09496935059082066,-0.9119873523241754,0.3990737922054541,0.24345234337648125,0.4099902378682349,0.8789988403481496,,0.04098147374178401,0.718612019268799,1.1780691719863874,0.9903422347485268,-0.0368410089900275,-0.13366000946390297,0.058383763803984356,-0.7635879710416723,0.643058898239145,-0.12575211408709788,-0.644651960779659,-0.754062500901329,,0.04954524612396164,0.6521927178192339,-0.3933866837075042,0.9344626272767311,-0.35299231352594634,-0.04664788113804025,-0.2707173193362053,-0.7894579333901626,0.5508795734266724,-0.23128279493833476,-0.5021479841629691,-0.8332800674242595,,0.0,0.0,0.045,1.0,0.0,0.0,0.0,1.0,0.0,0.0,0.0,1.0,,0.019037333378670685,-0.19337877532911046,0.2249495411038443,False,,0.0628883560820389,0.5434077714371491,-0.39315873503254384,0.0680976208744331,-0.8030820316910572,-0.5919644959000546,0.7625310231820772,0.4245148015642828,-0.488194246112889,0.6433577175383353,-0.41814642606125596,0.6412834113370329
15:39:22.112838,,0.6614057342800839,-0.9005633259290685,0.06760411608000001,-2.6157147034875474,-0.9216860297352655,0.898585098200408,,0.06297684600341975,0.5434852211304131,-0.39295721539406847,0.06626757977885987,-0.8031775231058325,-0.5920426287420796,0.7654314087995933,0.42155535797412047,-0.4862158353924534,0.6400963726606507,-0.42094767672585043,0.6427127563428211,,-0.006643739457642742,0.28286713282120557,-0.07081535633107967,-0.9652521841099357,0.01367750085477163,0.26096196469506827,0.09496935059082065,-0.9119873523241754,0.399073792205454,0.24345234337648125,0.40999023786823485,0.8789988403481496,,0.04098147374178401,0.718612019268799,1.1780691719863874,0.9903422347485268,-0.0368410089900275,-0.13366000946390297,0.058383763803984356,-0.7635879710416723,0.643058898239145,-0.12575211408709788,-0.644651960779659,-0.754062500901329,,0.04954524612396164,0.6521927178192339,-0.3933866837075042,0.9344626272767311,-0.35299231352594634,-0.04664788113804025,-0.2707173193362053,-0.7894579333901626,0.5508795734266724,-0.23128279493833476,-0.5021479841629691,-0.8332800674242595,,0.0,0.0,0.045,1.0,0.0,0.0,0.0,1.0,0.0,0.0,0.0,1.0,,0.019037333378670685,-0.19337877532911046,0.2249495411038443,False,,0.06288785677064195,0.5434077209738335,-0.3931537506594716,0.06794812283309615,-0.8029810919614438,-0.592118584876261,0.7625415056220669,0.42451108055490805,-0.48818110849328833,0.6433610998553533,-0.41834400729365273,0.6411511418958861
15:39:22.152973,,0.661374843348587,-0.9005324349975716,0.06760411608000001,-2.6157147034875474,-0.9215518882668132,0.8985171153041964,,0.0629772237851857,0.5435132155937903,-0.3929461944490247,0.06622893887555169,-0.8032051002904095,-0.5920095392161272,0.7654445822866657,0.42150317508246243,-0.486240336503868,0.640084618705535,-0.42094731292986776,0.6427247005006994,,-0.006643739457642741,0.28286713282120557,-0.07081535633107967,-0.9652521841099357,0.013677500854771651,0.2609619646950683,0.09496935059082066,-0.9119873523241754,0.399073792205454,0.2434523433764813,0.40999023786823485,0.8789988403481496,,0.04098147374178401,0.718612019268799,1.1780691719863874,0.9903422347485268,-0.0368410089900275,-0.13366000946390297,0.058383763803984356,-0.7635879710416723,0.643058898239145,-0.12575211408709788,-0.644651960779659,-0.754062500901329,,0.04954524612396164,0.6521927178192339,-0.3933866837075042,0.9344626272767311,-0.35299231352594634,-0.04664788113804025,-0.2707173193362053,-0.7894579333901626,0.5508795734266724,-0.23128279493833476,-0.5021479841629691,-0.8332800674242595,,0.0,0.0,0.045,1.0,0.0,0.0,0.0,1.0,0.0,0.0,0.0,1.0,,0.019037333378670685,-0.19337877532911046,0.2249495411038443,False,,0.06288839830964388,0.543406713589585,-0.39315072920296734,0.06796024299816206,-0.8030049197512439,-0.5920848792419288,0.7624776714618917,0.42453943264702776,-0.48825615270039496,0.643435471429484,-0.41826949324931456,0.6411251243893654
15:39:22.183529,,0.6613516751499643,-0.9005092667989489,0.06760411608000001,-2.6157147034875474,-0.9215518882668132,0.8985171153041964,,0.0629775381077141,0.5435075513843228,-0.3929452231323132,0.06622537000281212,-0.8031969634993222,-0.5920209778322544,0.7654403632671752,0.4215107049935721,-0.4862404506591738,0.640090033237048,-0.42095529857847136,0.642714077914359,,-0.006643948399878481,0.28286688523305015,-0.07081521403525587,-0.9652523782236199,0.013676356387077947,0.2609613066968361,0.09496989741566808,-0.9119876817027313,0.39907290936699236,0.2434513604435268,0.40998954338098903,0.8789994365184455,,0.04098147374178401,0.718612019268799,1.1780691719863874,0.9903422347485268,-0.0368410089900275,-0.13366000946390297,0.058383763803984356,-0.7635879710416723,0.643058898239145,-0.12575211408709788,-0.644651960779659,-0.754062500901329,,0.04954524612396164,0.6521927178192339,-0.3933866837075042,0.9344626272767311,-0.35299231352594634,-0.04664788113804025,-0.2707173193362053,-0.7894579333901626,0.5508795734266724,-0.23128279493833476,-0.5021479841629691,-0.8332800674242595,,0.0,0.0,0.045,1.0,0.0,0.0,0.0,1.0,0.0,0.0,0.0,1.0,,0.019037333378670685,-0.19337877532911046,0.2249495411038443,False,,0.06288887751931015,0.5434067789533612,-0.3931477704428187,0.06794322073267711,-0.8029979506700614,-0.5920962843796204,0.76249380187047,0.4245255681251021,-0.48824301747918086,0.6434181539757696,-0.4182969438422194,0.6411245946824002
15:39:22.208943,,0.6613362296842159,-0.900478375867452,0.06760411608000001,-2.6157147034875474,-0.9215518882668132,0.8985171153041964,,0.06297863113021249,0.5435027281138102,-0.39294419262241304,0.06621991000355498,-0.8031941508528397,-0.5920254044843907,0.7654355632687428,0.4215132226215962,-0.4862458242891336,0.6400963380637192,-0.4209581442268843,0.6427059349395138,,-0.006643739457642742,0.28286713282120557,-0.07081535633107967,-0.9652521841099357,0.013677500854771638,0.26096196469506827,0.09496935059082065,-0.9119873523241754,0.399073792205454,0.24345234337648125,0.40999023786823485,0.8789988403481496,,0.04098147374178401,0.718612019268799,1.1780691719863874,0.9903422347485268,-0.0368410089900275,-0.13366000946390297,0.058383763803984356,-0.7635879710416723,0.643058898239145,-0.12575211408709788,-0.644651960779659,-0.754062500901329,,0.04954524612396164,0.6521927178192339,-0.3933866837075042,0.9344626272767311,-0.35299231352594634,-0.04664788113804025,-0.2707173193362053,-0.7894579333901626,0.5508795734266724,-0.23128279493833476,-0.5021479841629691,-0.8332800674242595,,0.0,0.0,0.045,1.0,0.0,0.0,0.0,1.0,0.0,0.0,0.0,1.0,,0.019037333378670685,-0.19337877532911046,0.2249495411038443,False,,0.06289036310003866,0.5434069683683369,-0.39314458121303353,0.06792245676211273,-0.802997050924123,-0.5920998869063906,0.7625123275512812,0.4245031340077422,-0.4882335911732545,0.6433983915116098,-0.41832143792156584,0.6411284460819898
15:39:22.235096,,0.6613207842184674,-0.9004629304017036,0.06760541237,-2.615505026958209,-0.9215518882668132,0.8985171153041964,,0.06297712449598111,0.5435072691596665,-0.3929414861810301,0.0660883026584665,-0.8031014236931091,-0.592165888509144,0.7654312716397639,0.4215211040761749,-0.48624574775964535,0.6401150714111149,-0.42112713291891307,0.6425765582962386,,-0.006643739457642742,0.28286713282120557,-0.07081535633107967,-0.9652521841099357,0.013677500854771651,0.26096196469506827,0.09496935059082066,-0.9119873523241754,0.3990737922054541,0.24345234337648125,0.4099902378682349,0.8789988403481496,,0.04098147374178401,0.718612019268799,1.1780691719863874,0.9903422347485268,-0.0368410089900275,-0.13366000946390297,0.058383763803984356,-0.7635879710416723,0.643058898239145,-0.12575211408709788,-0.644651960779659,-0.754062500901329,,0.04954524612396164,0.6521927178192339,-0.3933866837075042,0.9344626272767311,-0.35299231352594634,-0.04664788113804025,-0.2707173193362053,-0.7894579333901626,0.5508795734266724,-0.23128279493833476,-0.5021479841629691,-0.8332800674242595,,0.0,0.0,0.045,1.0,0.0,0.0,0.0,1.0,0.0,0.0,0.0,1.0,,0.019037333378670685,-0.19337877532911046,0.2249495411038443,False,,0.06288951750789767,0.5434055669873619,-0.3931426508056003,0.067789951441531,-0.8029030549801451,-0.592242523622802,0.7625066793463245,0.4245132612037239,-0.48823360701043567,0.6434190597392934,-0.41849154754394896,0.6409966756532162
15:39:22.262877,,0.661305338752719,-0.900439762203081,0.06760541237,-2.615505026958209,-0.9215518882668132,0.8985171153041964,,0.06297774121986427,0.543503340105872,-0.3929406205175639,0.06608437075756325,-0.8030973366498958,-0.592171870158842,0.7654274804313049,0.4215248302039308,-0.4862484855730985,0.6401200107340507,-0.4211311973570601,0.6425689740957368,,-0.006643530513884778,0.2828673804092195,-0.07081549862486766,-0.9652519900016665,0.013678645323072405,0.26096262269384213,0.09496880376756568,-0.9119870229507332,0.3990746750468099,0.243453326311391,0.4099909323569058,0.8789982441827372,,0.04098147374178401,0.718612019268799,1.1780691719863874,0.9903422347485268,-0.0368410089900275,-0.13366000946390297,0.058383763803984356,-0.7635879710416723,0.643058898239145,-0.12575211408709788,-0.644651960779659,-0.754062500901329,,0.04954524612396164,0.6521927178192339,-0.3933866837075042,0.9344626272767311,-0.35299231352594634,-0.04664788113804025,-0.2707173193362053,-0.7894579333901626,0.5508795734266724,-0.23128279493833476,-0.5021479841629691,-0.8332800674242595,,0.0,0.0,0.045,1.0,0.0,0.0,0.0,1.0,0.0,0.0,0.0,1.0,,0.019037333378670685,-0.19337877532911046,0.2249495411038443,False,,0.0628899964915192,0.5434056325476236,-0.3931396919308276,0.06777293023169456,-0.8028960811144846,-0.5922539259969604,0.7625228089773145,0.42449939184294255,-0.4882204749028027,0.6434017374216177,-0.41851899509577223,0.640996142755063
15:39:22.295590,,0.6612821705540963,-0.9004088712715841,0.06760541237,-2.615505026958209,-0.9215518882668132,0.8985171153041964,,0.0629784987491805,0.5434971693456389,-0.3929394501483723,0.06607920277084886,-0.8030905088388915,-0.5921817065513414,0.7654223410115911,0.42153102606310944,-0.486251204570763,0.6401266896806479,-0.421138016188366,0.6425578514650825,,-0.006643530513884778,0.2828673804092195,-0.07081549862486765,-0.9652519900016665,0.013678645323072405,0.26096262269384213,0.09496880376756567,-0.9119870229507332,0.3990746750468098,0.243453326311391,0.40999093235690576,0.8789982441827372,,0.04098147374178401,0.718612019268799,1.1780691719863874,0.9903422347485268,-0.0368410089900275,-0.13366000946390297,0.058383763803984356,-0.7635879710416723,0.643058898239145,-0.12575211408709788,-0.644651960779659,-0.754062500901329,,0.04954524612396164,0.6521927178192339,-0.3933866837075042,0.9344626272767311,-0.35299231352594634,-0.04664788113804025,-0.2707173193362053,-0.7894579333901626,0.5508795734266724,-0.23128279493833476,-0.5021479841629691,-0.8332800674242595,,0.0,0.0,0.045,1.0,0.0,0.0,0.0,1.0,0.0,0.0,0.0,1.0,,0.019037333378670685,-0.19337877532911046,0.2249495411038443,False,,0.0628904753821568,0.5434056981791962,-0.39313673301616747,0.06775590973552215,-0.8028891066233191,-0.5922653283466125,0.7625389382985522,0.4244855219229987,-0.48820734248501096,0.6433844140748431,-0.4185464420388356,0.6409956096434694
15:39:22.324900,,0.6612590023554736,-0.9003857030729614,0.06760541237,-2.615295350428872,-0.921417746798361,0.8984491324079847,,0.06297717233976528,0.5435342259504375,-0.392926793511806,0.06591259113150369,-0.8030335928880689,-0.5922774510511185,0.7654352786998735,0.4214792272904702,-0.48627573976528515,0.6401283968486152,-0.42129836180064495,0.6424510299564586,,-0.006643530513884778,0.2828673804092195,-0.07081549862486766,-0.9652519900016665,0.013678645323072398,0.26096262269384213,0.09496880376756567,-0.9119870229507332,0.3990746750468098,0.243453326311391,0.40999093235690576,0.8789982441827372,,0.04098147374178401,0.718612019268799,1.1780691719863874,0.9903422347485268,-0.0368410089900275,-0.13366000946390297,0.058383763803984356,-0.7635879710416723,0.643058898239145,-0.12575211408709788,-0.644651960779659,-0.754062500901329,,0.04954524612396164,0.6521927178192339,-0.3933866837075042,0.9344626272767311,-0.35299231352594634,-0.04664788113804025,-0.2707173193362053,-0.7894579333901626,0.5508795734266724,-0.23128279493833476,-0.5021479841629691,-0.8332800674242595,,0.0,0.0,0.045,1.0,0.0,0.0,0.0,1.0,0.0,0.0,0.0,1.0,,0.019037333378670685,-0.19337877532911046,0.2249495411038443,False,,0.06289128038328247,0.5434047204927375,-0.3931350755010313,0.06777464143049239,-0.802919481051155,-0.5922220064532496,0.7624682361448846,0.42451651194168843,-0.4882908149443028,0.6434662282117666,-0.4184567337699405,0.6409720548616111
15:39:22.353239,,0.6612435568897252,-0.9003702576072129,0.06760541237,-2.615295350428872,-0.921417746798361,0.8984491324079847,,0.06297738096241859,0.5435304265338771,-0.39292614680268567,0.065910206488829,-0.803028133191653,-0.5922851188265063,0.7654324627294855,0.42148427459499305,-0.4862757975357267,0.640132009573396,-0.42130371891529883,0.6424439172002986,,-0.00664373945608703,0.28286713282104703,-0.07081535632903199,-0.9652521841156925,0.013677500854853211,0.2609619646966247,0.09496935059138709,-0.9119873523296144,0.39907379220783407,0.2434523433779332,0.40999023787068006,0.8789988403533918,,0.04098147374178401,0.718612019268799,1.1780691719863874,0.9903422347485268,-0.0368410089900275,-0.13366000946390297,0.058383763803984356,-0.7635879710416723,0.643058898239145,-0.12575211408709788,-0.644651960779659,-0.754062500901329,,0.04954524612396164,0.6521927178192339,-0.3933866837075042,0.9344626272767311,-0.35299231352594634,-0.04664788113804025,-0.2707173193362053,-0.7894579333901626,0.5508795734266724,-0.23128279493833476,-0.5021479841629691,-0.8332800674242595,,0.0,0.0,0.045,1.0,0.0,0.0,0.0,1.0,0.0,0.0,0.0,1.0,,0.019037333378670685,-0.19337877532911046,0.2249495411038443,False,,0.06289003756389497,0.5434045760769652,-0.39313168633357054,0.06763546677005772,-0.802818939452858,-0.5923742010676908,0.7624694554338469,0.42452397507092804,-0.48828242249787274,0.6434794271499357,-0.41864202493988417,0.6408377967856016
15:39:22.382840,,0.6612203886911026,-0.9003470894085902,0.06760541237,-2.615295350428872,-0.921417746798361,0.8984491324079847,,0.06297769455224383,0.5435247659968014,-0.3929251730785995,0.0659066148314695,-0.8030199779280722,-0.5922965753487472,0.7654282628891695,0.4214917935265017,-0.48627589119786874,0.6401374012600146,-0.4213117409213884,0.64243328406136,,-0.0066439483983227725,0.28286688523289166,-0.0708152140332082,-0.9652523782293764,0.013676356387159486,0.2609613066983924,0.09496989741623448,-0.9119876817081701,0.3990729093693724,0.24345136044497867,0.40998954338343413,0.8789994365236876,,0.04098147374178401,0.718612019268799,1.1780691719863874,0.9903422347485268,-0.0368410089900275,-0.13366000946390297,0.058383763803984356,-0.7635879710416723,0.643058898239145,-0.12575211408709788,-0.644651960779659,-0.754062500901329,,0.04954524612396164,0.6521927178192339,-0.3933866837075042,0.9344626272767311,-0.35299231352594634,-0.04664788113804025,-0.2707173193362053,-0.7894579333901626,0.5508795734266724,-0.23128279493833476,-0.5021479841629691,-0.8332800674242595,,0.0,0.0,0.045,1.0,0.0,0.0,0.0,1.0,0.0,0.0,0.0,1.0,,0.019037333378670685,-0.19337877532911046,0.2249495411038443,False,,0.06289051620961916,0.5434046418960413,-0.39312872730843923,0.06761844598230682,-0.8028119625123624,-0.5923855995970758,0.7624855865669256,0.42451010269434497,-0.48826929351345455,0.643462101479667,-0.41866947053431763,0.6408372635871644
15:39:22.411586,,0.661166329560983,-0.9003239212099675,0.06760541237,-2.615295350428872,-0.921417746798361,0.8984491324079847,,0.06297643256792997,0.5435160855349086,-0.3929235062220784,0.06590446088225188,-0.802996007368012,-0.5923293122806357,0.7654223961096197,0.42151417011341424,-0.4862657297480547,0.6401446380074023,-0.4213350407272471,0.6424107921616359,,-0.0066439483983227725,0.28286688523289166,-0.0708152140332082,-0.9652523782293764,0.013676356387159486,0.2609613066983924,0.09496989741623448,-0.9119876817081701,0.3990729093693724,0.24345136044497867,0.40998954338343413,0.8789994365236876,,0.04098147374178401,0.718612019268799,1.1780691719863874,0.9903422347485268,-0.0368410089900275,-0.13366000946390297,0.058383763803984356,-0.7635879710416723,0.643058898239145,-0.12575211408709788,-0.644651960779659,-0.754062500901329,,0.04954524612396164,0.6521927178192339,-0.3933866837075042,0.9344626272767311,-0.35299231352594634,-0.04664788113804025,-0.2707173193362053,-0.7894579333901626,0.5508795734266724,-0.23128279493833476,-0.5021479841629691,-0.8332800674242595,,0.0,0.0,0.045,1.0,0.0,0.0,0.0,1.0,0.0,0.0,0.0,1.0,,0.019037333378670685,-0.19337877532911046,0.2249495411038443,False,,0.0628893007001973,0.543404503687761,-0.39312425652153654,0.0675975621295169,-0.8027881890475944,-0.592420199790512,0.7625076849704117,0.4245041169905282,-0.4882399871161267,0.6434381088769997,-0.418721122208775,0.6408276069747734
15:39:22.443273,,0.6610736567664922,-0.9002930302784706,0.06760541237,-2.615085673899534,-0.921417746798361,0.8985180140520349,,0.062972843072767,0.5435041826129372,-0.39291928477603916,0.0657738043810779,-0.8028278128726741,-0.5925717758510928,0.7654117055834894,0.4215886516338461,-0.4862179858554486,0.6401708581410226,-0.4215809669466045,0.6422232950425831,,-0.006643693063229457,0.28286662297142795,-0.07081529367854779,-0.9652520569756402,0.013676238915850888,0.2609625011067085,0.09497026697376974,-0.9119880663177151,0.39907194248087985,0.2434524899968845,0.4099886917631367,0.8789995208935699,,0.04098147374178401,0.718612019268799,1.1780691719863874,0.9903422347485268,-0.0368410089900275,-0.13366000946390297,0.058383763803984356,-0.7635879710416723,0.643058898239145,-0.12575211408709788,-0.644651960779659,-0.754062500901329,,0.04954524612396164,0.6521927178192339,-0.3933866837075042,0.9344626272767311,-0.35299231352594634,-0.04664788113804025,-0.2707173193362053,-0.7894579333901626,0.5508795734266724,-0.23128279493833476,-0.5021479841629691,-0.8332800674242595,,0.0,0.0,0.045,1.0,0.0,0.0,0.0,1.0,0.0,0.0,0.0,1.0,,0.019037333378670685,-0.19337877532911046,0.2249495411038443,False,,0.06288551609603374,0.5434040535874768,-0.393118600284571,0.06745258477323107,-0.8026215709995864,-0.5926624356018914,0.7625178624738324,0.4245570149759939,-0.48817809295687503,0.6434412624441704,-0.4189868193640816,0.6406507527377321
15:39:22.472803,,0.6610273203692469,-0.9002698620798479,0.06760541237,-2.615085673899534,-0.921417746798361,0.8985180140520349,,0.06297208756098037,0.5434952522948521,-0.39291786166979564,0.06577124994544337,-0.8028078847355331,-0.5925990574469999,0.7654062934591231,0.421607186515407,-0.48621043408356596,0.6401775914648846,-0.4216003800816855,0.6422038390582835,,-0.006643391338126789,0.28286585086006866,-0.0708153106779476,-0.9652516085716308,0.013674859502013526,0.26096423191931345,0.09497155291006527,-0.9119891649017214,0.39906912585850246,0.2434537661682146,0.4099862940309332,0.8790002857900852,,0.04098147374178401,0.718612019268799,1.1780691719863874,0.9903422347485268,-0.0368410089900275,-0.13366000946390297,0.058383763803984356,-0.7635879710416723,0.643058898239145,-0.12575211408709788,-0.644651960779659,-0.754062500901329,,0.04954524612396164,0.6521927178192339,-0.3933866837075042,0.9344626272767311,-0.35299231352594634,-0.04664788113804025,-0.2707173193362053,-0.7894579333901626,0.5508795734266724,-0.23128279493833476,-0.5021479841629691,-0.8332800674242595,,0.0,0.0,0.045,1.0,0.0,0.0,0.0,1.0,0.0,0.0,0.0,1.0,,0.019037333378670685,-0.19337877532911046,0.2249495411038443,False,,0.06288329343671842,0.5434037917825227,-0.393114360139056,0.06743544526960416,-0.8025917084914994,-0.5927048255092806,0.7625375710861954,0.4245595833101807,-0.48814507362202453,0.6434197023741628,-0.419041417619049,0.6406366965110271
15:39:22.499618,,0.6610118749034984,-0.9002544166140996,0.06760541237,-2.615085673899534,-0.921417746798361,0.8985180140520349,,0.06297231790713577,0.5434912821134451,-0.39291721747305025,0.06576878253177133,-0.8028024203490348,-0.5926067339526441,0.76540358004787,0.4216121236013509,-0.48621042448950347,0.6401810891413401,-0.42160584805489915,0.6421967626761419,,-0.006643600282021265,0.28286560327205024,-0.07081516838417255,-0.965251802681395,0.013673715034819268,0.2609635739164028,0.0949720997362444,-0.9119894942710489,0.3990682430170097,0.2434527832368406,0.4099855995399605,0.8790008819551053,,0.04098147374178401,0.718612019268799,1.1780691719863874,0.9903422347485268,-0.0368410089900275,-0.13366000946390297,0.058383763803984356,-0.7635879710416723,0.643058898239145,-0.12575211408709788,-0.644651960779659,-0.754062500901329,,0.04954524612396164,0.6521927178192339,-0.3933866837075042,0.9344626272767311,-0.35299231352594634,-0.04664788113804025,-0.2707173193362053,-0.7894579333901626,0.5508795734266724,-0.23128279493833476,-0.5021479841629691,-0.8332800674242595,,0.0,0.0,0.045,1.0,0.0,0.0,0.0,1.0,0.0,0.0,0.0,1.0,,0.019037333378670685,-0.19337877532911046,0.2249495411038443,False,,0.06288419504895068,0.5434039089295953,-0.39311177885015197,0.06741939473593028,-0.8025889247331391,-0.5927104209554143,0.762552209098469,0.4245437328609649,-0.4881359926163226,0.6434040360554835,-0.4190628076842195,0.6406384390616389
15:39:22.533485,,0.6610041521706242,-0.9002312484154769,0.06760541237,-2.615085673899534,-0.9212836053299087,0.8984500311558233,,0.06297336164859663,0.5435227867827541,-0.3929068974860249,0.06573085918183451,-0.8028408159729716,-0.5925589239553065,0.7654186519854778,0.4215502006722339,-0.4862403886000559,0.6401669636461661,-0.4215946542842452,0.6422181919994138,,-0.006643600282021267,0.28286560327205024,-0.07081516838417255,-0.965251802681395,0.013673715034819262,0.26096357391640274,0.09497209973624439,-0.9119894942710489,0.3990682430170097,0.24345278323684055,0.4099855995399605,0.8790008819551053,,0.04098147374178401,0.718612019268799,1.1780691719863874,0.9903422347485268,-0.0368410089900275,-0.13366000946390297,0.058383763803984356,-0.7635879710416723,0.643058898239145,-0.12575211408709788,-0.644651960779659,-0.754062500901329,,0.04954524612396164,0.6521927178192339,-0.3933866837075042,0.9344626272767311,-0.35299231352594634,-0.04664788113804025,-0.2707173193362053,-0.7894579333901626,0.5508795734266724,-0.23128279493833476,-0.5021479841629691,-0.8332800674242595,,0.0,0.0,0.045,1.0,0.0,0.0,0.0,1.0,0.0,0.0,0.0,1.0,,0.019037333378670685,-0.19337877532911046,0.2249495411038443,False,,0.06288558275459742,0.5434030047289524,-0.3931095125460322,0.06743335616115481,-0.8026212307427752,-0.5926650845442102,0.7624853914669761,0.4245681247724313,-0.4882191467227332,0.6434817559778173,-0.41897621339185137,0.640617016895064
15:39:22.562276,,0.6609809839720016,-0.9002080802168542,0.06760541237,-2.6148759973701963,-0.9212836053299087,0.8984500311558233,,0.06297209365057538,0.5435242225804284,-0.39290397431170937,0.0655981093961295,-0.8027454667177182,-0.5927027954276968,0.765412760531623,0.42156056960036564,-0.48624067309674507,0.6401876241064128,-0.42176581395647533,0.6420852000463942,,-0.006643298557082967,0.28286483116056976,-0.07081518538369987,-0.9652513542805613,0.013672335616534415,0.26096530472402685,0.09497338566980203,-0.9119905928490644,0.3990654263909618,0.24345405941435933,0.40998320180828624,0.8790016468477568,,0.04098147374178401,0.718612019268799,1.1780691719863874,0.9903422347485268,-0.0368410089900275,-0.13366000946390297,0.058383763803984356,-0.7635879710416723,0.643058898239145,-0.12575211408709788,-0.644651960779659,-0.754062500901329,,0.04954524612396164,0.6521927178192339,-0.3933866837075042,0.9344626272767311,-0.35299231352594634,-0.04664788113804025,-0.2707173193362053,-0.7894579333901626,0.5508795734266724,-0.23128279493833476,-0.5021479841629691,-0.8332800674242595,,0.0,0.0,0.045,1.0,0.0,0.0,0.0,1.0,0.0,0.0,0.0,1.0,,0.019037333378670685,-0.19337877532911046,0.2249495411038443,False,,0.06288433894963674,0.5434028610538474,-0.39310612421876956,0.06729414389593519,-0.802520588652235,-0.5928171750097863,0.7624866202737491,0.424575545215737,-0.4882107744696702,0.6434948734067961,-0.4191614381047356,0.6404826591759853
15:39:22.590420,,0.6609578157733789,-0.9001771892853573,0.06760411608000001,-2.6148759973701963,-0.9212836053299087,0.8984500311558233,,0.06297297599238243,0.5435169335874934,-0.3929028921816159,0.06559295681548617,-0.8027387766329046,-0.59271242648194,0.7654075415709761,0.4215667114658309,-0.48624356354625337,0.6401943918236679,-0.42177240814661227,0.6420741206463092,,-0.00664304322326131,0.282864568898632,-0.07081526503159886,-0.9652510330221115,0.013672218138976205,0.26096649912873615,0.09497375522101423,-0.9119909774512025,0.3990644594967344,0.24345518896825194,0.4099823501876174,0.8790017312074375,,0.04098147374178401,0.718612019268799,1.1780691719863874,0.9903422347485268,-0.0368410089900275,-0.13366000946390297,0.058383763803984356,-0.7635879710416723,0.643058898239145,-0.12575211408709788,-0.644651960779659,-0.754062500901329,,0.04954524612396164,0.6521927178192339,-0.3933866837075042,0.9344626272767311,-0.35299231352594634,-0.04664788113804025,-0.2707173193362053,-0.7894579333901626,0.5508795734266724,-0.23128279493833476,-0.5021479841629691,-0.8332800674242595,,0.0,0.0,0.045,1.0,0.0,0.0,0.0,1.0,0.0,0.0,0.0,1.0,,0.019037333378670685,-0.19337877532911046,0.2249495411038443,False,,0.06288524037536886,0.5434029783814134,-0.39310354282059773,0.06727809363000986,-0.8025178032583462,-0.592822767419496,0.7625012592026803,0.42455969293078416,-0.4882016968967286,0.6434792054385586,-0.4191828271672356,0.6404844022895833
15:39:22.619631,,0.6609423703076305,-0.9001617438196089,0.06760411608000001,-2.6148759973701963,-0.9212836053299087,0.8984500311558233,,0.06297311404920404,0.5435139116979535,-0.392902189051966,0.06559054221900011,-0.8027333965353455,-0.5927199801409134,0.765404765544801,0.4215716489883727,-0.4862436525555194,0.640197958176005,-0.42177771261181163,0.6420670802114233,,-0.006642834278289168,0.28286481648783196,-0.07081540732606474,-0.9652508389090221,0.013673362598157934,0.26096715713841073,0.0949732084046876,-0.9119906480823977,0.399065342343561,0.24345617189745766,0.409983044685659,0.8790011350388167,,0.04098147374178401,0.718612019268799,1.1780691719863874,0.9903422347485268,-0.0368410089900275,-0.13366000946390297,0.058383763803984356,-0.7635879710416723,0.643058898239145,-0.12575211408709788,-0.644651960779659,-0.754062500901329,,0.04954524612396164,0.6521927178192339,-0.3933866837075042,0.9344626272767311,-0.35299231352594634,-0.04664788113804025,-0.2707173193362053,-0.7894579333901626,0.5508795734266724,-0.23128279493833476,-0.5021479841629691,-0.8332800674242595,,0.0,0.0,0.045,1.0,0.0,0.0,0.0,1.0,0.0,0.0,0.0,1.0,,0.019037333378670685,-0.19337877532911046,0.2249495411038443,False,,0.0628854255334857,0.5434043086265401,-0.393101475518811,0.06726674961705331,-0.802513144646472,-0.5928303611199306,0.7625120137999016,0.4245504374439708,-0.48819294840969535,0.6434676473660312,-0.4192011196737952,0.6404840420006273
15:39:22.650761,,0.660926924841882,-0.9001385756209862,0.06760411608000001,-2.614666320840859,-0.9212836053299087,0.8984500311558233,,0.06297214447146561,0.5435171067545267,-0.3928993727146603,0.06545743752363435,-0.8026420518537284,-0.5928583814612695,0.7653992751092931,0.4215782494726721,-0.486246572464759,0.6402181452716004,-0.4219449207747312,0.6419370765872598,,-0.006642114664474102,0.2828645395535773,-0.07081570891408653,-0.965250002280201,0.013674272100037833,0.2609702039589275,0.09497340068922128,-0.9119910879278709,0.3990642914060606,0.24345941393455034,0.4099820359435652,0.8790007075901433,,0.04098147374178401,0.718612019268799,1.1780691719863874,0.9903422347485268,-0.0368410089900275,-0.13366000946390297,0.058383763803984356,-0.7635879710416723,0.643058898239145,-0.12575211408709788,-0.644651960779659,-0.754062500901329,,0.04954524612396164,0.6521927178192339,-0.3933866837075042,0.9344626272767311,-0.35299231352594634,-0.04664788113804025,-0.2707173193362053,-0.7894579333901626,0.5508795734266724,-0.23128279493833476,-0.5021479841629691,-0.8332800674242595,,0.0,0.0,0.045,1.0,0.0,0.0,0.0,1.0,0.0,0.0,0.0,1.0,,0.019037333378670685,-0.19337877532911046,0.2249495411038443,False,,0.06288632683703813,0.5434044260600627,-0.39309889409413634,0.06725070010851658,-0.8025103584688594,-0.5928359536036061,0.7625266521613813,0.4245345844659181,-0.4881838704175981,0.6434519780671051,-0.4192225079149889,0.6404857849937005
