AlexandreBanks6/RCL_Autocam_Public/optimizationData/Data_36.csv
System Time,q_des,q0,q1,q2,q3,q4,q5,T_des,Tx,Ty,Tz,R00,R01,R02,R10,R11,R12,R20,R21,R22,T_target,Tx,Ty,Tz,R00,R01,R02,R10,R11,R12,R20,R21,R22,worldFrame,Tx,Ty,Tz,R00,R01,R02,R10,R11,R12,R20,R21,R22,ECM_T_PSM_RCM,Tx,Ty,Tz,R00,R01,R02,R10,R11,R12,R20,R21,R22,psm3_T_cam,Tx,Ty,Tz,R00,R01,R02,R10,R11,R12,R20,R21,R22,offset,x,y,z,IK Trigered,ECM_T_PSM3,Tx,Ty,Tz,R00,R01,R02,R10,R11,R12,R20,R21,R22,solverSuccess,q_solverOutput,q0,q1,q2,q3,q4,q5
13:15:29.411901,,-0.559419323943075,-0.2794470890538139,0.17720413929,0.02453215393250846,0.009792327197012717,0.015977268367820707,,0.10273095640906668,0.5221521227820924,-0.3699382797537935,-0.34337588004272535,-0.5675083590372838,-0.7483496959494895,0.697352307425223,0.37967663664399476,-0.6079024682590304,0.629120627808055,-0.73060243224993,0.2653814644184579,,-0.011661042985121177,0.2569771709239148,-0.13579587247162095,0.48022072514296554,0.7483496959494895,0.4575596001784587,-0.7725287631987947,0.6079024682590304,-0.18344999077437724,-0.41543635514204197,-0.2653814644184579,0.8700490291756033,,0.0672596621065826,0.7048539763607407,1.156222559248513,0.9921808327387445,-0.09102570795391943,-0.0853903720412298,-0.014765196533786024,-0.7649719907290138,0.6438942788776806,-0.12393217547178999,-0.6375987561872886,-0.7603345592508945,,0.0,0.0,0.0,1.0,0.0,0.0,0.0,1.0,0.0,0.0,0.0,1.0,,0.0,0.0,0.045,1.0,0.0,0.0,0.0,1.0,0.0,0.0,0.0,1.0,,-0.0031823361860085927,-0.18649200154343593,0.22944396511176599,True,,0.0979464167450751,0.5066101905166845,-0.3335025949393391,0.13105952182431663,0.9021167761665949,-0.41110670621867906,-0.5514651657303702,-0.2782648258009481,-0.7864190089945332,-0.8238383171018189,0.329778727150127,0.4610167224668594,False,,0.0,0.0,0.0,0.0,0.0,0.0
13:15:31.655392,,-0.6225217742583635,-0.3989254893509413,0.14844076048000002,-2.6519887430629656,-0.06868043184754125,1.0979265371314229,,0.10524792791237947,0.5298124282880545,-0.3881210603595445,-0.34335338038151086,-0.5675445249273188,-0.7483325921043488,0.6973598800140763,0.3796596890434139,-0.6079043660496372,0.6291245138502731,-0.7305831456723337,0.2654253441783116,,-0.01165377608604075,0.25697103927301884,-0.13579628651796166,0.48015081999571146,0.7483325880860909,0.45766091916023277,-0.7725084956066544,0.6079043627854248,-0.18352901455290518,-0.41555481411452777,-0.2654253427530797,0.8699790647776651,,0.0672596621065826,0.7048539763607407,1.156222559248513,0.9921808327387445,-0.09102570795391943,-0.0853903720412298,-0.014765196533786024,-0.7649719907290138,0.6438942788776806,-0.12393217547178999,-0.6375987561872886,-0.7603345592508945,,0.19266971203483782,0.682163417389678,-0.43347675147697684,0.9944608794656804,-0.008072816379268818,-0.1047968933129805,0.06542315775325563,-0.7328125906838847,0.6772780207306052,-0.0822640239833807,-0.680382639821799,-0.7282253042755256,,0.0,0.0,0.045,1.0,0.0,0.0,0.0,1.0,0.0,0.0,0.0,1.0,,-0.0031823361860085927,-0.18649200154343593,0.22944396511176599,False,,0.10297574394861705,0.5219366390219606,-0.3698609407417231,-0.5387505651353286,0.13287779408545927,-0.8319202608455613,0.6104374188299302,0.7421305087289597,-0.27678234355888387,0.5806151791493369,-0.6569519007147159,-0.48093680862323873,False,,0.0,0.0,0.0,0.0,0.0,0.0
13:15:31.661534,,-0.6225217742583635,-0.3989254893509413,0.14844076048000002,-2.6519887430629656,-0.06868043184754125,1.0979265371314229,,0.10524851482955996,0.5298114176765258,-0.3881219312891774,-0.3433463885511725,-0.5675544576172886,-0.748328266944135,0.6973622331206586,0.37965548341230315,-0.6079042932336789,0.6291257213672284,-0.730577615010011,0.2654377048583127,,-0.011651931851846622,0.25696902933643495,-0.13579611247182719,0.4801284129920541,0.7483282634812471,0.4576914985641266,-0.7725023398076718,0.6079042904206028,-0.18355516725197088,-0.415592147151997,-0.26543770363000013,0.8699574607199069,,0.0672596621065826,0.7048539763607407,1.156222559248513,0.9921808327387445,-0.09102570795391943,-0.0853903720412298,-0.014765196533786024,-0.7649719907290138,0.6438942788776806,-0.12393217547178999,-0.6375987561872886,-0.7603345592508945,,0.19266971203483782,0.682163417389678,-0.43347675147697684,0.9944608794656804,-0.008072816379268818,-0.1047968933129805,0.06542315775325563,-0.7328125906838847,0.6772780207306052,-0.0822640239833807,-0.680382639821799,-0.7282253042755256,,0.0,0.0,0.045,1.0,0.0,0.0,0.0,1.0,0.0,0.0,0.0,1.0,,-0.0031823361860085927,-0.18649200154343593,0.22944396511176599,False,,0.10297574394861705,0.5219366390219606,-0.3698609407417231,-0.5387505651353286,0.13287779408545927,-0.8319202608455613,0.6104374188299302,0.7421305087289597,-0.27678234355888387,0.5806151791493369,-0.6569519007147159,-0.48093680862323873,False,,0.0,0.0,0.0,0.0,0.0,0.0
13:15:31.669232,,-0.6225294969912377,-0.3989332120838155,0.14844076048000002,-2.6519887430629656,-0.06868043184754125,1.0979265371314229,,0.10524834461379762,0.5298108125897838,-0.3881232713065754,-0.3433428927990969,-0.5675594239805993,-0.7483261041919881,0.6973634096020266,0.37965338049465386,-0.6079042569576378,0.629126325083114,-0.7305748496422471,0.26544388513888223,,-0.011651009741658837,0.2569680243690933,-0.1357960254596904,0.48011720918093437,0.7483261013008062,0.45770678805670145,-0.7724992617814381,0.6079042546089802,-0.18356824357270837,-0.41561081346420686,-0.26544388411333125,0.8699466583598011,,0.0672596621065826,0.7048539763607407,1.156222559248513,0.9921808327387445,-0.09102570795391943,-0.0853903720412298,-0.014765196533786024,-0.7649719907290138,0.6438942788776806,-0.12393217547178999,-0.6375987561872886,-0.7603345592508945,,0.19266971203483782,0.682163417389678,-0.43347675147697684,0.9944608794656804,-0.008072816379268818,-0.1047968933129805,0.06542315775325563,-0.7328125906838847,0.6772780207306052,-0.0822640239833807,-0.680382639821799,-0.7282253042755256,,0.0,0.0,0.045,1.0,0.0,0.0,0.0,1.0,0.0,0.0,0.0,1.0,,-0.0031823361860085927,-0.18649200154343593,0.22944396511176599,False,,0.10297481663348734,0.5219364394386046,-0.36986274984516776,-0.5387538625194609,0.13288509562812761,-0.8319169591853899,0.610434901532589,0.7421345449339021,-0.2767770731232069,0.5806147660981942,-0.6569458642655831,-0.4809455528571667,False,,0.0,0.0,0.0,0.0,0.0,0.0
13:15:31.676668,,-0.6225294969912377,-0.3989332120838155,0.14844076048000002,-2.651779066533628,-0.06868043184754125,1.0979265371314229,,0.10524846831891332,0.5298105164635583,-0.38812358858941953,-0.34334079540004353,-0.5675624038044476,-0.7483248064856481,0.6973641154678318,0.37965211871139404,-0.6079042352342333,0.6291266872990161,-0.7305731904098772,0.2654475932882032,,-0.011650456477757134,0.2569674213889923,-0.1357959732559061,0.48011048679528956,0.7483248040315755,0.4577159616852473,-0.7724974149251405,0.6079042332406589,-0.18357608935593636,-0.415622013185445,-0.2654475924176886,0.8699401768377452,,0.0672596621065826,0.7048539763607407,1.156222559248513,0.9921808327387445,-0.09102570795391943,-0.0853903720412298,-0.014765196533786024,-0.7649719907290138,0.6438942788776806,-0.12393217547178999,-0.6375987561872886,-0.7603345592508945,,0.19266971203483782,0.682163417389678,-0.43347675147697684,0.9944608794656804,-0.008072816379268818,-0.1047968933129805,0.06542315775325563,-0.7328125906838847,0.6772780207306052,-0.0822640239833807,-0.680382639821799,-0.7282253042755256,,0.0,0.0,0.045,1.0,0.0,0.0,0.0,1.0,0.0,0.0,0.0,1.0,,-0.0031823361860085927,-0.18649200154343593,0.22944396511176599,False,,0.10297471192429973,0.5219364535333821,-0.3698628618514955,-0.5388961154057569,0.13294840080358217,-0.8318147026377664,0.6104540500221921,0.7420803707317599,-0.27688007545888416,0.5804625996669283,-0.6569942511912753,-0.4810631188207296,False,,0.0,0.0,0.0,0.0,0.0,0.0
13:15:31.682755,,-0.6225372197241119,-0.3989563802824382,0.1484381679,-2.6521984195923034,-0.06881457331599347,1.0979256383835843,,0.10524944574613904,0.5298101706212826,-0.3881270729196486,-0.3433318219874367,-0.5675767884916073,-0.7483180133982746,0.6973671353644503,0.3796453913841951,-0.6079049722730697,0.6291282369472598,-0.7305655110709064,0.26546505515667745,,-0.011647697441456188,0.2569651724913147,-0.13579601683413914,0.4800832211941195,0.7483180133938119,0.4577556679564867,-0.7724895930700402,0.6079049722694443,-0.1836065719865227,-0.4156680518327506,-0.2654650551550943,0.8699128549257913,,0.0672596621065826,0.7048539763607407,1.156222559248513,0.9921808327387445,-0.09102570795391943,-0.0853903720412298,-0.014765196533786024,-0.7649719907290138,0.6438942788776806,-0.12393217547178999,-0.6375987561872886,-0.7603345592508945,,0.19266971203483782,0.682163417389678,-0.43347675147697684,0.9944608794656804,-0.008072816379268818,-0.1047968933129805,0.06542315775325563,-0.7328125906838847,0.6772780207306052,-0.0822640239833807,-0.680382639821799,-0.7282253042755256,,0.0,0.0,0.045,1.0,0.0,0.0,0.0,1.0,0.0,0.0,0.0,1.0,,-0.0031823361860085927,-0.18649200154343593,0.22944396511176599,False,,0.10297496067099313,0.5219378965054887,-0.3698670803441071,-0.5385546237537686,0.13289204246643252,-0.8320448439131973,0.6105079708657816,0.7421291556480862,-0.2766303198248612,0.5807227692649766,-0.6569505471389447,-0.4808087393871479,False,,0.0,0.0,0.0,0.0,0.0,0.0
13:15:31.689331,,-0.6225372197241119,-0.3989563802824382,0.1484381679,-2.6521984195923034,-0.06881457331599347,1.0979256383835843,,0.1052493758879113,0.5298102706358299,-0.38812700492782465,-0.3433318459321259,-0.5675767066947504,-0.7483180644527968,0.697367127306246,0.37964544460225347,-0.6079049482817124,0.6291282328122566,-0.7305655469636511,0.26546496617864346,,-0.011647845071362602,0.2569653762390695,-0.13579589464208644,0.48008392203943373,0.7483180644501191,0.4577548494660711,-0.772489879682281,0.6079049482795371,-0.18360544555799974,-0.4156667097333307,-0.26546496617769355,0.8699135233714821,,0.0672596621065826,0.7048539763607407,1.156222559248513,0.9921808327387445,-0.09102570795391943,-0.0853903720412298,-0.014765196533786024,-0.7649719907290138,0.6438942788776806,-0.12393217547178999,-0.6375987561872886,-0.7603345592508945,,0.19266971203483782,0.682163417389678,-0.43347675147697684,0.9944608794656804,-0.008072816379268818,-0.1047968933129805,0.06542315775325563,-0.7328125906838847,0.6772780207306052,-0.0822640239833807,-0.680382639821799,-0.7282253042755256,,0.0,0.0,0.045,1.0,0.0,0.0,0.0,1.0,0.0,0.0,0.0,1.0,,-0.0031823361860085927,-0.18649200154343593,0.22944396511176599,False,,0.10297496067099313,0.5219378965054887,-0.3698670803441071,-0.5385546237537686,0.13289204246643252,-0.8320448439131973,0.6105079708657816,0.7421291556480862,-0.2766303198248612,0.5807227692649766,-0.6569505471389447,-0.4808087393871479,False,,0.0,0.0,0.0,0.0,0.0,0.0
13:15:31.695879,,-0.6225990015871058,-0.39901816214543195,0.14842909387000003,-2.653875831827005,-0.06935113918980239,1.0977842801041293,,0.1052466276371248,0.52981491959992,-0.38813359722984436,-0.3433318459321259,-0.5675767066947505,-0.7483180644527968,0.697367127306246,0.3796454446022534,-0.6079049482817124,0.6291282328122566,-0.7305655469636511,0.2654649661786435,,-0.011647845071362599,0.25696537623906945,-0.13579589464208644,0.48008392203943373,0.7483180644501191,0.4577548494660712,-0.772489879682281,0.6079049482795371,-0.1836054455579998,-0.4156667097333308,-0.2654649661776936,0.8699135233714821,,0.0672596621065826,0.7048539763607407,1.156222559248513,0.9921808327387445,-0.09102570795391943,-0.0853903720412298,-0.014765196533786024,-0.7649719907290138,0.6438942788776806,-0.12393217547178999,-0.6375987561872886,-0.7603345592508945,,0.19266971203483782,0.682163417389678,-0.43347675147697684,0.9944608794656804,-0.008072816379268818,-0.1047968933129805,0.06542315775325563,-0.7328125906838847,0.6772780207306052,-0.0822640239833807,-0.680382639821799,-0.7282253042755256,,0.0,0.0,0.045,1.0,0.0,0.0,0.0,1.0,0.0,0.0,0.0,1.0,,-0.0031823361860085927,-0.18649200154343593,0.22944396511176599,False,,0.10296946416942013,0.5219471944336693,-0.3698802649481465,-0.5371751253987394,0.13258329946940015,-0.8329853260140037,0.6107554860642339,0.7422642045708906,-0.2757201241389255,0.5817393066445571,-0.6568603499333405,-0.4797018446807971,False,,0.0,0.0,0.0,0.0,0.0,0.0
13:15:31.703398,,-0.6226993971144706,-0.3991494486042938,0.14840835323,-2.657650009355083,-0.07042427093742022,1.0972949186130687,,0.10524390932751765,0.5298242475047195,-0.3881471790974239,-0.34333154185598963,-0.5675779802654145,-0.748317237997777,0.6973672296381942,0.3796445780180298,-0.6079053720837332,0.6291282853230641,-0.7305650078530622,0.2654663253731371,,-0.011647498257801153,0.25696535587543673,-0.13579608192172749,0.4800833839586763,0.7483172379933143,0.4577567648401455,-0.7724895193152639,0.6079053720801078,-0.18360555855499222,-0.41566800091290546,-0.2654663253715539,0.8699124916328456,,0.0672596621065826,0.7048539763607407,1.156222559248513,0.9921808327387445,-0.09102570795391943,-0.0853903720412298,-0.014765196533786024,-0.7649719907290138,0.6438942788776806,-0.12393217547178999,-0.6375987561872886,-0.7603345592508945,,0.19266971203483782,0.682163417389678,-0.43347675147697684,0.9944608794656804,-0.008072816379268818,-0.1047968933129805,0.06542315775325563,-0.7328125906838847,0.6772780207306052,-0.0822640239833807,-0.680382639821799,-0.7282253042755256,,0.0,0.0,0.045,1.0,0.0,0.0,0.0,1.0,0.0,0.0,0.0,1.0,,-0.0031823361860085927,-0.18649200154343593,0.22944396511176599,False,,0.1029638088371724,0.5219658049175878,-0.3699070307285181,-0.5341287247079063,0.13164141332292753,-0.8350910391928824,0.611191282388907,0.7425937369536769,-0.2738608372312057,0.5840819478238558,-0.656677302893526,-0.4770987299194741,False,,0.0,0.0,0.0,0.0,0.0,0.0
13:15:31.709872,,-0.6226993971144706,-0.3991494486042938,0.14840835323,-2.657650009355083,-0.07042427093742022,1.0972949186130687,,0.10524401868378067,0.5298242701675824,-0.3881473780747039,-0.3433312377817699,-0.56757925383472,-0.7483164115397045,0.6973673319694117,0.37964371143246545,-0.6079057958858817,0.6291283378334679,-0.7305644687405798,0.2654676845657347,,-0.011647151444273852,0.25696533551182943,-0.13579626920143475,0.480082845876182,0.7483164115352415,0.4577586802131851,-0.7724891589498598,0.6079057958822561,-0.18360567155121096,-0.4156692920922068,-0.2654676845641515,0.869911459892203,,0.0672596621065826,0.7048539763607407,1.156222559248513,0.9921808327387445,-0.09102570795391943,-0.0853903720412298,-0.014765196533786024,-0.7649719907290138,0.6438942788776806,-0.12393217547178999,-0.6375987561872886,-0.7603345592508945,,0.19266971203483782,0.682163417389678,-0.43347675147697684,0.9944608794656804,-0.008072816379268818,-0.1047968933129805,0.06542315775325563,-0.7328125906838847,0.6772780207306052,-0.0822640239833807,-0.680382639821799,-0.7282253042755256,,0.0,0.0,0.045,1.0,0.0,0.0,0.0,1.0,0.0,0.0,0.0,1.0,,-0.0031823361860085927,-0.18649200154343593,0.22944396511176599,False,,0.1029638088371724,0.5219658049175878,-0.3699070307285181,-0.5341287247079063,0.13164141332292753,-0.8350910391928824,0.611191282388907,0.7425937369536769,-0.2738608372312057,0.5840819478238558,-0.656677302893526,-0.4770987299194741,False,,0.0,0.0,0.0,0.0,0.0,0.0
13:15:31.716396,,-0.6228615745048294,-0.3993734078576463,0.14837205711,-2.661633863412499,-0.07176568562194251,1.0962527064739291,,0.1052409685648866,0.5298385087665427,-0.3881721537423312,-0.3433314939760946,-0.5675781438582224,-0.7483171358846449,0.6973672457513975,0.3796444715772399,-0.6079054200728501,0.6291282935914208,-0.730564936070226,0.2654665033247202,,-0.011647202998168753,0.25696494837983375,-0.1357963263058941,0.4800819822687967,0.7483171358792893,0.457758401819089,-0.772488946086402,0.6079054200684995,-0.18360781141157292,-0.41567068511126604,-0.2654665033228203,0.8699111547384435,,0.0672596621065826,0.7048539763607407,1.156222559248513,0.9921808327387445,-0.09102570795391943,-0.0853903720412298,-0.014765196533786024,-0.7649719907290138,0.6438942788776806,-0.12393217547178999,-0.6375987561872886,-0.7603345592508945,,0.19266971203483782,0.682163417389678,-0.43347675147697684,0.9944608794656804,-0.008072816379268818,-0.1047968933129805,0.06542315775325563,-0.7328125906838847,0.6772780207306052,-0.0822640239833807,-0.680382639821799,-0.7282253042755256,,0.0,0.0,0.045,1.0,0.0,0.0,0.0,1.0,0.0,0.0,0.0,1.0,,-0.0031823361860085927,-0.18649200154343593,0.22944396511176599,False,,0.10295764787981342,0.5219947274985239,-0.3699567080516707,-0.5308372332491745,0.13035362143965507,-0.8373886583743111,0.6117659819969179,0.7427342592203761,-0.27219148306239466,0.5864760993149747,-0.6567752686862731,-0.4740169104308047,False,,0.0,0.0,0.0,0.0,0.0,0.0
13:15:31.723632,,-0.6230700882924335,-0.39971320810411215,0.14832020551000002,-2.664149981764551,-0.07350952471182148,1.0948633898710227,,0.10523855438028491,0.5298571763043476,-0.38821014687953753,-0.3433311898982169,-0.5675794174276821,-0.748316309427723,0.6973673480838324,0.3796436049934073,-0.6079058438723326,0.6291283461024447,-0.7305643969562594,0.265467862518874,,-0.011646856185517886,0.2569649280168567,-0.13579651358733488,0.48008144417601184,0.7483163094196896,0.4577603171889192,-0.7724885857200467,0.6079058438658066,-0.18360792440571125,-0.41567197628496266,-0.26546786251602417,0.8699101229903331,,0.0672596621065826,0.7048539763607407,1.156222559248513,0.9921808327387445,-0.09102570795391943,-0.0853903720412298,-0.014765196533786024,-0.7649719907290138,0.6438942788776806,-0.12393217547178999,-0.6375987561872886,-0.7603345592508945,,0.19266971203483782,0.682163417389678,-0.43347675147697684,0.9944608794656804,-0.008072816379268818,-0.1047968933129805,0.06542315775325563,-0.7328125906838847,0.6772780207306052,-0.0822640239833807,-0.680382639821799,-0.7282253042755256,,0.0,0.0,0.045,1.0,0.0,0.0,0.0,1.0,0.0,0.0,0.0,1.0,,-0.0031823361860085927,-0.18649200154343593,0.22944396511176599,False,,0.10295260079878206,0.5220320172481909,-0.3700322963695487,-0.5283912849962207,0.12944089636356954,-0.8390755057136626,0.612726404760003,0.7422509580335327,-0.27134824157931126,0.5876810383617325,-0.6575017639876709,-0.4715107925627763,False,,0.0,0.0,0.0,0.0,0.0,0.0
13:15:31.729810,,-0.6230700882924335,-0.39971320810411215,0.14832020551000002,-2.664149981764551,-0.07350952471182148,1.0948633898710227,,0.1052387032336142,0.529857321644634,-0.3882104768429835,-0.3433306056935596,-0.567581882765897,-0.7483147075596023,0.6973675446881108,0.37964192503956207,-0.6079066674810627,0.6291284469881879,-0.7305633546162681,0.26547049192340705,,-0.011646310189300593,0.2569650910380763,-0.13579676595652412,0.4800810688445222,0.748314707553354,0.45776332943972275,-0.7724881516061373,0.6079066674759869,-0.183607023966062,-0.4156732165397903,-0.2654704919211905,0.8699087279444243,,0.0672596621065826,0.7048539763607407,1.156222559248513,0.9921808327387445,-0.09102570795391943,-0.0853903720412298,-0.014765196533786024,-0.7649719907290138,0.6438942788776806,-0.12393217547178999,-0.6375987561872886,-0.7603345592508945,,0.19266971203483782,0.682163417389678,-0.43347675147697684,0.9944608794656804,-0.008072816379268818,-0.1047968933129805,0.06542315775325563,-0.7328125906838847,0.6772780207306052,-0.0822640239833807,-0.680382639821799,-0.7282253042755256,,0.0,0.0,0.045,1.0,0.0,0.0,0.0,1.0,0.0,0.0,0.0,1.0,,-0.0031823361860085927,-0.18649200154343593,0.22944396511176599,False,,0.10295260079878206,0.5220320172481909,-0.3700322963695487,-0.5283912849962207,0.12944089636356954,-0.8390755057136626,0.612726404760003,0.7422509580335327,-0.27134824157931126,0.5876810383617325,-0.6575017639876709,-0.4715107925627763,False,,0.0,0.0,0.0,0.0,0.0,0.0
13:15:31.736783,,-0.623363552141654,-0.40020746300806254,0.14824113182,-2.6664564235872654,-0.07485093939634378,1.0920991366306274,,0.10523820279999685,0.5298844400485193,-0.38826856860956693,-0.3433750226460584,-0.567582417682425,-0.7482939215045062,0.6973525960031871,0.37961694670440577,-0.6079394136116197,0.6291207759011258,-0.730575918650894,0.26545409474515147,,-0.011646122183264199,0.2569652709991588,-0.13579682596575834,0.4801126799782641,0.7482939201744545,0.457764153248313,-0.7724626084488211,0.6079394125310406,-0.18360606113351874,-0.41568417039579586,-0.2654540942733213,0.8699084956252575,,0.0672596621065826,0.7048539763607407,1.156222559248513,0.9921808327387445,-0.09102570795391943,-0.0853903720412298,-0.014765196533786024,-0.7649719907290138,0.6438942788776806,-0.12393217547178999,-0.6375987561872886,-0.7603345592508945,,0.19266971203483782,0.682163417389678,-0.43347675147697684,0.9944608794656804,-0.008072816379268818,-0.1047968933129805,0.06542315775325563,-0.7328125906838847,0.6772780207306052,-0.0822640239833807,-0.680382639821799,-0.7282253042755256,,0.0,0.0,0.045,1.0,0.0,0.0,0.0,1.0,0.0,0.0,0.0,1.0,,-0.0031823361860085927,-0.18649200154343593,0.22944396511176599,False,,0.10295463376405083,0.5220809984446428,-0.370150961456111,-0.5263526571628571,0.12731642429924364,-0.8406803247378012,0.6133092377236558,0.7416494098705809,-0.27167615236057685,0.5889012304456736,-0.658594473816987,-0.46845347670531584,False,,0.0,0.0,0.0,0.0,0.0,0.0
13:15:31.743500,,-0.6237033523881198,-0.40077122250788094,0.14815298410000002,-2.6691822184686553,-0.07498508086479601,1.0881031025278762,,0.10523944148610087,0.5299122680325679,-0.38833778273573133,-0.3434641362578554,-0.5675822885518977,-0.7482531208266596,0.697322598968065,0.3795678035319493,-0.6080045028536833,0.6291053807376539,-0.730601552314339,0.2654200287898593,,-0.01164594538168512,0.2569654475477608,-0.13579688094426628,0.4801757360783691,0.748253115541683,0.45776470313643414,-0.7724115904308086,0.6080044985592947,-0.18360514854882454,-0.41570612615593194,-0.26542002691517463,0.8699083927992664,,0.0672596621065826,0.7048539763607407,1.156222559248513,0.9921808327387445,-0.09102570795391943,-0.0853903720412298,-0.014765196533786024,-0.7649719907290138,0.6438942788776806,-0.12393217547178999,-0.6375987561872886,-0.7603345592508945,,0.19266971203483782,0.682163417389678,-0.43347675147697684,0.9944608794656804,-0.008072816379268818,-0.1047968933129805,0.06542315775325563,-0.7328125906838847,0.6772780207306052,-0.0822640239833807,-0.680382639821799,-0.7282253042755256,,0.0,0.0,0.045,1.0,0.0,0.0,0.0,1.0,0.0,0.0,0.0,1.0,,-0.0031823361860085927,-0.18649200154343593,0.22944396511176599,False,,0.10296325843974602,0.522126389031618,-0.3702946149530022,-0.5246579468167014,0.12349706551683523,-0.8423078496908444,0.6128667940654344,0.7415203682622102,-0.2730235084827546,0.5908708247781743,-0.6594664648494318,-0.4647318045550071,False,,0.0,0.0,0.0,0.0,0.0,0.0
13:15:31.749623,,-0.6237033523881198,-0.40077122250788094,0.14815298410000002,-2.6691822184686553,-0.07498508086479601,1.0881031025278762,,0.10523640694321432,0.5299175230580234,-0.38833530090324886,-0.34355296938232505,-0.5675833414773268,-0.7482115394098245,0.6972926890038774,0.37951784681889805,-0.608069987589989,0.6290900278102722,-0.7306266860876216,0.26538723120431235,,-0.011645569347848774,0.2569658074645446,-0.13579700090506117,0.4802389531247916,0.7482115328297939,0.457766351377429,-0.7723604958852343,0.6080699822424115,-0.18360322301892668,-0.4157280297367843,-0.2653872288704054,0.8699079298724478,,0.0672596621065826,0.7048539763607407,1.156222559248513,0.9921808327387445,-0.09102570795391943,-0.0853903720412298,-0.014765196533786024,-0.7649719907290138,0.6438942788776806,-0.12393217547178999,-0.6375987561872886,-0.7603345592508945,,0.19266971203483782,0.682163417389678,-0.43347675147697684,0.9944608794656804,-0.008072816379268818,-0.1047968933129805,0.06542315775325563,-0.7328125906838847,0.6772780207306052,-0.0822640239833807,-0.680382639821799,-0.7282253042755256,,0.0,0.0,0.045,1.0,0.0,0.0,0.0,1.0,0.0,0.0,0.0,1.0,,-0.0031823361860085927,-0.18649200154343593,0.22944396511176599,False,,0.10296325843974602,0.522126389031618,-0.3702946149530022,-0.5246579468167014,0.12349706551683523,-0.8423078496908444,0.6128667940654344,0.7415203682622102,-0.2730235084827546,0.5908708247781743,-0.6594664648494318,-0.4647318045550071,False,,0.0,0.0,0.0,0.0,0.0,0.0
13:15:31.756981,,-0.6241435481619506,-0.4015203275966807,0.14804020687000002,-2.6723273664087204,-0.07565578820705715,1.0830013671289669,,0.10523746826245961,0.5299522308997917,-0.38842543990522804,-0.34364236176194013,-0.5675820015144476,-0.7481715035735654,0.6972625833353322,0.37946951772169457,-0.608134668474511,0.6290745719572639,-0.7306528291034794,0.2653518913440547,,-0.01164559162402821,0.25696580058468443,-0.13579699059135497,0.4803018430819642,0.7481714983098223,0.4577658075675277,-0.7723095461734061,0.6081346641959938,-0.18360332519238418,-0.4157500334943376,-0.2653518894771777,0.869908196495122,,0.0672596621065826,0.7048539763607407,1.156222559248513,0.9921808327387445,-0.09102570795391943,-0.0853903720412298,-0.014765196533786024,-0.7649719907290138,0.6438942788776806,-0.12393217547178999,-0.6375987561872886,-0.7603345592508945,,0.19266971203483782,0.682163417389678,-0.43347675147697684,0.9944608794656804,-0.008072816379268818,-0.1047968933129805,0.06542315775325563,-0.7328125906838847,0.6772780207306052,-0.0822640239833807,-0.680382639821799,-0.7282253042755256,,0.0,0.0,0.045,1.0,0.0,0.0,0.0,1.0,0.0,0.0,0.0,1.0,,-0.0031823361860085927,-0.18649200154343593,0.22944396511176599,False,,0.10297160890903621,0.5221857860579138,-0.3704803809490067,-0.5224839879085513,0.1189451503782242,-0.8443118698565586,0.6127010209974765,0.74101434959883,-0.27476388510368843,0.5929653794681664,-0.6608704751236241,-0.46004594755529443,False,,0.0,0.0,0.0,0.0,0.0,0.0
13:15:31.763202,,-0.6247073076617691,-0.4024856692059588,0.1478937261,-2.675262837819448,-0.0772654858284839,1.07575800952963,,0.10523801884100925,0.5299984634929924,-0.38854029202634177,-0.34373175338761874,-0.5675806520547427,-0.748131462462438,0.6972324704926915,0.37942118908788336,-0.6081993450849768,0.629059109944154,-0.7306789751212565,0.2653165496383877,,-0.01164561384696291,0.2569657936818658,-0.1357969801770818,0.48036473137052793,0.7481314611465727,0.4577652653711032,-0.7722585937532492,0.6081993440152338,-0.1836034280615564,-0.41577203575016475,-0.26531654917173064,0.8699084661652801,,0.0672596621065826,0.7048539763607407,1.156222559248513,0.9921808327387445,-0.09102570795391943,-0.0853903720412298,-0.014765196533786024,-0.7649719907290138,0.6438942788776806,-0.12393217547178999,-0.6375987561872886,-0.7603345592508945,,0.19266971203483782,0.682163417389678,-0.43347675147697684,0.9944608794656804,-0.008072816379268818,-0.1047968933129805,0.06542315775325563,-0.7328125906838847,0.6772780207306052,-0.0822640239833807,-0.680382639821799,-0.7282253042755256,,0.0,0.0,0.045,1.0,0.0,0.0,0.0,1.0,0.0,0.0,0.0,1.0,,-0.0031823361860085927,-0.18649200154343593,0.22944396511176599,False,,0.10297893866129496,0.5222682332725117,-0.3707155735698856,-0.5200747917813395,0.11317178249506266,-0.8465898408323163,0.6131765755074735,0.7394753148081212,-0.2778322264215539,0.5945895207641352,-0.6636025967673124,-0.4539767564106732,False,,0.0,0.0,0.0,0.0,0.0,0.0
13:15:31.770462,,-0.6247073076617691,-0.4024856692059588,0.1478937261,-2.675262837819448,-0.0772654858284839,1.07575800952963,,0.1052364615323697,0.5300009678639648,-0.388538919890813,-0.34377644891745895,-0.5675799737634581,-0.748111439928821,0.6972174113809916,0.37939702494518457,-0.6082316817874027,0.6290513766274509,-0.730692049255646,0.26529887809354524,,-0.011645624971531418,0.2569657902349345,-0.13579697499547494,0.4803961738330613,0.748111439928821,0.4577649938715073,-0.7722331148295863,0.6082316817874027,-0.1836034793533678,-0.41578303540085654,-0.26529887809354524,0.8699086002305969,,0.0672596621065826,0.7048539763607407,1.156222559248513,0.9921808327387445,-0.09102570795391943,-0.0853903720412298,-0.014765196533786024,-0.7649719907290138,0.6438942788776806,-0.12393217547178999,-0.6375987561872886,-0.7603345592508945,,0.19266971203483782,0.682163417389678,-0.43347675147697684,0.9944608794656804,-0.008072816379268818,-0.1047968933129805,0.06542315775325563,-0.7328125906838847,0.6772780207306052,-0.0822640239833807,-0.680382639821799,-0.7282253042755256,,0.0,0.0,0.045,1.0,0.0,0.0,0.0,1.0,0.0,0.0,0.0,1.0,,-0.0031823361860085927,-0.18649200154343593,0.22944396511176599,False,,0.10297893866129496,0.5222682332725117,-0.3707155735698856,-0.5200747917813395,0.11317178249506266,-0.8465898408323163,0.6131765755074735,0.7394753148081212,-0.2778322264215539,0.5945895207641352,-0.6636025967673124,-0.4539767564106732,False,,0.0,0.0,0.0,0.0,0.0,0.0
13:15:31.777606,,-0.625325126291707,-0.4035668518083502,0.14774206017000002,-2.6777789561715,-0.07887518344991065,1.0652772146599334,,0.10523923076298233,0.5300409966857835,-0.38866874581289396,-0.3437767286136436,-0.567578782217379,-0.7481122154064446,0.6972173171380669,0.37939783902712304,-0.6082312820172483,0.6290513282288634,-0.730692552116269,0.265297607858262,,-0.01164582415428205,0.25696560685015324,-0.13579690990615598,0.48039601139864463,0.7481122154046599,0.45776389699258074,-0.7722331887458825,0.6082312820157972,-0.18360449278820734,-0.4157830857873713,-0.2652976078576291,0.8699089635320355,,0.0672596621065826,0.7048539763607407,1.156222559248513,0.9921808327387445,-0.09102570795391943,-0.0853903720412298,-0.014765196533786024,-0.7649719907290138,0.6438942788776806,-0.12393217547178999,-0.6375987561872886,-0.7603345592508945,,0.19266971203483782,0.682163417389678,-0.43347675147697684,0.9944608794656804,-0.008072816379268818,-0.1047968933129805,0.06542315775325563,-0.7328125906838847,0.6772780207306052,-0.0822640239833807,-0.680382639821799,-0.7282253042755256,,0.0,0.0,0.045,1.0,0.0,0.0,0.0,1.0,0.0,0.0,0.0,1.0,,-0.0031823361860085927,-0.18649200154343593,0.22944396511176599,False,,0.10298455610623922,0.5223485362653044,-0.3709754873898353,-0.5180023021117858,0.10480070404164565,-0.8489348782087267,0.6136264659193815,0.7369683232289002,-0.2834435585446836,0.5959330292324636,-0.6677533249558244,-0.446059773662971,False,,0.0,0.0,0.0,0.0,0.0,0.0
13:15:31.784397,,-0.6260278949832614,-0.4047947663353519,0.14756835731,-2.6802950745235523,-0.08061902253978963,1.0511447939077359,,0.10524298697132475,0.5300870114274557,-0.38881665377759567,-0.34377700830909175,-0.5675775906702966,-0.7481129908823613,0.697217222895318,0.3793986531090568,-0.6082308822455286,0.6290512798303419,-0.7306930549744776,0.2652963376224293,,-0.011646023337054466,0.2569654234653848,-0.13579684481686718,0.4803958489647968,0.7481129908796844,0.457762800112994,-0.7722332626629325,0.6082308822433522,-0.18360550622266059,-0.4157831361746145,-0.2652963376214801,0.8699093268325586,,0.0672596621065826,0.7048539763607407,1.156222559248513,0.9921808327387445,-0.09102570795391943,-0.0853903720412298,-0.014765196533786024,-0.7649719907290138,0.6438942788776806,-0.12393217547178999,-0.6375987561872886,-0.7603345592508945,,0.19266971203483782,0.682163417389678,-0.43347675147697684,0.9944608794656804,-0.008072816379268818,-0.1047968933129805,0.06542315775325563,-0.7328125906838847,0.6772780207306052,-0.0822640239833807,-0.680382639821799,-0.7282253042755256,,0.0,0.0,0.045,1.0,0.0,0.0,0.0,1.0,0.0,0.0,0.0,1.0,,-0.0031823361860085927,-0.18649200154343593,0.22944396511176599,False,,0.10299214750692938,0.5224408110980339,-0.37127156529508165,-0.5159246082372313,0.09341916350328594,-0.8515249018705242,0.6141006233826358,0.7333761420736676,-0.2916159436625544,0.5972455298922863,-0.6733738145543605,-0.4357355653331413,False,,0.0,0.0,0.0,0.0,0.0,0.0
13:15:31.791244,,-0.6260278949832614,-0.4047947663353519,0.14756835731,-2.6802950745235523,-0.08061902253978963,1.0511447939077359,,0.10524290798640054,0.5300867660779705,-0.3888163918024804,-0.34377756769777745,-0.5675752075731236,-0.7481145418290743,0.6972170344103465,0.3794002812729108,-0.6082300826973932,0.6290511830334966,-0.7306940606836503,0.26529379714911616,,-0.01164642170364341,0.25696505669637526,-0.13579671464000015,0.4803955240959432,0.7481145418228278,0.4577606063491102,-0.7722334104946881,0.6082300826923146,-0.18360753308931316,-0.41578323694880626,-0.26529379714690104,0.8699100534256701,,0.0672596621065826,0.7048539763607407,1.156222559248513,0.9921808327387445,-0.09102570795391943,-0.0853903720412298,-0.014765196533786024,-0.7649719907290138,0.6438942788776806,-0.12393217547178999,-0.6375987561872886,-0.7603345592508945,,0.19266971203483782,0.682163417389678,-0.43347675147697684,0.9944608794656804,-0.008072816379268818,-0.1047968933129805,0.06542315775325563,-0.7328125906838847,0.6772780207306052,-0.0822640239833807,-0.680382639821799,-0.7282253042755256,,0.0,0.0,0.045,1.0,0.0,0.0,0.0,1.0,0.0,0.0,0.0,1.0,,-0.0031823361860085927,-0.18649200154343593,0.22944396511176599,False,,0.10299214750692938,0.5224408110980339,-0.37127156529508165,-0.5159246082372313,0.09341916350328594,-0.8515249018705242,0.6141006233826358,0.7333761420736676,-0.2916159436625544,0.5972455298922863,-0.6733738145543605,-0.4357355653331413,False,,0.0,0.0,0.0,0.0,0.0,0.0
13:15:31.797344,,-0.6268001682706839,-0.4062698083143288,0.14737780268,-2.6832305459342796,-0.08517983246716541,1.0381644873997813,,0.10524226665968664,0.5301405845777438,-0.38898063770681135,-0.3437781270835163,-0.5675728244719387,-0.7481160927689603,0.6972168459260772,0.3794019094367464,-0.6082292831429966,0.6290510862369147,-0.7306950663831642,0.2652912566736056,,-0.011646820070319471,0.2569646899274167,-0.1357965844632539,0.48039519922936585,0.7481160927627137,0.45775841258258637,-0.7722335583294595,0.6082292831379181,-0.18360955995442074,-0.415783337725912,-0.2652912566713905,0.8699107800151205,,0.0672596621065826,0.7048539763607407,1.156222559248513,0.9921808327387445,-0.09102570795391943,-0.0853903720412298,-0.014765196533786024,-0.7649719907290138,0.6438942788776806,-0.12393217547178999,-0.6375987561872886,-0.7603345592508945,,0.19266971203483782,0.682163417389678,-0.43347675147697684,0.9944608794656804,-0.008072816379268818,-0.1047968933129805,0.06542315775325563,-0.7328125906838847,0.6772780207306052,-0.0822640239833807,-0.680382639821799,-0.7282253042755256,,0.0,0.0,0.045,1.0,0.0,0.0,0.0,1.0,0.0,0.0,0.0,1.0,,-0.0031823361860085927,-0.18649200154343593,0.22944396511176599,False,,0.10299102282449532,0.5225489387974704,-0.37160058105419397,-0.512237716999288,0.08413210322387082,-0.8547129989010847,0.6165669933255742,0.7288177954746825,-0.297774686198954,0.597877632985897,-0.6795192493274581,-0.4252010415893043,False,,0.0,0.0,0.0,0.0,0.0,0.0
13:15:31.803787,,-0.6276265006882259,-0.40789930495079013,0.14716002596000002,-2.6859563408156695,-0.09188690588977687,1.0269607236717142,,0.10524100298534063,0.5302080218485098,-0.38915675784022086,-0.34377896615659964,-0.5675692498126398,-0.748118419165988,0.6972165632009893,0.37940435168246534,-0.6082280837996623,0.6290509410425362,-0.7306965749143248,0.26528744595621956,,-0.011647417621965058,0.2569641397748082,-0.13579638920079082,0.4803947119294701,0.7481184191597416,0.4577551219237551,-0.7722337800803627,0.6082280837945839,-0.1836126002475425,-0.4157834888933143,-0.26528744595400455,0.8699118698846486,,0.0672596621065826,0.7048539763607407,1.156222559248513,0.9921808327387445,-0.09102570795391943,-0.0853903720412298,-0.014765196533786024,-0.7649719907290138,0.6438942788776806,-0.12393217547178999,-0.6375987561872886,-0.7603345592508945,,0.19266971203483782,0.682163417389678,-0.43347675147697684,0.9944608794656804,-0.008072816379268818,-0.1047968933129805,0.06542315775325563,-0.7328125906838847,0.6772780207306052,-0.0822640239833807,-0.680382639821799,-0.7282253042755256,,0.0,0.0,0.045,1.0,0.0,0.0,0.0,1.0,0.0,0.0,0.0,1.0,,-0.0031823361860085927,-0.18649200154343593,0.22944396511176599,False,,0.10298873243590957,0.5226845493898277,-0.37195360724467086,-0.5076575172693039,0.07733588347920917,-0.8580810021708072,0.6206153784425834,0.7236460937149812,-0.30194847754479204,0.5975955130358124,-0.685824680350262,-0.41536021790961825,False,,0.0,0.0,0.0,0.0,0.0,0.0
13:15:31.809970,,-0.6276265006882259,-0.40789930495079013,0.14716002596000002,-2.6859563408156695,-0.09188690588977687,1.0269607236717142,,0.10524092399743332,0.5302077764979045,-0.38915649586634077,-0.34377952553497143,-0.567566866701426,-0.7481199700888058,0.6972163747184749,0.3794059798462551,-0.6082272842296128,0.6290508442466133,-0.7306975805896916,0.2652849054752156,,-0.01164781599081644,0.2569637730069554,-0.1357962590275863,0.48039438706285253,0.7481199700825593,0.45775292814517043,-0.7722339279134617,0.6082272842245343,-0.18361462710659718,-0.41578358967274487,-0.26528490547300054,0.8699125964545681,,0.0672596621065826,0.7048539763607407,1.156222559248513,0.9921808327387445,-0.09102570795391943,-0.0853903720412298,-0.014765196533786024,-0.7649719907290138,0.6438942788776806,-0.12393217547178999,-0.6375987561872886,-0.7603345592508945,,0.19266971203483782,0.682163417389678,-0.43347675147697684,0.9944608794656804,-0.008072816379268818,-0.1047968933129805,0.06542315775325563,-0.7328125906838847,0.6772780207306052,-0.0822640239833807,-0.680382639821799,-0.7282253042755256,,0.0,0.0,0.045,1.0,0.0,0.0,0.0,1.0,0.0,0.0,0.0,1.0,,-0.0031823361860085927,-0.18649200154343593,0.22944396511176599,False,,0.10298873243590957,0.5226845493898277,-0.37195360724467086,-0.5076575172693039,0.07733588347920917,-0.8580810021708072,0.6206153784425834,0.7236460937149812,-0.30194847754479204,0.5975955130358124,-0.685824680350262,-0.41536021790961825,False,,0.0,0.0,0.0,0.0,0.0,0.0
13:15:31.816496,,-0.6285763968317555,-0.4097836517721009,0.14691243457000003,-2.6878434295797087,-0.09725256462786602,1.0131484449481252,,0.10524563749460919,0.5302767324638675,-0.3893673026068465,-0.3437798052230523,-0.5675656751443148,-0.7481207455476545,0.6972162804774811,0.3794067939281429,-0.6082268844422402,0.6290507958487507,-0.730698083423753,0.2652836352338897,,-0.011648015174785434,0.2569635896228035,-0.13579619394021944,0.48039422463182985,0.7481207455449773,0.4577518312562531,-0.7722340018334447,0.6082268844400636,-0.1836156405360927,-0.4157836400647927,-0.26528363523294035,0.8699129597407491,,0.0672596621065826,0.7048539763607407,1.156222559248513,0.9921808327387445,-0.09102570795391943,-0.0853903720412298,-0.014765196533786024,-0.7649719907290138,0.6438942788776806,-0.12393217547178999,-0.6375987561872886,-0.7603345592508945,,0.19266971203483782,0.682163417389678,-0.43347675147697684,0.9944608794656804,-0.008072816379268818,-0.1047968933129805,0.06542315775325563,-0.7328125906838847,0.6772780207306052,-0.0822640239833807,-0.680382639821799,-0.7282253042755256,,0.0,0.0,0.045,1.0,0.0,0.0,0.0,1.0,0.0,0.0,0.0,1.0,,-0.0031823361860085927,-0.18649200154343593,0.22944396511176599,False,,0.10299823841810879,0.5228227066729485,-0.3723754827004547,-0.504433304811583,0.06803130154856574,-0.860766392818907,0.6235611084509904,0.7182639681142161,-0.308655821484372,0.5972592276593446,-0.692436722104214,-0.40473794096592275,False,,0.0,0.0,0.0,0.0,0.0,0.0
13:15:31.823774,,-0.6294954020437883,-0.41169888952490863,0.14665447286000002,-2.690149871402423,-0.09913054518619722,0.9951577533812771,,0.10526575593875831,0.5303366232882476,-0.38959204709273226,-0.34377980522305246,-0.5675656751443148,-0.7481207455476545,0.6972162804774811,0.37940679392814286,-0.6082268844422403,0.6290507958487507,-0.7306980834237531,0.26528363523388965,,-0.011648015174785432,0.2569635896228035,-0.13579619394021944,0.48039422463183007,0.7481207455449774,0.4577518312562532,-0.7722340018334448,0.6082268844400638,-0.1836156405360927,-0.41578364006479274,-0.26528363523294035,0.8699129597407493,,0.0672596621065826,0.7048539763607407,1.156222559248513,0.9921808327387445,-0.09102570795391943,-0.0853903720412298,-0.014765196533786024,-0.7649719907290138,0.6438942788776806,-0.12393217547178999,-0.6375987561872886,-0.7603345592508945,,0.19266971203483782,0.682163417389678,-0.43347675147697684,0.9944608794656804,-0.008072816379268818,-0.1047968933129805,0.06542315775325563,-0.7328125906838847,0.6772780207306052,-0.0822640239833807,-0.680382639821799,-0.7282253042755256,,0.0,0.0,0.045,1.0,0.0,0.0,0.0,1.0,0.0,0.0,0.0,1.0,,-0.0031823361860085927,-0.18649200154343593,0.22944396511176599,False,,0.10303847530640703,0.5229424883217085,-0.37282497167222617,-0.5027148712243065,0.05338976869908485,-0.8628019997938039,0.6237168166586753,0.7134770588829461,-0.3192613648171503,0.5985441427890656,-0.6986415526190803,-0.3919756243529734,False,,0.0,0.0,0.0,0.0,0.0,0.0
13:15:31.829848,,-0.6294954020437883,-0.41169888952490863,0.14665447286000002,-2.690149871402423,-0.09913054518619722,0.9951577533812771,,0.10526575593875831,0.5303366232882476,-0.38959204709273226,-0.34377980522305246,-0.5675656751443148,-0.7481207455476545,0.6972162804774811,0.37940679392814286,-0.6082268844422403,0.6290507958487507,-0.7306980834237531,0.26528363523388965,,-0.011648015174785432,0.2569635896228035,-0.13579619394021944,0.48039422463183007,0.7481207455449774,0.4577518312562532,-0.7722340018334448,0.6082268844400638,-0.1836156405360927,-0.41578364006479274,-0.26528363523294035,0.8699129597407493,,0.0672596621065826,0.7048539763607407,1.156222559248513,0.9921808327387445,-0.09102570795391943,-0.0853903720412298,-0.014765196533786024,-0.7649719907290138,0.6438942788776806,-0.12393217547178999,-0.6375987561872886,-0.7603345592508945,,0.19266971203483782,0.682163417389678,-0.43347675147697684,0.9944608794656804,-0.008072816379268818,-0.1047968933129805,0.06542315775325563,-0.7328125906838847,0.6772780207306052,-0.0822640239833807,-0.680382639821799,-0.7282253042755256,,0.0,0.0,0.045,1.0,0.0,0.0,0.0,1.0,0.0,0.0,0.0,1.0,,-0.0031823361860085927,-0.18649200154343593,0.22944396511176599,False,,0.10303847530640703,0.5229424883217085,-0.37282497167222617,-0.5027148712243065,0.05338976869908485,-0.8628019997938039,0.6237168166586753,0.7134770588829461,-0.3192613648171503,0.5985441427890656,-0.6986415526190803,-0.3919756243529734,False,,0.0,0.0,0.0,0.0,0.0,0.0
13:15:31.836218,,-0.6304221299886952,-0.41372996827082964,0.14638484454,-2.6930853428131507,-0.09926468665464945,0.9734591367576191,,0.10529543356398054,0.5303914837152498,-0.38983360628234176,-0.343779549262757,-0.5675667854224509,-0.7481200208482068,0.6972163667233925,0.37940603280563623,-0.6082272603589225,0.6290508401407057,-0.7306976162243274,0.2652848170596241,,-0.011647963619572104,0.2569639767543369,-0.13579613683389785,0.4803950879270791,0.7481200208446372,0.45775210965915913,-0.7722342145480743,0.6082272603560204,-0.1836135006789692,-0.41578224753747006,-0.2652848170583583,0.869913264907175,,0.0672596621065826,0.7048539763607407,1.156222559248513,0.9921808327387445,-0.09102570795391943,-0.0853903720412298,-0.014765196533786024,-0.7649719907290138,0.6438942788776806,-0.12393217547178999,-0.6375987561872886,-0.7603345592508945,,0.19266971203483782,0.682163417389678,-0.43347675147697684,0.9944608794656804,-0.008072816379268818,-0.1047968933129805,0.06542315775325563,-0.7328125906838847,0.6772780207306052,-0.0822640239833807,-0.680382639821799,-0.7282253042755256,,0.0,0.0,0.045,1.0,0.0,0.0,0.0,1.0,0.0,0.0,0.0,1.0,,-0.0031823361860085927,-0.18649200154343593,0.22944396511176599,False,,0.10309789133005252,0.5230517637770937,-0.37330796397477795,-0.5015104975730321,0.03453766964681665,-0.8644618963259268,0.6223616161398213,0.7084785994182105,-0.3327522996498157,0.6009602645598789,-0.7048866742546481,-0.37680437481316764,False,,0.0,0.0,0.0,0.0,0.0,0.0
13:15:31.843545,,-0.6313951943308475,-0.4158537198112414,0.14610614219,-2.6958111376945406,-0.10006953546536283,0.9492074055649102,,0.10532397545045837,0.5304503581819195,-0.3900833250553089,-0.3437792932994115,-0.5675678956999134,-0.7481192961482344,0.6972164529702706,0.37940527168428534,-0.6082276362725786,0.6290508844331368,-0.730697149022046,0.2652859988859993,,-0.011647912064403791,0.25696436388588517,-0.1357960797276391,0.48039595122382595,0.7481192961455573,0.4577523880607011,-0.7722344272609695,0.6082276362704021,-0.1836113608213965,-0.415780855010811,-0.26528599888505,0.8699135700716959,,0.0672596621065826,0.7048539763607407,1.156222559248513,0.9921808327387445,-0.09102570795391943,-0.0853903720412298,-0.014765196533786024,-0.7649719907290138,0.6438942788776806,-0.12393217547178999,-0.6375987561872886,-0.7603345592508945,,0.19266971203483782,0.682163417389678,-0.43347675147697684,0.9944608794656804,-0.008072816379268818,-0.1047968933129805,0.06542315775325563,-0.7328125906838847,0.6772780207306052,-0.0822640239833807,-0.680382639821799,-0.7282253042755256,,0.0,0.0,0.045,1.0,0.0,0.0,0.0,1.0,0.0,0.0,0.0,1.0,,-0.0031823361860085927,-0.18649200154343593,0.22944396511176599,False,,0.10315503587633561,0.5231690673122682,-0.3738072754438828,-0.5001496388944446,0.013823798533267984,-0.8658286443101018,0.6214901847442247,0.7019872560150795,-0.34779856621183647,0.6029927768890324,-0.7120553314079822,-0.3596900277087516,False,,0.0,0.0,0.0,0.0,0.0,0.0
13:15:31.849643,,-0.6313951943308475,-0.4158537198112414,0.14610614219,-2.6958111376945406,-0.10006953546536283,0.9492074055649102,,0.10532390556946193,0.5304504582058392,-0.3900832571071372,-0.3437793170262965,-0.5675678144210827,-0.7481193469081043,0.6972164449754965,0.37940532464411425,-0.6082276124013317,0.6290508803273893,-0.7306971846565236,0.2652859104708858,,-0.01164805969417651,0.25696456763376796,-0.1357959575356383,0.48039665208461907,0.7481193469054273,0.4577515695707989,-0.7722347138885102,0.6082276123991552,-0.18361023439230423,-0.4157795128722237,-0.2652859104699365,0.8699142385170602,,0.0672596621065826,0.7048539763607407,1.156222559248513,0.9921808327387445,-0.09102570795391943,-0.0853903720412298,-0.014765196533786024,-0.7649719907290138,0.6438942788776806,-0.12393217547178999,-0.6375987561872886,-0.7603345592508945,,0.19266971203483782,0.682163417389678,-0.43347675147697684,0.9944608794656804,-0.008072816379268818,-0.1047968933129805,0.06542315775325563,-0.7328125906838847,0.6772780207306052,-0.0822640239833807,-0.680382639821799,-0.7282253042755256,,0.0,0.0,0.045,1.0,0.0,0.0,0.0,1.0,0.0,0.0,0.0,1.0,,-0.0031823361860085927,-0.18649200154343593,0.22944396511176599,False,,0.10315503587633561,0.5231690673122682,-0.3738072754438828,-0.5001496388944446,0.013823798533267984,-0.8658286443101018,0.6214901847442247,0.7019872560150795,-0.34779856621183647,0.6029927768890324,-0.7120553314079822,-0.3596900277087516,False,,0.0,0.0,0.0,0.0,0.0,0.0
13:15:31.856061,,-0.6323837041387482,-0.41804697594752116,0.14580151404000002,-2.698117579517255,-0.10355721364512079,0.924455527907077,,0.1053517544655691,0.530527144042094,-0.3903342653883358,-0.3437790610653141,-0.5675689246975029,-0.7481186222055773,0.6972165312215233,0.3794045635212976,-0.6082279883157633,0.6290509246193647,-0.7306967174532358,0.2652870922954759,,-0.011648008140184954,0.25696495476570397,-0.1357959004310523,0.4803975153845501,0.748118622202008,0.45775184796719054,-0.7722349265898012,0.6082279883128614,-0.18360809453341614,-0.4157781203450381,-0.2652870922942102,0.8699145436736231,,0.0672596621065826,0.7048539763607407,1.156222559248513,0.9921808327387445,-0.09102570795391943,-0.0853903720412298,-0.014765196533786024,-0.7649719907290138,0.6438942788776806,-0.12393217547178999,-0.6375987561872886,-0.7603345592508945,,0.19266971203483782,0.682163417389678,-0.43347675147697684,0.9944608794656804,-0.008072816379268818,-0.1047968933129805,0.06542315775325563,-0.7328125906838847,0.6772780207306052,-0.0822640239833807,-0.680382639821799,-0.7282253042755256,,0.0,0.0,0.045,1.0,0.0,0.0,0.0,1.0,0.0,0.0,0.0,1.0,,-0.0031823361860085927,-0.18649200154343593,0.22944396511176599,False,,0.10321079444345006,0.523321993586105,-0.3743091659280546,-0.497726100942518,-0.006128497055186866,-0.8673126137468561,0.6226910846304312,0.6935661352180996,-0.3622455371711379,0.6037586782501232,-0.7203668909677023,-0.3413898077494271,False,,0.0,0.0,0.0,0.0,0.0,0.0
13:15:31.863178,,-0.6333799366795232,-0.4202942912139205,0.14549170073,-2.7004240213399693,-0.10932529678856663,0.8993439633157359,,0.10535331177597797,0.5305246396682592,-0.39033563751754285,-0.34373436598168444,-0.5675696026851509,-0.7481386447383863,0.697231590291433,0.3794287270608076,-0.6081956515634541,0.6290586579507899,-0.7306836437124039,0.26530476374976025,,-0.011647997011952611,0.25696495821464227,-0.13579590561405222,0.48036607261127007,0.7481386434166858,0.4577521195771367,-0.772260405350702,0.6081956504889842,-0.183608043180432,-0.4157671212088443,-0.2653047632810591,0.8699144095649799,,0.0672596621065826,0.7048539763607407,1.156222559248513,0.9921808327387445,-0.09102570795391943,-0.0853903720412298,-0.014765196533786024,-0.7649719907290138,0.6438942788776806,-0.12393217547178999,-0.6375987561872886,-0.7603345592508945,,0.19266971203483782,0.682163417389678,-0.43347675147697684,0.9944608794656804,-0.008072816379268818,-0.1047968933129805,0.06542315775325563,-0.7328125906838847,0.6772780207306052,-0.0822640239833807,-0.680382639821799,-0.7282253042755256,,0.0,0.0,0.045,1.0,0.0,0.0,0.0,1.0,0.0,0.0,0.0,1.0,,-0.0031823361860085927,-0.18649200154343593,0.22944396511176599,False,,0.10321079444345006,0.523321993586105,-0.3743091659280546,-0.497726100942518,-0.006128497055186866,-0.8673126137468561,0.6226910846304312,0.6935661352180996,-0.3622455371711379,0.6037586782501232,-0.7203668909677023,-0.3413898077494271,False,,0.0,0.0,0.0,0.0,0.0,0.0
13:15:31.871149,,-0.6333799366795232,-0.4202942912139205,0.14549170073,-2.7004240213399693,-0.10932529678856663,0.8993439633157359,,0.10537897688083492,0.5306068231059289,-0.3905856261391312,-0.34368964695899384,-0.5675703596305046,-0.748158615162655,0.6972466555684796,0.37945283773486493,-0.6081633376269309,0.6290663938502613,-0.7306705350593097,0.26532252321348443,,-0.011647838242149858,0.25696475790854745,-0.13579603296338658,0.4803339285615691,0.7481586131798172,0.4577532100344908,-0.7722855968097979,0.6081633360151213,-0.18360911847321656,-0.415757463832175,-0.26532252251030264,0.8699136077887426,,0.0672596621065826,0.7048539763607407,1.156222559248513,0.9921808327387445,-0.09102570795391943,-0.0853903720412298,-0.014765196533786024,-0.7649719907290138,0.6438942788776806,-0.12393217547178999,-0.6375987561872886,-0.7603345592508945,,0.19266971203483782,0.682163417389678,-0.43347675147697684,0.9944608794656804,-0.008072816379268818,-0.1047968933129805,0.06542315775325563,-0.7328125906838847,0.6772780207306052,-0.0822640239833807,-0.680382639821799,-0.7282253042755256,,0.0,0.0,0.045,1.0,0.0,0.0,0.0,1.0,0.0,0.0,0.0,1.0,,-0.0031823361860085927,-0.18649200154343593,0.22944396511176599,False,,0.10325887046759957,0.5234915694277,-0.3748062631050198,-0.4941363845498619,-0.025578643030965686,-0.8690080359149077,0.6256004442735964,0.683636838561815,-0.3758520414815991,0.6036996915591972,-0.7293739822490937,-0.3218078253079451,False,,0.0,0.0,0.0,0.0,0.0,0.0
13:15:31.877560,,-0.6343993374189209,-0.4226342792748105,0.14515596162000002,-2.702940139692022,-0.11630065314808254,0.8725022688925916,,0.10540978771706436,0.530698851920004,-0.3908447791557909,-0.34360023204963064,-0.5675717851732843,-0.7481986027858186,0.697276772753761,0.37950111236968004,-0.6080986826891466,0.62908185692606,-0.7306443556104343,0.2653579523984036,,-0.011647668360090768,0.2569645610518037,-0.13579616552069085,0.48027033796068413,0.7481985981664017,0.4577545716089117,-0.7723362609269444,0.6080986789347138,-0.18361014238635903,-0.41573680398109286,-0.26535795076006985,0.8699126711549265,,0.0672596621065826,0.7048539763607407,1.156222559248513,0.9921808327387445,-0.09102570795391943,-0.0853903720412298,-0.014765196533786024,-0.7649719907290138,0.6438942788776806,-0.12393217547178999,-0.6375987561872886,-0.7603345592508945,,0.19266971203483782,0.682163417389678,-0.43347675147697684,0.9944608794656804,-0.008072816379268818,-0.1047968933129805,0.06542315775325563,-0.7328125906838847,0.6772780207306052,-0.0822640239833807,-0.680382639821799,-0.7282253042755256,,0.0,0.0,0.045,1.0,0.0,0.0,0.0,1.0,0.0,0.0,0.0,1.0,,-0.0031823361860085927,-0.18649200154343593,0.22944396511176599,False,,0.10331412417640898,0.5236858454279508,-0.37531894505737246,-0.4897945860167544,-0.046255205191379045,-0.8706099697920876,0.6293285946431431,0.6723261646279828,-0.38977307285279894,0.6033628953400788,-0.7388084896299786,-0.30019199219417425,False,,0.0,0.0,0.0,0.0,0.0,0.0
13:15:31.884103,,-0.6354264608911927,-0.42503604919869437,0.14480725961000002,-2.705875611102749,-0.1226053021653373,0.8433919739549836,,0.10544691695442329,0.5307925158250395,-0.3911126654777223,-0.3435105363836394,-0.5675743930061106,-0.7482378096549047,0.697306977038406,0.3795485737772144,-0.6080344232995712,0.6290973622317805,-0.7306176760436526,0.26539465006964297,,-0.01164729924610567,0.2569645475565503,-0.13579636306185147,0.48020690838594443,0.7482378050397522,0.4577570315261678,-0.7723868485533407,0.6080344195491973,-0.18361015355707147,-0.415716091803281,-0.26539464843268107,0.8699113743727243,,0.0672596621065826,0.7048539763607407,1.156222559248513,0.9921808327387445,-0.09102570795391943,-0.0853903720412298,-0.014765196533786024,-0.7649719907290138,0.6438942788776806,-0.12393217547178999,-0.6375987561872886,-0.7603345592508945,,0.19266971203483782,0.682163417389678,-0.43347675147697684,0.9944608794656804,-0.008072816379268818,-0.1047968933129805,0.06542315775325563,-0.7328125906838847,0.6772780207306052,-0.0822640239833807,-0.680382639821799,-0.7282253042755256,,0.0,0.0,0.045,1.0,0.0,0.0,0.0,1.0,0.0,0.0,0.0,1.0,,-0.0031823361860085927,-0.18649200154343593,0.22944396511176599,False,,0.10338193647243346,0.5238831469386591,-0.3758488320210325,-0.48552103370191546,-0.06945790653463801,-0.8714613732420097,0.6324186341269488,0.6603360819410157,-0.40497275228809304,0.603585948347067,-0.7477512006721314,-0.2766805827147215,False,,0.0,0.0,0.0,0.0,0.0,0.0
13:15:31.891926,,-0.6354264608911927,-0.42503604919869437,0.14480725961000002,-2.705875611102749,-0.1226053021653373,0.8433919739549836,,0.10545013965590042,0.5307875286355211,-0.3911156081304928,-0.3434208397388907,-0.5675769915265918,-0.7482770112215517,0.697337174175089,0.37959603589783886,-0.6079701596658739,0.6291128613742821,-0.7305909992740601,0.26543134598836204,,-0.011646930085981706,0.25696453404073677,-0.13579656049999103,0.4801434773629029,0.748277009253749,0.4577594928655959,-0.7724374335917694,0.6079701580670471,-0.18361016536818914,-0.4156953777376692,-0.2654313452903364,0.8699100807585469,,0.0672596621065826,0.7048539763607407,1.156222559248513,0.9921808327387445,-0.09102570795391943,-0.0853903720412298,-0.014765196533786024,-0.7649719907290138,0.6438942788776806,-0.12393217547178999,-0.6375987561872886,-0.7603345592508945,,0.19266971203483782,0.682163417389678,-0.43347675147697684,0.9944608794656804,-0.008072816379268818,-0.1047968933129805,0.06542315775325563,-0.7328125906838847,0.6772780207306052,-0.0822640239833807,-0.680382639821799,-0.7282253042755256,,0.0,0.0,0.045,1.0,0.0,0.0,0.0,1.0,0.0,0.0,0.0,1.0,,-0.0031823361860085927,-0.18649200154343593,0.22944396511176599,False,,0.10338193647243346,0.5238831469386591,-0.3758488320210325,-0.48552103370191546,-0.06945790653463801,-0.8714613732420097,0.6324186341269488,0.6603360819410157,-0.40497275228809304,0.603585948347067,-0.7477512006721314,-0.2766805827147215,False,,0.0,0.0,0.0,0.0,0.0,0.0
13:15:31.898061,,-0.6363454661032254,-0.427190691670603,0.14448707598000002,-2.708182052925464,-0.12622712181354748,0.8150573520587003,,0.10548982173702395,0.5308705105214454,-0.39136198632175456,-0.34337558283278546,-0.5675800341725464,-0.7482954723389257,0.6973524074586253,0.3796185735876112,-0.6079386140055318,0.6291206791434409,-0.7305769250366443,0.2654515542958773,,-0.011646520553911488,0.2569649042361557,-0.13579669578433978,0.4801123546567079,0.7482954710251127,0.45776195936077374,-0.7724627560441001,0.6079386129381492,-0.18360808781780422,-0.41568427191711615,-0.26545155382981317,0.8699092223551794,,0.0672596621065826,0.7048539763607407,1.156222559248513,0.9921808327387445,-0.09102570795391943,-0.0853903720412298,-0.014765196533786024,-0.7649719907290138,0.6438942788776806,-0.12393217547178999,-0.6375987561872886,-0.7603345592508945,,0.19266971203483782,0.682163417389678,-0.43347675147697684,0.9944608794656804,-0.008072816379268818,-0.1047968933129805,0.06542315775325563,-0.7328125906838847,0.6772780207306052,-0.0822640239833807,-0.680382639821799,-0.7282253042755256,,0.0,0.0,0.045,1.0,0.0,0.0,0.0,1.0,0.0,0.0,0.0,1.0,,-0.0031823361860085927,-0.18649200154343593,0.22944396511176599,False,,0.10345802962941736,0.5240536300924417,-0.3763383208315424,-0.4829764180724194,-0.09288076434349019,-0.870693369218409,0.6336652263112137,0.6491840343186216,-0.4207475140149461,0.6043195847810113,-0.75493923808527,-0.25468526900733424,False,,0.0,0.0,0.0,0.0,0.0,0.0
13:15:31.904225,,-0.6372644713152581,-0.4293685023411343,0.14415392945000002,-2.710488494748178,-0.1281051023718787,0.78391026647826,,0.10553793268309591,0.5309524679346505,-0.39161708341940815,-0.3433306056935596,-0.567581882765897,-0.7483147075596023,0.6973675446881108,0.37964192503956207,-0.6079066674810627,0.6291284469881879,-0.7305633546162681,0.265470491923407,,-0.011646310189300596,0.2569650910380763,-0.13579676595652415,0.4800810688445222,0.748314707553354,0.45776332943972264,-0.7724881516061373,0.6079066674759869,-0.18360702396606193,-0.41567321653979017,-0.26547049192119043,0.8699087279444243,,0.0672596621065826,0.7048539763607407,1.156222559248513,0.9921808327387445,-0.09102570795391943,-0.0853903720412298,-0.014765196533786024,-0.7649719907290138,0.6438942788776806,-0.12393217547178999,-0.6375987561872886,-0.7603345592508945,,0.19266971203483782,0.682163417389678,-0.43347675147697684,0.9944608794656804,-0.008072816379268818,-0.1047968933129805,0.06542315775325563,-0.7328125906838847,0.6772780207306052,-0.0822640239833807,-0.680382639821799,-0.7282253042755256,,0.0,0.0,0.045,1.0,0.0,0.0,0.0,1.0,0.0,0.0,0.0,1.0,,-0.0031823361860085927,-0.18649200154343593,0.22944396511176599,False,,0.10355105969774547,0.5242223098282239,-0.37684550952239804,-0.48136398796978663,-0.11936282336832582,-0.8683554729967244,0.6335584973600968,0.6372276261396803,-0.4387990233662835,0.6057163870233655,-0.7613760364510627,-0.2311151003492215,False,,0.0,0.0,0.0,0.0,0.0,0.0
13:15:31.910364,,-0.6372644713152581,-0.4293685023411343,0.14415392945000002,-2.710488494748178,-0.1281051023718787,0.78391026647826,,0.10553797218088774,0.5309525906115414,-0.39161721440492586,-0.3433303255576406,-0.5675830745355314,-0.7483139321523274,0.6973676389630432,0.37964111167404435,-0.6079070672841421,0.6291284953644964,-0.7305628513876745,0.2654717621381142,,-0.011646111005589332,0.25696527442238093,-0.13579683104428003,0.48008123160369054,0.7483139321496499,0.45776442632150527,-0.7724880778613343,0.607907067281967,-0.18360601053228912,-0.41567316562033296,-0.26547176213716434,0.8699083646475668,,0.0672596621065826,0.7048539763607407,1.156222559248513,0.9921808327387445,-0.09102570795391943,-0.0853903720412298,-0.014765196533786024,-0.7649719907290138,0.6438942788776806,-0.12393217547178999,-0.6375987561872886,-0.7603345592508945,,0.19266971203483782,0.682163417389678,-0.43347675147697684,0.9944608794656804,-0.008072816379268818,-0.1047968933129805,0.06542315775325563,-0.7328125906838847,0.6772780207306052,-0.0822640239833807,-0.680382639821799,-0.7282253042755256,,0.0,0.0,0.045,1.0,0.0,0.0,0.0,1.0,0.0,0.0,0.0,1.0,,-0.0031823361860085927,-0.18649200154343593,0.22944396511176599,False,,0.10355105969774547,0.5242223098282239,-0.37684550952239804,-0.48136398796978663,-0.11936282336832582,-0.8683554729967244,0.6335584973600968,0.6372276261396803,-0.4387990233662835,0.6057163870233655,-0.7613760364510627,-0.2311151003492215,False,,0.0,0.0,0.0,0.0,0.0,0.0
13:15:31.916415,,-0.6382375356574104,-0.43161581760753365,0.14379096825,-2.7130046131002303,-0.1299830829302099,0.750558968288213,,0.10558933548623309,0.5310487547290486,-0.39188192755006657,-0.3433303255576406,-0.5675830745355314,-0.7483139321523274,0.6973676389630432,0.37964111167404435,-0.6079070672841421,0.6291284953644964,-0.7305628513876745,0.2654717621381142,,-0.011646111005589332,0.25696527442238093,-0.13579683104428003,0.48008123160369054,0.7483139321496499,0.45776442632150527,-0.7724880778613343,0.607907067281967,-0.1836060105322891,-0.41567316562033296,-0.26547176213716434,0.8699083646475668,,0.0672596621065826,0.7048539763607407,1.156222559248513,0.9921808327387445,-0.09102570795391943,-0.0853903720412298,-0.014765196533786024,-0.7649719907290138,0.6438942788776806,-0.12393217547178999,-0.6375987561872886,-0.7603345592508945,,0.19266971203483782,0.682163417389678,-0.43347675147697684,0.9944608794656804,-0.008072816379268818,-0.1047968933129805,0.06542315775325563,-0.7328125906838847,0.6772780207306052,-0.0822640239833807,-0.680382639821799,-0.7282253042755256,,0.0,0.0,0.045,1.0,0.0,0.0,0.0,1.0,0.0,0.0,0.0,1.0,,-0.0031823361860085927,-0.18649200154343593,0.22944396511176599,False,,0.10365378630843618,0.5244146380632383,-0.37737493581267945,-0.4796393975497162,-0.1477419603792649,-0.864938357029816,0.6333827079842977,0.6238938794781286,-0.45780211049776587,0.6072663283474752,-0.7674169272911711,-0.20566688153991716,False,,0.0,0.0,0.0,0.0,0.0,0.0
13:15:31.922896,,-0.6382375356574104,-0.43161581760753365,0.14379096825,-2.7130046131002303,-0.1299830829302099,0.750558968288213,,0.10558925649099564,0.5310485093749071,-0.3918816655781937,-0.3433308858287405,-0.5675806909952599,-0.7483154829651701,0.6973674504133541,0.37964273840507623,-0.6079062676764183,0.6291283986119451,-0.7305638578424465,0.26546922170815046,,-0.011646509372054878,0.25696490765329516,-0.13579670086717863,0.48008090608878695,0.748315482960707,0.45776223256001036,-0.772488225356301,0.6079062676727927,-0.1836080374005436,-0.41567326746245525,-0.26546922170656717,0.8699090912455552,,0.0672596621065826,0.7048539763607407,1.156222559248513,0.9921808327387445,-0.09102570795391943,-0.0853903720412298,-0.014765196533786024,-0.7649719907290138,0.6438942788776806,-0.12393217547178999,-0.6375987561872886,-0.7603345592508945,,0.19266971203483782,0.682163417389678,-0.43347675147697684,0.9944608794656804,-0.008072816379268818,-0.1047968933129805,0.06542315775325563,-0.7328125906838847,0.6772780207306052,-0.0822640239833807,-0.680382639821799,-0.7282253042755256,,0.0,0.0,0.045,1.0,0.0,0.0,0.0,1.0,0.0,0.0,0.0,1.0,,-0.0031823361860085927,-0.18649200154343593,0.22944396511176599,False,,0.10365378630843618,0.5244146380632383,-0.37737493581267945,-0.4796393975497162,-0.1477419603792649,-0.864938357029816,0.6333827079842977,0.6238938794781286,-0.45780211049776587,0.6072663283474752,-0.7674169272911711,-0.20566688153991716,False,,0.0,0.0,0.0,0.0,0.0,0.0
13:15:31.929939,,-0.639117927205072,-0.4337241236821969,0.14342671076000002,-2.7157304079816202,-0.1328000537677067,0.7187856566764506,,0.10564327173234117,0.5311515025993191,-0.3921278436628623,-0.3433314460968869,-0.5675783074509765,-0.7483170337711853,0.6973672618643671,0.3796443651360946,-0.607905468062434,0.629128301859657,-0.7305648642875571,0.26546668127598944,,-0.011646907738607546,0.2569645408842605,-0.13579657069019804,0.48008058057616165,0.7483170337685076,0.45776003879587523,-0.7724883728542821,0.6079054680602587,-0.18361006426725288,-0.4156733693074919,-0.2654666812750395,0.8699098178398823,,0.0672596621065826,0.7048539763607407,1.156222559248513,0.9921808327387445,-0.09102570795391943,-0.0853903720412298,-0.014765196533786024,-0.7649719907290138,0.6438942788776806,-0.12393217547178999,-0.6375987561872886,-0.7603345592508945,,0.19266971203483782,0.682163417389678,-0.43347675147697684,0.9944608794656804,-0.008072816379268818,-0.1047968933129805,0.06542315775325563,-0.7328125906838847,0.6772780207306052,-0.0822640239833807,-0.680382639821799,-0.7282253042755256,,0.0,0.0,0.045,1.0,0.0,0.0,0.0,1.0,0.0,0.0,0.0,1.0,,-0.0031823361860085927,-0.18649200154343593,0.22944396511176599,False,,0.1037619747827476,0.5246211152212644,-0.3778678159259822,-0.47720697851398075,-0.17457406433810624,-0.8612766081335496,0.6339468249650346,0.6103455982702389,-0.47496281305897614,0.608592575352599,-0.7726591400692927,-0.18059050499146456,False,,0.0,0.0,0.0,0.0,0.0,0.0
13:15:31.936212,,-0.6399288141568655,-0.43569342056512417,0.1430715273,-2.7182465263336724,-0.13615359047901243,0.6878353298019363,,0.10569672248355677,0.5312567810781563,-0.39235681544165246,-0.3433314460968869,-0.5675783074509765,-0.7483170337711853,0.6973672618643671,0.3796443651360946,-0.607905468062434,0.629128301859657,-0.7305648642875571,0.2654666812759895,,-0.011646907738607543,0.2569645408842605,-0.13579657069019802,0.48008058057616165,0.7483170337685076,0.45776003879587535,-0.7724883728542821,0.6079054680602587,-0.18361006426725293,-0.415673369307492,-0.26546668127503953,0.8699098178398823,,0.0672596621065826,0.7048539763607407,1.156222559248513,0.9921808327387445,-0.09102570795391943,-0.0853903720412298,-0.014765196533786024,-0.7649719907290138,0.6438942788776806,-0.12393217547178999,-0.6375987561872886,-0.7603345592508945,,0.19266971203483782,0.682163417389678,-0.43347675147697684,0.9944608794656804,-0.008072816379268818,-0.1047968933129805,0.06542315775325563,-0.7328125906838847,0.6772780207306052,-0.0822640239833807,-0.680382639821799,-0.7282253042755256,,0.0,0.0,0.045,1.0,0.0,0.0,0.0,1.0,0.0,0.0,0.0,1.0,,-0.0031823361860085927,-0.18649200154343593,0.22944396511176599,False,,0.1038688762851788,0.524831672178939,-0.37832575948356256,-0.4745678295583871,-0.20043838410956555,-0.8570938276080327,0.6350116975373108,0.5963383246067655,-0.49106083797832933,0.6095453380504396,-0.7773062824786267,-0.1557222658460668,False,,0.0,0.0,0.0,0.0,0.0,0.0
13:15:31.943624,,-0.6407397011086591,-0.43760865831793183,0.14270338094,-2.7205529681563867,-0.13964126865877038,0.6555753529426291,,0.10569664348619523,0.5312565357235846,-0.3923565534711797,-0.3433320063620788,-0.5675759239026812,-0.7483185845703737,0.6973670733160829,0.3796459918670999,-0.6079046684421884,0.6291282051076318,-0.730565870723006,0.2654641408416317,,-0.01164730610720485,0.256964174116255,-0.13579644051657785,0.4800802550600869,0.7483185845641255,0.4577578450236398,-0.7724885203460633,0.6079046684371125,-0.18361209113022717,-0.4156734711504845,-0.26546414083941516,0.8699105444201716,,0.0672596621065826,0.7048539763607407,1.156222559248513,0.9921808327387445,-0.09102570795391943,-0.0853903720412298,-0.014765196533786024,-0.7649719907290138,0.6438942788776806,-0.12393217547178999,-0.6375987561872886,-0.7603345592508945,,0.19266971203483782,0.682163417389678,-0.43347675147697684,0.9944608794656804,-0.008072816379268818,-0.1047968933129805,0.06542315775325563,-0.7328125906838847,0.6772780207306052,-0.0822640239833807,-0.680382639821799,-0.7282253042755256,,0.0,0.0,0.045,1.0,0.0,0.0,0.0,1.0,0.0,0.0,0.0,1.0,,-0.0031823361860085927,-0.18649200154343593,0.22944396511176599,False,,0.1038688762851788,0.524831672178939,-0.37832575948356256,-0.4745678295583871,-0.20043838410956555,-0.8570938276080327,0.6350116975373108,0.5963383246067655,-0.49106083797832933,0.6095453380504396,-0.7773062824786267,-0.1557222658460668,False,,0.0,0.0,0.0,0.0,0.0,0.0
13:15:31.950223,,-0.6407397011086591,-0.43760865831793183,0.14270338094,-2.7205529681563867,-0.13964126865877038,0.6555753529426291,,0.10575198830418253,0.5313701157663991,-0.3925816110734018,-0.34333256662431716,-0.5675735403503742,-0.7483201353627345,0.6973668847685011,0.37964761859809165,-0.6079038688156823,0.6291281083558699,-0.7305668771487935,0.2654616004050769,,-0.011647704475889278,0.2569638073483006,-0.13579631034307857,0.4800799295462899,0.7483201353564862,0.4577556512487642,-0.7724886678408583,0.6079038688106064,-0.18361411799165628,-0.41567357299639124,-0.2654616004028604,0.8699112709967993,,0.0672596621065826,0.7048539763607407,1.156222559248513,0.9921808327387445,-0.09102570795391943,-0.0853903720412298,-0.014765196533786024,-0.7649719907290138,0.6438942788776806,-0.12393217547178999,-0.6375987561872886,-0.7603345592508945,,0.19266971203483782,0.682163417389678,-0.43347675147697684,0.9944608794656804,-0.008072816379268818,-0.1047968933129805,0.06542315775325563,-0.7328125906838847,0.6772780207306052,-0.0822640239833807,-0.680382639821799,-0.7282253042755256,,0.0,0.0,0.045,1.0,0.0,0.0,0.0,1.0,0.0,0.0,0.0,1.0,,-0.0031823361860085927,-0.18649200154343593,0.22944396511176599,False,,0.1039797239170219,0.525059322974631,-0.3787763986291721,-0.47197407779711376,-0.22719792290314456,-0.851834240751134,0.6362358259826566,0.5810747209541143,-0.5074998939943387,0.6102822655327048,-0.7814942562147178,-0.1297007474137072,False,,0.0,0.0,0.0,0.0,0.0,0.0
13:15:31.957569,,-0.6415505880604527,-0.43950845060499105,0.14231838281,-2.722859409979101,-0.14366551271233727,0.6210386868383102,,0.10581009426120748,0.531493792465585,-0.39280546462447596,-0.34333284675432824,-0.5675723485727162,-0.7483209107563548,0.6973667904949736,0.3796484319635827,-0.6079034690000812,0.6291280599800875,-0.7305673803580641,0.26546033018597565,,-0.011647903660753533,0.256963623964587,-0.13579624525718412,0.4800797667888137,0.748320910749214,0.4577545543589713,-0.7724887415870828,0.6079034689942804,-0.18361513142124392,-0.4156736239191978,-0.2654603301834425,0.8699116342811459,,0.0672596621065826,0.7048539763607407,1.156222559248513,0.9921808327387445,-0.09102570795391943,-0.0853903720412298,-0.014765196533786024,-0.7649719907290138,0.6438942788776806,-0.12393217547178999,-0.6375987561872886,-0.7603345592508945,,0.19266971203483782,0.682163417389678,-0.43347675147697684,0.9944608794656804,-0.008072816379268818,-0.1047968933129805,0.06542315775325563,-0.7328125906838847,0.6772780207306052,-0.0822640239833807,-0.680382639821799,-0.7282253042755256,,0.0,0.0,0.045,1.0,0.0,0.0,0.0,1.0,0.0,0.0,0.0,1.0,,-0.0031823361860085927,-0.18649200154343593,0.22944396511176599,False,,0.10409601482992492,0.5253069217281345,-0.37922436770117557,-0.4690803349769974,-0.2556147981095541,-0.8453547860663475,0.6378648948552674,0.5639633030372843,-0.5244747551012873,0.6108125860271274,-0.7852429355394982,-0.10149638878386208,False,,0.0,0.0,0.0,0.0,0.0,0.0
13:15:31.964217,,-0.6423074158821267,-0.44120745183732046,0.14196449564000002,-2.7247464987431402,-0.1480921811712608,0.5891168269643837,,0.10586013390709362,0.5316127183191569,-0.39300471148985705,-0.3433331508208418,-0.5675710749974432,-0.7483217372051141,0.697366688165895,0.37964929855067886,-0.6079030451860797,0.6291280074706296,-0.730567919454601,0.2654589709913967,,-0.011648250475196265,0.2569636443288666,-0.1357960579792209,0.48008030486706965,0.7483217371961882,0.4577526389815407,-0.7724891019609662,0.6079030451788288,-0.18361501842167188,-0.4156723327410974,-0.26545897098823035,0.869912666014002,,0.0672596621065826,0.7048539763607407,1.156222559248513,0.9921808327387445,-0.09102570795391943,-0.0853903720412298,-0.014765196533786024,-0.7649719907290138,0.6438942788776806,-0.12393217547178999,-0.6375987561872886,-0.7603345592508945,,0.19266971203483782,0.682163417389678,-0.43347675147697684,0.9944608794656804,-0.008072816379268818,-0.1047968933129805,0.06542315775325563,-0.7328125906838847,0.6772780207306052,-0.0822640239833807,-0.680382639821799,-0.7282253042755256,,0.0,0.0,0.045,1.0,0.0,0.0,0.0,1.0,0.0,0.0,0.0,1.0,,-0.0031823361860085927,-0.18649200154343593,0.22944396511176599,False,,0.10419631283658226,0.525544818762169,-0.3796232593850607,-0.4661617068439349,-0.28142306376704296,-0.8387456838948981,0.6399713894162777,0.5473222439936064,-0.5393282692001248,0.6108435837437833,-0.7881874272086392,-0.07503796232093199,False,,0.0,0.0,0.0,0.0,0.0,0.0
13:15:31.971193,,-0.6423074158821267,-0.44120745183732046,0.14196449564000002,-2.7247464987431402,-0.1480921811712608,0.5891168269643837,,0.10585998504993552,0.5316125729777039,-0.39300438152726436,-0.3433337350195513,-0.5675686096398025,-0.7483233390380565,0.6973664915622365,0.37965097850066665,-0.6079022215534859,0.6291279065847435,-0.7305689617517486,0.2654563415729044,,-0.011648796473618566,0.2569634813090127,-0.1357958056139019,0.4800806801890679,0.7483233390353787,0.4577496267141971,-0.7724895360912292,0.6079022215513107,-0.18361591885068754,-0.4156710924897266,-0.26545634157195447,0.8699140610315909,,0.0672596621065826,0.7048539763607407,1.156222559248513,0.9921808327387445,-0.09102570795391943,-0.0853903720412298,-0.014765196533786024,-0.7649719907290138,0.6438942788776806,-0.12393217547178999,-0.6375987561872886,-0.7603345592508945,,0.19266971203483782,0.682163417389678,-0.43347675147697684,0.9944608794656804,-0.008072816379268818,-0.1047968933129805,0.06542315775325563,-0.7328125906838847,0.6772780207306052,-0.0822640239833807,-0.680382639821799,-0.7282253042755256,,0.0,0.0,0.045,1.0,0.0,0.0,0.0,1.0,0.0,0.0,0.0,1.0,,-0.0031823361860085927,-0.18649200154343593,0.22944396511176599,False,,0.10419631283658226,0.525544818762169,-0.3796232593850607,-0.4661617068439349,-0.28142306376704296,-0.8387456838948981,0.6399713894162777,0.5473222439936064,-0.5393282692001248,0.6108435837437833,-0.7881874272086392,-0.07503796232093199,False,,0.0,0.0,0.0,0.0,0.0,0.0
13:15:31.977950,,-0.6430256300394296,-0.44279061207653647,0.1416196825,-2.726423910977842,-0.15292127403554107,0.5576055607112428,,0.10590781973819072,0.531733132443349,-0.3931900214948363,-0.34333347883458293,-0.5675697196234784,-0.7483226147042926,0.6973665777776356,0.37965021835408275,-0.6079025973808685,0.6291279508256266,-0.7305684944412971,0.2654575228162208,,-0.011648744918416432,0.25696386844055963,-0.13579574850763113,0.48008154378386203,0.7483226146998297,0.4577499051173971,-0.772489748963573,0.6079025973772431,-0.1836137789934888,-0.41566969946385546,-0.26545752281463764,0.8699143661975105,,0.0672596621065826,0.7048539763607407,1.156222559248513,0.9921808327387445,-0.09102570795391943,-0.0853903720412298,-0.014765196533786024,-0.7649719907290138,0.6438942788776806,-0.12393217547178999,-0.6375987561872886,-0.7603345592508945,,0.19266971203483782,0.682163417389678,-0.43347675147697684,0.9944608794656804,-0.008072816379268818,-0.1047968933129805,0.06542315775325563,-0.7328125906838847,0.6772780207306052,-0.0822640239833807,-0.680382639821799,-0.7282253042755256,,0.0,0.0,0.045,1.0,0.0,0.0,0.0,1.0,0.0,0.0,0.0,1.0,,-0.0031823361860085927,-0.18649200154343593,0.22944396511176599,False,,0.10429204292962392,0.5257854923086678,-0.37999441333376127,-0.46310839393544034,-0.30657786986495283,-0.831589216606135,0.6424679027427335,0.5302226274941805,-0.5532621071775307,0.6105453377202147,-0.7904897058167398,-0.048584108367588336,False,,0.0,0.0,0.0,0.0,0.0,0.0
13:15:31.985277,,-0.6437052305323613,-0.444288822254136,0.14128523968,-2.728310999741881,-0.15721380102601237,0.527613285618561,,0.10595611497637,0.5318497425610724,-0.3933668074507082,-0.3433337828998583,-0.5675684460458268,-0.7483234411488113,0.6973664754487948,0.37965108494094274,-0.6079021735635516,0.6291278983162313,-0.7305690335322806,0.2654561636201184,,-0.0116490917337888,0.2569638888055106,-0.13579556123149863,0.4800820818498518,0.7483234411425631,0.45774798973514447,-0.7724901093397091,0.6079021735584759,-0.1836136659905951,-0.41566840828037127,-0.265456163617902,0.8699153979199524,,0.0672596621065826,0.7048539763607407,1.156222559248513,0.9921808327387445,-0.09102570795391943,-0.0853903720412298,-0.014765196533786024,-0.7649719907290138,0.6438942788776806,-0.12393217547178999,-0.6375987561872886,-0.7603345592508945,,0.19266971203483782,0.682163417389678,-0.43347675147697684,0.9944608794656804,-0.008072816379268818,-0.1047968933129805,0.06542315775325563,-0.7328125906838847,0.6772780207306052,-0.0822640239833807,-0.680382639821799,-0.7282253042755256,,0.0,0.0,0.045,1.0,0.0,0.0,0.0,1.0,0.0,0.0,0.0,1.0,,-0.0031823361860085927,-0.18649200154343593,0.22944396511176599,False,,0.10438885212245445,0.526018757870848,-0.3803483831970334,-0.4601535924138862,-0.3305972293329521,-0.8239928053969714,0.6445630194065531,0.51385644590881,-0.566118421367362,0.6105711960141118,-0.7916167159398177,-0.02336214122368241,False,,0.0,0.0,0.0,0.0,0.0,0.0
13:15:31.992425,,-0.6437052305323613,-0.444288822254136,0.14128523968,-2.728310999741881,-0.15721380102601237,0.527613285618561,,0.10595611497637,0.5318497425610724,-0.3933668074507082,-0.3433337828998583,-0.5675684460458268,-0.7483234411488113,0.6973664754487948,0.37965108494094274,-0.6079021735635516,0.6291278983162313,-0.7305690335322806,0.2654561636201184,,-0.0116490917337888,0.2569638888055105,-0.13579556123149863,0.4800820818498518,0.7483234411425631,0.45774798973514447,-0.7724901093397091,0.6079021735584759,-0.1836136659905951,-0.41566840828037127,-0.265456163617902,0.8699153979199524,,0.0672596621065826,0.7048539763607407,1.156222559248513,0.9921808327387445,-0.09102570795391943,-0.0853903720412298,-0.014765196533786024,-0.7649719907290138,0.6438942788776806,-0.12393217547178999,-0.6375987561872886,-0.7603345592508945,,0.19266971203483782,0.682163417389678,-0.43347675147697684,0.9944608794656804,-0.008072816379268818,-0.1047968933129805,0.06542315775325563,-0.7328125906838847,0.6772780207306052,-0.0822640239833807,-0.680382639821799,-0.7282253042755256,,0.0,0.0,0.045,1.0,0.0,0.0,0.0,1.0,0.0,0.0,0.0,1.0,,-0.0031823361860085927,-0.18649200154343593,0.22944396511176599,False,,0.10438885212245445,0.526018757870848,-0.3803483831970334,-0.4601535924138862,-0.3305972293329521,-0.8239928053969714,0.6445630194065531,0.51385644590881,-0.566118421367362,0.6105711960141118,-0.7916167159398177,-0.02336214122368241,False,,0.0,0.0,0.0,0.0,0.0,0.0
13:15:31.998524,,-0.6443384946280477,-0.445663468705748,0.14097672266000003,-2.730407765035258,-0.16070147920577033,0.5005883137070706,,0.10600190148883831,0.5319563190762933,-0.3935306130298919,-0.34333375895961876,-0.5675685278428214,-0.7483233900934749,0.6973664835055449,0.37965103172084924,-0.6079021975584603,0.6291279024505024,-0.7305689976419937,0.2654562525965506,,-0.011648944104184156,0.25696368505750244,-0.13579568342349302,0.4800813810183726,0.7483233900863342,0.45774880822357533,-0.7724898227135728,0.6079021975526595,-0.18361479242020642,-0.41566975038407616,-0.2654562525940175,0.8699147294736975,,0.0672596621065826,0.7048539763607407,1.156222559248513,0.9921808327387445,-0.09102570795391943,-0.0853903720412298,-0.014765196533786024,-0.7649719907290138,0.6438942788776806,-0.12393217547178999,-0.6375987561872886,-0.7603345592508945,,0.19266971203483782,0.682163417389678,-0.43347675147697684,0.9944608794656804,-0.008072816379268818,-0.1047968933129805,0.06542315775325563,-0.7328125906838847,0.6772780207306052,-0.0822640239833807,-0.680382639821799,-0.7282253042755256,,0.0,0.0,0.045,1.0,0.0,0.0,0.0,1.0,0.0,0.0,0.0,1.0,,-0.0031823361860085927,-0.18649200154343593,0.22944396511176599,False,,0.10448028543136359,0.5262321109300869,-0.38067585837205936,-0.45742981127084026,-0.35236477061829474,-0.8164539400283646,0.6460833598095405,0.4991731065296139,-0.577410167813826,0.6110108509166916,-0.7916219287922054,-0.0006796450317344271,False,,0.0,0.0,0.0,0.0,0.0,0.0
13:15:32.004680,,-0.6450180951209795,-0.44709989702035374,0.14064876129,-2.732714206857972,-0.16418915738552828,0.4731500519312788,,0.10605044241349132,0.5320703888454236,-0.3937030194512473,-0.34333375895961893,-0.5675685278428213,-0.7483233900934748,0.6973664835055449,0.3796510317208491,-0.6079021975584604,0.6291279024505024,-0.7305689976419938,0.2654562525965506,,-0.01164894410418415,0.25696368505750244,-0.13579568342349302,0.4800813810183727,0.7483233900863341,0.45774880822357544,-0.7724898227135727,0.6079021975526596,-0.1836147924202064,-0.4156697503840763,-0.2654562525940175,0.8699147294736974,,0.0672596621065826,0.7048539763607407,1.156222559248513,0.9921808327387445,-0.09102570795391943,-0.0853903720412298,-0.014765196533786024,-0.7649719907290138,0.6438942788776806,-0.12393217547178999,-0.6375987561872886,-0.7603345592508945,,0.19266971203483782,0.682163417389678,-0.43347675147697684,0.9944608794656804,-0.008072816379268818,-0.1047968933129805,0.06542315775325563,-0.7328125906838847,0.6772780207306052,-0.0822640239833807,-0.680382639821799,-0.7282253042755256,,0.0,0.0,0.045,1.0,0.0,0.0,0.0,1.0,0.0,0.0,0.0,1.0,,-0.0031823361860085927,-0.18649200154343593,0.22944396511176599,False,,0.10457736728066962,0.5264602504683473,-0.3810206712147703,-0.45458479363756127,-0.3743692349377521,-0.8082081052090594,0.6475318780621262,0.48415016225040647,-0.5884735230120731,0.611600467860213,-0.7908516272506666,0.022328712191731215,False,,0.0,0.0,0.0,0.0,0.0,0.0
13:15:32.012398,,-0.6450180951209795,-0.44709989702035374,0.14064876129,-2.732714206857972,-0.16418915738552828,0.4731500519312788,,0.10605055177121783,0.5320704115087815,-0.39370321842909917,-0.34333345488278705,-0.5675698014213347,-0.7483225636533993,0.6973665858382679,0.37965016513959254,-0.6079026213677302,0.6291279549618878,-0.7305684585471965,0.2654576117979029,,-0.011648597290519425,0.2569636646937818,-0.1357958707029871,0.4800808429362927,0.7483225636400103,0.45775072360077945,-0.7724894623354667,0.6079026213568536,-0.1836149054198582,-0.4156710415586539,-0.2654576117931533,0.8699136977395144,,0.0672596621065826,0.7048539763607407,1.156222559248513,0.9921808327387445,-0.09102570795391943,-0.0853903720412298,-0.014765196533786024,-0.7649719907290138,0.6438942788776806,-0.12393217547178999,-0.6375987561872886,-0.7603345592508945,,0.19266971203483782,0.682163417389678,-0.43347675147697684,0.9944608794656804,-0.008072816379268818,-0.1047968933129805,0.06542315775325563,-0.7328125906838847,0.6772780207306052,-0.0822640239833807,-0.680382639821799,-0.7282253042755256,,0.0,0.0,0.045,1.0,0.0,0.0,0.0,1.0,0.0,0.0,0.0,1.0,,-0.0031823361860085927,-0.18649200154343593,0.22944396511176599,False,,0.10457736728066962,0.5264602504683473,-0.3810206712147703,-0.45458479363756127,-0.3743692349377521,-0.8082081052090594,0.6475318780621262,0.48415016225040647,-0.5884735230120731,0.611600467860213,-0.7908516272506666,0.022328712191731215,False,,0.0,0.0,0.0,0.0,0.0,0.0
13:15:32.018769,,-0.6456359137509174,-0.4483432570131039,0.14037005894000001,-2.7343916190926736,-0.1670061282230251,0.45005582746984396,,0.10608996378360767,0.5321677016197905,-0.3938536015451028,-0.34333259055907445,-0.5675734585541043,-0.7483201864208445,0.6973668767136225,0.3796476718209488,-0.6079038448172708,0.6291281042225678,-0.7305669130379953,0.2654615114314168,,-0.01164785210643015,0.25696401109676476,-0.1357961881525977,0.4800806303802058,0.7483201864083482,0.4577548327588917,-0.7724889544614828,0.6079038448071192,-0.1836129915619501,-0.4156722308927444,-0.26546151142698377,0.8699119394410861,,0.0672596621065826,0.7048539763607407,1.156222559248513,0.9921808327387445,-0.09102570795391943,-0.0853903720412298,-0.014765196533786024,-0.7649719907290138,0.6438942788776806,-0.12393217547178999,-0.6375987561872886,-0.7603345592508945,,0.19266971203483782,0.682163417389678,-0.43347675147697684,0.9944608794656804,-0.008072816379268818,-0.1047968933129805,0.06542315775325563,-0.7328125906838847,0.6772780207306052,-0.0822640239833807,-0.680382639821799,-0.7282253042755256,,0.0,0.0,0.045,1.0,0.0,0.0,0.0,1.0,0.0,0.0,0.0,1.0,,-0.0031823361860085927,-0.18649200154343593,0.22944396511176599,False,,0.10465581459240599,0.5266542946527034,-0.3813205155539723,-0.4524505405386274,-0.39258725125496585,-0.800727018726341,0.6486879888052072,0.47125932138447446,-0.5975939634803048,0.6119578429484821,-0.7898037111588644,0.04144509975287619,False,,0.0,0.0,0.0,0.0,0.0,0.0
13:15:32.026420,,-0.6462228414493585,-0.44948622147848916,0.1401159861,-2.735859354798037,-0.16888410878135632,0.4295165150731378,,0.10612459668284051,0.5322571593768591,-0.393992814689289,-0.34337644701365067,-0.5675763771737379,-0.7482978495964133,0.6973521165968196,0.3796210670987553,-0.6079373906026329,0.6291205298781922,-0.7305784704527893,0.26544765472055953,,-0.011647265729813543,0.25696455782125754,-0.13579637833772262,0.4801125671095819,0.7482978482443767,0.4577578503998055,-0.7724632638466753,0.6079373895042017,-0.18361000200568003,-0.4156830827651717,-0.2654476542409444,0.8699109804728247,,0.0672596621065826,0.7048539763607407,1.156222559248513,0.9921808327387445,-0.09102570795391943,-0.0853903720412298,-0.014765196533786024,-0.7649719907290138,0.6438942788776806,-0.12393217547178999,-0.6375987561872886,-0.7603345592508945,,0.19259495630278722,0.6821872902780766,-0.43347847514540105,0.9944591470284195,-0.008192674403830275,-0.10480403130424534,0.06534201979727215,-0.7328012701344396,0.6772981019744299,-0.08234941007876928,-0.6803933998617749,-0.7282056001461495,,0.0,0.0,0.045,1.0,0.0,0.0,0.0,1.0,0.0,0.0,0.0,1.0,,-0.0031823361860085927,-0.18649200154343593,0.22944396511176599,False,,0.10472795622204191,0.5268274638456167,-0.3816008994474026,-0.4509298734702664,-0.40873783656088397,-0.7934706233854016,0.6492350145546597,0.45984207197719007,-0.6058375728823162,0.6124999143577905,-0.7883391718056723,0.05801038793566621,False,,0.0,0.0,0.0,0.0,0.0,0.0
13:15:32.032525,,-0.6462228414493585,-0.44948622147848916,0.1401159861,-2.735859354798037,-0.16888410878135632,0.4295165150731378,,0.10612372694696874,0.532261843083516,-0.3939907598652749,-0.34347112932958723,-0.5675727548865673,-0.7482571424500608,0.6973202446784819,0.3795716852728032,-0.6080047796692934,0.6291041723582828,-0.7306069419664972,0.26540805690815683,,-0.011642695593872448,0.25696347992923885,-0.1357984063506168,0.48017995441641725,0.7482571366852857,0.45775370382733677,-0.772410321994655,0.6080047749850604,-0.18360956582634608,-0.4157036088900609,-0.2654080548633815,0.8699132477212169,,0.0672596621065826,0.7048539763607407,1.156222559248513,0.9921808327387445,-0.09102570795391943,-0.0853903720412298,-0.014765196533786024,-0.7649719907290138,0.6438942788776806,-0.12393217547178999,-0.6375987561872886,-0.7603345592508945,,0.19259495630278722,0.6821872902780766,-0.43347847514540105,0.9944591470284195,-0.008192674403830275,-0.10480403130424534,0.06534201979727215,-0.7328012701344396,0.6772981019744299,-0.08234941007876928,-0.6803933998617749,-0.7282056001461495,,0.0,0.0,0.045,1.0,0.0,0.0,0.0,1.0,0.0,0.0,0.0,1.0,,-0.0031823361860085927,-0.18649200154343593,0.22944396511176599,False,,0.10472795622204191,0.5268274638456167,-0.3816008994474026,-0.4509298734702664,-0.40873783656088397,-0.7934706233854016,0.6492350145546597,0.45984207197719007,-0.6058375728823162,0.6124999143577905,-0.7883391718056723,0.05801038793566621,False,,0.0,0.0,0.0,0.0,0.0,0.0
13:15:32.039849,,-0.6468329373464222,-0.45067552234111974,0.13985543181,-2.7375367670327386,-0.17049380640278305,0.40897900017210875,,0.10619997260815078,0.5323450715926588,-0.3941278403441274,-0.34356578651651853,-0.5675692041219503,-0.7482163783743723,0.6972883728908039,0.37952225120865446,-0.6080721880408692,0.6290878121268771,-0.7306353805899978,0.26536854610810223,,-0.011637977768212892,0.25696219825595484,-0.13580055644740205,0.48024663915362553,0.7482163711049379,0.4577503775649298,-0.7723570905856945,0.6080721821330315,-0.18361025708441658,-0.41572547525053044,-0.2653685435298651,0.8699148497992142,,0.0672596621065826,0.7048539763607407,1.156222559248513,0.9921808327387445,-0.09102570795391943,-0.0853903720412298,-0.014765196533786024,-0.7649719907290138,0.6438942788776806,-0.12393217547178999,-0.6375987561872886,-0.7603345592508945,,0.19259495630278722,0.6821872902780766,-0.43347847514540105,0.9944591470284195,-0.008192674403830275,-0.10480403130424534,0.06534201979727215,-0.7328012701344396,0.6772981019744299,-0.08234941007876928,-0.6803933998617749,-0.7282056001461495,,0.0,0.0,0.045,1.0,0.0,0.0,0.0,1.0,0.0,0.0,0.0,1.0,,-0.0031823361860085927,-0.18649200154343593,0.22944396511176599,False,,0.10488204815047816,0.5269847542395919,-0.38187903448233096,-0.4494953500192426,-0.42486648542343236,-0.7857750313384991,0.6495210793751374,0.4484399115222382,-0.6140228116294086,0.6132505994766214,-0.7863778451341747,0.07438808321026219,False,,0.0,0.0,0.0,0.0,0.0,0.0
13:15:32.046637,,-0.647443033243486,-0.4518107640736307,0.13961561816,-2.7396335323261156,-0.17170107961885311,0.38940852453129876,,0.10623227770616396,0.5324290880491651,-0.39426502785900097,-0.34366104971130207,-0.567563096930372,-0.7481772610245057,0.6972562886474912,0.3794745520230684,-0.60813874429148,0.6290713400345405,-0.7306648995057152,0.2653263156519737,,-0.01163395351308847,0.2569609572598681,-0.13580233188805385,0.48031439855063524,0.7481772551289813,0.4577432224434407,-0.7723045771339406,0.608138739499438,-0.18361072381073112,-0.41574475694012936,-0.26532631356124214,0.8699185183964615,,0.0672596621065826,0.7048539763607407,1.156222559248513,0.9921808327387445,-0.09102570795391943,-0.0853903720412298,-0.014765196533786024,-0.7649719907290138,0.6438942788776806,-0.12393217547178999,-0.6375987561872886,-0.7603345592508945,,0.19259495630278722,0.6821872902780766,-0.43347847514540105,0.9944591470284195,-0.008192674403830275,-0.10480403130424534,0.06534201979727215,-0.7328012701344396,0.6772981019744299,-0.08234941007876928,-0.6803933998617749,-0.7282056001461495,,0.0,0.0,0.045,1.0,0.0,0.0,0.0,1.0,0.0,0.0,0.0,1.0,,-0.0031823361860085927,-0.18649200154343593,0.22944396511176599,False,,0.10494869728060942,0.5271437119298468,-0.38215817979212613,-0.44790530145413887,-0.44042789214806866,-0.7780771894531331,0.6494710622793305,0.4378146578216087,-0.6216957975234401,0.6144657681197836,-0.7837994623719498,0.08994566467822429,False,,0.0,0.0,0.0,0.0,0.0,0.0
13:15:32.053077,,-0.647443033243486,-0.4518107640736307,0.13961561816,-2.7396335323261156,-0.17170107961885311,0.38940852453129876,,0.10623121830714118,0.532433502602982,-0.39426251154975456,-0.3437565909436765,-0.5675557883229612,-0.748138913119672,0.6972241022893163,0.37942766834671937,-0.6082048961327332,0.6290548126909441,-0.7306949237774093,0.2652828132320057,,-0.011630128385884808,0.2569595328321076,-0.13580404214465608,0.48038199388092107,0.74813891149885,0.45773497214366626,-0.7722521347563224,0.6082048948150744,-0.1836122053523225,-0.41576408693675065,-0.26528281265727793,0.8699225534433224,,0.0672596621065826,0.7048539763607407,1.156222559248513,0.9921808327387445,-0.09102570795391943,-0.0853903720412298,-0.014765196533786024,-0.7649719907290138,0.6438942788776806,-0.12393217547178999,-0.6375987561872886,-0.7603345592508945,,0.19259495630278722,0.6821872902780766,-0.43347847514540105,0.9944591470284195,-0.008192674403830275,-0.10480403130424534,0.06534201979727215,-0.7328012701344396,0.6772981019744299,-0.08234941007876928,-0.6803933998617749,-0.7282056001461495,,0.0,0.0,0.045,1.0,0.0,0.0,0.0,1.0,0.0,0.0,0.0,1.0,,-0.0031823361860085927,-0.18649200154343593,0.22944396511176599,False,,0.10494869728060942,0.5271437119298468,-0.38215817979212613,-0.44790530145413887,-0.44042789214806866,-0.7780771894531331,0.6494710622793305,0.4378146578216087,-0.6216957975234401,0.6144657681197836,-0.7837994623719498,0.08994566467822429,False,,0.0,0.0,0.0,0.0,0.0,0.0
13:15:32.059318,,-0.6479527336131848,-0.4527606602171603,0.1394289524,-2.741310944560817,-0.17264006989801872,0.37321504694462676,,0.10625660616076749,0.5324957605056213,-0.39437618439753536,-0.3438077160004869,-0.5675479594161231,-0.7481213592600623,0.6972068755657778,0.3794057629025644,-0.608238308346432,0.6290459657944997,-0.7307123790103174,0.2652557107372951,,-0.011626491342044892,0.2569579284726287,-0.13580569255195987,0.48041798074748,0.7481213592547079,0.45772589569204875,-0.7722252397995372,0.6082383083420788,-0.1836146488366314,-0.41577246514980687,-0.26525571073539667,0.8699268159628133,,0.0672596621065826,0.7048539763607407,1.156222559248513,0.9921808327387445,-0.09102570795391943,-0.0853903720412298,-0.014765196533786024,-0.7649719907290138,0.6438942788776806,-0.12393217547178999,-0.6375987561872886,-0.7603345592508945,,0.19259495630278722,0.6821872902780766,-0.43347847514540105,0.9944591470284195,-0.008192674403830275,-0.10480403130424534,0.06534201979727215,-0.7328012701344396,0.6772981019744299,-0.08234941007876928,-0.6803933998617749,-0.7282056001461495,,0.0,0.0,0.045,1.0,0.0,0.0,0.0,1.0,0.0,0.0,0.0,1.0,,-0.0031823361860085927,-0.18649200154343593,0.22944396511176599,False,,0.10499855679226162,0.5272646532014811,-0.38238807596706414,-0.44666759883757023,-0.4531728948729378,-0.7714417563893992,0.6493852506024909,0.4289157077628827,-0.6279570940233146,0.6154566210941435,-0.7814509856585679,0.10270104461315521,False,,0.0,0.0,0.0,0.0,0.0,0.0
13:15:32.065335,,-0.6485242158458774,-0.4537877836894322,0.13923580519,-2.7427786802661807,-0.17357906017718433,0.3556439364769503,,0.1062800678495702,0.532557980869018,-0.39450002578441096,-0.34380801939401434,-0.5675466865765032,-0.7481221854459321,0.6972067733292703,0.37940662997569424,-0.6082378846752924,0.6290459132878559,-0.7307129174214175,0.26525435206482134,,-0.011626838162290428,0.2569579488312233,-0.13580550528443638,0.48041851912231825,0.7481221854414701,0.45772398027923883,-0.7722256003635124,0.6082378846716647,-0.18361453586637227,-0.41577117338219033,-0.26525435206323933,0.8699278476310432,,0.0672596621065826,0.7048539763607407,1.156222559248513,0.9921808327387445,-0.09102570795391943,-0.0853903720412298,-0.014765196533786024,-0.7649719907290138,0.6438942788776806,-0.12393217547178999,-0.6375987561872886,-0.7603345592508945,,0.19259495630278722,0.6821872902780766,-0.43347847514540105,0.9944591470284195,-0.008192674403830275,-0.10480403130424534,0.06534201979727215,-0.7328012701344396,0.6772981019744299,-0.08234941007876928,-0.6803933998617749,-0.7282056001461495,,0.0,0.0,0.045,1.0,0.0,0.0,0.0,1.0,0.0,0.0,0.0,1.0,,-0.0031823361860085927,-0.18649200154343593,0.22944396511176599,False,,0.10504569893130275,0.5273891392387065,-0.3826361566025722,-0.4456117147244796,-0.46669539624404,-0.7639539297790986,0.6492970487106452,0.4190069859276711,-0.6347018892987911,0.6163144832274797,-0.7788636291857692,0.1163095219473349,False,,0.0,0.0,0.0,0.0,0.0,0.0
13:15:32.073331,,-0.6485242158458774,-0.4537877836894322,0.13923580519,-2.7427786802661807,-0.17357906017718433,0.3556439364769503,,0.10627991897138564,0.5325578355360961,-0.3944996958703523,-0.3438086024538726,-0.5675442221731611,-0.7481237870543729,0.6972065768515245,0.3794083111597656,-0.6082370612005435,0.6290458123806996,-0.7307139586053877,0.2652517231339877,,-0.011627384167967844,0.25695778580396567,-0.1358052529405983,0.4804188950454208,0.7481237870499111,0.45772096797230993,-0.772226034858666,0.608237061196916,-0.18361543633658212,-0.4157699320031108,-0.26525172313240575,0.8699292425280866,,0.0672596621065826,0.7048539763607407,1.156222559248513,0.9921808327387445,-0.09102570795391943,-0.0853903720412298,-0.014765196533786024,-0.7649719907290138,0.6438942788776806,-0.12393217547178999,-0.6375987561872886,-0.7603345592508945,,0.19259495630278722,0.6821872902780766,-0.43347847514540105,0.9944591470284195,-0.008192674403830275,-0.10480403130424534,0.06534201979727215,-0.7328012701344396,0.6772981019744299,-0.08234941007876928,-0.6803933998617749,-0.7282056001461495,,0.0,0.0,0.045,1.0,0.0,0.0,0.0,1.0,0.0,0.0,0.0,1.0,,-0.0031823361860085927,-0.18649200154343593,0.22944396511176599,False,,0.10504569893130275,0.5273891392387065,-0.3826361566025722,-0.4456117147244796,-0.46669539624404,-0.7639539297790986,0.6492970487106452,0.4190069859276711,-0.6347018892987911,0.6163144832274797,-0.7788636291857692,0.1163095219473349,False,,0.0,0.0,0.0,0.0,0.0,0.0
13:15:32.079497,,-0.6490725298799473,-0.4547222343672134,0.13906469491,-2.7442464159715447,-0.17518875779861107,0.34006589994753716,,0.10629660392966692,0.5326158347785959,-0.3946098109761625,-0.3438091617804876,-0.5675418390454268,-0.7481253379004975,0.6972063883710383,0.3794099393843183,-0.6082362615883741,0.6290457155806815,-0.7307149641476648,0.265249182619411,,-0.011627782537849969,0.25695741903175917,-0.1358051227863077,0.48041857014999445,0.7481253378978203,0.457718774186891,-0.772226182724665,0.6082362615861975,-0.18361746321900405,-0.41577003278539726,-0.2652491826184618,0.8699299689921659,,0.0672596621065826,0.7048539763607407,1.156222559248513,0.9921808327387445,-0.09102570795391943,-0.0853903720412298,-0.014765196533786024,-0.7649719907290138,0.6438942788776806,-0.12393217547178999,-0.6375987561872886,-0.7603345592508945,,0.19259495630278722,0.6821872902780766,-0.43347847514540105,0.9944591470284195,-0.008192674403830275,-0.10480403130424534,0.06534201979727215,-0.7328012701344396,0.6772981019744299,-0.08234941007876928,-0.6803933998617749,-0.7282056001461495,,0.0,0.0,0.045,1.0,0.0,0.0,0.0,1.0,0.0,0.0,0.0,1.0,,-0.0031823361860085927,-0.18649200154343593,0.22944396511176599,False,,0.10507922683659811,0.5275056284357986,-0.3828569107482426,-0.44414124763345575,-0.47851857621187277,-0.7574684972794313,0.6497597963467957,0.41007106700968654,-0.6400421291234726,0.6168879632493799,-0.776441686298269,0.12879265730752043,False,,0.0,0.0,0.0,0.0,0.0,0.0
13:15:32.085738,,-0.6495667847838977,-0.4556335168463718,0.13889876979000002,-2.745714151676908,-0.17760330423075119,0.3253090506596948,,0.10631383535438588,0.5326739522267058,-0.3947131480821375,-0.34380913805170726,-0.5675419203252046,-0.748125287144955,0.6972063963671093,0.3794098864241583,-0.6082362854585351,0.6290457196873145,-0.730714928516714,0.26524927103741897,,-0.011627634902110924,0.2569572152866277,-0.13580524497568752,0.4804178693368564,0.748125287140493,0.4577195927102768,-0.7722258960855349,0.6082362854549075,-0.18361858963345845,-0.4157713749463751,-0.26524927103583695,0.8699293005631143,,0.0672596621065826,0.7048539763607407,1.156222559248513,0.9921808327387445,-0.09102570795391943,-0.0853903720412298,-0.014765196533786024,-0.7649719907290138,0.6438942788776806,-0.12393217547178999,-0.6375987561872886,-0.7603345592508945,,0.19259495630278722,0.6821872902780766,-0.43347847514540105,0.9944591470284195,-0.008192674403830275,-0.10480403130424534,0.06534201979727215,-0.7328012701344396,0.6772981019744299,-0.08234941007876928,-0.6803933998617749,-0.7282056001461495,,0.0,0.0,0.045,1.0,0.0,0.0,0.0,1.0,0.0,0.0,0.0,1.0,,-0.0031823361860085927,-0.18649200154343593,0.22944396511176599,False,,0.10511354991740607,0.527622063377275,-0.3830634490660215,-0.44221177589200705,-0.4895715943197049,-0.7515107446322375,0.6508135752147769,0.40140200981604035,-0.644451795584281,0.6171632163201219,-0.7740775675285432,0.1411151440154334,False,,0.0,0.0,0.0,0.0,0.0,0.0
13:15:32.093004,,-0.6495667847838977,-0.4556335168463718,0.13889876979000002,-2.745714151676908,-0.17760330423075119,0.3253090506596948,,0.10631386574087201,0.5326737295261783,-0.39471308504593,-0.3438093939893007,-0.5675408100394137,-0.7481260118085161,0.6972063101218066,0.3794106475742703,-0.608235909523277,0.6290456753933253,-0.7307153956548877,0.2652480891955228,,-0.011627686451990651,0.2569568281555378,-0.1358053020887665,0.4804170060807871,0.7481260118031617,0.4577193143374598,-0.7722256833721316,0.6082359095189238,-0.1836207294883067,-0.4157727674998729,-0.2652480891936244,0.8699289953612959,,0.0672596621065826,0.7048539763607407,1.156222559248513,0.9921808327387445,-0.09102570795391943,-0.0853903720412298,-0.014765196533786024,-0.7649719907290138,0.6438942788776806,-0.12393217547178999,-0.6375987561872886,-0.7603345592508945,,0.19259495630278722,0.6821872902780766,-0.43347847514540105,0.9944591470284195,-0.008192674403830275,-0.10480403130424534,0.06534201979727215,-0.7328012701344396,0.6772981019744299,-0.08234941007876928,-0.6803933998617749,-0.7282056001461495,,0.0,0.0,0.045,1.0,0.0,0.0,0.0,1.0,0.0,0.0,0.0,1.0,,-0.0031823361860085927,-0.18649200154343593,0.22944396511176599,False,,0.10511354991740607,0.527622063377275,-0.3830634490660215,-0.44221177589200705,-0.4895715943197049,-0.7515107446322375,0.6508135752147769,0.40140200981604035,-0.644451795584281,0.6171632163201219,-0.7740775675285432,0.1411151440154334,False,,0.0,0.0,0.0,0.0,0.0,0.0
