AlexandreBanks6/RCL_Autocam_Public/optimizationData/Data_53.csv
System Time,q_des,q0,q1,q2,q3,q4,q5,T_des,Tx,Ty,Tz,R00,R01,R02,R10,R11,R12,R20,R21,R22,T_target,Tx,Ty,Tz,R00,R01,R02,R10,R11,R12,R20,R21,R22,worldFrame,Tx,Ty,Tz,R00,R01,R02,R10,R11,R12,R20,R21,R22,ECM_T_PSM_RCM,Tx,Ty,Tz,R00,R01,R02,R10,R11,R12,R20,R21,R22,psm3_T_cam,Tx,Ty,Tz,R00,R01,R02,R10,R11,R12,R20,R21,R22,offset,x,y,z,IK Trigered,ECM_T_PSM3,Tx,Ty,Tz,R00,R01,R02,R10,R11,R12,R20,R21,R22,solverSuccess,q_solverOutput,q0,q1,q2,q3,q4,q5
09:51:48.815038,,-0.21938739549096986,0.03424259756431148,0.14227690153000003,3.555484907979025,0.3055742651341776,1.3541251386381592,,0.11194002159732624,0.5169678230011121,-0.32920370586104086,-0.7139992689182273,-0.32180483806110294,-0.6218092072209163,0.4907603284170579,0.4033919273067505,-0.7722883224778987,0.499358933069409,-0.8565725883917912,-0.13009249317146948,,0.015224508601117634,0.2665717017860127,-0.08119548474204741,-0.940007667695527,0.26160479347537363,0.2189714974701567,-0.07213890982641728,-0.7797645404499756,0.621902917782104,0.33343899346457934,0.5687971461668435,0.7518565316267345,,0.12937103981073808,0.7547861529624705,1.1322408509332544,0.9835526357690262,-0.12684632405230128,-0.1285854686433111,-0.02259330146768996,-0.7927136059830383,0.6091754112061308,-0.17920311213980478,-0.5962509110800479,-0.7825414338139686,,0.12109591017686874,0.6327854230429804,-0.47662340077757115,0.9727607051872106,-0.17091172769866633,-0.15660712556821196,-0.028225151195925502,-0.7578789236097648,0.6517843799816557,-0.23008683422492457,-0.6296099733034423,-0.7420588455326106,,0.0,0.0,0.045,1.0,0.0,0.0,0.0,1.0,0.0,0.0,0.0,1.0,,0.011125272262665034,-0.1543572570573898,0.2641522970229269,False,,0.11194002159732624,0.5169678230011121,-0.32920370586104086,-0.24227033309894863,-0.2288771309838986,-0.9428257233511947,0.5635120830143788,0.7578649346862506,-0.3287778475959121,0.789784285736884,-0.6109468059377873,-0.05463316133535935,False,,0.0,0.0,0.0,0.0,0.0,0.0
09:51:49.409723,,-0.2192406635663596,0.02346166247189406,0.14199431031,4.111756740311888,0.14044611746948377,1.1626987975380492,,0.11198871190213777,0.5169439000138987,-0.32910202800902816,-0.5438576936005983,-0.28521150234972314,-0.7892231674493922,0.6165290322207165,0.502227296501303,-0.6063494826236588,0.5693072646123747,-0.8163468267693614,-0.09729900761657102,,0.015219846920150118,0.2665753850736803,-0.081198894322916,-0.9400772525783451,0.26151087497804537,0.2187847750502025,-0.07210887388193772,-0.7796425659809846,0.6220592704548862,0.33324919479727083,0.5690074585799412,0.751781512534172,,0.12937103981073808,0.7547861529624705,1.1322408509332544,0.9835526357690262,-0.12684632405230128,-0.1285854686433111,-0.02259330146768996,-0.7927136059830383,0.6091754112061308,-0.17920311213980478,-0.5962509110800479,-0.7825414338139686,,0.12111411064961017,0.6327915070426523,-0.47663272498276177,0.9727618754399235,-0.17089527633248225,-0.15661780938912126,-0.02819999847182697,-0.7578652342619546,0.6518013859936642,-0.2300849707755627,-0.6296309166681042,-0.7420416531427944,,0.0,0.0,0.045,1.0,0.0,0.0,0.0,1.0,0.0,0.0,0.0,1.0,,0.011125272262665034,-0.1543572570573898,0.2641522970229269,False,,0.11198871190213777,0.5169439000138987,-0.32910202800902816,-0.71474866458148,-0.31900780747159796,-0.6223892393439618,0.4848254370125318,0.4153820113126127,-0.7696766076109476,0.5040621411141677,-0.8518754624063618,-0.1422306382090321,False,,0.0,0.0,0.0,0.0,0.0,0.0
09:51:49.422195,,-0.2192406635663596,0.023469385204768285,0.14199431031,4.111756740311888,0.14044611746948377,1.1626987975380492,,0.11198970905178252,0.5169483650767874,-0.3290984613704029,-0.5438886793690688,-0.2851779030306106,-0.7892139558302513,0.6165103939428287,0.5022457001905144,-0.6063531898164618,0.5692978470138707,-0.8163472424545841,-0.0973506092542206,,0.015217900551396105,0.26657622178112444,-0.08119983445547184,-0.9401011629070166,0.26147747462773496,0.21872195790366644,-0.07209803238314054,-0.7796029312458194,0.6221102027980587,0.3331840907567326,0.569077113369765,0.7517576483225036,,0.12937103981073808,0.7547861529624705,1.1322408509332544,0.9835526357690262,-0.12684632405230128,-0.1285854686433111,-0.02259330146768996,-0.7927136059830383,0.6091754112061308,-0.17920311213980478,-0.5962509110800479,-0.7825414338139686,,0.12111411064961017,0.6327915070426523,-0.47663272498276177,0.9727618754399235,-0.17089527633248225,-0.15661780938912126,-0.02819999847182697,-0.7578652342619546,0.6518013859936642,-0.2300849707755627,-0.6296309166681042,-0.7420416531427944,,0.0,0.0,0.045,1.0,0.0,0.0,0.0,1.0,0.0,0.0,0.0,1.0,,0.011125272262665034,-0.1543572570573898,0.2641522970229269,False,,0.11198970905178252,0.5169483650767874,-0.3290984613704029,-0.7147469747179078,-0.3190130707784238,-0.6223884822232163,0.4848393581865046,0.4153555067709394,-0.7696821420225067,0.5040511470921346,-0.8518864147687627,-0.14220399940763545,False,,0.0,0.0,0.0,0.0,0.0,0.0
09:51:49.434230,,-0.2192406635663596,0.023484830670516734,0.14199431031,4.111966416841225,0.14044611746948377,1.1626987975380492,,0.11199042677896175,0.51695076777228,-0.3290965309250297,-0.5438356074278152,-0.2851563210070909,-0.7892583256978162,0.6165423164904426,0.5022749700541871,-0.6062964839364189,0.5693139767037325,-0.8163367730580108,-0.09734407471960253,,0.01521692739504827,0.2665766401446913,-0.08120030457452501,-0.9401131180311586,0.2614607728262393,0.2186905501797672,-0.07209261344113695,-0.7795831137671024,0.6221356692679714,0.3331515384206568,0.5691119399216515,0.7517457146174196,,0.12937103981073808,0.7547861529624705,1.1322408509332544,0.9835526357690262,-0.12684632405230128,-0.1285854686433111,-0.02259330146768996,-0.7927136059830383,0.6091754112061308,-0.17920311213980478,-0.5962509110800479,-0.7825414338139686,,0.12111411064961017,0.6327915070426523,-0.47663272498276177,0.9727618754399235,-0.17089527633248225,-0.15661780938912126,-0.02819999847182697,-0.7578652342619546,0.6518013859936642,-0.2300849707755627,-0.6296309166681042,-0.7420416531427944,,0.0,0.0,0.045,1.0,0.0,0.0,0.0,1.0,0.0,0.0,0.0,1.0,,0.011125272262665034,-0.1543572570573898,0.2641522970229269,False,,0.11199042677896175,0.51695076777228,-0.3290965309250297,-0.7148910030115234,-0.3189750708065008,-0.622242523472292,0.4847338551743824,0.4152797179873227,-0.7697894812714386,0.5039483539619501,-0.8519375916300193,-0.14226171834574292,False,,0.0,0.0,0.0,0.0,0.0,0.0
09:51:49.447394,,-0.2192406635663596,0.023484830670516734,0.14199431031,4.109030945430498,0.1401778345325793,1.1633169348388237,,0.11198976919200962,0.5169502575180653,-0.3290969723831589,-0.5440377052247798,-0.28518992402816223,-0.789106889164305,0.616420734855365,0.5022008165692314,-0.6064815062947667,0.5692525388034099,-0.8163706554439647,-0.09741919726554978,,0.015216579082497142,0.26657712582074117,-0.08120070466893863,-0.9401198620570648,0.2614520025617,0.21867205426446965,-0.07208986611569024,-0.779570608651504,0.622151661031381,0.3331331087766393,0.569133102601809,0.751737863456146,,0.12937103981073808,0.7547861529624705,1.1322408509332544,0.9835526357690262,-0.12684632405230128,-0.1285854686433111,-0.02259330146768996,-0.7927136059830383,0.6091754112061308,-0.17920311213980478,-0.5962509110800479,-0.7825414338139686,,0.12111411064961017,0.6327915070426523,-0.47663272498276177,0.9727618754399235,-0.17089527633248225,-0.15661780938912126,-0.02819999847182697,-0.7578652342619546,0.6518013859936642,-0.2300849707755627,-0.6296309166681042,-0.7420416531427944,,0.0,0.0,0.045,1.0,0.0,0.0,0.0,1.0,0.0,0.0,0.0,1.0,,0.011125272262665034,-0.1543572570573898,0.2641522970229269,False,,0.11198976919200962,0.5169502575180653,-0.3290969723831589,-0.7144562901767834,-0.31905402513249725,-0.6227011630578349,0.4850711703467213,0.4155203474893651,-0.7694470745416997,0.5042401899147771,-0.8517906843051699,-0.14210721658536696,False,,0.0,0.0,0.0,0.0,0.0,0.0
09:51:49.459823,,-0.21924838629923382,0.02347710793764251,0.14199431031,4.105466444431758,0.138836419848057,1.1648922251735927,,0.11198530804957965,0.5169497857781912,-0.32909713877068647,-0.5448324513249615,-0.28541503155980197,-0.788476924039601,0.615942073123347,0.5018371261427121,-0.6072683602669722,0.5690105118007459,-0.8165156205392159,-0.09761802536269787,,0.015214033377869182,0.26657797160421715,-0.0812017251756696,-0.940146903640663,0.26143876623309126,0.21857165311241422,-0.07211831275596867,-0.7795254579770678,0.6222049548097278,0.33305066431251384,0.5692010438632927,0.7517229696669057,,0.12937103981073808,0.7547861529624705,1.1322408509332544,0.9835526357690262,-0.12684632405230128,-0.1285854686433111,-0.02259330146768996,-0.7927136059830383,0.6091754112061308,-0.17920311213980478,-0.5962509110800479,-0.7825414338139686,,0.12111411064961017,0.6327915070426523,-0.47663272498276177,0.9727618754399235,-0.17089527633248225,-0.15661780938912126,-0.02819999847182697,-0.7578652342619546,0.6518013859936642,-0.2300849707755627,-0.6296309166681042,-0.7420416531427944,,0.0,0.0,0.045,1.0,0.0,0.0,0.0,1.0,0.0,0.0,0.0,1.0,,0.011125272262665034,-0.1543572570573898,0.2641522970229269,False,,0.11198530804957965,0.5169497857781912,-0.32909713877068647,-0.7128721449698354,-0.31898089660234347,-0.6245514330532522,0.4864903260231907,0.41651083218256424,-0.7680142507534853,0.505114311430547,-0.8513341965863657,-0.14173784995791194,False,,0.0,0.0,0.0,0.0,0.0,0.0
09:51:49.471721,,-0.21924838629923382,0.023469385204768285,0.14199431031,4.100643884256991,0.1373608636950825,1.1666043800486232,,0.11195325772509089,0.5169558789368992,-0.32908935338756273,-0.5481536915814104,-0.2867054903330616,-0.7857019105351284,0.6139323280344394,0.5000338046213643,-0.6107808861040896,0.5679917490596899,-0.8171696005412599,-0.09807760677826657,,0.015212268237971081,0.26657725497035595,-0.08120078586812123,-0.9401459206494147,0.26148704074438606,0.21851810289270637,-0.0721993547572456,-0.7795312763179034,0.622188257923305,0.33303586434755195,0.5691708905484746,0.7517523503743467,,0.12937103981073808,0.7547861529624705,1.1322408509332544,0.9835526357690262,-0.12684632405230128,-0.1285854686433111,-0.02259330146768996,-0.7927136059830383,0.6091754112061308,-0.17920311213980478,-0.5962509110800479,-0.7825414338139686,,0.12111411064961017,0.6327915070426523,-0.47663272498276177,0.9727618754399235,-0.17089527633248225,-0.15661780938912126,-0.02819999847182697,-0.7578652342619546,0.6518013859936642,-0.2300849707755627,-0.6296309166681042,-0.7420416531427944,,0.0,0.0,0.045,1.0,0.0,0.0,0.0,1.0,0.0,0.0,0.0,1.0,,0.011125272262665034,-0.1543572570573898,0.2641522970229269,False,,0.11195325772509089,0.5169558789368992,-0.32908935338756273,-0.7071595455484643,-0.3166673024705729,-0.6321765549952805,0.49288683713599774,0.42026506981074846,-0.7618660229167855,0.506939782338852,-0.8503523332378045,-0.14111331063815352,False,,0.0,0.0,0.0,0.0,0.0,0.0
09:51:49.483133,,-0.21922521810061116,0.02346166247189406,0.14199431031,4.094143911847523,0.13548288313675128,1.1683138386801377,,0.1119364265285774,0.5169589511262596,-0.3290847157269249,-0.5506550396571558,-0.2873873630992742,-0.7837011744479029,0.6124086258475073,0.49888682394150774,-0.6132435176054639,0.5672166273019013,-0.8176309928252483,-0.09871604370037824,,0.01521070435033295,0.26657626885757046,-0.08119997223046162,-0.940144630959622,0.2615355309390928,0.21846560674668358,-0.07228031352030322,-0.7795378219078555,0.6221706541533094,0.33302193854488993,0.5691396425031006,0.7517821746864182,,0.12937103981073808,0.7547861529624705,1.1322408509332544,0.9835526357690262,-0.12684632405230128,-0.1285854686433111,-0.02259330146768996,-0.7927136059830383,0.6091754112061308,-0.17920311213980478,-0.5962509110800479,-0.7825414338139686,,0.12111411064961017,0.6327915070426523,-0.47663272498276177,0.9727618754399235,-0.17089527633248225,-0.15661780938912126,-0.02819999847182697,-0.7578652342619546,0.6518013859936642,-0.2300849707755627,-0.6296309166681042,-0.7420416531427944,,0.0,0.0,0.045,1.0,0.0,0.0,0.0,1.0,0.0,0.0,0.0,1.0,,0.011125272262665034,-0.1543572570573898,0.2641522970229269,False,,0.1119364265285774,0.5169589511262596,-0.3290847157269249,-0.702676689608649,-0.31560450387788164,-0.6376827322521967,0.49759317790576973,0.42263689583758113,-0.7574820681563431,0.5085730028051703,-0.8495715693270168,-0.13993444682765788,False,,0.0,0.0,0.0,0.0,0.0,0.0
09:51:49.494829,,-0.2192020499019885,0.02346166247189406,0.14199301402,4.086595556791366,0.13347076110996786,1.1702290434959643,,0.11191798523763494,0.5169640655604795,-0.32908004403802593,-0.5535436039708824,-0.28814567101053745,-0.7813843809424488,0.6106381886257051,0.49757193589452975,-0.6160707517826892,0.5663130592656722,-0.8181651672419555,-0.09947501202361397,,0.015209174888625334,0.26657578668959614,-0.08119915083902042,-0.9401432136745363,0.26158506009999877,0.2184124081833787,-0.07236185812083518,-0.7795430214689603,0.6221546633294748,0.33300823594212037,0.5691097608948488,0.7518108676942579,,0.12937103981073808,0.7547861529624705,1.1322408509332544,0.9835526357690262,-0.12684632405230128,-0.1285854686433111,-0.02259330146768996,-0.7927136059830383,0.6091754112061308,-0.17920311213980478,-0.5962509110800479,-0.7825414338139686,,0.12111411064961017,0.6327915070426523,-0.47663272498276177,0.9727618754399235,-0.17089527633248225,-0.15661780938912126,-0.02819999847182697,-0.7578652342619546,0.6518013859936642,-0.2300849707755627,-0.6296309166681042,-0.7420416531427944,,0.0,0.0,0.045,1.0,0.0,0.0,0.0,1.0,0.0,0.0,0.0,1.0,,0.011125272262665034,-0.1543572570573898,0.2641522970229269,False,,0.11191798523763494,0.5169640655604795,-0.32908004403802593,-0.6974212796820811,-0.31449979495565134,-0.6439669538256304,0.5029183992685762,0.4253815138197761,-0.7524118894445571,0.510565022620764,-0.8486108923842828,-0.13850238627189748,False,,0.0,0.0,0.0,0.0,0.0,0.0
09:51:49.507295,,-0.21910937710749778,0.023453939739019835,0.14199171773000002,4.066466609974949,0.12971479999330543,1.1737857240470944,,0.11190037699751215,0.5169666187113336,-0.32907573403655677,-0.557118228397851,-0.2889252591112909,-0.778550880954041,0.6084310210006276,0.4960515541582249,-0.6194711843995194,0.5651822469531166,-0.818813196195984,-0.10056827265267726,,0.015207409907457309,0.2665750697727328,-0.0811982114044411,-0.940142222790377,0.2616333397161139,0.21835886277367322,-0.07244289878549551,-0.7795488337958034,0.6221379578672303,0.33299342909188734,0.5690796145994387,0.751840252251122,,0.12937103981073808,0.7547861529624705,1.1322408509332544,0.9835526357690262,-0.12684632405230128,-0.1285854686433111,-0.02259330146768996,-0.7927136059830383,0.6091754112061308,-0.17920311213980478,-0.5962509110800479,-0.7825414338139686,,0.12111411064961017,0.6327915070426523,-0.47663272498276177,0.9727618754399235,-0.17089527633248225,-0.15661780938912126,-0.02819999847182697,-0.7578652342619546,0.6518013859936642,-0.2300849707755627,-0.6296309166681042,-0.7420416531427944,,0.0,0.0,0.045,1.0,0.0,0.0,0.0,1.0,0.0,0.0,0.0,1.0,,0.011125272262665034,-0.1543572570573898,0.2641522970229269,False,,0.11190037699751215,0.5169666187113336,-0.32907573403655677,-0.6906199135839111,-0.3137193783114408,-0.6516320178085437,0.509287337044858,0.4287649375061781,-0.7461816378678052,0.5134886009320054,-0.8471958333450456,-0.1363402973287257,False,,0.0,0.0,0.0,0.0,0.0,0.0
09:51:49.518869,,-0.2190553179773782,0.02346166247189406,0.14199171773000002,4.055563430449389,0.1281051023718787,1.175152571954035,,0.11188676601445682,0.5169666118975943,-0.32907532926516414,-0.56090049241749,-0.28955741407078284,-0.7755947018659028,0.6060759256928298,0.49457621360010207,-0.6229497100381105,0.5639703980719174,-0.8194820760075401,-0.10191426397210324,,0.01520609063580961,0.2665747459719886,-0.08119749802625587,-0.9401424576058182,0.26165601421769524,0.2183306886781467,-0.07248299806233913,-0.7795516230223805,0.6221297951578427,0.33298404524370157,0.5690653716884851,0.7518551910748896,,0.12937103981073808,0.7547861529624705,1.1322408509332544,0.9835526357690262,-0.12684632405230128,-0.1285854686433111,-0.02259330146768996,-0.7927136059830383,0.6091754112061308,-0.17920311213980478,-0.5962509110800479,-0.7825414338139686,,0.12111411064961017,0.6327915070426523,-0.47663272498276177,0.9727618754399235,-0.17089527633248225,-0.15661780938912126,-0.02819999847182697,-0.7578652342619546,0.6518013859936642,-0.2300849707755627,-0.6296309166681042,-0.7420416531427944,,0.0,0.0,0.045,1.0,0.0,0.0,0.0,1.0,0.0,0.0,0.0,1.0,,0.011125272262665034,-0.1543572570573898,0.2641522970229269,False,,0.11188676601445682,0.5169666118975943,-0.32907532926516414,-0.683132430151639,-0.31350304391084827,-0.6595801121423757,0.5158356300777298,0.43219114569657563,-0.7396785898779231,0.516956173787902,-0.8455333553681451,-0.1335277474626841,False,,0.0,0.0,0.0,0.0,0.0,0.0
09:51:49.530251,,-0.21900898158013288,0.023469385204768285,0.14199171773000002,4.043611868277142,0.1263612632819997,1.1771384559095894,,0.1118743084799238,0.516967315320346,-0.3290729048704897,-0.5648358462773283,-0.29007417825446574,-0.7725396027843302,0.603603778760302,0.49313475217354663,-0.6264827168126978,0.5626925848333694,-0.8201677190116244,-0.1034503149575208,,0.015206056266772936,0.26657424193422447,-0.08119750574061226,-0.9401425827336471,0.2616549770711384,0.2183313928194846,-0.07248241175414356,-0.779552967010417,0.6221281793949258,0.33298381958121753,0.5690640074586024,0.7518563235738231,,0.12937103981073808,0.7547861529624705,1.1322408509332544,0.9835526357690262,-0.12684632405230128,-0.1285854686433111,-0.02259330146768996,-0.7927136059830383,0.6091754112061308,-0.17920311213980478,-0.5962509110800479,-0.7825414338139686,,0.12111411064961017,0.6327915070426523,-0.47663272498276177,0.9727618754399235,-0.17089527633248225,-0.15661780938912126,-0.02819999847182697,-0.7578652342619546,0.6518013859936642,-0.2300849707755627,-0.6296309166681042,-0.7420416531427944,,0.0,0.0,0.045,1.0,0.0,0.0,0.0,1.0,0.0,0.0,0.0,1.0,,0.011125272262665034,-0.1543572570573898,0.2641522970229269,False,,0.1118743084799238,0.516967315320346,-0.3290729048704897,-0.6752537092834683,-0.3135430778409609,-0.6676250193311621,0.5224467610664617,0.43561631898410724,-0.7329991845056175,0.52065517374754,-0.8437589471956751,-0.13034196974560947,False,,0.0,0.0,0.0,0.0,0.0,0.0
09:51:49.541991,,-0.21896264518288752,0.023469385204768285,0.14199301402,4.028305481635492,0.12421499978676405,1.1797415784180796,,0.11183654372850835,0.5169684842771777,-0.32906643896369825,-0.5747024890152734,-0.2916533417210329,-0.7646276069974219,0.5973067718325576,0.4891989258210565,-0.6355383790916905,0.5594118960503239,-0.8219627359184106,-0.10693732425539132,,0.015206493056481245,0.266574207194665,-0.08119774944519664,-0.9401418494618716,0.26165644231384577,0.21833279428393482,-0.0724828324386869,-0.779553081551959,0.6221279868469738,0.3329857982945146,0.5690631768198187,0.7518560759185624,,0.12937103981073808,0.7547861529624705,1.1322408509332544,0.9835526357690262,-0.12684632405230128,-0.1285854686433111,-0.02259330146768996,-0.7927136059830383,0.6091754112061308,-0.17920311213980478,-0.5962509110800479,-0.7825414338139686,,0.12111411064961017,0.6327915070426523,-0.47663272498276177,0.9727618754399235,-0.17089527633248225,-0.15661780938912126,-0.02819999847182697,-0.7578652342619546,0.6518013859936642,-0.2300849707755627,-0.6296309166681042,-0.7420416531427944,,0.0,0.0,0.045,1.0,0.0,0.0,0.0,1.0,0.0,0.0,0.0,1.0,,0.011125272262665034,-0.1543572570573898,0.2641522970229269,False,,0.11183654372850835,0.5169684842771777,-0.32906643896369825,-0.6551896517909104,-0.31270010033492446,-0.6877100896719737,0.5385910412936585,0.4450052024651193,-0.7154649257770721,0.5297605217683916,-0.8391597088930728,-0.12314533099624658,False,,0.0,0.0,0.0,0.0,0.0,0.0
09:51:49.553939,,-0.21890858605276795,0.02347710793764251,0.14199431031,4.0119507123471525,0.12247116069688507,1.182416278814136,,0.11181823116270523,0.5169667804729289,-0.32906453176147044,-0.5805194960965092,-0.2924915681925818,-0.7598985440097246,0.5935269045741868,0.4868912993457985,-0.6408296779706324,0.5574252669178527,-0.8230343523557231,-0.10904827666660484,,0.015206895477190886,0.26657366841731234,-0.08119800086428745,-0.9401412413186991,0.2616568704054313,0.2183348998908746,-0.07248266681968919,-0.7795545400809714,0.6221261785352218,0.33298755134603575,0.5690609819498856,0.7518569607576899,,0.12937103981073808,0.7547861529624705,1.1322408509332544,0.9835526357690262,-0.12684632405230128,-0.1285854686433111,-0.02259330146768996,-0.7927136059830383,0.6091754112061308,-0.17920311213980478,-0.5962509110800479,-0.7825414338139686,,0.12111411064961017,0.6327915070426523,-0.47663272498276177,0.9727618754399235,-0.17089527633248225,-0.15661780938912126,-0.02819999847182697,-0.7578652342619546,0.6518013859936642,-0.2300849707755627,-0.6296309166681042,-0.7420416531427944,,0.0,0.0,0.045,1.0,0.0,0.0,0.0,1.0,0.0,0.0,0.0,1.0,,0.011125272262665034,-0.1543572570573898,0.2641522970229269,False,,0.11181823116270523,0.5169667804729289,-0.32906453176147044,-0.6428906515136649,-0.31245599859721973,-0.6993302933070682,0.5476611278016379,0.4507973767911163,-0.7048751763066186,0.5354987388326642,-0.8361536784699704,-0.11869341468575151,False,,0.0,0.0,0.0,0.0,0.0,0.0
09:51:49.565748,,-0.21883908145689993,0.023484830670516734,0.14199560660000002,3.995595943058814,0.12139802894926724,1.184337774864833,,0.11180753548757372,0.5169611351102061,-0.32906631404308584,-0.5861794995973246,-0.29301781150382333,-0.7553371144021324,0.5898001624054897,0.484847027389696,-0.6458011524129028,0.5554541949416605,-0.8240533491060427,-0.11138543508388614,,0.015207297897938527,0.2665731296399305,-0.08119825228352823,-0.9401406331763005,0.2616572984924517,0.21833700549896595,-0.07248250120534595,-0.7795559986094172,0.6221243702225865,0.33298930439826513,0.5690587870786856,0.7518578455922723,,0.12937103981073808,0.7547861529624705,1.1322408509332544,0.9835526357690262,-0.12684632405230128,-0.1285854686433111,-0.02259330146768996,-0.7927136059830383,0.6091754112061308,-0.17920311213980478,-0.5962509110800479,-0.7825414338139686,,0.12111411064961017,0.6327915070426523,-0.47663272498276177,0.9727618754399235,-0.17089527633248225,-0.15661780938912126,-0.02819999847182697,-0.7578652342619546,0.6518013859936642,-0.2300849707755627,-0.6296309166681042,-0.7420416531427944,,0.0,0.0,0.045,1.0,0.0,0.0,0.0,1.0,0.0,0.0,0.0,1.0,,0.011125272262665034,-0.1543572570573898,0.2641522970229269,False,,0.11180753548757372,0.5169611351102061,-0.32906631404308584,-0.6303986511023607,-0.3130367244942007,-0.7103559317738303,0.5561007159878172,0.4563600639197616,-0.6946131914504567,0.5416175166722009,-0.8329126611938935,-0.11360882209029866,False,,0.0,0.0,0.0,0.0,0.0,0.0
09:51:49.577628,,-0.21875413139528346,0.023484830670516734,0.14199431031,3.9700154064796167,0.11952004839093604,1.1869426948690005,,0.11179709439296667,0.5169566094343357,-0.32906907392634976,-0.5910400707987266,-0.29336086116479787,-0.7514060419286529,0.5865607301273152,0.4831535300976979,-0.6500070585975537,0.5537311121679431,-0.8249254945089168,-0.11348913571999614,,0.015207297897938527,0.26657312963993046,-0.08119825228352823,-0.9401406331763005,0.2616572984924517,0.21833700549896595,-0.07248250120534595,-0.7795559986094172,0.6221243702225865,0.33298930439826513,0.5690587870786856,0.7518578455922723,,0.12937103981073808,0.7547861529624705,1.1322408509332544,0.9835526357690262,-0.12684632405230128,-0.1285854686433111,-0.02259330146768996,-0.7927136059830383,0.6091754112061308,-0.17920311213980478,-0.5962509110800479,-0.7825414338139686,,0.12111411064961017,0.6327915070426523,-0.47663272498276177,0.9727618754399235,-0.17089527633248225,-0.15661780938912126,-0.02819999847182697,-0.7578652342619546,0.6518013859936642,-0.2300849707755627,-0.6296309166681042,-0.7420416531427944,,0.0,0.0,0.045,1.0,0.0,0.0,0.0,1.0,0.0,0.0,0.0,1.0,,0.011125272262665034,-0.1543572570573898,0.2641522970229269,False,,0.11179709439296667,0.5169566094343357,-0.32906907392634976,-0.6195329201461037,-0.31358055224679876,-0.7196153125857134,0.5632287327367688,0.4609704939313362,-0.6857693477725826,0.5467653568716426,-0.8301647071378622,-0.1089688191536119,False,,0.0,0.0,0.0,0.0,0.0,0.0
09:51:49.589400,,-0.21873868592953502,0.02349255340339096,0.14199431031,3.9599509330714078,0.11858105811177043,1.188176273227034,,0.11178505018329163,0.5169553543260257,-0.32907103161806417,-0.5950822808532024,-0.29360730903254734,-0.7481121754771918,0.5838388492057635,0.48175748409582936,-0.6534844486869954,0.552276449952956,-0.8256539678341785,-0.11526598902988312,,0.015207979167534094,0.2665737575624185,-0.08119859624705929,-0.940141435611407,0.26163294454032643,0.21836272531503548,-0.07244206399829363,-0.7795523657503979,0.6221336294124867,0.3329958330662987,0.5690749579918667,0.7518427121255917,,0.12937103981073808,0.7547861529624705,1.1322408509332544,0.9835526357690262,-0.12684632405230128,-0.1285854686433111,-0.02259330146768996,-0.7927136059830383,0.6091754112061308,-0.17920311213980478,-0.5962509110800479,-0.7825414338139686,,0.12111411064961017,0.6327915070426523,-0.47663272498276177,0.9727618754399235,-0.17089527633248225,-0.15661780938912126,-0.02819999847182697,-0.7578652342619546,0.6518013859936642,-0.2300849707755627,-0.6296309166681042,-0.7420416531427944,,0.0,0.0,0.045,1.0,0.0,0.0,0.0,1.0,0.0,0.0,0.0,1.0,,0.011125272262665034,-0.1543572570573898,0.2641522970229269,False,,0.11178505018329163,0.5169553543260257,-0.32907103161806417,-0.6105245130776271,-0.31387346286717244,-0.727147349743569,0.5691090778548659,0.4646430355485592,-0.6783964232065237,0.5507945864244772,-0.8280038036289389,-0.1050477260177447,False,,0.0,0.0,0.0,0.0,0.0,0.0
09:51:49.601220,,-0.21872324046378655,0.02349255340339096,0.14199560660000002,3.949676783133862,0.11723964342724814,1.1896826819177526,,0.11177189321652466,0.5169559556992621,-0.32906996617706075,-0.5986588178676628,-0.29385354222898347,-0.7451561685370198,0.5814091902662267,0.4804811928929658,-0.6565829549646589,0.5509727518337573,-0.8263098202221922,-0.11679515290073168,,0.015209106154687877,0.26657477860173256,-0.08119916626115992,-0.9401434636385502,0.261582985565823,0.21841381663975837,-0.07236068546278362,-0.779545709673285,0.6221514313961644,0.3330077849480874,0.5691070321577573,0.7518131330134659,,0.12937103981073808,0.7547861529624705,1.1322408509332544,0.9835526357690262,-0.12684632405230128,-0.1285854686433111,-0.02259330146768996,-0.7927136059830383,0.6091754112061308,-0.17920311213980478,-0.5962509110800479,-0.7825414338139686,,0.12111411064961017,0.6327915070426523,-0.47663272498276177,0.9727618754399235,-0.17089527633248225,-0.15661780938912126,-0.02819999847182697,-0.7578652342619546,0.6518013859936642,-0.2300849707755627,-0.6296309166681042,-0.7420416531427944,,0.0,0.0,0.045,1.0,0.0,0.0,0.0,1.0,0.0,0.0,0.0,1.0,,0.011125272262665034,-0.1543572570573898,0.2641522970229269,False,,0.11177189321652466,0.5169559556992621,-0.32906996617706075,-0.6025971571574138,-0.31385315839840133,-0.7337389598141505,0.5742632885576708,0.467913846917839,-0.6717725115524442,0.5541645437960939,-0.8261675537237574,-0.10172920708120153,False,,0.0,0.0,0.0,0.0,0.0,0.0
09:51:49.612882,,-0.2187000722651639,0.023500276136265184,0.14199560660000002,3.941080045431017,0.11589822874272585,1.1911202089644208,,0.11174314729905595,0.516961258897363,-0.32906196163897916,-0.6055377861384336,-0.29441478431672063,-0.7393537207144518,0.5766789540015496,0.4779023958904607,-0.6626089978364587,0.5484207997243025,-0.8276045159240593,-0.11960514893540447,,0.015210233199874277,0.26657579955090993,-0.08119973622924942,-0.9401454891100277,0.26153302828637215,0.21846490972304533,-0.07227930651035541,-0.7795390513910111,0.6221692306484278,0.3330197344232332,0.5691391085056746,0.7517835552956164,,0.12937103981073808,0.7547861529624705,1.1322408509332544,0.9835526357690262,-0.12684632405230128,-0.1285854686433111,-0.02259330146768996,-0.7927136059830383,0.6091754112061308,-0.17920311213980478,-0.5962509110800479,-0.7825414338139686,,0.12111411064961017,0.6327915070426523,-0.47663272498276177,0.9727618754399235,-0.17089527633248225,-0.15661780938912126,-0.02819999847182697,-0.7578652342619546,0.6518013859936642,-0.2300849707755627,-0.6296309166681042,-0.7420416531427944,,0.0,0.0,0.045,1.0,0.0,0.0,0.0,1.0,0.0,0.0,0.0,1.0,,0.011125272262665034,-0.1543572570573898,0.2641522970229269,False,,0.11174314729905595,0.516961258897363,-0.32906196163897916,-0.5875779309430684,-0.3127449185115182,-0.7462859981360276,0.5843757317513566,0.47392833094070014,-0.6587085404576359,0.5596938263092864,-0.8231540275531587,-0.09570928750275148,False,,0.0,0.0,0.0,0.0,0.0,0.0
09:51:49.624591,,-0.21867690406654122,0.02349255340339096,0.14199690289000003,3.9331123373161856,0.11482509699510803,1.1923528885746157,,0.11173243634157412,0.5169611067725179,-0.32905953055689297,-0.6084046502607435,-0.2946176287964134,-0.7369153508670322,0.5746851102090018,0.4768367098710514,-0.6651043348403454,0.5473397533937854,-0.8281468498531703,-0.1207973072261991,,0.015211360303093287,0.26657682040995057,-0.08120030615132784,-0.9401475120258392,0.26148307270197396,0.21851600456489628,-0.07219792714100905,-0.7795323909035763,0.6221870271692769,0.333031681491736,0.5691711870356186,0.751753978972043,,0.12937103981073808,0.7547861529624705,1.1322408509332544,0.9835526357690262,-0.12684632405230128,-0.1285854686433111,-0.02259330146768996,-0.7927136059830383,0.6091754112061308,-0.17920311213980478,-0.5962509110800479,-0.7825414338139686,,0.12111411064961017,0.6327915070426523,-0.47663272498276177,0.9727618754399235,-0.17089527633248225,-0.15661780938912126,-0.02819999847182697,-0.7578652342619546,0.6518013859936642,-0.2300849707755627,-0.6296309166681042,-0.7420416531427944,,0.0,0.0,0.045,1.0,0.0,0.0,0.0,1.0,0.0,0.0,0.0,1.0,,0.011125272262665034,-0.1543572570573898,0.2641522970229269,False,,0.11173243634157412,0.5169611067725179,-0.32905953055689297,-0.5811694476201953,-0.31228401414659485,-0.7514790533749603,0.5885264517234601,0.4764765164765091,-0.6531513950595258,0.5620308610518029,-0.8218569363063746,-0.0931261911089934,False,,0.0,0.0,0.0,0.0,0.0,0.0
09:51:49.637004,,-0.21865373586791853,0.023484830670516734,0.14199560660000002,3.9217898047319504,0.11375196524749019,1.1941366213372122,,0.11172486733094072,0.5169615632402265,-0.3290586734251671,-0.6106447069916411,-0.2947481380260953,-0.7350078754362042,0.5731178843437869,0.47602172022144446,-0.6670376395097345,0.5464878154802671,-0.8285691624768367,-0.12175471458649467,,0.015213326660398204,0.2665772676519493,-0.08120137116323528,-0.9401481905600991,0.26143501236265604,0.21857060775639614,-0.07211680243016817,-0.7795273018254594,0.6222028198212044,0.3330473586013115,0.5692002428821934,0.7517250407622673,,0.12937103981073808,0.7547861529624705,1.1322408509332544,0.9835526357690262,-0.12684632405230128,-0.1285854686433111,-0.02259330146768996,-0.7927136059830383,0.6091754112061308,-0.17920311213980478,-0.5962509110800479,-0.7825414338139686,,0.12111411064961017,0.6327915070426523,-0.47663272498276177,0.9727618754399235,-0.17089527633248225,-0.15661780938912126,-0.02819999847182697,-0.7578652342619546,0.6518013859936642,-0.2300849707755627,-0.6296309166681042,-0.7420416531427944,,0.0,0.0,0.045,1.0,0.0,0.0,0.0,1.0,0.0,0.0,0.0,1.0,,0.011125272262665034,-0.1543572570573898,0.2641522970229269,False,,0.11172486733094072,0.5169615632402265,-0.3290586734251671,-0.5760805158220158,-0.31205931992174274,-0.7554801255759281,0.5916577652146011,0.4785165479673099,-0.6488166167590914,0.5639790139282709,-0.8207562940187723,-0.09103173994309177,False,,0.0,0.0,0.0,0.0,0.0,0.0
09:51:49.648513,,-0.2186382904021701,0.02347710793764251,0.14199560660000002,3.9184349802625476,0.11321539937368127,1.195097369362561,,0.1117186306061464,0.5169609501689236,-0.32906061641557993,-0.6123971804764015,-0.29492779476673847,-0.7334761681326684,0.5718860543119132,0.4753088474835143,-0.6686014062110883,0.5458168504435396,-0.8289144077514408,-0.1224127051983283,,0.015214209245670688,0.26657762588661343,-0.08120184085604001,-0.9401486789121657,0.2614108751366182,0.2185973830933167,-0.0720762811128976,-0.7795243902005133,0.6222111657457473,0.33305475711341137,0.569215319047243,0.7517103493509327,,0.12937103981073808,0.7547861529624705,1.1322408509332544,0.9835526357690262,-0.12684632405230128,-0.1285854686433111,-0.02259330146768996,-0.7927136059830383,0.6091754112061308,-0.17920311213980478,-0.5962509110800479,-0.7825414338139686,,0.12111411064961017,0.6327915070426523,-0.47663272498276177,0.9727618754399235,-0.17089527633248225,-0.15661780938912126,-0.02819999847182697,-0.7578652342619546,0.6518013859936642,-0.2300849707755627,-0.6296309166681042,-0.7420416531427944,,0.0,0.0,0.045,1.0,0.0,0.0,0.0,1.0,0.0,0.0,0.0,1.0,,0.011125272262665034,-0.1543572570573898,0.2641522970229269,False,,0.1117186306061464,0.5169609501689236,-0.32906061641557993,-0.571991627596059,-0.31179810348563386,-0.7586880258859855,0.5940504997281204,0.4803400325351358,-0.645273164572118,0.5656231799818517,-0.8197898485629761,-0.08952665781939528,False,,0.0,0.0,0.0,0.0,0.0,0.0
09:51:49.659866,,-0.2186382904021701,0.023484830670516734,0.14199690289000003,3.9169672445571844,0.11254469203142013,1.1966082717924729,,0.1117146211408714,0.5169610515463616,-0.329060013731287,-0.6136078503269072,-0.29514562196596517,-0.7323759061107318,0.5710321071691623,0.4747279347940868,-0.6697430257256044,0.5453510232860467,-0.8291697351932623,-0.12275916112615368,,0.01521420924567069,0.26657762588661343,-0.08120184085604004,-0.9401486789121657,0.2614108751366182,0.21859738309331672,-0.07207628111289757,-0.7795243902005133,0.6222111657457473,0.3330547571134113,0.569215319047243,0.7517103493509327,,0.12937103981073808,0.7547861529624705,1.1322408509332544,0.9835526357690262,-0.12684632405230128,-0.1285854686433111,-0.02259330146768996,-0.7927136059830383,0.6091754112061308,-0.17920311213980478,-0.5962509110800479,-0.7825414338139686,,0.12111411064961017,0.6327915070426523,-0.47663272498276177,0.9727618754399235,-0.17089527633248225,-0.15661780938912126,-0.02819999847182697,-0.7578652342619546,0.6518013859936642,-0.2300849707755627,-0.6296309166681042,-0.7420416531427944,,0.0,0.0,0.045,1.0,0.0,0.0,0.0,1.0,0.0,0.0,0.0,1.0,,0.011125272262665034,-0.1543572570573898,0.2641522970229269,False,,0.1117146211408714,0.5169610515463616,-0.329060013731287,-0.5692598422941779,-0.3112063953456882,-0.760982136089377,0.5958138432760267,0.48164050130155295,-0.6426727718416577,0.5665236942192783,-0.8192514919131563,-0.08875751735041776,False,,0.0,0.0,0.0,0.0,0.0,0.0
09:51:49.671314,,-0.2186382904021701,0.02349255340339096,0.14199690289000003,3.916128538439833,0.11160570175225452,1.1981862583707574,,0.1117092643158927,0.5169649101514883,-0.32905471047284807,-0.6142605524206646,-0.2955654058137601,-0.7316591177768562,0.5705707173074758,0.4741365561832848,-0.6705546828125858,0.5450991013486379,-0.8293585575472182,-0.12260241731754366,,0.01521420924567069,0.26657762588661343,-0.08120184085604004,-0.9401486789121657,0.26141087513661815,0.21859738309331672,-0.07207628111289759,-0.7795243902005133,0.6222111657457472,0.3330547571134113,0.5692153190472429,0.7517103493509327,,0.12937103981073808,0.7547861529624705,1.1322408509332544,0.9835526357690262,-0.12684632405230128,-0.1285854686433111,-0.02259330146768996,-0.7927136059830383,0.6091754112061308,-0.17920311213980478,-0.5962509110800479,-0.7825414338139686,,0.12111411064961017,0.6327915070426523,-0.47663272498276177,0.9727618754399235,-0.17089527633248225,-0.15661780938912126,-0.02819999847182697,-0.7578652342619546,0.6518013859936642,-0.2300849707755627,-0.6296309166681042,-0.7420416531427944,,0.0,0.0,0.045,1.0,0.0,0.0,0.0,1.0,0.0,0.0,0.0,1.0,,0.011125272262665034,-0.1543572570573898,0.2641522970229269,False,,0.1117092643158927,0.5169649101514883,-0.32905471047284807,-0.5680665713156199,-0.30987973698030824,-0.7624138765544148,0.5968898697604856,0.48265623287929926,-0.6409098565633656,0.5665887873325999,-0.8191565842204885,-0.08921679548826714,False,,0.0,0.0,0.0,0.0,0.0,0.0
09:51:49.682847,,-0.21863056766929587,0.023500276136265184,0.14199819918,3.9157091853811576,0.11053257000463669,1.199350056336902,,0.11169766682149908,0.516978351331957,-0.3290403861628647,-0.6151397665308926,-0.29632627116528454,-0.7306119412174955,0.5699480909636938,0.4731572945347403,-0.6717747749323474,0.5447588835798457,-0.8296462593454172,-0.12216727513944521,,0.015214444817383313,0.2665778605389357,-0.08120195886227871,-0.9401482499543156,0.26141212648085443,0.21859773152311784,-0.07207678456715777,-0.7795237755625194,0.6222118774578898,0.33305585901580365,0.5692155860936787,0.751709658920073,,0.12937103981073808,0.7547861529624705,1.1322408509332544,0.9835526357690262,-0.12684632405230128,-0.1285854686433111,-0.02259330146768996,-0.7927136059830383,0.6091754112061308,-0.17920311213980478,-0.5962509110800479,-0.7825414338139686,,0.12111411064961017,0.6327915070426523,-0.47663272498276177,0.9727618754399235,-0.17089527633248225,-0.15661780938912126,-0.02819999847182697,-0.7578652342619546,0.6518013859936642,-0.2300849707755627,-0.6296309166681042,-0.7420416531427944,,0.0,0.0,0.045,1.0,0.0,0.0,0.0,1.0,0.0,0.0,0.0,1.0,,0.011125272262665034,-0.1543572570573898,0.2641522970229269,False,,0.11169766682149908,0.516978351331957,-0.3290403861628647,-0.5670543572091071,-0.306884444142407,-0.764376408527613,0.5987933349280652,0.4836383715978821,-0.638388962595591,0.565593403440928,-0.8197047416366181,-0.09048888618251888,False,,0.0,0.0,0.0,0.0,0.0,0.0
09:51:49.694223,,-0.2186382904021701,0.02350799886913941,0.14199819918,3.915918861910496,0.10972772119392332,1.200240125222523,,0.11169180815190967,0.5169849709957733,-0.3290344351721025,-0.6152632707960487,-0.2965875312528399,-0.7304019057441552,0.5698605270190273,0.47287733951632666,-0.6720461304981653,0.5447110126984256,-0.8297125153191955,-0.12193053172913315,,0.015214243609820214,0.26657812992706464,-0.0812018331490222,-0.9401485542858574,0.26141191226067273,0.21859667883492595,-0.07207686729871324,-0.7795230462476757,0.6222127815822951,0.3330549820522808,0.5692166832518102,0.7517092166743684,,0.12937103981073808,0.7547861529624705,1.1322408509332544,0.9835526357690262,-0.12684632405230128,-0.1285854686433111,-0.02259330146768996,-0.7927136059830383,0.6091754112061308,-0.17920311213980478,-0.5962509110800479,-0.7825414338139686,,0.12111411064961017,0.6327915070426523,-0.47663272498276177,0.9727618754399235,-0.17089527633248225,-0.15661780938912126,-0.02819999847182697,-0.7578652342619546,0.6518013859936642,-0.2300849707755627,-0.6296309166681042,-0.7420416531427944,,0.0,0.0,0.045,1.0,0.0,0.0,0.0,1.0,0.0,0.0,0.0,1.0,,0.011125272262665034,-0.1543572570573898,0.2641522970229269,False,,0.11169180815190967,0.5169849709957733,-0.3290344351721025,-0.5672326213095782,-0.30574746589409935,-0.7646997060425755,0.5992624560141633,0.4836911056217468,-0.6379086322932817,0.5649173940799999,-0.8200984096081085,-0.0911423964141469,False,,0.0,0.0,0.0,0.0,0.0,0.0
09:51:49.705587,,-0.2186382904021701,0.023515721602013633,0.14199819918,3.9186446567918853,0.10945943825701886,1.200513854303047,,0.11169305046380096,0.5169891474463805,-0.32903070308830384,-0.6144246147352981,-0.29672576299619313,-0.7310514444153076,0.570454631931687,0.47301955479773383,-0.6714417425857863,0.54503569214783,-0.8295820166525314,-0.12136627180421745,,0.015214243609820214,0.26657812992706464,-0.08120183314902221,-0.9401485542858573,0.2614119122606727,0.21859667883492595,-0.07207686729871325,-0.7795230462476758,0.622212781582295,0.3330549820522808,0.5692166832518101,0.7517092166743684,,0.12937103981073808,0.7547861529624705,1.1322408509332544,0.9835526357690262,-0.12684632405230128,-0.1285854686433111,-0.02259330146768996,-0.7927136059830383,0.6091754112061308,-0.17920311213980478,-0.5962509110800479,-0.7825414338139686,,0.12111411064961017,0.6327915070426523,-0.47663272498276177,0.9727618754399235,-0.17089527633248225,-0.15661780938912126,-0.02819999847182697,-0.7578652342619546,0.6518013859936642,-0.2300849707755627,-0.6296309166681042,-0.7420416531427944,,0.0,0.0,0.045,1.0,0.0,0.0,0.0,1.0,0.0,0.0,0.0,1.0,,0.011125272262665034,-0.1543572570573898,0.2641522970229269,False,,0.11169305046380096,0.5169891474463805,-0.32903070308830384,-0.5694635443639279,-0.3050678117969441,-0.7633117985763729,0.5983104103405138,0.4829320797297141,-0.6393756792732261,0.5636806937607841,-0.8207985359230106,-0.09248696615201377,False,,0.0,0.0,0.0,0.0,0.0,0.0
09:51:49.719065,,-0.2186382904021701,0.023523444334887858,0.14199819918,3.9276607475534053,0.10945943825701886,1.2009960258113983,,0.11169787681510199,0.516991635237429,-0.3290284417535577,-0.6127416084381461,-0.2969372346826362,-0.7323769520866033,0.571643358080098,0.4733643981372116,-0.6701865544302603,0.5456845173280459,-0.8293096075864698,-0.12030786471894965,,0.01521271401393225,0.2665776479914494,-0.08120101187061736,-0.9401471436481195,0.26146143728256943,0.21854347620554992,-0.072158412963948,-0.7795282510172317,0.6221967977996438,0.33304128515305287,0.5691867958480233,0.7517379062568643,,0.12937103981073808,0.7547861529624705,1.1322408509332544,0.9835526357690262,-0.12684632405230128,-0.1285854686433111,-0.02259330146768996,-0.7927136059830383,0.6091754112061308,-0.17920311213980478,-0.5962509110800479,-0.7825414338139686,,0.12111411064961017,0.6327915070426523,-0.47663272498276177,0.9727618754399235,-0.17089527633248225,-0.15661780938912126,-0.02819999847182697,-0.7578652342619546,0.6518013859936642,-0.2300849707755627,-0.6296309166681042,-0.7420416531427944,,0.0,0.0,0.045,1.0,0.0,0.0,0.0,1.0,0.0,0.0,0.0,1.0,,0.011125272262665034,-0.1543572570573898,0.2641522970229269,False,,0.11169787681510199,0.516991635237429,-0.3290284417535577,-0.5735680162242627,-0.3042425410102273,-0.7605630854861444,0.5961947192695247,0.48167562139617104,-0.6422931203646396,0.5617575878256534,-0.8218424861202132,-0.09488593430035144,False,,0.0,0.0,0.0,0.0,0.0,0.0
09:51:49.730708,,-0.2186460131350443,0.02353116706776208,0.14200079176000002,3.933322013845523,0.10945943825701886,1.201202670743549,,0.11170193503978333,0.516994735438395,-0.32902574981008814,-0.611413239716307,-0.29709440498648126,-0.733422637246314,0.572578297208771,0.4736443301612212,-0.6691899148011964,0.5461940533044223,-0.8290934585629395,-0.11948260585972001,,0.015210948891275776,0.2665769313156158,-0.08120007254724812,-0.9401461594254796,0.2615097126312342,0.21848992652301003,-0.07223945474536037,-0.7795340683172033,0.6221800996382826,0.3330264838876843,0.5691566439982402,0.7517672874613838,,0.12937103981073808,0.7547861529624705,1.1322408509332544,0.9835526357690262,-0.12684632405230128,-0.1285854686433111,-0.02259330146768996,-0.7927136059830383,0.6091754112061308,-0.17920311213980478,-0.5962509110800479,-0.7825414338139686,,0.12111411064961017,0.6327915070426523,-0.47663272498276177,0.9727618754399235,-0.17089527633248225,-0.15661780938912126,-0.02819999847182697,-0.7578652342619546,0.6518013859936642,-0.2300849707755627,-0.6296309166681042,-0.7420416531427944,,0.0,0.0,0.045,1.0,0.0,0.0,0.0,1.0,0.0,0.0,0.0,1.0,,0.011125272262665034,-0.1543572570573898,0.2641522970229269,False,,0.11170193503978333,0.516994735438395,-0.32902574981008814,-0.5768067614623112,-0.30359394523846917,-0.7583697490973,0.5945118585617426,0.4806698275330318,-0.6446023323948094,0.560222821706527,-0.8226707927925405,-0.09676340592016153,False,,0.0,0.0,0.0,0.0,0.0,0.0
09:51:49.744097,,-0.2186382904021701,0.023523444334887858,0.14200079176000002,3.93898328013764,0.10945943825701886,1.2013404340316494,,0.11171256167069729,0.5169988530883378,-0.32901853982053436,-0.6076226531668,-0.29743124512662106,-0.7364301499673724,0.5752302961143622,0.47453848004275223,-0.6662757217480595,0.5476356615403364,-0.8284611550224563,-0.11724886706546793,,0.015209183828584258,0.26657621453803526,-0.08119913317930609,-0.9401451724796412,0.2615579897255741,0.21843637864289564,-0.07232049605720588,-0.7795398837687204,0.6221633983967314,0.3330116805067739,0.5691264942569856,0.7517966699989352,,0.12937103981073808,0.7547861529624705,1.1322408509332544,0.9835526357690262,-0.12684632405230128,-0.1285854686433111,-0.02259330146768996,-0.7927136059830383,0.6091754112061308,-0.17920311213980478,-0.5962509110800479,-0.7825414338139686,,0.12111411064961017,0.6327915070426523,-0.47663272498276177,0.9727618754399235,-0.17089527633248225,-0.15661780938912126,-0.02819999847182697,-0.7578652342619546,0.6518013859936642,-0.2300849707755627,-0.6296309166681042,-0.7420416531427944,,0.0,0.0,0.045,1.0,0.0,0.0,0.0,1.0,0.0,0.0,0.0,1.0,,0.011125272262665034,-0.1543572570573898,0.2641522970229269,False,,0.11171256167069729,0.5169988530883378,-0.32901853982053436,-0.5859632242880186,-0.30190395031481543,-0.7519980748421492,0.5896604437818678,0.47768412053497683,-0.6512437654424774,0.5558306044299467,-0.8250284151306762,-0.10188451013772853,False,,0.0,0.0,0.0,0.0,0.0,0.0
09:51:49.755419,,-0.21865373586791853,0.023523444334887858,0.14200079176000002,3.944854222959095,0.10945943825701886,1.2014093156756995,,0.11171525628734151,0.5170023317012556,-0.32901563943968304,-0.6056643737574486,-0.29757941384105596,-0.7379818146939742,0.5765911959911862,0.47501980549451506,-0.6647546743674742,0.5483732844207958,-0.8281320407072574,-0.11612090288824992,,0.015207418810787025,0.26657549767254707,-0.08119819377263648,-0.9401441829914285,0.26160626849108415,0.21838283213790843,-0.07240153693819507,-0.7795456971116822,0.6221466944882632,0.3329968746630969,0.5690963471151926,0.7518260537277074,,0.12937103981073808,0.7547861529624705,1.1322408509332544,0.9835526357690262,-0.12684632405230128,-0.1285854686433111,-0.02259330146768996,-0.7927136059830383,0.6091754112061308,-0.17920311213980478,-0.5962509110800479,-0.7825414338139686,,0.12111411064961017,0.6327915070426523,-0.47663272498276177,0.9727618754399235,-0.17089527633248225,-0.15661780938912126,-0.02819999847182697,-0.7578652342619546,0.6518013859936642,-0.2300849707755627,-0.6296309166681042,-0.7420416531427944,,0.0,0.0,0.045,1.0,0.0,0.0,0.0,1.0,0.0,0.0,0.0,1.0,,0.011125272262665034,-0.1543572570573898,0.2641522970229269,False,,0.11171525628734151,0.5170023317012556,-0.32901563943968304,-0.5906825882355582,-0.30107944996002795,-0.7486289099194,0.5871189248521171,0.47607122671566987,-0.6547118107793166,0.5535209553719139,-0.8262610676446063,-0.10443754142529071,False,,0.0,0.0,0.0,0.0,0.0,0.0
09:51:49.768232,,-0.21867690406654122,0.02353116706776208,0.14200208805,3.9530316076032648,0.10932529678856663,1.201477298571911,,0.11171665728394786,0.5170046082435235,-0.3290104661801917,-0.6042075792560417,-0.29764761086519054,-0.7391475501655932,0.5775995685148545,0.4754137852155465,-0.663596617892587,0.5489188825509719,-0.8278814121438349,-0.11532748070482576,,0.015205889425123662,0.26657501536096007,-0.08119737231812484,-0.9401427616752026,0.2616558001641096,0.21832963587897494,-0.07248308087008193,-0.7795508937544295,0.6221306993125275,0.3329831687190021,0.5690664691228897,0.7518547486467735,,0.12937103981073808,0.7547861529624705,1.1322408509332544,0.9835526357690262,-0.12684632405230128,-0.1285854686433111,-0.02259330146768996,-0.7927136059830383,0.6091754112061308,-0.17920311213980478,-0.5962509110800479,-0.7825414338139686,,0.12111411064961017,0.6327915070426523,-0.47663272498276177,0.9727618754399235,-0.17089527633248225,-0.15661780938912126,-0.02819999847182697,-0.7578652342619546,0.6518013859936642,-0.2300849707755627,-0.6296309166681042,-0.7420416531427944,,0.0,0.0,0.045,1.0,0.0,0.0,0.0,1.0,0.0,0.0,0.0,1.0,,0.011125272262665034,-0.1543572570573898,0.2641522970229269,False,,0.11171665728394786,0.5170046082435235,-0.3290104661801917,-0.5942086495849206,-0.3004897169987789,-0.7460710493890372,0.5852037482161025,0.4748237165074169,-0.6573271722026323,0.5517722844002677,-0.8271930658679861,-0.10629665068868399,False,,0.0,0.0,0.0,0.0,0.0,0.0
09:51:49.779601,,-0.21867690406654122,0.02353116706776208,0.14200208805,3.9557574024846547,0.10959357972547108,1.201341332779488,,0.11171798618099674,0.5170084335175746,-0.3290088431672752,-0.6029765773901534,-0.29774433486267204,-0.740113206324574,0.5784489878485124,0.4757103087409323,-0.662643547176488,0.5493778440890095,-0.8276762731979164,-0.11461226465487924,,0.015205653845419248,0.26657478071223156,-0.08119725432431675,-0.9401431908704254,0.2616545489650154,0.21832928722169273,-0.07248257736897318,-0.7795515084761426,0.6221299877062386,0.3329820665302695,0.569066202327399,0.7518554387186052,,0.12937103981073808,0.7547861529624705,1.1322408509332544,0.9835526357690262,-0.12684632405230128,-0.1285854686433111,-0.02259330146768996,-0.7927136059830383,0.6091754112061308,-0.17920311213980478,-0.5962509110800479,-0.7825414338139686,,0.12111411064961017,0.6327915070426523,-0.47663272498276177,0.9727618754399235,-0.17089527633248225,-0.15661780938912126,-0.02819999847182697,-0.7578652342619546,0.6518013859936642,-0.2300849707755627,-0.6296309166681042,-0.7420416531427944,,0.0,0.0,0.045,1.0,0.0,0.0,0.0,1.0,0.0,0.0,0.0,1.0,,0.011125272262665034,-0.1543572570573898,0.2641522970229269,False,,0.11171798618099674,0.5170084335175746,-0.3290088431672752,-0.597223501356311,-0.29985752372914665,-0.7439150185946867,0.583637406309876,0.47373291432873416,-0.6595032250394877,0.5501740337235023,-0.828047457181428,-0.10791636239135466,False,,0.0,0.0,0.0,0.0,0.0,0.0
09:51:49.791118,,-0.21867690406654122,0.023515721602013633,0.14200208805,3.958483197366044,0.11013014559928,1.2010694011946417,,0.11172225629179929,0.517008177612542,-0.3290091462342097,-0.6020028920494839,-0.2977529946592028,-0.7409019315236898,0.5791191315013924,0.476004703864182,-0.661846321609666,0.5497395287707902,-0.8275038828130351,-0.11412175268641943,,0.015205889425123662,0.26657501536096007,-0.08119737231812484,-0.9401427616752026,0.2616558001641096,0.21832963587897494,-0.07248308087008193,-0.7795508937544295,0.6221306993125275,0.3329831687190021,0.5690664691228897,0.7518547486467735,,0.12937103981073808,0.7547861529624705,1.1322408509332544,0.9835526357690262,-0.12684632405230128,-0.1285854686433111,-0.02259330146768996,-0.7927136059830383,0.6091754112061308,-0.17920311213980478,-0.5962509110800479,-0.7825414338139686,,0.12111411064961017,0.6327915070426523,-0.47663272498276177,0.9727618754399235,-0.17089527633248225,-0.15661780938912126,-0.02819999847182697,-0.7578652342619546,0.6518013859936642,-0.2300849707755627,-0.6296309166681042,-0.7420416531427944,,0.0,0.0,0.045,1.0,0.0,0.0,0.0,1.0,0.0,0.0,0.0,1.0,,0.011125272262665034,-0.1543572570573898,0.2641522970229269,False,,0.11172225629179929,0.517008177612542,-0.3290091462342097,-0.599391271314359,-0.29974420238412836,-0.7422152767285645,0.5822495171180586,0.47302207437678556,-0.6612379427770841,0.5492864495761244,-0.8284947376353006,-0.10899938542336035,False,,0.0,0.0,0.0,0.0,0.0,0.0
09:51:49.804394,,-0.21868462679941544,0.023523444334887858,0.14200208805,3.9612089922474345,0.11053257000463669,1.201003215794107,,0.11173174145006723,0.5170043346449311,-0.3290128755571884,-0.5999659805457865,-0.2977673931159244,-0.7425465653982108,0.580516148398835,0.47662087027899996,-0.6601769061870238,0.5504923465734238,-0.8271439570059345,-0.11309752761510816,,0.015206125003384263,0.2665752500101265,-0.08119749031408972,-0.9401423324738657,0.2616570513617682,0.21832998453388275,-0.07248358436971562,-0.7795502790278179,0.6221314109156285,0.33298427090602767,0.569066735913827,0.7518540585704548,,0.12937103981073808,0.7547861529624705,1.1322408509332544,0.9835526357690262,-0.12684632405230128,-0.1285854686433111,-0.02259330146768996,-0.7927136059830383,0.6091754112061308,-0.17920311213980478,-0.5962509110800479,-0.7825414338139686,,0.12111411064961017,0.6327915070426523,-0.47663272498276177,0.9727618754399235,-0.17089527633248225,-0.15661780938912126,-0.02819999847182697,-0.7578652342619546,0.6518013859936642,-0.2300849707755627,-0.6296309166681042,-0.7420416531427944,,0.0,0.0,0.045,1.0,0.0,0.0,0.0,1.0,0.0,0.0,0.0,1.0,,0.011125272262665034,-0.1543572570573898,0.2641522970229269,False,,0.11173174145006723,0.5170043346449311,-0.3290128755571884,-0.6037088761267129,-0.2997785991819564,-0.7386937013122054,0.5791854927607575,0.4717793533006815,-0.6648070447691343,0.5477953612995462,-0.8291905892324727,-0.1111899674746108,False,,0.0,0.0,0.0,0.0,0.0,0.0
09:51:49.815926,,-0.2187000722651639,0.02353116706776208,0.14200338434,3.963725110599486,0.11093499440999338,1.2007992671054724,,0.11173403971961925,0.5170039877711359,-0.329011922137638,-0.5990608890150847,-0.29774124346334174,-0.7432874297291455,0.5811347874438176,0.4769222346468515,-0.6594145440632034,0.5508252082785294,-0.8269796454812879,-0.11267766364527673,,0.015206596161207729,0.26657571930809043,-0.08119772630386311,-0.9401414740752762,0.2616595537590201,0.21833068184178347,-0.07248459136628645,-0.7795490495784951,0.6221328341271083,0.33298647528290104,0.5690672694956159,0.7518526784222921,,0.12937103981073808,0.7547861529624705,1.1322408509332544,0.9835526357690262,-0.12684632405230128,-0.1285854686433111,-0.02259330146768996,-0.7927136059830383,0.6091754112061308,-0.17920311213980478,-0.5962509110800479,-0.7825414338139686,,0.12111411064961017,0.6327915070426523,-0.47663272498276177,0.9727618754399235,-0.17089527633248225,-0.15661780938912126,-0.02819999847182697,-0.7578652342619546,0.6518013859936642,-0.2300849707755627,-0.6296309166681042,-0.7420416531427944,,0.0,0.0,0.045,1.0,0.0,0.0,0.0,1.0,0.0,0.0,0.0,1.0,,0.011125272262665034,-0.1543572570573898,0.2641522970229269,False,,0.11173403971961925,0.5170039877711359,-0.329011922137638,-0.605695532120812,-0.299801468287302,-0.7370563085556384,0.577797199791708,0.47114686752286916,-0.6664615706372343,0.5470679283980625,-0.8295418668374526,-0.1121471037614723,False,,0.0,0.0,0.0,0.0,0.0,0.0
09:51:49.827967,,-0.21873868592953502,0.023554335266384754,0.14200727321,3.965612199363526,0.11160570175225452,1.2003215893363142,,0.1117346686067779,0.5170042443440633,-0.32900876412154745,-0.5985473083172791,-0.2976803495724622,-0.7437254393824086,0.581485247202224,0.4771336389088946,-0.6589525004943262,0.5510136359404442,-0.8268796164496821,-0.11249032361815975,,0.01520683173936217,0.2665759539573086,-0.0811978442998283,-0.9401410448724169,0.26166080495705296,0.21833103049347435,-0.07248509486279137,-0.7795484348511352,0.6221335457317767,0.33298757747076313,0.5690675362830739,0.7518519883459643,,0.12937103981073808,0.7547861529624705,1.1322408509332544,0.9835526357690262,-0.12684632405230128,-0.1285854686433111,-0.02259330146768996,-0.7927136059830383,0.6091754112061308,-0.17920311213980478,-0.5962509110800479,-0.7825414338139686,,0.12111411064961017,0.6327915070426523,-0.47663272498276177,0.9727618754399235,-0.17089527633248225,-0.15661780938912126,-0.02819999847182697,-0.7578652342619546,0.6518013859936642,-0.2300849707755627,-0.6296309166681042,-0.7420416531427944,,0.0,0.0,0.045,1.0,0.0,0.0,0.0,1.0,0.0,0.0,0.0,1.0,,0.011125272262665034,-0.1543572570573898,0.2641522970229269,False,,0.1117346686067779,0.5170042443440633,-0.32900876412154745,-0.6068518144305604,-0.29989226353387255,-0.7360675958054856,0.5769711933764732,0.47072933908946063,-0.6674714460815,0.5466581357082925,-0.8297460572927905,-0.11263375635662742,False,,0.0,0.0,0.0,0.0,0.0,0.0
09:51:49.839790,,-0.21875413139528346,0.023554335266384754,0.14200727321,3.965612199363526,0.11173984322070675,1.200115843152002,,0.11173357697817593,0.5170030320091935,-0.32900870981492736,-0.5983599040072278,-0.2976035549460499,-0.7439069493961825,0.5816130250823656,0.4772590102315635,-0.658748909833882,0.551082311756602,-0.8268349056711756,-0.11248255168130486,,0.015207504108326626,0.2665761538669779,-0.08119820599804088,-0.9401398823958561,0.26166352140232385,0.21833278060451497,-0.07248601903565961,-0.7795479346714761,0.6221340647997471,0.3329906583727622,0.5690669724269979,0.7518510506208678,,0.12937103981073808,0.7547861529624705,1.1322408509332544,0.9835526357690262,-0.12684632405230128,-0.1285854686433111,-0.02259330146768996,-0.7927136059830383,0.6091754112061308,-0.17920311213980478,-0.5962509110800479,-0.7825414338139686,,0.12111411064961017,0.6327915070426523,-0.47663272498276177,0.9727618754399235,-0.17089527633248225,-0.15661780938912126,-0.02819999847182697,-0.7578652342619546,0.6518013859936642,-0.2300849707755627,-0.6296309166681042,-0.7420416531427944,,0.0,0.0,0.045,1.0,0.0,0.0,0.0,1.0,0.0,0.0,0.0,1.0,,0.011125272262665034,-0.1543572570573898,0.2641522970229269,False,,0.11173357697817593,0.5170030320091935,-0.32900870981492736,-0.6071783253031224,-0.3002433687261957,-0.7356550827786359,0.5765238397714186,0.4706400543524343,-0.6679208047473575,0.54676754060324,-0.8296697287325141,-0.11266498021834925,False,,0.0,0.0,0.0,0.0,0.0,0.0
09:51:49.852246,,-0.21878502232678035,0.02356205799925898,0.14200727321,3.965821875892863,0.11173984322070675,1.2000469615079519,,0.11173159453144274,0.5170026860693754,-0.3290093000067555,-0.5983490512367236,-0.29754682659212656,-0.7439383703433152,0.5816204231244875,0.4773125604387929,-0.6587035775307856,0.5510862875163969,-0.8268244103994018,-0.1125402065000618,,0.015207504108326626,0.2665761538669779,-0.08119820599804088,-0.9401398823958561,0.2616635214023238,0.21833278060451497,-0.07248601903565959,-0.7795479346714761,0.6221340647997471,0.3329906583727622,0.5690669724269979,0.7518510506208678,,0.12937103981073808,0.7547861529624705,1.1322408509332544,0.9835526357690262,-0.12684632405230128,-0.1285854686433111,-0.02259330146768996,-0.7927136059830383,0.6091754112061308,-0.17920311213980478,-0.5962509110800479,-0.7825414338139686,,0.12111411064961017,0.6327915070426523,-0.47663272498276177,0.9727618754399235,-0.17089527633248225,-0.15661780938912126,-0.02819999847182697,-0.7578652342619546,0.6518013859936642,-0.2300849707755627,-0.6296309166681042,-0.7420416531427944,,0.0,0.0,0.045,1.0,0.0,0.0,0.0,1.0,0.0,0.0,0.0,1.0,,0.011125272262665034,-0.1543572570573898,0.2641522970229269,False,,0.11173159453144274,0.5170026860693754,-0.3290093000067555,-0.6071773021873571,-0.30045634841496227,-0.7355689678103815,0.5764398935879959,0.4705754327446103,-0.6680387796958223,0.5468571776878707,-0.8296292815434916,-0.11252769622136188,False,,0.0,0.0,0.0,0.0,0.0,0.0
09:51:49.864638,,-0.21880819052540304,0.02356205799925898,0.14200727321,3.9662412289515383,0.11187398468915898,1.1999100969676901,,0.11172332342684817,0.5170050009012448,-0.3290082075776979,-0.5981842101567798,-0.29751097202396126,-0.744085258720039,0.5817327679544945,0.4773946752079704,-0.6585448434017829,0.5511466568955233,-0.8267899041524601,-0.1124980754700011,,0.01520791543413965,0.2665760431030368,-0.08119843968350476,-0.94014123931189,0.26163687921231393,0.21835885601352154,-0.0724444920103933,-0.7795462605240301,0.6221409966388217,0.3329958590445966,0.5690815122260003,0.751837739622127,,0.12937103981073808,0.7547861529624705,1.1322408509332544,0.9835526357690262,-0.12684632405230128,-0.1285854686433111,-0.02259330146768996,-0.7927136059830383,0.6091754112061308,-0.17920311213980478,-0.5962509110800479,-0.7825414338139686,,0.12111411064961017,0.6327915070426523,-0.47663272498276177,0.9727618754399235,-0.17089527633248225,-0.15661780938912126,-0.02819999847182697,-0.7578652342619546,0.6518013859936642,-0.2300849707755627,-0.6296309166681042,-0.7420416531427944,,0.0,0.0,0.045,1.0,0.0,0.0,0.0,1.0,0.0,0.0,0.0,1.0,,0.011125272262665034,-0.1543572570573898,0.2641522970229269,False,,0.11172332342684817,0.5170050009012448,-0.3290082075776979,-0.6076743241895701,-0.30054891607877954,-0.7351205783846759,0.576095380153766,0.4703286754507684,-0.6685095736144802,0.5466681156663864,-0.829735672423813,-0.11266181793831442,False,,0.0,0.0,0.0,0.0,0.0,0.0
09:51:49.876820,,-0.2188313587240257,0.023569780732133203,0.14200727321,3.966660582010214,0.11187398468915898,1.1999100969676901,,0.11171968961399022,0.5170070669292735,-0.3290068209515583,-0.5980879303362688,-0.29751748059290617,-0.744160047521854,0.5817983660638772,0.47741832303857157,-0.6584697457533192,0.5511819017633663,-0.8267739071648837,-0.11244295264635738,,0.015209444838308762,0.26657652537047255,-0.08119926112478941,-0.9401426594786455,0.2615873484690937,0.21841205280655213,-0.07236294782872665,-0.7795410629516186,0.6221569904900541,0.33300956363413975,0.5691113916932371,0.7518090450606658,,0.12937103981073808,0.7547861529624705,1.1322408509332544,0.9835526357690262,-0.12684632405230128,-0.1285854686433111,-0.02259330146768996,-0.7927136059830383,0.6091754112061308,-0.17920311213980478,-0.5962509110800479,-0.7825414338139686,,0.12111411064961017,0.6327915070426523,-0.47663272498276177,0.9727618754399235,-0.17089527633248225,-0.15661780938912126,-0.02819999847182697,-0.7578652342619546,0.6518013859936642,-0.2300849707755627,-0.6296309166681042,-0.7420416531427944,,0.0,0.0,0.045,1.0,0.0,0.0,0.0,1.0,0.0,0.0,0.0,1.0,,0.011125272262665034,-0.1543572570573898,0.2641522970229269,False,,0.11171968961399022,0.5170070669292735,-0.3290068209515583,-0.6080059490613963,-0.3004713988206501,-0.734878020080008,0.575921601296014,0.4702050212890783,-0.6687462501690552,0.5464824563209563,-0.8298338245970088,-0.11283948106985797,False,,0.0,0.0,0.0,0.0,0.0,0.0
09:51:49.889413,,-0.21884680418977415,0.023569780732133203,0.14200856950000001,3.966031552422201,0.11187398468915898,1.19984121532364,,0.11171826265328032,0.5170073077446481,-0.329006723709201,-0.5981109392585993,-0.2974947547727751,-0.7441506401407464,0.5817826907803181,0.47743140557699654,-0.6584741101039481,0.5511734799930136,-0.8267745302387224,-0.1124796474964747,,0.015211141143833401,0.26657623411858167,-0.081200215947146,-0.9401438974871454,0.261536996623438,0.21846700834046787,-0.07228073428190664,-0.7795379365099558,0.6221704616195075,0.3330239177412197,0.5691388119407729,0.7517819266737512,,0.12937103981073808,0.7547861529624705,1.1322408509332544,0.9835526357690262,-0.12684632405230128,-0.1285854686433111,-0.02259330146768996,-0.7927136059830383,0.6091754112061308,-0.17920311213980478,-0.5962509110800479,-0.7825414338139686,,0.12111411064961017,0.6327915070426523,-0.47663272498276177,0.9727618754399235,-0.17089527633248225,-0.15661780938912126,-0.02819999847182697,-0.7578652342619546,0.6518013859936642,-0.2300849707755627,-0.6296309166681042,-0.7420416531427944,,0.0,0.0,0.045,1.0,0.0,0.0,0.0,1.0,0.0,0.0,0.0,1.0,,0.011125272262665034,-0.1543572570573898,0.2641522970229269,False,,0.11171826265328032,0.5170073077446481,-0.329006723709201,-0.6080063473470261,-0.30051487452091125,-0.7348599130292855,0.5759252784753093,0.47015932237887553,-0.6687752127534146,0.5464781378965361,-0.8298439743541663,-0.11278573947630455,False,,0.0,0.0,0.0,0.0,0.0,0.0
09:51:49.901172,,-0.21885452692264837,0.023577503465007428,0.14200856950000001,3.96519284630485,0.11187398468915898,1.1997723336795896,,0.11171616871482726,0.5170064150438641,-0.32900590869101676,-0.5983434758302816,-0.29747826791945825,-0.7439702716150534,0.5816242236568365,0.4773749647258279,-0.6586549973306184,0.5510883299317084,-0.8268130521276582,-0.11261362903497463,,0.015212400716172572,0.2665759775091473,-0.08120092701036652,-0.9401458658014754,0.26148518100038376,0.21852056419773785,-0.0721980996888156,-0.7795346933612337,0.6221841223393911,0.3330362912077676,0.5691670649353413,0.7517550576984309,,0.12937103981073808,0.7547861529624705,1.1322408509332544,0.9835526357690262,-0.12684632405230128,-0.1285854686433111,-0.02259330146768996,-0.7927136059830383,0.6091754112061308,-0.17920311213980478,-0.5962509110800479,-0.7825414338139686,,0.12111411064961017,0.6327915070426523,-0.47663272498276177,0.9727618754399235,-0.17089527633248225,-0.15661780938912126,-0.02819999847182697,-0.7578652342619546,0.6518013859936642,-0.2300849707755627,-0.6296309166681042,-0.7420416531427944,,0.0,0.0,0.045,1.0,0.0,0.0,0.0,1.0,0.0,0.0,0.0,1.0,,0.011125272262665034,-0.1543572570573898,0.2641522970229269,False,,0.11171616871482726,0.5170064150438641,-0.32900590869101676,-0.6075104152755438,-0.3005938341339204,-0.735237677361821,0.5762119003923228,0.4703371787720467,-0.6684031598601397,0.5467274834668583,-0.8297145805308117,-0.11252899038281283,False,,0.0,0.0,0.0,0.0,0.0,0.0
09:51:49.913093,,-0.21886224965552262,0.023577503465007428,0.14200986579000002,3.9645638167168373,0.11187398468915898,1.1997723336795896,,0.11171419519948197,0.5170073197330786,-0.3290053261213044,-0.5986527577073761,-0.29743704408360616,-0.7437379111596775,0.5814133242048316,0.4773169317856378,-0.6588832165625651,0.5509749741380645,-0.8268613858667917,-0.11281323697158717,,0.015213930280482412,0.2665764594891508,-0.08120174830935709,-0.940147277604847,0.26143565504196303,0.21857376587020097,-0.07211655425213286,-0.7795294897002851,0.6222001074671387,0.33304998942606334,0.5691969513288871,0.7517263674921257,,0.12937103981073808,0.7547861529624705,1.1322408509332544,0.9835526357690262,-0.12684632405230128,-0.1285854686433111,-0.02259330146768996,-0.7927136059830383,0.6091754112061308,-0.17920311213980478,-0.5962509110800479,-0.7825414338139686,,0.12111411064961017,0.6327915070426523,-0.47663272498276177,0.9727618754399235,-0.17089527633248225,-0.15661780938912126,-0.02819999847182697,-0.7578652342619546,0.6518013859936642,-0.2300849707755627,-0.6296309166681042,-0.7420416531427944,,0.0,0.0,0.045,1.0,0.0,0.0,0.0,1.0,0.0,0.0,0.0,1.0,,0.011125272262665034,-0.1543572570573898,0.2641522970229269,False,,0.11171419519948197,0.5170073197330786,-0.3290053261213044,-0.6068482382362008,-0.30075326981445727,-0.7357191627554169,0.5765962938482329,0.4705218030319068,-0.6679415743851299,0.547057519526148,-0.8295521102182285,-0.11212210648387966,False,,0.0,0.0,0.0,0.0,0.0,0.0
09:51:49.926230,,-0.21886224965552262,0.023577503465007428,0.14200986579000002,3.9643541401874995,0.11187398468915898,1.1997723336795896,,0.11171190141391482,0.517006314720977,-0.32900461203308806,-0.5989494582408516,-0.29741796824363953,-0.7435066231304304,0.5812108616303537,0.4772430704806286,-0.6591153055430616,0.5508661187583532,-0.8269108802307823,-0.11298192492633809,,0.015214577290558527,0.2665765830706225,-0.08120209999834324,-0.9401481948591616,0.2614102664462806,0.2186001927131316,-0.0720755294778965,-0.7795271927601395,0.6222077416367069,0.3330562860962311,0.5692117605062765,0.7517123664991847,,0.12937103981073808,0.7547861529624705,1.1322408509332544,0.9835526357690262,-0.12684632405230128,-0.1285854686433111,-0.02259330146768996,-0.7927136059830383,0.6091754112061308,-0.17920311213980478,-0.5962509110800479,-0.7825414338139686,,0.12111411064961017,0.6327915070426523,-0.47663272498276177,0.9727618754399235,-0.17089527633248225,-0.15661780938912126,-0.02819999847182697,-0.7578652342619546,0.6518013859936642,-0.2300849707755627,-0.6296309166681042,-0.7420416531427944,,0.0,0.0,0.045,1.0,0.0,0.0,0.0,1.0,0.0,0.0,0.0,1.0,,0.011125272262665034,-0.1543572570573898,0.2641522970229269,False,,0.11171190141391482,0.517006314720977,-0.32900461203308806,-0.6061860701219113,-0.30086050148406907,-0.7362210313736683,0.5769763727613583,0.4707589881536449,-0.6674460580059656,0.5473908235121407,-0.8293786431536028,-0.111778140149984,False,,0.0,0.0,0.0,0.0,0.0,0.0
09:51:49.938170,,-0.21886224965552262,0.023569780732133203,0.14200986579000002,3.963515434070149,0.11187398468915898,1.1997723336795896,,0.11171085510853102,0.5170047459603652,-0.3290059090464218,-0.5992217113649022,-0.29741372479517125,-0.7432889188817359,0.5810249587452201,0.47716347556063854,-0.6593367992960858,0.5507661372524939,-0.8269583386690974,-0.11312191724689394,,0.01521410614546471,0.26657611376631435,-0.08120186398801103,-0.9401490527721121,0.26140776375715014,0.21859949584434582,-0.07207452256221128,-0.7795284220257711,0.6222063182061529,0.33305408229497124,0.569211226405201,0.7517137473567695,,0.12937103981073808,0.7547861529624705,1.1322408509332544,0.9835526357690262,-0.12684632405230128,-0.1285854686433111,-0.02259330146768996,-0.7927136059830383,0.6091754112061308,-0.17920311213980478,-0.5962509110800479,-0.7825414338139686,,0.12111411064961017,0.6327915070426523,-0.47663272498276177,0.9727618754399235,-0.17089527633248225,-0.15661780938912126,-0.02819999847182697,-0.7578652342619546,0.6518013859936642,-0.2300849707755627,-0.6296309166681042,-0.7420416531427944,,0.0,0.0,0.045,1.0,0.0,0.0,0.0,1.0,0.0,0.0,0.0,1.0,,0.011125272262665034,-0.1543572570573898,0.2641522970229269,False,,0.11171085510853102,0.5170047459603652,-0.3290059090464218,-0.6055235136281321,-0.3009733165675388,-0.7367199855832457,0.5773484614562455,0.4710023187096109,-0.6669524494476924,0.5477317121525355,-0.82919954081301,-0.11143649769238878,False,,0.0,0.0,0.0,0.0,0.0,0.0
09:51:49.949842,,-0.21885452692264837,0.023569780732133203,0.14200986579000002,3.961838021835447,0.11187398468915898,1.1997034520355394,,0.11170985823010585,0.517004181849019,-0.32900641530186703,-0.5995689861932176,-0.29737530956651514,-0.7430241961440127,0.5807876580837101,0.47709114495399196,-0.6595981622352568,0.5506384721510806,-0.8270138842043149,-0.11333714448677176,,0.015213703731714781,0.2665766525425979,-0.08120161255905584,-0.9401496614326462,0.2614073353236829,0.2185973904711816,-0.07207468802196013,-0.7795269634073825,0.6222081264666675,0.33305232836354065,0.5692134207251223,0.751712862875039,,0.12937103981073808,0.7547861529624705,1.1322408509332544,0.9835526357690262,-0.12684632405230128,-0.1285854686433111,-0.02259330146768996,-0.7927136059830383,0.6091754112061308,-0.17920311213980478,-0.5962509110800479,-0.7825414338139686,,0.12111411064961017,0.6327915070426523,-0.47663272498276177,0.9727618754399235,-0.17089527633248225,-0.15661780938912126,-0.02819999847182697,-0.7578652342619546,0.6518013859936642,-0.2300849707755627,-0.6296309166681042,-0.7420416531427944,,0.0,0.0,0.045,1.0,0.0,0.0,0.0,1.0,0.0,0.0,0.0,1.0,,0.011125272262665034,-0.1543572570573898,0.2641522970229269,False,,0.11170985823010585,0.517004181849019,-0.32900641530186703,-0.6046941852321794,-0.3011664177989004,-0.7373219996287707,0.5778177599645046,0.47125261825210624,-0.6663689714115871,0.5481528788723024,-0.8289871884297807,-0.11094441312339393,False,,0.0,0.0,0.0,0.0,0.0,0.0
09:51:49.961126,,-0.21885452692264837,0.023569780732133203,0.14201116208,3.9612089922474345,0.11187398468915898,1.1997034520355394,,0.1117106867009361,0.5170036029327738,-0.32900681595764036,-0.5997670950811457,-0.29735991691461766,-0.7428704540298097,0.5806522000917331,0.47704406044886605,-0.6597514584440783,0.5505655766451021,-0.8270465792221078,-0.11345264038556312,,0.015213772463570183,0.26657766062333577,-0.08120159714086236,-0.9401494121880384,0.2614094095691144,0.2185959819724826,-0.07207586038879675,-0.7795242755156011,0.6222113581528329,0.33305277824243057,0.569216149150659,0.7517105975269965,,0.12937103981073808,0.7547861529624705,1.1322408509332544,0.9835526357690262,-0.12684632405230128,-0.1285854686433111,-0.02259330146768996,-0.7927136059830383,0.6091754112061308,-0.17920311213980478,-0.5962509110800479,-0.7825414338139686,,0.12111411064961017,0.6327915070426523,-0.47663272498276177,0.9727618754399235,-0.17089527633248225,-0.15661780938912126,-0.02819999847182697,-0.7578652342619546,0.6518013859936642,-0.2300849707755627,-0.6296309166681042,-0.7420416531427944,,0.0,0.0,0.045,1.0,0.0,0.0,0.0,1.0,0.0,0.0,0.0,1.0,,0.011125272262665034,-0.1543572570573898,0.2641522970229269,False,,0.1117106867009361,0.5170036029327738,-0.32900681595764036,-0.6041958733191638,-0.30125878925271155,-0.7376926789402777,0.5780953370184366,0.4714300421306949,-0.6660026251406159,0.5484096352013096,-0.8288527355777031,-0.11067978471123285,False,,0.0,0.0,0.0,0.0,0.0,0.0
09:51:49.972468,,-0.21885452692264837,0.023569780732133203,0.14201116208,3.960370286130084,0.11187398468915898,1.1997034520355394,,0.1117100175257943,0.5170024717674369,-0.3290060965000611,-0.5999832499763811,-0.29734060609688606,-0.7427036176791626,0.5805043319235468,0.4769948918251201,-0.6599171113031836,0.5504859856215926,-0.8270818805527529,-0.11358143552335254,,0.015214209243145753,0.26657762588765627,-0.08120184086050122,-0.9401486789008742,0.261410875130482,0.2185973830946509,-0.07207628110642497,-0.7795243901905888,0.6222111657397602,0.33305475711087157,0.569215319042697,0.7517103493396324,,0.12937103981073808,0.7547861529624705,1.1322408509332544,0.9835526357690262,-0.12684632405230128,-0.1285854686433111,-0.02259330146768996,-0.7927136059830383,0.6091754112061308,-0.17920311213980478,-0.5962509110800479,-0.7825414338139686,,0.12111411064961017,0.6327915070426523,-0.47663272498276177,0.9727618754399235,-0.17089527633248225,-0.15661780938912126,-0.02819999847182697,-0.7578652342619546,0.6518013859936642,-0.2300849707755627,-0.6296309166681042,-0.7420416531427944,,0.0,0.0,0.045,1.0,0.0,0.0,0.0,1.0,0.0,0.0,0.0,1.0,,0.011125272262665034,-0.1543572570573898,0.2641522970229269,False,,0.1117100175257943,0.5170024717674369,-0.3290060965000611,-0.6036977236235481,-0.3013438781145297,-0.7380656648392756,0.5783763215800521,0.47160787460393405,-0.6656326638973545,0.5486619078515242,-0.828720628278587,-0.11041843658678552,False,,0.0,0.0,0.0,0.0,0.0,0.0
09:51:49.985152,,-0.21885452692264837,0.023577503465007428,0.14201116208,3.9595315800127326,0.11187398468915898,1.1997034520355394,,0.11170866873237476,0.5170026894443197,-0.3290060124640246,-0.600558046677465,-0.2973068102768736,-0.7422524456907763,0.5801107610771724,0.47684837884500436,-0.6603689336085966,0.5502740566784987,-0.8271785080355283,-0.11390425097732802,,0.015214915958177498,0.2665783298446745,-0.08120219487921755,-0.9401473920258033,0.26141462916356534,0.21859842838083718,-0.07207779146607664,-0.7795225462758585,0.6222133008777542,0.33305806281888617,0.5692161201785255,0.7517082780470448,,0.12937103981073808,0.7547861529624705,1.1322408509332544,0.9835526357690262,-0.12684632405230128,-0.1285854686433111,-0.02259330146768996,-0.7927136059830383,0.6091754112061308,-0.17920311213980478,-0.5962509110800479,-0.7825414338139686,,0.12111411064961017,0.6327915070426523,-0.47663272498276177,0.9727618754399235,-0.17089527633248225,-0.15661780938912126,-0.02819999847182697,-0.7578652342619546,0.6518013859936642,-0.2300849707755627,-0.6296309166681042,-0.7420416531427944,,0.0,0.0,0.045,1.0,0.0,0.0,0.0,1.0,0.0,0.0,0.0,1.0,,0.011125272262665034,-0.1543572570573898,0.2641522970229269,False,,0.11170866873237476,0.5170026894443197,-0.3290060124640246,-0.6023677355781138,-0.3015714137298697,-0.7390587213175038,0.5791282401105085,0.47207583866143604,-0.6646464353764395,0.5493301308330004,-0.8283713448526996,-0.10971473185461073,False,,0.0,0.0,0.0,0.0,0.0,0.0
09:51:49.996623,,-0.21886224965552262,0.023577503465007428,0.14201116208,3.9589025504247193,0.11187398468915898,1.1997034520355394,,0.11170664191310772,0.517002593690588,-0.32900621771585004,-0.6007831481205885,-0.2972977156275332,-0.7420739028000953,0.5799564878710731,0.47678724716140963,-0.6605485547032062,0.5501909496807128,-0.8272170145898203,-0.1140260043259436,,0.015215823881116811,0.26657876441425654,-0.08120267461153444,-0.940145800810172,0.2614185974105458,0.21860052635583252,-0.07207921907599056,-0.7795214316760454,0.6222145319029986,0.33306224549254965,0.5692158241491316,0.7517066489940268,,0.12937103981073808,0.7547861529624705,1.1322408509332544,0.9835526357690262,-0.12684632405230128,-0.1285854686433111,-0.02259330146768996,-0.7927136059830383,0.6091754112061308,-0.17920311213980478,-0.5962509110800479,-0.7825414338139686,,0.12111411064961017,0.6327915070426523,-0.47663272498276177,0.9727618754399235,-0.17089527633248225,-0.15661780938912126,-0.02819999847182697,-0.7578652342619546,0.6518013859936642,-0.2300849707755627,-0.6296309166681042,-0.7420416531427944,,0.0,0.0,0.045,1.0,0.0,0.0,0.0,1.0,0.0,0.0,0.0,1.0,,0.011125272262665034,-0.1543572570573898,0.2641522970229269,False,,0.11170664191310772,0.517002593690588,-0.32900621771585004,-0.6018691190657642,-0.30164884819379456,-0.739433253173238,0.5794119394582299,0.4722541840864878,-0.6642723763834065,0.5495774448867542,-0.8282414853146168,-0.10945626558394794,False,,0.0,0.0,0.0,0.0,0.0,0.0
09:51:50.010029,,-0.21886224965552262,0.023577503465007428,0.14201116208,3.958063844307369,0.11187398468915898,1.1997034520355394,,0.11170604179719089,0.5170022573749049,-0.32900651993180263,-0.6009946475980851,-0.2972881105903184,-0.7419064717739643,0.5798114632099919,0.4767307145575819,-0.6607166510144159,0.5501128072393351,-0.8272530478028206,-0.11414155339841082,,0.015215823881116813,0.26657876441425654,-0.08120267461153444,-0.9401458008101722,0.26141859741054585,0.21860052635583258,-0.07207921907599059,-0.7795214316760456,0.6222145319029986,0.3330622454925497,0.5692158241491316,0.7517066489940271,,0.12937103981073808,0.7547861529624705,1.1322408509332544,0.9835526357690262,-0.12684632405230128,-0.1285854686433111,-0.02259330146768996,-0.7927136059830383,0.6091754112061308,-0.17920311213980478,-0.5962509110800479,-0.7825414338139686,,0.12111411064961017,0.6327915070426523,-0.47663272498276177,0.9727618754399235,-0.17089527633248225,-0.15661780938912126,-0.02819999847182697,-0.7578652342619546,0.6518013859936642,-0.2300849707755627,-0.6296309166681042,-0.7420416531427944,,0.0,0.0,0.045,1.0,0.0,0.0,0.0,1.0,0.0,0.0,0.0,1.0,,0.011125272262665034,-0.1543572570573898,0.2641522970229269,False,,0.11170604179719089,0.5170022573749049,-0.32900651993180263,-0.6013698674437677,-0.3017332873113036,-0.7398049106750915,0.5796917289881647,0.47243219334449993,-0.6639015906250095,0.5498288659877526,-0.8281091993330468,-0.10919419447297812,False,,0.0,0.0,0.0,0.0,0.0,0.0
09:51:50.021544,,-0.21886224965552262,0.023577503465007428,0.14201116208,3.9578541677780317,0.11187398468915898,1.1997034520355394,,0.11170584169562049,0.5170021453381617,-0.3290066206216554,-0.6010604528822526,-0.2972878682603009,-0.7418532572997354,0.5797663261483782,0.4767106716883271,-0.6607707186028119,0.5500884829237873,-0.8272646849006127,-0.11417443702903102,,0.015214941300602145,0.266578406178532,-0.08120220491147521,-0.9401453123421639,0.2614427345536412,0.21857375115574013,-0.07211974042487604,-0.7795243432205341,0.622206185947846,0.3330548471141436,0.5692007478384331,0.751721340616365,,0.12937103981073808,0.7547861529624705,1.1322408509332544,0.9835526357690262,-0.12684632405230128,-0.1285854686433111,-0.02259330146768996,-0.7927136059830383,0.6091754112061308,-0.17920311213980478,-0.5962509110800479,-0.7825414338139686,,0.12111411064961017,0.6327915070426523,-0.47663272498276177,0.9727618754399235,-0.17089527633248225,-0.15661780938912126,-0.02819999847182697,-0.7578652342619546,0.6518013859936642,-0.2300849707755627,-0.6296309166681042,-0.7420416531427944,,0.0,0.0,0.045,1.0,0.0,0.0,0.0,1.0,0.0,0.0,0.0,1.0,,0.011125272262665034,-0.1543572570573898,0.2641522970229269,False,,0.11170584169562049,0.5170021453381617,-0.3290066206216554,-0.6012033978821711,-0.3017614027325885,-0.7399287331870498,0.5797849351908491,0.4724915380675028,-0.6637779563832686,0.5499126324250742,-0.8280650954336053,-0.10910680283034241,False,,0.0,0.0,0.0,0.0,0.0,0.0
09:51:50.033251,,-0.21885452692264837,0.023577503465007428,0.14201116208,3.9576444912486934,0.11200812615761122,1.1995665874952777,,0.11170564156259902,0.5170020333356689,-0.32900672128710184,-0.6011187739810775,-0.2972904341230283,-0.7418049725813569,0.5797263168565783,0.476690427687138,-0.660820424695968,0.550066920575481,-0.8272754280953803,-0.1142004770489714,,0.015212974952428189,0.26657795893404757,-0.08120113988486091,-0.9401446335813199,0.26149079473148407,0.2185191482311528,-0.0722008652018617,-0.7795294321340477,0.6221903932283089,0.3330391702744202,0.5691716916996065,0.7517502792519998,,0.12937103981073808,0.7547861529624705,1.1322408509332544,0.9835526357690262,-0.12684632405230128,-0.1285854686433111,-0.02259330146768996,-0.7927136059830383,0.6091754112061308,-0.17920311213980478,-0.5962509110800479,-0.7825414338139686,,0.12111411064961017,0.6327915070426523,-0.47663272498276177,0.9727618754399235,-0.17089527633248225,-0.15661780938912126,-0.02819999847182697,-0.7578652342619546,0.6518013859936642,-0.2300849707755627,-0.6296309166681042,-0.7420416531427944,,0.0,0.0,0.045,1.0,0.0,0.0,0.0,1.0,0.0,0.0,0.0,1.0,,0.011125272262665034,-0.1543572570573898,0.2641522970229269,False,,0.11170564156259902,0.5170020333356689,-0.32900672128710184,-0.6010369021556398,-0.30178950267620425,-0.7400525240289377,0.579878112899723,0.47255088693798997,-0.6636543026561159,0.549996378558085,-0.8280209872512705,-0.10901939389128623,False,,0.0,0.0,0.0,0.0,0.0,0.0
09:51:50.046305,,-0.21886224965552262,0.023577503465007428,0.14201116208,3.957434814719356,0.11200812615761122,1.1995665874952777,,0.11170610339944713,0.5170009769246592,-0.32900771227289366,-0.6012205569582001,-0.2972502954448619,-0.741738568330388,0.5796564789631242,0.4766948419299119,-0.6608785017486113,0.550029279481506,-0.8272873077325423,-0.11429567873588581,,0.015210974294887,0.2665770075528623,-0.08120008252631564,-0.9401440769085996,0.26153781958962885,0.2184652511787366,-0.0722814033111657,-0.779535863119004,0.622172981767359,0.33302326612964195,0.5691412737011968,0.7517803516857391,,0.12937103981073808,0.7547861529624705,1.1322408509332544,0.9835526357690262,-0.12684632405230128,-0.1285854686433111,-0.02259330146768996,-0.7927136059830383,0.6091754112061308,-0.17920311213980478,-0.5962509110800479,-0.7825414338139686,,0.12111411064961017,0.6327915070426523,-0.47663272498276177,0.9727618754399235,-0.17089527633248225,-0.15661780938912126,-0.02819999847182697,-0.7578652342619546,0.6518013859936642,-0.2300849707755627,-0.6296309166681042,-0.7420416531427944,,0.0,0.0,0.045,1.0,0.0,0.0,0.0,1.0,0.0,0.0,0.0,1.0,,0.011125272262665034,-0.1543572570573898,0.2641522970229269,False,,0.11170610339944713,0.5170009769246592,-0.32900771227289366,-0.6007021046555368,-0.30202206429309403,-0.740229460466514,0.5799730176875415,0.4726513003604005,-0.6634998470399439,0.5502620105157316,-0.827878868523506,-0.10875798285838245,False,,0.0,0.0,0.0,0.0,0.0,0.0
09:51:50.057720,,-0.21886224965552262,0.023577503465007428,0.14201116208,3.9572251381900183,0.11200812615761122,1.1995665874952777,,0.11170590293304086,0.5170008648913318,-0.32900781298520787,-0.6012777281100482,-0.2972550981427714,-0.7416902994558782,0.579617244007986,0.4766729533093475,-0.6609286996582396,0.5500081309648122,-0.8272981942513087,-0.11431864966451505,,0.015208536897166596,0.26657609081257694,-0.0811987814203329,-0.9401442510256501,0.26158338070511156,0.21840995421758563,-0.07236152020320678,-0.7795421776784266,0.6221557598489955,0.3330053806717304,0.569111688562346,0.7518106731647369,,0.12937103981073808,0.7547861529624705,1.1322408509332544,0.9835526357690262,-0.12684632405230128,-0.1285854686433111,-0.02259330146768996,-0.7927136059830383,0.6091754112061308,-0.17920311213980478,-0.5962509110800479,-0.7825414338139686,,0.12111411064961017,0.6327915070426523,-0.47663272498276177,0.9727618754399235,-0.17089527633248225,-0.15661780938912126,-0.02819999847182697,-0.7578652342619546,0.6518013859936642,-0.2300849707755627,-0.6296309166681042,-0.7420416531427944,,0.0,0.0,0.045,1.0,0.0,0.0,0.0,1.0,0.0,0.0,0.0,1.0,,0.011125272262665034,-0.1543572570573898,0.2641522970229269,False,,0.11170590293304086,0.5170008648913318,-0.32900781298520787,-0.6005355329897886,-0.30205011390334346,-0.7403531605305996,0.5800661084867316,0.4727106902257306,-0.6633761475447945,0.5503456944518871,-0.8278347250733632,-0.1086705321647935,False,,0.0,0.0,0.0,0.0,0.0,0.0
09:51:50.070849,,-0.21887769512127106,0.023577503465007428,0.14201116208,3.9572251381900183,0.11200812615761122,1.1995665874952777,,0.11170590293304086,0.5170008648913318,-0.32900781298520787,-0.601268353093982,-0.2972610542814872,-0.7416955124409945,0.5796236781755345,0.47667053367349904,-0.6609248020960373,0.5500115992103395,-0.8272974482825874,-0.11430736108932138,,0.01520677190569036,0.2665753739003384,-0.08119784199093591,-0.940143260191672,0.26163166028834717,0.21835640851020446,-0.07244256087288813,-0.7795479899896385,0.6221390545238504,0.3329905737057587,0.5690815425968546,0.7518400575822177,,0.12937103981073808,0.7547861529624705,1.1322408509332544,0.9835526357690262,-0.12684632405230128,-0.1285854686433111,-0.02259330146768996,-0.7927136059830383,0.6091754112061308,-0.17920311213980478,-0.5962509110800479,-0.7825414338139686,,0.12111411064961017,0.6327915070426523,-0.47663272498276177,0.9727618754399235,-0.17089527633248225,-0.15661780938912126,-0.02819999847182697,-0.7578652342619546,0.6518013859936642,-0.2300849707755627,-0.6296309166681042,-0.7420416531427944,,0.0,0.0,0.045,1.0,0.0,0.0,0.0,1.0,0.0,0.0,0.0,1.0,,0.011125272262665034,-0.1543572570573898,0.2641522970229269,False,,0.11170590293304086,0.5170008648913318,-0.32900781298520787,-0.6005355329897886,-0.30205011390334346,-0.7403531605305996,0.5800661084867316,0.4727106902257306,-0.6633761475447945,0.5503456944518871,-0.8278347250733632,-0.1086705321647935,False,,0.0,0.0,0.0,0.0,0.0,0.0
09:51:50.082604,,-0.21887769512127106,0.023577503465007428,0.14201116208,3.9572251381900183,0.11200812615761122,1.1995665874952777,,0.11170304896352501,0.5170013466606003,-0.32900761865419037,-0.6012812552484379,-0.29727245098469113,-0.741680485096121,0.5796148232612319,0.4766564031498167,-0.6609427584837663,0.5500068260873803,-0.827301494753777,-0.11430104127020228,,0.015205653845419248,0.26657478071223156,-0.08119725432431675,-0.9401431908704254,0.2616545489650154,0.21832928722169273,-0.07248257736897318,-0.7795515084761426,0.6221299877062386,0.3329820665302695,0.569066202327399,0.7518554387186052,,0.12937103981073808,0.7547861529624705,1.1322408509332544,0.9835526357690262,-0.12684632405230128,-0.1285854686433111,-0.02259330146768996,-0.7927136059830383,0.6091754112061308,-0.17920311213980478,-0.5962509110800479,-0.7825414338139686,,0.12111411064961017,0.6327915070426523,-0.47663272498276177,0.9727618754399235,-0.17089527633248225,-0.15661780938912126,-0.02819999847182697,-0.7578652342619546,0.6518013859936642,-0.2300849707755627,-0.6296309166681042,-0.7420416531427944,,0.0,0.0,0.045,1.0,0.0,0.0,0.0,1.0,0.0,0.0,0.0,1.0,,0.011125272262665034,-0.1543572570573898,0.2641522970229269,False,,0.11170304896352501,0.5170013466606003,-0.32900761865419037,-0.6005363344387282,-0.3020358261794267,-0.7403583394026213,0.5800734003871015,0.47271144343536364,-0.6633692345960887,0.5503371341116655,-0.8278395079659862,-0.10867744875728591,False,,0.0,0.0,0.0,0.0,0.0,0.0
09:51:50.095171,,-0.21887769512127106,0.023577503465007428,0.14201245837,3.957015461660681,0.11200812615761122,1.1995665874952777,,0.11170277805417236,0.5170004412628871,-0.3290066966389602,-0.6013523285164077,-0.29726121937184125,-0.7416273622551022,0.5795660400030614,0.476644514761837,-0.6609941087654433,0.5499805289854034,-0.8273123799418325,-0.1143487810687846,,0.015205418265679447,0.2665745460635203,-0.08119713633050878,-0.9401436200651409,0.2616532977660459,0.2183289385633382,-0.07248207386682154,-0.7795521231976064,0.6221292761004722,0.33298096434181584,0.5690659355307484,0.7518561287904338,,0.12937103981073808,0.7547861529624705,1.1322408509332544,0.9835526357690262,-0.12684632405230128,-0.1285854686433111,-0.02259330146768996,-0.7927136059830383,0.6091754112061308,-0.17920311213980478,-0.5962509110800479,-0.7825414338139686,,0.12111411064961017,0.6327915070426523,-0.47663272498276177,0.9727618754399235,-0.17089527633248225,-0.15661780938912126,-0.02819999847182697,-0.7578652342619546,0.6518013859936642,-0.2300849707755627,-0.6296309166681042,-0.7420416531427944,,0.0,0.0,0.045,1.0,0.0,0.0,0.0,1.0,0.0,0.0,0.0,1.0,,0.011125272262665034,-0.1543572570573898,0.2641522970229269,False,,0.11170277805417236,0.5170004412628871,-0.3290066966389602,-0.6003697367121303,-0.3020638602386783,-0.7404820075990475,0.5801664612771644,0.4727708378259316,-0.6632455142030736,0.5504207994337971,-0.8277953607257503,-0.10858998255633384,False,,0.0,0.0,0.0,0.0,0.0,0.0
09:51:50.107419,,-0.21887769512127106,0.023577503465007428,0.14201245837,3.957015461660681,0.11200812615761122,1.1995665874952777,,0.11170277805417236,0.5170004412628871,-0.3290066966389602,-0.6013517594246678,-0.2972623460470143,-0.7416273721077733,0.5795664306481708,0.47664368593879736,-0.6609943639097207,0.5499807395742106,-0.8273124526303846,-0.11434724229338518,,0.015205182685904262,0.2665743114148263,-0.0811970183367009,-0.9401440492593492,0.2616520465672012,0.2183285899039114,-0.072481570363627,-0.779552737918821,0.6221285644952284,0.332979862153641,0.5690656687329381,0.7518568188622599,,0.12937103981073808,0.7547861529624705,1.1322408509332544,0.9835526357690262,-0.12684632405230128,-0.1285854686433111,-0.02259330146768996,-0.7927136059830383,0.6091754112061308,-0.17920311213980478,-0.5962509110800479,-0.7825414338139686,,0.12111411064961017,0.6327915070426523,-0.47663272498276177,0.9727618754399235,-0.17089527633248225,-0.15661780938912126,-0.02819999847182697,-0.7578652342619546,0.6518013859936642,-0.2300849707755627,-0.6296309166681042,-0.7420416531427944,,0.0,0.0,0.045,1.0,0.0,0.0,0.0,1.0,0.0,0.0,0.0,1.0,,0.011125272262665034,-0.1543572570573898,0.2641522970229269,False,,0.11170277805417236,0.5170004412628871,-0.3290066966389602,-0.6003697367121303,-0.3020638602386783,-0.7404820075990475,0.5801664612771644,0.4727708378259316,-0.6632455142030736,0.5504207994337971,-0.8277953607257503,-0.10858998255633384,False,,0.0,0.0,0.0,0.0,0.0,0.0
09:51:50.119890,,-0.21886224965552262,0.023585226197881653,0.14201245837,3.9572251381900183,0.11200812615761122,1.1995665874952777,,0.11170297855194244,0.5170005532602194,-0.3290065959490477,-0.6012812865646129,-0.29726560195167684,-0.7416832048277155,0.5796148017682158,0.476662496932858,-0.6609383825962335,0.5500068145017802,-0.8273004447684289,-0.11430869646515918,,0.015205182685904262,0.2665743114148263,-0.0811970183367009,-0.9401440492593492,0.2616520465672012,0.2183285899039114,-0.072481570363627,-0.779552737918821,0.6221285644952284,0.332979862153641,0.5690656687329381,0.7518568188622599,,0.12937103981073808,0.7547861529624705,1.1322408509332544,0.9835526357690262,-0.12684632405230128,-0.1285854686433111,-0.02259330146768996,-0.7927136059830383,0.6091754112061308,-0.17920311213980478,-0.5962509110800479,-0.7825414338139686,,0.12111411064961017,0.6327915070426523,-0.47663272498276177,0.9727618754399235,-0.17089527633248225,-0.15661780938912126,-0.02819999847182697,-0.7578652342619546,0.6518013859936642,-0.2300849707755627,-0.6296309166681042,-0.7420416531427944,,0.0,0.0,0.045,1.0,0.0,0.0,0.0,1.0,0.0,0.0,0.0,1.0,,0.011125272262665034,-0.1543572570573898,0.2641522970229269,False,,0.11170297855194244,0.5170005532602194,-0.3290065959490477,-0.6005363344387282,-0.3020358261794267,-0.7403583394026213,0.5800734003871015,0.47271144343536364,-0.6633692345960887,0.5503371341116655,-0.8278395079659862,-0.10867744875728591,False,,0.0,0.0,0.0,0.0,0.0,0.0
09:51:50.131391,,-0.21886224965552262,0.023585226197881653,0.14201245837,3.957434814719356,0.11200812615761122,1.1995665874952777,,0.1117060819147963,0.5170011883322594,-0.32900589866309027,-0.6012766910536551,-0.2972499280621289,-0.74169321222634,0.5796179557570871,0.4766778798545257,-0.660924522333201,0.5500085146245853,-0.8272972132942632,-0.11432390264508861,,0.01520606517040135,0.26657466995174095,-0.0811974880051986,-0.9401445476865752,0.2616279066552516,0.21835536264689742,-0.0724410503773121,-0.7795498341552887,0.6221369196334161,0.33298726726062494,0.5690807420831554,0.7518421279195842,,0.12937103981073808,0.7547861529624705,1.1322408509332544,0.9835526357690262,-0.12684632405230128,-0.1285854686433111,-0.02259330146768996,-0.7927136059830383,0.6091754112061308,-0.17920311213980478,-0.5962509110800479,-0.7825414338139686,,0.12111411064961017,0.6327915070426523,-0.47663272498276177,0.9727618754399235,-0.17089527633248225,-0.15661780938912126,-0.02819999847182697,-0.7578652342619546,0.6518013859936642,-0.2300849707755627,-0.6296309166681042,-0.7420416531427944,,0.0,0.0,0.045,1.0,0.0,0.0,0.0,1.0,0.0,0.0,0.0,1.0,,0.011125272262665034,-0.1543572570573898,0.2641522970229269,False,,0.1117060819147963,0.5170011883322594,-0.32900589866309027,-0.6005350987736331,-0.3020514257978525,-0.7403529775143929,0.5800699947688059,0.4727042541676304,-0.6633773355042677,0.5503420720877699,-0.8278379214950887,-0.10866452698480378,False,,0.0,0.0,0.0,0.0,0.0,0.0
09:51:50.143263,,-0.21886224965552262,0.023585226197881653,0.14201245837,3.9576444912486934,0.11200812615761122,1.1995665874952777,,0.11170628238127914,0.51700130036645,-0.3290057979518886,-0.6012155908901292,-0.2972472180044482,-0.741743826842697,0.5796598867899685,0.47669911325633285,-0.6608724317652136,0.5500311163173167,-0.8272859522615152,-0.11429665031611523,,0.015207830162202531,0.26657538686597154,-0.08119842742889184,-0.9401455384324536,0.2615796269624045,0.21840890836412538,-0.0723600097487555,-0.7795440217165526,0.6221536250189262,0.3330020742934789,0.5691108880466441,0.7518127436749448,,0.12937103981073808,0.7547861529624705,1.1322408509332544,0.9835526357690262,-0.12684632405230128,-0.1285854686433111,-0.02259330146768996,-0.7927136059830383,0.6091754112061308,-0.17920311213980478,-0.5962509110800479,-0.7825414338139686,,0.12111411064961017,0.6327915070426523,-0.47663272498276177,0.9727618754399235,-0.17089527633248225,-0.15661780938912126,-0.02819999847182697,-0.7578652342619546,0.6518013859936642,-0.2300849707755627,-0.6296309166681042,-0.7420416531427944,,0.0,0.0,0.045,1.0,0.0,0.0,0.0,1.0,0.0,0.0,0.0,1.0,,0.011125272262665034,-0.1543572570573898,0.2641522970229269,False,,0.11170628238127914,0.51700130036645,-0.3290057979518886,-0.6007016705030137,-0.30202337621613307,-0.7402292775038672,0.5799769032523995,0.47264486398072875,-0.6635010356031072,0.5502583890761195,-0.8278820645307199,-0.10875197690022609,False,,0.0,0.0,0.0,0.0,0.0,0.0
09:51:50.155918,,-0.21886224965552262,0.023585226197881653,0.14201245837,3.9576444912486934,0.11200812615761122,1.1995665874952777,,0.11170648281629979,0.5170014124349468,-0.3290056972162384,-0.6011544874016379,-0.297244499823762,-0.7417944389124224,0.5797018141489192,0.47672035045050676,-0.6608203342352579,0.5500537146036975,-0.8272746912548863,-0.1142694021153807,,0.015209595206433175,0.2665761036853747,-0.08119936681093491,-0.9401465265455414,0.2615313489779786,0.21846245567012496,-0.0722789686699878,-0.7795382072993151,0.6221703275308795,0.3330168790371825,0.5691410363641317,0.7517833606924309,,0.12937103981073808,0.7547861529624705,1.1322408509332544,0.9835526357690262,-0.12684632405230128,-0.1285854686433111,-0.02259330146768996,-0.7927136059830383,0.6091754112061308,-0.17920311213980478,-0.5962509110800479,-0.7825414338139686,,0.12111411064961017,0.6327915070426523,-0.47663272498276177,0.9727618754399235,-0.17089527633248225,-0.15661780938912126,-0.02819999847182697,-0.7578652342619546,0.6518013859936642,-0.2300849707755627,-0.6296309166681042,-0.7420416531427944,,0.0,0.0,0.045,1.0,0.0,0.0,0.0,1.0,0.0,0.0,0.0,1.0,,0.011125272262665034,-0.1543572570573898,0.2641522970229269,False,,0.11170648281629979,0.5170014124349468,-0.3290056972162384,-0.6008682160898278,-0.3019953111454324,-0.7401055458103267,0.5798837832301853,0.472585477932624,-0.6636247162318782,0.5501746857496042,-0.8279262032895003,-0.1088394095305441,False,,0.0,0.0,0.0,0.0,0.0,0.0
09:51:50.167439,,-0.21886224965552262,0.023585226197881653,0.14201245837,3.9578541677780317,0.11200812615761122,1.1995665874952777,,0.11170668321984947,0.5170015245377451,-0.32900559645614397,-0.6010933805958594,-0.2972417735190477,-0.7418450484293149,0.5797437378287545,0.47674159143355166,-0.660768229749092,0.5500763094809534,-0.8272634302763877,-0.11424215804666275,,0.015211360303093287,0.26657682040995057,-0.08120030615132784,-0.9401475120258392,0.26148307270197396,0.21851600456489628,-0.07219792714100905,-0.7795323909035763,0.6221870271692769,0.333031681491736,0.5691711870356186,0.751753978972043,,0.12937103981073808,0.7547861529624705,1.1322408509332544,0.9835526357690262,-0.12684632405230128,-0.1285854686433111,-0.02259330146768996,-0.7927136059830383,0.6091754112061308,-0.17920311213980478,-0.5962509110800479,-0.7825414338139686,,0.12111411064961017,0.6327915070426523,-0.47663272498276177,0.9727618754399235,-0.17089527633248225,-0.15661780938912126,-0.02819999847182697,-0.7578652342619546,0.6518013859936642,-0.2300849707755627,-0.6296309166681042,-0.7420416531427944,,0.0,0.0,0.045,1.0,0.0,0.0,0.0,1.0,0.0,0.0,0.0,1.0,,0.011125272262665034,-0.1543572570573898,0.2641522970229269,False,,0.11170668321984947,0.5170015245377451,-0.32900559645614397,-0.6010347355267551,-0.30196723058698327,-0.7399817824392106,0.5797906347062565,0.4725260960259282,-0.6637483773851441,0.5500909621119038,-0.8279703377694899,-0.1089268248719163,False,,0.0,0.0,0.0,0.0,0.0,0.0
09:51:50.179908,,-0.21886224965552262,0.023585226197881653,0.14201245837,3.9578541677780317,0.11200812615761122,1.1995665874952777,,0.11170668321984947,0.5170015245377451,-0.32900559645614397,-0.6011033246570648,-0.2972346921108533,-0.741839828326836,0.5797369158906194,0.4767448379089291,-0.6607718727978832,0.550072632876656,-0.8272641037377092,-0.11425498338010685,,0.015213361023935685,0.26657777169232477,-0.08120136345535668,-0.9401480659017092,0.2614360494604047,0.21856990347945857,-0.07211738862268124,-0.7795259578693482,0.6222044356554587,0.33304758357136927,0.5692016071073759,0.7517239081117879,,0.12937103981073808,0.7547861529624705,1.1322408509332544,0.9835526357690262,-0.12684632405230128,-0.1285854686433111,-0.02259330146768996,-0.7927136059830383,0.6091754112061308,-0.17920311213980478,-0.5962509110800479,-0.7825414338139686,,0.12111411064961017,0.6327915070426523,-0.47663272498276177,0.9727618754399235,-0.17089527633248225,-0.15661780938912126,-0.02819999847182697,-0.7578652342619546,0.6518013859936642,-0.2300849707755627,-0.6296309166681042,-0.7420416531427944,,0.0,0.0,0.045,1.0,0.0,0.0,0.0,1.0,0.0,0.0,0.0,1.0,,0.011125272262665034,-0.1543572570573898,0.2641522970229269,False,,0.11170668321984947,0.5170015245377451,-0.32900559645614397,-0.6010347355267551,-0.30196723058698327,-0.7399817824392106,0.5797906347062565,0.4725260960259282,-0.6637483773851441,0.5500909621119038,-0.8279703377694899,-0.1089268248719163,False,,0.0,0.0,0.0,0.0,0.0,0.0
09:51:50.191960,,-0.21886997238839684,0.023585226197881653,0.14201245837,3.958063844307369,0.11200812615761122,1.1995665874952777,,0.11170668321984947,0.5170015245377451,-0.32900559645614397,-0.6011080131438996,-0.297231714808437,-0.7418372222032469,0.5797336993867759,0.47674604663827364,-0.6607738227336949,0.5500708993661787,-0.8272644768916486,-0.11426062726797119,,0.015214243609820214,0.26657812992706464,-0.0812018331490222,-0.9401485542858574,0.26141191226067273,0.21859667883492595,-0.07207686729871324,-0.7795230462476757,0.6222127815822951,0.3330549820522808,0.5692166832518102,0.7517092166743684,,0.12937103981073808,0.7547861529624705,1.1322408509332544,0.9835526357690262,-0.12684632405230128,-0.1285854686433111,-0.02259330146768996,-0.7927136059830383,0.6091754112061308,-0.17920311213980478,-0.5962509110800479,-0.7825414338139686,,0.12111411064961017,0.6327915070426523,-0.47663272498276177,0.9727618754399235,-0.17089527633248225,-0.15661780938912126,-0.02819999847182697,-0.7578652342619546,0.6518013859936642,-0.2300849707755627,-0.6296309166681042,-0.7420416531427944,,0.0,0.0,0.045,1.0,0.0,0.0,0.0,1.0,0.0,0.0,0.0,1.0,,0.011125272262665034,-0.1543572570573898,0.2641522970229269,False,,0.11170668321984947,0.5170015245377451,-0.32900559645614397,-0.6010347355267551,-0.30196723058698327,-0.7399817824392106,0.5797906347062565,0.4725260960259282,-0.6637483773851441,0.5500909621119038,-0.8279703377694899,-0.1089268248719163,False,,0.0,0.0,0.0,0.0,0.0,0.0
