AlexandreBanks6/RCL_Autocam_Public/optimizationData/Data_4.csv
System Time,q_des,q0,q1,q2,q3,q4,q5,T_des,Tx,Ty,Tz,R00,R01,R02,R10,R11,R12,R20,R21,R22,T_target,Tx,Ty,Tz,R00,R01,R02,R10,R11,R12,R20,R21,R22,worldFrame,Tx,Ty,Tz,R00,R01,R02,R10,R11,R12,R20,R21,R22,ECM_T_PSM_RCM,Tx,Ty,Tz,R00,R01,R02,R10,R11,R12,R20,R21,R22,psm3_T_cam,Tx,Ty,Tz,R00,R01,R02,R10,R11,R12,R20,R21,R22,offset,x,y,z,IK Trigered,ECM_T_PSM3,Tx,Ty,Tz,R00,R01,R02,R10,R11,R12,R20,R21,R22
10:03:20.378928,,-0.14932676285600513,-0.47361976171044073,0.04350997385,0.6755777775260022,0.019718795862477663,-0.02948699100931582,,0.034044706278258084,0.5791048947222676,-0.34401317662443254,-0.6117215698445346,-0.6222658271284346,-0.48844852479570783,0.5500725422080228,0.10915139445511468,-0.8279530007176173,0.5685216964160127,-0.7751588311286075,0.27552108309091333,,-0.0027087370328305153,0.2808658264964108,-0.07170741030064309,-0.8013203003578268,0.2739344898628781,0.5318323716153495,-0.33875952851682195,-0.9405143064392808,-0.02597732130338369,0.4930798698725218,-0.2009794383677182,0.8464511251572023,,0.04386479256510742,0.7208103421942793,1.179233716562278,0.9913132679183223,-0.04274310856972448,-0.12438260135120849,0.04769661193910066,-0.7645042084078753,0.6428517313783785,-0.12256850353425935,-0.6432000792882763,-0.7558244637115998,,0.0567876578438118,0.6509860808868503,-0.39207448630052855,0.9322222990977496,-0.35986589767080385,-0.03818534743186988,-0.281214981342456,-0.7867812708548683,0.5494482378719223,-0.22777119952590194,-0.5014696077785621,-0.8346547269026559,,0.0,0.0,0.045,1.0,0.0,0.0,0.0,1.0,0.0,0.0,0.0,1.0,,0.017444116233895766,-0.1925897926022419,0.2248824739289125,False,,0.034044706278258084,0.5791048947222676,-0.34401317662443254,0.3610440071120407,0.8871596480085856,-0.2873934304638216,-0.6086414398298191,-0.009320663074059932,-0.7933906496561103,-0.7065428668172694,0.4613684906721986,0.5365969559776612
10:03:21.285893,,-0.15296417003976487,-0.4722605607245772,0.04350867756000001,-2.1533779562979647,0.016365259151171936,0.3140032991731635,,0.03391101510832434,0.5790593260769216,-0.34411716847500484,-0.578598425215648,-0.7104841741461507,-0.40054475483500507,0.5718316378354953,-0.003192290389149366,-0.8203647891349595,0.5815775445358486,-0.7037059382795725,0.40812438315018557,,-0.0026986184651248933,0.28087177101105465,-0.071709020222407,-0.8012532676139591,0.2740909593982474,0.531852729538547,-0.33895228769121993,-0.9404446810269044,-0.025983213823427637,0.493056311804588,-0.2010918365022652,0.8464381403772544,,0.04386479256510742,0.7208103421942793,1.179233716562278,0.9913132679183223,-0.04274310856972448,-0.12438260135120849,0.04769661193910066,-0.7645042084078753,0.6428517313783785,-0.12256850353425935,-0.6432000792882763,-0.7558244637115998,,0.05682626736839789,0.6509679396921597,-0.3920810383023352,0.9322524979838066,-0.35978965033599003,-0.03816657587547924,-0.2811630497308207,-0.7868072559031413,0.5494376047598428,-0.22771170252979256,-0.5014835486526703,-0.8346625850975401,,0.0,0.0,0.045,1.0,0.0,0.0,0.0,1.0,0.0,0.0,0.0,1.0,,0.017444116233895766,-0.1925897926022419,0.2248824739289125,False,,0.03391101510832434,0.5790593260769216,-0.34411716847500484,-0.6280725744976152,-0.6259452857611907,-0.46229572829226884,0.5491113155254963,0.06443308988135726,-0.8332617476460804,0.5513634049570182,-0.7772006665988409,0.30324498266668976
10:03:21.297535,,-0.15308773376575247,-0.4722219470602061,0.043507381270000006,-2.167006930704914,0.016365259151171936,0.32213133317108944,,0.03390615965582844,0.5790625299973318,-0.34411709227494186,-0.5802781400762158,-0.7104899330412481,-0.3980971429145536,0.570767562456925,-0.0060954176197181575,-0.8210890545677865,0.5809489390614875,-0.7036809653039394,0.40906164483149493,,-0.002695245520982395,0.2808737525481947,-0.07170955673916092,-0.8012309199397597,0.2741431140939863,0.5318595181869045,-0.3390165392102218,-0.9404214682129876,-0.025985177019236444,0.4930484562728887,-0.20112930238443266,0.8464338158698179,,0.04386479256510742,0.7208103421942793,1.179233716562278,0.9913132679183223,-0.04274310856972448,-0.12438260135120849,0.04769661193910066,-0.7645042084078753,0.6428517313783785,-0.12256850353425935,-0.6432000792882763,-0.7558244637115998,,0.05682626736839789,0.6509679396921597,-0.3920810383023352,0.9322524979838066,-0.35978965033599003,-0.03816657587547924,-0.2811630497308207,-0.7868072559031413,0.5494376047598428,-0.22771170252979256,-0.5014835486526703,-0.8346625850975401,,0.0,0.0,0.045,1.0,0.0,0.0,0.0,1.0,0.0,0.0,0.0,1.0,,0.017444116233895766,-0.1925897926022419,0.2248824739289125,False,,0.03390615965582844,0.5790625299973318,-0.34411709227494186,-0.6223359175858092,-0.6285732571465121,-0.46646936242678805,0.5506540695049298,0.07196616931639832,-0.8316254963693598,0.5563075600962918,-0.7744136690904603,0.301339290013039
10:03:21.309222,,-0.1531340701629978,-0.47220650159445765,0.04350867756000001,-2.172039167409018,0.016365259151171936,0.32653975839030347,,0.03390140021598871,0.5790650868634899,-0.34411552461791656,-0.5815884754012306,-0.7106670406510839,-0.395862605726662,0.5699346448933486,-0.008737504543435054,-0.8216435702691564,0.5804561532370596,-0.7034742449774433,0.41011539939711017,,-0.0026932981533667813,0.28087505745134567,-0.07170997650159651,-0.801218771899702,0.27416981883860403,0.5318640559921478,-0.33904891371310353,-0.9404098094475666,-0.02598477376530864,0.49304593876065544,-0.20114742055437065,0.846430978602996,,0.04386479256510742,0.7208103421942793,1.179233716562278,0.9913132679183223,-0.04274310856972448,-0.12438260135120849,0.04769661193910066,-0.7645042084078753,0.6428517313783785,-0.12256850353425935,-0.6432000792882763,-0.7558244637115998,,0.05682626736839789,0.6509679396921597,-0.3920810383023352,0.9322524979838066,-0.35978965033599003,-0.03816657587547924,-0.2811630497308207,-0.7868072559031413,0.5494376047598428,-0.22771170252979256,-0.5014835486526703,-0.8346625850975401,,0.0,0.0,0.045,1.0,0.0,0.0,0.0,1.0,0.0,0.0,0.0,1.0,,0.017444116233895766,-0.1925897926022419,0.2248824739289125,False,,0.03390140021598871,0.5790650868634899,-0.34411552461791656,-0.617970896288594,-0.630047032335251,-0.47026876186476085,0.5518119755780992,0.07847870314560867,-0.830267810264362,0.560013852461586,-0.7725812774058965,0.29916994309757505
10:03:21.321501,,-0.15318040656024315,-0.47220650159445765,0.043507381270000006,-2.1753939918784213,0.016365259151171936,0.3299149589487642,,0.03389736579455155,0.5790658636709408,-0.3441138648421223,-0.5827045083062418,-0.7110059082240839,-0.39360647158046874,0.5692232667823642,-0.01139724965547459,-0.8221039929679845,0.5800347649522348,-0.7030936645787217,0.4113623345374118,,-0.002692129728113276,0.2808758403959055,-0.07171022835119177,-0.8012114828565007,0.27418584156157133,0.5318667788172373,-0.3390683383199542,-0.9404028139276137,-0.02598453173206486,0.4930444280906095,-0.20115829147107636,0.8464292764812693,,0.04386479256510742,0.7208103421942793,1.179233716562278,0.9913132679183223,-0.04274310856972448,-0.12438260135120849,0.04769661193910066,-0.7645042084078753,0.6428517313783785,-0.12256850353425935,-0.6432000792882763,-0.7558244637115998,,0.05682626736839789,0.6509679396921597,-0.3920810383023352,0.9322524979838066,-0.35978965033599003,-0.03816657587547924,-0.2811630497308207,-0.7868072559031413,0.5494376047598428,-0.22771170252979256,-0.5014835486526703,-0.8346625850975401,,0.0,0.0,0.045,1.0,0.0,0.0,0.0,1.0,0.0,0.0,0.0,1.0,,0.017444116233895766,-0.1925897926022419,0.2248824739289125,False,,0.03389736579455155,0.5790658636709408,-0.3441138648421223,-0.6142123540534218,-0.630839228004313,-0.4741150203685567,0.552783609174624,0.08482820450099626,-0.8289960537596148,0.5631815564771552,-0.7712626298039209,0.29661505408847566
10:03:21.333334,,-0.15321129749174006,-0.47220650159445765,0.043507381270000006,-2.177910110230473,0.016365259151171936,0.3323258164905219,,0.033891227628036404,0.5790689337429951,-0.34411460239909786,-0.5840658437782738,-0.7115141902545458,-0.3906592469121795,0.5683530676488514,-0.014869168068575578,-0.8226504107669846,0.5795186628795602,-0.7025143876870896,0.4130758459011131,,-0.0026878733952384604,0.28087846958482265,-0.0717109932490265,-0.801183882805931,0.2742489272170574,0.5318758425094612,-0.33914563760064953,-0.9403749123627234,-0.025985778573924367,0.49303612689264953,-0.20120275870856572,0.8464235508654054,,0.04386479256510742,0.7208103421942793,1.179233716562278,0.9913132679183223,-0.04274310856972448,-0.12438260135120849,0.04769661193910066,-0.7645042084078753,0.6428517313783785,-0.12256850353425935,-0.6432000792882763,-0.7558244637115998,,0.05682626736839789,0.6509679396921597,-0.3920810383023352,0.9322524979838066,-0.35978965033599003,-0.03816657587547924,-0.2811630497308207,-0.7868072559031413,0.5494376047598428,-0.22771170252979256,-0.5014835486526703,-0.8346625850975401,,0.0,0.0,0.045,1.0,0.0,0.0,0.0,1.0,0.0,0.0,0.0,1.0,,0.017444116233895766,-0.1925897926022419,0.2248824739289125,False,,0.033891227628036404,0.5790689337429951,-0.34411460239909786,-0.609814683565497,-0.6313851336197946,-0.47903952316257464,0.5539025251168814,0.09277635013391622,-0.8273962421506224,0.566849225435702,-0.7698995791008999,0.293149439233988
10:03:21.345196,,-0.15323446569036273,-0.47220650159445765,0.043507381270000006,-2.179377845935837,0.016365259151171936,0.3334279227953254,,0.03388932439984013,0.5790695524270038,-0.3441145816488277,-0.584420958712074,-0.7115561866833797,-0.3900511969096719,0.5681256235032931,-0.015589310021869723,-0.8227941719118071,0.5793836543578484,-0.7024562382139184,0.41336402172576153,,-0.0026876646935905316,0.28087872088949,-0.07171111446978731,-0.8011831039231323,0.2742494293705785,0.5318767568462048,-0.339145836818772,-0.9403748711274714,-0.025984670783287894,0.49303725554142436,-0.20120226697811588,0.8464230103241975,,0.04386479256510742,0.7208103421942793,1.179233716562278,0.9913132679183223,-0.04274310856972448,-0.12438260135120849,0.04769661193910066,-0.7645042084078753,0.6428517313783785,-0.12256850353425935,-0.6432000792882763,-0.7558244637115998,,0.05682626736839789,0.6509679396921597,-0.3920810383023352,0.9322524979838066,-0.35978965033599003,-0.03816657587547924,-0.2811630497308207,-0.7868072559031413,0.5494376047598428,-0.22771170252979256,-0.5014835486526703,-0.8346625850975401,,0.0,0.0,0.045,1.0,0.0,0.0,0.0,1.0,0.0,0.0,0.0,1.0,,0.017444116233895766,-0.1925897926022419,0.2248824739289125,False,,0.03388932439984013,0.5790695524270038,-0.3441145816488277,-0.608712707039408,-0.6316750250796487,-0.4800578121220205,0.5541811481000954,0.09447724925384915,-0.8270171125580693,0.5677605968885266,-0.7694548148293384,0.2925528884778489
10:03:21.357764,,-0.15324991115611117,-0.47221422432733184,0.043507381270000006,-2.1816842877585514,0.016499400619624165,0.3329466500348125,,0.03388883207046103,0.5790700737465304,-0.3441140345604,-0.5846350403521262,-0.7114651645012964,-0.38989638276548677,0.5679884191086296,-0.015778617330918537,-0.8228852842247236,0.5793021882842729,-0.7025442014110341,0.41332870661591486,,-0.0026874559919683044,0.28087897219416447,-0.07171123569057707,-0.801182325039945,0.27424993152491506,0.5318776711821697,-0.33914603603576876,-0.940374829892551,-0.025983562992436662,0.4930383841901297,-0.20120177524847105,0.8464224697821123,,0.04386479256510742,0.7208103421942793,1.179233716562278,0.9913132679183223,-0.04274310856972448,-0.12438260135120849,0.04769661193910066,-0.7645042084078753,0.6428517313783785,-0.12256850353425935,-0.6432000792882763,-0.7558244637115998,,0.05682626736839789,0.6509679396921597,-0.3920810383023352,0.9322524979838066,-0.35978965033599003,-0.03816657587547924,-0.2811630497308207,-0.7868072559031413,0.5494376047598428,-0.22771170252979256,-0.5014835486526703,-0.8346625850975401,,0.0,0.0,0.045,1.0,0.0,0.0,0.0,1.0,0.0,0.0,0.0,1.0,,0.017444116233895766,-0.1925897926022419,0.2248824739289125,False,,0.03388883207046103,0.5790700737465304,-0.3441140345604,-0.608080330949869,-0.632081551422777,-0.480324081702004,0.5543406074817275,0.09503603285932744,-0.8268462029634959,0.5682823259689567,-0.7690520559814767,0.2925989288804325
10:03:21.369521,,-0.15324991115611117,-0.4722219470602061,0.043507381270000006,-2.183152023463915,0.016767683556528624,0.3315019330054352,,0.033888562894147614,0.5790688010052156,-0.34411611005792514,-0.5848642495701228,-0.7112214733912828,-0.389997211992483,0.5678414449663876,-0.01567282389098973,-0.8229887338048846,0.579214902219601,-0.7027932685921335,0.4130275035252776,,-0.0026874559919683044,0.28087897219416447,-0.07171123569057707,-0.801182325039945,0.27424993152491506,0.5318776711821697,-0.33914603603576876,-0.940374829892551,-0.025983562992436662,0.4930383841901297,-0.20120177524847105,0.8464224697821123,,0.04386479256510742,0.7208103421942793,1.179233716562278,0.9913132679183223,-0.04274310856972448,-0.12438260135120849,0.04769661193910066,-0.7645042084078753,0.6428517313783785,-0.12256850353425935,-0.6432000792882763,-0.7558244637115998,,0.05682626736839789,0.6509679396921597,-0.3920810383023352,0.9322524979838066,-0.35978965033599003,-0.03816657587547924,-0.2811630497308207,-0.7868072559031413,0.5494376047598428,-0.22771170252979256,-0.5014835486526703,-0.8346625850975401,,0.0,0.0,0.045,1.0,0.0,0.0,0.0,1.0,0.0,0.0,0.0,1.0,,0.017444116233895766,-0.1925897926022419,0.2248824739289125,False,,0.033888562894147614,0.5790688010052156,-0.34411611005792514,-0.6070091865452052,-0.6332269863581682,-0.48017021065189047,0.5544932210029269,0.0953496301045273,-0.826707757252059,0.569277713696512,-0.7680703299742039,0.29324196988458173
10:03:21.381664,,-0.15323446569036273,-0.47223739252595454,0.043507381270000006,-2.184619759169279,0.01730424943033754,0.32909467045503193,,0.03388991823569787,0.5790668361902488,-0.34411848895885766,-0.5849890659335917,-0.7108583350905188,-0.3904717917730802,0.5677613774617074,-0.015129275651226792,-0.8230541435902342,0.5791673428301434,-0.7031724770286484,0.41244836834259174,,-0.0026874559919683044,0.28087897219416447,-0.07171123569057707,-0.801182325039945,0.27424993152491506,0.5318776711821697,-0.33914603603576876,-0.940374829892551,-0.025983562992436662,0.4930383841901297,-0.20120177524847105,0.8464224697821123,,0.04386479256510742,0.7208103421942793,1.179233716562278,0.9913132679183223,-0.04274310856972448,-0.12438260135120849,0.04769661193910066,-0.7645042084078753,0.6428517313783785,-0.12256850353425935,-0.6432000792882763,-0.7558244637115998,,0.05682626736839789,0.6509679396921597,-0.3920810383023352,0.9322524979838066,-0.35978965033599003,-0.03816657587547924,-0.2811630497308207,-0.7868072559031413,0.5494376047598428,-0.22771170252979256,-0.5014835486526703,-0.8346625850975401,,0.0,0.0,0.045,1.0,0.0,0.0,0.0,1.0,0.0,0.0,0.0,1.0,,0.017444116233895766,-0.1925897926022419,0.2248824739289125,False,,0.03388991823569787,0.5790668361902488,-0.34411848895885766,-0.6059673659154321,-0.6348006607037873,-0.4794076267807471,0.5545352577317912,0.0949992042089205,-0.826719903674762,0.5703456841055684,-0.7668137142551031,0.29445293045314425
10:03:21.393778,,-0.1532267429574885,-0.472252837991703,0.043507381270000006,-2.185877818345305,0.017974956772598687,0.32641278007626656,,0.033898307611719074,0.5790576162983918,-0.34412868855099593,-0.5845913704941872,-0.7100378932459376,-0.39255460728234803,0.5680164124694461,-0.012698970398126563,-0.8229192495720146,0.5793188109401144,-0.7040489516402237,0.410736885347827,,-0.0026874559919683044,0.28087897219416447,-0.07171123569057707,-0.801182325039945,0.27424993152491506,0.5318776711821697,-0.33914603603576876,-0.940374829892551,-0.025983562992436662,0.4930383841901297,-0.20120177524847105,0.8464224697821123,,0.04386479256510742,0.7208103421942793,1.179233716562278,0.9913132679183223,-0.04274310856972448,-0.12438260135120849,0.04769661193910066,-0.7645042084078753,0.6428517313783785,-0.12256850353425935,-0.6432000792882763,-0.7558244637115998,,0.05682626736839789,0.6509679396921597,-0.3920810383023352,0.9322524979838066,-0.35978965033599003,-0.03816657587547924,-0.2811630497308207,-0.7868072559031413,0.5494376047598428,-0.22771170252979256,-0.5014835486526703,-0.8346625850975401,,0.0,0.0,0.045,1.0,0.0,0.0,0.0,1.0,0.0,0.0,0.0,1.0,,0.017444116233895766,-0.1925897926022419,0.2248824739289125,False,,0.033898307611719074,0.5790576162983918,-0.34412868855099593,-0.6042021598669288,-0.6390120973487152,-0.4760286645299152,0.5540137912377241,0.09249804479835366,-0.8273529058551047,0.572720236355013,-0.763614857863883,0.29813399624829817
10:03:21.405798,,-0.15321129749174006,-0.47227600619032567,0.04350867756000001,-2.187345554050669,0.018913947051764288,0.3226994625324251,,0.0339043961011791,0.579049538676551,-0.3441357936803091,-0.5841234989156606,-0.7095327247440711,-0.3941611986634153,0.5683161532281663,-0.010816924530245742,-0.822739171380363,0.579496754084495,-0.7045894596578642,0.4095573285201637,,-0.0026878733967056166,0.2808784695850767,-0.07171099325102895,-0.8011838828011526,0.27424892721542177,0.531875842506289,-0.33914563759862687,-0.9403749123571149,-0.02598577857376927,0.49303612688970916,-0.20120275870736565,0.8464235508603573,,0.04386479256510742,0.7208103421942793,1.179233716562278,0.9913132679183223,-0.04274310856972448,-0.12438260135120849,0.04769661193910066,-0.7645042084078753,0.6428517313783785,-0.12256850353425935,-0.6432000792882763,-0.7558244637115998,,0.05682626736839789,0.6509679396921597,-0.3920810383023352,0.9322524979838066,-0.35978965033599003,-0.03816657587547924,-0.2811630497308207,-0.7868072559031413,0.5494376047598428,-0.22771170252979256,-0.5014835486526703,-0.8346625850975401,,0.0,0.0,0.045,1.0,0.0,0.0,0.0,1.0,0.0,0.0,0.0,1.0,,0.017444116233895766,-0.1925897926022419,0.2248824739289125,False,,0.0339043961011791,0.579049538676551,-0.3441357936803091,-0.603320898511273,-0.6417859481263103,-0.47340753078839315,0.5534911257700493,0.09040025843913463,-0.8279343977441337,0.5741528255729078,-0.7615369919194673,0.30068246178467994
10:03:21.418079,,-0.1531649610944947,-0.47233778805331944,0.04350997385,-2.1902810254613962,0.02106021054699995,0.312932649042712,,0.033912043455436226,0.5790411643025979,-0.34414508539088107,-0.5835248244709587,-0.7089248222292888,-0.39613681431206116,0.5686992249316501,-0.008501527292862104,-0.8225016204214002,0.5797240471019617,-0.7052328129496388,0.4081258491579068,,-0.002688082098379254,0.2808782182804164,-0.0717108720302971,-0.8011846616835626,0.27424842506271624,0.5318749281687664,-0.339145438379379,-0.940374953592698,-0.025986886364190984,0.4930349982408647,-0.20120325043862047,0.8464240914006876,,0.04386479256510742,0.7208103421942793,1.179233716562278,0.9913132679183223,-0.04274310856972448,-0.12438260135120849,0.04769661193910066,-0.7645042084078753,0.6428517313783785,-0.12256850353425935,-0.6432000792882763,-0.7558244637115998,,0.05682626736839789,0.6509679396921597,-0.3920810383023352,0.9322524979838066,-0.35978965033599003,-0.03816657587547924,-0.2811630497308207,-0.7868072559031413,0.5494376047598428,-0.22771170252979256,-0.5014835486526703,-0.8346625850975401,,0.0,0.0,0.045,1.0,0.0,0.0,0.0,1.0,0.0,0.0,0.0,1.0,,0.017444116233895766,-0.1925897926022419,0.2248824739289125,False,,0.033912043455436226,0.5790411643025979,-0.34414508539088107,-0.6024705183112684,-0.6449635195067702,-0.4701609650653613,0.5528498201481633,0.08764425496372136,-0.8286588929915603,0.5756616635905984,-0.759170957740939,0.30376488604644614
10:03:21.429377,,-0.15314179289587201,-0.4723686789848164,0.04350997385,-2.1915390846374225,0.022267483763070015,0.30508823035153465,,0.03391933506346778,0.5790317537158308,-0.34415370847611054,-0.5829237954715524,-0.7081625744706956,-0.39837873536632984,0.5690832760025923,-0.005876793153255455,-0.8222588937046478,0.579951785622906,-0.7060249509905938,0.4064292003923101,,-0.0026884995032707866,0.2808777156713712,-0.07171062959092273,-0.8011862194424386,0.27424742075811603,0.5318730994882124,-0.3391450399354837,-0.9403750360592499,-0.025989101944235066,0.4930327409400273,-0.20120423390234504,0.846425172473668,,0.04386479256510742,0.7208103421942793,1.179233716562278,0.9913132679183223,-0.04274310856972448,-0.12438260135120849,0.04769661193910066,-0.7645042084078753,0.6428517313783785,-0.12256850353425935,-0.6432000792882763,-0.7558244637115998,,0.05682626736839789,0.6509679396921597,-0.3920810383023352,0.9322524979838066,-0.35978965033599003,-0.03816657587547924,-0.2811630497308207,-0.7868072559031413,0.5494376047598428,-0.22771170252979256,-0.5014835486526703,-0.8346625850975401,,0.0,0.0,0.045,1.0,0.0,0.0,0.0,1.0,0.0,0.0,0.0,1.0,,0.017444116233895766,-0.1925897926022419,0.2248824739289125,False,,0.03391933506346778,0.5790317537158308,-0.34415370847611054,-0.6016181728478445,-0.6484440596863368,-0.46645029269657856,0.5522065455989811,0.08431235346991306,-0.8294331546604614,0.5771685240004532,-0.7565789638298617,0.3073512101705008
10:03:21.441050,,-0.15312634743012357,-0.47240729264918746,0.04350997385,-2.193006820342786,0.023474756979140074,0.29331755794949477,,0.033927836968787595,0.5790226066825114,-0.34416385553803736,-0.5821791531619743,-0.7069068328893142,-0.4016841585599381,0.5695583630336006,-0.0020106473035653716,-0.8219484341465138,0.5802333192105497,-0.7073038151401558,0.40379525550220197,,-0.0026889169082651466,0.2808772130623543,-0.07171038715166417,-0.80118777719976,0.27424641645677766,0.5318712708045426,-0.33914464148708606,-0.9403751185271271,-0.025991317523420168,0.4930304836389117,-0.20120521736928954,0.8464262535431385,,0.04386479256510742,0.7208103421942793,1.179233716562278,0.9913132679183223,-0.04274310856972448,-0.12438260135120849,0.04769661193910066,-0.7645042084078753,0.6428517313783785,-0.12256850353425935,-0.6432000792882763,-0.7558244637115998,,0.05682626736839789,0.6509679396921597,-0.3920810383023352,0.9322524979838066,-0.35978965033599003,-0.03816657587547924,-0.2811630497308207,-0.7868072559031413,0.5494376047598428,-0.22771170252979256,-0.5014835486526703,-0.8346625850975401,,0.0,0.0,0.045,1.0,0.0,0.0,0.0,1.0,0.0,0.0,0.0,1.0,,0.017444116233895766,-0.1925897926022419,0.2248824739289125,False,,0.033927836968787595,0.5790226066825114,-0.34416385553803736,-0.6009561325774507,-0.6530159268134224,-0.4608925319915267,0.551415330823408,0.07871039247620626,-0.830509366021331,0.5786128754620528,-0.7532429046756755,0.31278150026062346
10:03:21.454768,,-0.1531031792315009,-0.4724459063135586,0.04350867756000001,-2.19447455604815,0.02401132285294899,0.27802942796170055,,0.03393977911443283,0.5790088776316192,-0.3441819247819649,-0.5813746548171029,-0.701448276267919,-0.412278821256998,0.5700707307273225,0.010371129845371252,-0.8215301586878884,0.5805367109014822,-0.7126449013263869,0.39384561938555723,,-0.0026891256100673062,0.28087696175772947,-0.0717102659310771,-0.8011885560802269,0.2742459143081496,0.5318703564631252,-0.3391444422622103,-0.9403751597643666,-0.025992425312768144,0.4930293549897197,-0.20120570910456936,0.8464267940790816,,0.04386479256510742,0.7208103421942793,1.179233716562278,0.9913132679183223,-0.04274310856972448,-0.12438260135120849,0.04769661193910066,-0.7645042084078753,0.6428517313783785,-0.12256850353425935,-0.6432000792882763,-0.7558244637115998,,0.05682626736839789,0.6509679396921597,-0.3920810383023352,0.9322524979838066,-0.35978965033599003,-0.03816657587547924,-0.2811630497308207,-0.7868072559031413,0.5494376047598428,-0.22771170252979256,-0.5014835486526703,-0.8346625850975401,,0.0,0.0,0.045,1.0,0.0,0.0,0.0,1.0,0.0,0.0,0.0,1.0,,0.017444116233895766,-0.1925897926022419,0.2248824739289125,False,,0.03393977911443283,0.5790088776316192,-0.3441819247819649,-0.599148160603287,-0.6671995123840802,-0.44256783922935883,0.5504443969808157,0.05814237950504353,-0.8328447811794931,0.5814055791597841,-0.7426064060994474,0.33242033352660416
10:03:21.466831,,-0.153072288300004,-0.472492242710804,0.04351127014,-2.196151968282851,0.022804049636878928,0.2661736964545151,,0.033932440154889096,0.5790113357040623,-0.34417638913643667,-0.5826241143618579,-0.6982622797405145,-0.4159073575396814,0.5692745719100859,0.014622019483567172,-0.8220174318850001,0.5800651714597673,-0.7156926611596642,0.3889838192284468,,-0.002688916906797994,0.28087721306210023,-0.0717103871496617,-0.8011877772045386,0.2742464164584133,0.5318712708077146,-0.33914464148910883,-0.9403751185327357,-0.025991317523575322,0.4930304836418521,-0.2012052173704897,0.8464262535481869,,0.04386479256510742,0.7208103421942793,1.179233716562278,0.9913132679183223,-0.04274310856972448,-0.12438260135120849,0.04769661193910066,-0.7645042084078753,0.6428517313783785,-0.12256850353425935,-0.6432000792882763,-0.7558244637115998,,0.05682626736839789,0.6509679396921597,-0.3920810383023352,0.9322524979838066,-0.35978965033599003,-0.03816657587547924,-0.2811630497308207,-0.7868072559031413,0.5494376047598428,-0.22771170252979256,-0.5014835486526703,-0.8346625850975401,,0.0,0.0,0.045,1.0,0.0,0.0,0.0,1.0,0.0,0.0,0.0,1.0,,0.017444116233895766,-0.1925897926022419,0.2248824739289125,False,,0.033932440154889096,0.5790113357040623,-0.34417638913643667,-0.597735168295053,-0.6727496877015142,-0.4360281255616433,0.551648584342624,0.049498545863879806,-0.8326065897830384,0.5817185814258162,-0.7382125382671829,0.34153439119517603
10:03:21.479214,,-0.15304912010138133,-0.4725694700395462,0.04350997385,-2.1986680866349033,0.02119435201545218,0.2483225656714447,,0.033922759872850955,0.5790176000920666,-0.3441710156940528,-0.5840650659469744,-0.6953017914818116,-0.41883578823035134,0.5683535656317562,0.018082608045566606,-0.8225857060026872,0.5795189584250247,-0.7184903882784053,0.3846158327182083,,-0.002688708205021543,0.2808774643667322,-0.07171050837027775,-0.8011869983236827,0.27424691860785694,0.5318721851483528,-0.33914484071285905,-0.9403750772958269,-0.02599020973401253,0.49303161229097436,-0.20120472563601483,0.8464257130113659,,0.04386479256510742,0.7208103421942793,1.179233716562278,0.9913132679183223,-0.04274310856972448,-0.12438260135120849,0.04769661193910066,-0.7645042084078753,0.6428517313783785,-0.12256850353425935,-0.6432000792882763,-0.7558244637115998,,0.05682626736839789,0.6509679396921597,-0.3920810383023352,0.9322524979838066,-0.35978965033599003,-0.03816657587547924,-0.2811630497308207,-0.7868072559031413,0.5494376047598428,-0.22771170252979256,-0.5014835486526703,-0.8346625850975401,,0.0,0.0,0.045,1.0,0.0,0.0,0.0,1.0,0.0,0.0,0.0,1.0,,0.017444116233895766,-0.1925897926022419,0.2248824739289125,False,,0.033922759872850955,0.5790176000920666,-0.3441710156940528,-0.596258523621183,-0.6775333377580219,-0.43060927676440197,0.5530736764864357,0.04209590646753675,-0.8320681721087846,0.5818808137298089,-0.7342863956830132,0.3496258110151263
10:03:21.491104,,-0.1530336746356329,-0.4726389746354142,0.04350997385,-2.199506792752254,0.02119435201545218,0.24019453167351879,,0.03392164731060544,0.5790175368062683,-0.3441740103937826,-0.5843641963940976,-0.6931332209060058,-0.4220009763604189,0.568161991062482,0.021836858328613346,-0.8226269528347903,0.57940524495779,-0.7204786531846744,0.3810512726925356,,-0.002688290800078593,0.2808779669757632,-0.07171075080959419,-0.801185440565584,0.27424792291082617,0.5318740138304647,-0.33914523915900546,-0.9403749948286124,-0.025987994154397967,0.4930338695919509,-0.20120374217068027,0.8464246319401406,,0.04386479256510742,0.7208103421942793,1.179233716562278,0.9913132679183223,-0.04274310856972448,-0.12438260135120849,0.04769661193910066,-0.7645042084078753,0.6428517313783785,-0.12256850353425935,-0.6432000792882763,-0.7558244637115998,,0.05682626736839789,0.6509679396921597,-0.3920810383023352,0.9322524979838066,-0.35978965033599003,-0.03816657587547924,-0.2811630497308207,-0.7868072559031413,0.5494376047598428,-0.22771170252979256,-0.5014835486526703,-0.8346625850975401,,0.0,0.0,0.045,1.0,0.0,0.0,0.0,1.0,0.0,0.0,0.0,1.0,,0.017444116233895766,-0.1925897926022419,0.2248824739289125,False,,0.03392164731060544,0.5790175368062683,-0.3441740103937826,-0.5952680299124518,-0.6820227887510333,-0.42485396101297257,0.5533750847885572,0.03540669641698785,-0.832179296416399,0.5826079197019262,-0.7304733270100279,0.35633794413098263
10:03:21.503029,,-0.15300278370413598,-0.47270847923128223,0.04350867756000001,-2.2005551753989425,0.02106021054699995,0.23275441536825642,,0.033920947241166975,0.5790141304661276,-0.3441794622856335,-0.5844212744206341,-0.6912683744976704,-0.424970361818222,0.5681254212159331,0.02536668176938961,-0.8225509329058165,0.5793835342610113,-0.7221527302969636,0.37790230794725316,,-0.0026880820969120978,0.28087821828016235,-0.07171087202829463,-0.801184661688341,0.2742484250643519,0.5318749281719384,-0.33914543838140165,-0.9403749535983065,-0.025986886364346123,0.49303499824380514,-0.20120325043982054,0.8464240914057358,,0.04386479256510742,0.7208103421942793,1.179233716562278,0.9913132679183223,-0.04274310856972448,-0.12438260135120849,0.04769661193910066,-0.7645042084078753,0.6428517313783785,-0.12256850353425935,-0.6432000792882763,-0.7558244637115998,,0.05682626736839789,0.6509679396921597,-0.3920810383023352,0.9322524979838066,-0.35978965033599003,-0.03816657587547924,-0.2811630497308207,-0.7868072559031413,0.5494376047598428,-0.22771170252979256,-0.5014835486526703,-0.8346625850975401,,0.0,0.0,0.045,1.0,0.0,0.0,0.0,1.0,0.0,0.0,0.0,1.0,,0.017444116233895766,-0.1925897926022419,0.2248824739289125,False,,0.033920947241166975,0.5790141304661276,-0.3441794622856335,-0.5946340145663875,-0.6859211317596312,-0.4194312693710951,0.5534762280185259,0.0291574148492576,-0.8323544378314404,0.5831590295442968,-0.727091497794394,0.36230305007832725
10:03:21.514892,,-0.15298733823838753,-0.4727625383614018,0.04350997385,-2.2013938815162932,0.02025536173628658,0.22613638505240358,,0.033915067308898116,0.5790130865452795,-0.34418349148765653,-0.585290582533898,-0.6875841043667983,-0.4297243691242544,0.5675678654752268,0.03106450431344368,-0.8227403689206304,0.5790523742089531,-0.7254399327262514,0.37206888062441695,,-0.0026882908000785896,0.2808779669757632,-0.0717107508095942,-0.8011854405655844,0.2742479229108262,0.5318740138304648,-0.3391452391590055,-0.9403749948286128,-0.02598799415439798,0.493033869591951,-0.2012037421706803,0.846424631940141,,0.04386479256510742,0.7208103421942793,1.179233716562278,0.9913132679183223,-0.04274310856972448,-0.12438260135120849,0.04769661193910066,-0.7645042084078753,0.6428517313783785,-0.12256850353425935,-0.6432000792882763,-0.7558244637115998,,0.05682626736839789,0.6509679396921597,-0.3920810383023352,0.9322524979838066,-0.35978965033599003,-0.03816657587547924,-0.2811630497308207,-0.7868072559031413,0.5494376047598428,-0.22771170252979256,-0.5014835486526703,-0.8346625850975401,,0.0,0.0,0.045,1.0,0.0,0.0,0.0,1.0,0.0,0.0,0.0,1.0,,0.017444116233895766,-0.1925897926022419,0.2248824739289125,False,,0.033915067308898116,0.5790130865452795,-0.34418349148765653,-0.592969142214655,-0.6926945843491625,-0.41056279567753956,0.5544775371618098,0.018475017949265038,-0.8319935904168663,0.5839026093144215,-0.7209943734351296,0.3731284715894712
10:03:21.526418,,-0.15298733823838753,-0.47282432022439563,0.04350867756000001,-2.2024422641629817,0.019316371457120975,0.2206195622935156,,0.033907771707407955,0.5790170615475452,-0.3441830898426823,-0.5861268581469586,-0.6858723604272896,-0.43131706592792407,0.5670304481415173,0.033005267127018956,-0.8230353110421839,0.5787329064769043,-0.7269730101893552,0.36956523837750543,,-0.0026887137727182875,0.28087795901437085,-0.07171049423015646,-0.8011865869952707,0.2742481482232657,0.5318721707199509,-0.33914501193171864,-0.9403750757013569,-0.025988032878132172,0.49303216291848273,-0.20120305705219832,0.8464257889101359,,0.04386479256510742,0.7208103421942793,1.179233716562278,0.9913132679183223,-0.04274310856972448,-0.12438260135120849,0.04769661193910066,-0.7645042084078753,0.6428517313783785,-0.12256850353425935,-0.6432000792882763,-0.7558244637115998,,0.05682626736839789,0.6509679396921597,-0.3920810383023352,0.9322524979838066,-0.35978965033599003,-0.03816657587547924,-0.2811630497308207,-0.7868072559031413,0.5494376047598428,-0.22771170252979256,-0.5014835486526703,-0.8346625850975401,,0.0,0.0,0.045,1.0,0.0,0.0,0.0,1.0,0.0,0.0,0.0,1.0,,0.017444116233895766,-0.1925897926022419,0.2248824739289125,False,,0.033907771707407955,0.5790170615475452,-0.3441830898426823,-0.5919443067662518,-0.6954086564408692,-0.40744169918422335,0.5553889976931163,0.0144009652248,-0.8314659785234932,0.5840761927424004,-0.7184701891851182,0.3776977473110519
10:03:21.538866,,-0.1529178336425195,-0.47299422034762856,0.04350997385,-2.2045390294563587,0.01730424943033754,0.2137867983149644,,0.03390100465579264,0.5790173295895727,-0.3441831831495273,-0.5868590669831046,-0.6844880622074598,-0.4325188183133728,0.5665590617750923,0.03448146289060153,-0.8232993733979465,0.5784524742969357,-0.7282081580237897,0.3675671551803185,,-0.002689559717956414,0.28087794309142444,-0.07170998107162746,-0.8011888798491104,0.2742485988455912,0.5318684844951694,-0.3391445574792879,-0.9403752374535311,-0.025988110324211958,0.4930287495675442,-0.20120168681518408,0.8464281028441925,,0.04386479256510742,0.7208103421942793,1.179233716562278,0.9913132679183223,-0.04274310856972448,-0.12438260135120849,0.04769661193910066,-0.7645042084078753,0.6428517313783785,-0.12256850353425935,-0.6432000792882763,-0.7558244637115998,,0.05682626736839789,0.6509679396921597,-0.3920810383023352,0.9322524979838066,-0.35978965033599003,-0.03816657587547924,-0.2811630497308207,-0.7868072559031413,0.5494376047598428,-0.22771170252979256,-0.5014835486526703,-0.8346625850975401,,0.0,0.0,0.045,1.0,0.0,0.0,0.0,1.0,0.0,0.0,0.0,1.0,,0.017444116233895766,-0.1925897926022419,0.2248824739289125,False,,0.03390100465579264,0.5790173295895727,-0.3441831831495273,-0.5910787763858286,-0.6975227159414035,-0.40507769730257903,0.556241295665034,0.011203914266331216,-0.8309453010288926,0.5841416789642012,-0.7164750749683068,0.381368543335765
10:03:21.550854,,-0.15286377451239994,-0.4730637249434966,0.04350997385,-2.2066357947497353,0.016231117682719707,0.21295302860365273,,0.033895387625342374,0.5790187714093938,-0.34418335953970136,-0.5877266657215583,-0.6834589348074309,-0.43296795589478876,0.5659994888630014,0.035064578158366305,-0.8236595497931151,0.5781193172751115,-0.7291463226201363,0.3662290201539077,,-0.0026901913925378024,0.2808776838254737,-0.07170960327183301,-0.8011908051497768,0.2742483220062563,0.5318657270390097,-0.3391441310295486,-0.940375359575043,-0.025989256835280472,0.493025914237978,-0.20120149343230673,0.84642980034315,,0.04386479256510742,0.7208103421942793,1.179233716562278,0.9913132679183223,-0.04274310856972448,-0.12438260135120849,0.04769661193910066,-0.7645042084078753,0.6428517313783785,-0.12256850353425935,-0.6432000792882763,-0.7558244637115998,,0.05682626736839789,0.6509679396921597,-0.3920810383023352,0.9322524979838066,-0.35978965033599003,-0.03816657587547924,-0.2811630497308207,-0.7868072559031413,0.5494376047598428,-0.22771170252979256,-0.5014835486526703,-0.8346625850975401,,0.0,0.0,0.045,1.0,0.0,0.0,0.0,1.0,0.0,0.0,0.0,1.0,,0.017444116233895766,-0.1925897926022419,0.2248824739289125,False,,0.033895387625342374,0.5790187714093938,-0.34418335953970136,-0.58985268942753,-0.699114519829055,-0.4041196517608369,0.557260004200215,0.009771472110461144,-0.8302805586376037,0.584410037981798,-0.7149429393294159,0.3838248311523488
10:03:21.562448,,-0.15282516084802883,-0.47314867500511304,0.04350997385,-2.2083132069844367,0.015426268872006335,0.21294763611662096,,0.03389062944122499,0.5790206329271816,-0.34418251634374397,-0.5887231477742312,-0.6827381011451865,-0.4327513610833199,0.5653554163160714,0.03485550436373411,-0.8241106400585004,0.5777355004817365,-0.7298313360360836,0.365469441161505,,-0.002690400095848481,0.28087743252113057,-0.07170948205331193,-0.8011915840211231,0.2742478198562152,0.5318648126931669,-0.3391439318018051,-0.9403754008118481,-0.025990364623633633,0.4930247855828722,-0.20120198516756674,0.8464303408721204,,0.04386479256510742,0.7208103421942793,1.179233716562278,0.9913132679183223,-0.04274310856972448,-0.12438260135120849,0.04769661193910066,-0.7645042084078753,0.6428517313783785,-0.12256850353425935,-0.6432000792882763,-0.7558244637115998,,0.05682626736839789,0.6509679396921597,-0.3920810383023352,0.9322524979838066,-0.35978965033599003,-0.03816657587547924,-0.2811630497308207,-0.7868072559031413,0.5494376047598428,-0.22771170252979256,-0.5014835486526703,-0.8346625850975401,,0.0,0.0,0.045,1.0,0.0,0.0,0.0,1.0,0.0,0.0,0.0,1.0,,0.017444116233895766,-0.1925897926022419,0.2248824739289125,False,,0.03389062944122499,0.5790206329271816,-0.34418251634374397,-0.5879755194603942,-0.7005228257611268,-0.4044163190363689,0.5584196218419778,0.010170641202386532,-0.8294962832945035,0.5851942536091264,-0.7135575160035655,0.3852056034089836
10:03:21.574576,,-0.1527865471836577,-0.4732336250667295,0.04350997385,-2.2085228835137745,0.014889702998197418,0.21349509427766822,,0.03388351576197566,0.5790192269956245,-0.3441876575840899,-0.5897582216752003,-0.6823618176288766,-0.4319347054923011,0.5646848403595316,0.03392589374586544,-0.824609037545475,0.5773354926164124,-0.7302269397767791,0.3653112992908986,,-0.002690614365365846,0.2808776758641528,-0.07170934669268672,-0.801191951570806,0.2742485473157549,0.5318638839227882,-0.3391439038043451,-0.9403754404581607,-0.025989295556845746,0.49302420755839566,-0.20120080831445514,0.8464309573043141,,0.04386479256510742,0.7208103421942793,1.179233716562278,0.9913132679183223,-0.04274310856972448,-0.12438260135120849,0.04769661193910066,-0.7645042084078753,0.6428517313783785,-0.12256850353425935,-0.6432000792882763,-0.7558244637115998,,0.05682626736839789,0.6509679396921597,-0.3920810383023352,0.9322524979838066,-0.35978965033599003,-0.03816657587547924,-0.2811630497308207,-0.7868072559031413,0.5494376047598428,-0.22771170252979256,-0.5014835486526703,-0.8346625850975401,,0.0,0.0,0.045,1.0,0.0,0.0,0.0,1.0,0.0,0.0,0.0,1.0,,0.017444116233895766,-0.1925897926022419,0.2248824739289125,False,,0.03388351576197566,0.5790192269956245,-0.3441876575840899,-0.5862018414595553,-0.70120711509934,-0.40580288663769715,0.5596991058565619,0.011633378912516257,-0.8286142500575545,0.58575106655711,-0.7128627120484977,0.38564548720044606
10:03:21.586953,,-0.15274021078641234,-0.4733340205940944,0.04350997385,-2.2085228835137745,0.014084854187484045,0.21500509795974126,,0.03387943870056165,0.5790184880705618,-0.34419050977183774,-0.5902383552168027,-0.6824858026199317,-0.4310821421181712,0.5643732434392412,0.03292225789330844,-0.8248629989429018,0.5771494833410444,-0.7301570065112258,0.36574474667687484,,-0.002690400095848481,0.28087743252113057,-0.07170948205331193,-0.8011915840211231,0.2742478198562152,0.5318648126931669,-0.3391439318018051,-0.9403754008118481,-0.025990364623633633,0.4930247855828722,-0.20120198516756674,0.8464303408721204,,0.04386479256510742,0.7208103421942793,1.179233716562278,0.9913132679183223,-0.04274310856972448,-0.12438260135120849,0.04769661193910066,-0.7645042084078753,0.6428517313783785,-0.12256850353425935,-0.6432000792882763,-0.7558244637115998,,0.05682626736839789,0.6509679396921597,-0.3920810383023352,0.9322524979838066,-0.35978965033599003,-0.03816657587547924,-0.2811630497308207,-0.7868072559031413,0.5494376047598428,-0.22771170252979256,-0.5014835486526703,-0.8346625850975401,,0.0,0.0,0.045,1.0,0.0,0.0,0.0,1.0,0.0,0.0,0.0,1.0,,0.017444116233895766,-0.1925897926022419,0.2248824739289125,False,,0.03387943870056165,0.5790184880705618,-0.34419050977183774,-0.5860094387817649,-0.7004931920564861,-0.40731096909019804,0.5602805859486923,0.012857355877587295,-0.8282030870558426,0.5853875662052205,-0.7135432546681051,0.38493820419643554
10:03:21.599141,,-0.15267842892341857,-0.4734807525187047,0.04350997385,-2.2085228835137745,0.012609298034509525,0.21830153064792684,,0.033874788724505916,0.5790191742091695,-0.3441915056330581,-0.5907730556954677,-0.6826034314239591,-0.43016247171560223,0.5640258294981806,0.031840320948600204,-0.8251430528222239,0.5769419904315591,-0.7300950276300522,0.3661955629260739,,-0.0026897628522578425,0.2808771971393936,-0.07170987399103365,-0.8011900700543874,0.2742468670852214,0.5318675845812182,-0.339144187030605,-0.940375280289207,-0.025991394968676973,0.4930270702889126,-0.20120384713769426,0.8464285674806796,,0.04386479256510742,0.7208103421942793,1.179233716562278,0.9913132679183223,-0.04274310856972448,-0.12438260135120849,0.04769661193910066,-0.7645042084078753,0.6428517313783785,-0.12256850353425935,-0.6432000792882763,-0.7558244637115998,,0.05682626736839789,0.6509679396921597,-0.3920810383023352,0.9322524979838066,-0.35978965033599003,-0.03816657587547924,-0.2811630497308207,-0.7868072559031413,0.5494376047598428,-0.22771170252979256,-0.5014835486526703,-0.8346625850975401,,0.0,0.0,0.045,1.0,0.0,0.0,0.0,1.0,0.0,0.0,0.0,1.0,,0.017444116233895766,-0.1925897926022419,0.2248824739289125,False,,0.033874788724505916,0.5790191742091695,-0.3441915056330581,-0.5858158101679801,-0.6997172472118162,-0.40892005393664854,0.560880820187983,0.0141785851267896,-0.8277751344834284,0.5850064462059275,-0.7142791762876198,0.3841519441827551
10:03:21.611365,,-0.15267070619054432,-0.4735502571145727,0.04350997385,-2.2083132069844367,0.01207273216070061,0.2196066868935265,,0.033871169164168886,0.5790193852453405,-0.3441927647692522,-0.5912048383554963,-0.6827731276370366,-0.42929907440127385,0.5637449736716732,0.030820484249748537,-0.825373674410891,0.5767741705078132,-0.7299801051585927,0.3666886994545564,,-0.002689339879507275,0.2808772051007393,-0.07171013057031506,-0.8011889236303851,0.2742466417722429,0.5318694276950919,-0.3391444142594997,-0.940375199409857,-0.025991356246357608,0.4930287769660493,-0.20120453225410034,0.8464274105154221,,0.04386479256510742,0.7208103421942793,1.179233716562278,0.9913132679183223,-0.04274310856972448,-0.12438260135120849,0.04769661193910066,-0.7645042084078753,0.6428517313783785,-0.12256850353425935,-0.6432000792882763,-0.7558244637115998,,0.05682626736839789,0.6509679396921597,-0.3920810383023352,0.9322524979838066,-0.35978965033599003,-0.03816657587547924,-0.2811630497308207,-0.7868072559031413,0.5494376047598428,-0.22771170252979256,-0.5014835486526703,-0.8346625850975401,,0.0,0.0,0.045,1.0,0.0,0.0,0.0,1.0,0.0,0.0,0.0,1.0,,0.017444116233895766,-0.1925897926022419,0.2248824739289125,False,,0.033871169164168886,0.5790193852453405,-0.3441927647692522,-0.5856540524467774,-0.6989565880939023,-0.41044977623675116,0.5613757016971502,0.015509749186758515,-0.8274157172934273,0.5846936397778756,-0.714995899037397,0.38329389763340205
10:03:21.623124,,-0.1526629834576701,-0.4736120389775665,0.04350867756000001,-2.2083132069844367,0.011536166286891693,0.22091184313912615,,0.03386670322723283,0.5790194629825587,-0.3441946652207791,-0.591523337744353,-0.6829327559955329,-0.4286058698759573,0.5635376252342088,0.030000000394593523,-0.825545483254383,0.5766502283439837,-0.7298649537857468,0.36711260314263416,,-0.0026891311762404675,0.2808774564051067,-0.07171025178889824,-0.8011881447555876,0.27424714392285876,0.5318703420396053,-0.33914461348604674,-0.9403751581770978,-0.025990248457267287,0.4930299056188902,-0.20120404052012808,0.8464268699845694,,0.04386479256510742,0.7208103421942793,1.179233716562278,0.9913132679183223,-0.04274310856972448,-0.12438260135120849,0.04769661193910066,-0.7645042084078753,0.6428517313783785,-0.12256850353425935,-0.6432000792882763,-0.7558244637115998,,0.05682626736839789,0.6509679396921597,-0.3920810383023352,0.9322524979838066,-0.35978965033599003,-0.03816657587547924,-0.2811630497308207,-0.7868072559031413,0.5494376047598428,-0.22771170252979256,-0.5014835486526703,-0.8346625850975401,,0.0,0.0,0.045,1.0,0.0,0.0,0.0,1.0,0.0,0.0,0.0,1.0,,0.017444116233895766,-0.1925897926022419,0.2248824739289125,False,,0.03386670322723283,0.5790194629825587,-0.3441946652207791,-0.5856913458490766,-0.6982193724468858,-0.41164955403519427,0.5617388950363292,0.01645712156424628,-0.8271508791950739,0.5843073345430994,-0.7156946772819375,0.3825781850935075
10:03:21.634824,,-0.15264753799192166,-0.4736738208405603,0.04350867756000001,-2.208103530455099,0.010999600413082778,0.22228588102877606,,0.033859027810257056,0.5790210920203696,-0.3441980881274166,-0.59220356690969,-0.683232672167683,-0.42718620181607897,0.5630942766567498,0.02832085959898739,-0.8259072372294518,0.5763850890991649,-0.7296513171331782,0.3679526932500508,,-0.002688499501803634,0.2808777156711172,-0.07171062958892024,-0.8011862194472171,0.2742474207597516,0.5318730994913844,-0.33914503993750644,-0.9403750360648585,-0.025989101944390233,0.4930327409429677,-0.20120423390354514,0.8464251724787164,,0.04386479256510742,0.7208103421942793,1.179233716562278,0.9913132679183223,-0.04274310856972448,-0.12438260135120849,0.04769661193910066,-0.7645042084078753,0.6428517313783785,-0.12256850353425935,-0.6432000792882763,-0.7558244637115998,,0.05682626736839789,0.6509679396921597,-0.3920810383023352,0.9322524979838066,-0.35978965033599003,-0.03816657587547924,-0.2811630497308207,-0.7868072559031413,0.5494376047598428,-0.22771170252979256,-0.5014835486526703,-0.8346625850975401,,0.0,0.0,0.045,1.0,0.0,0.0,0.0,1.0,0.0,0.0,0.0,1.0,,0.017444116233895766,-0.1925897926022419,0.2248824739289125,False,,0.033859027810257056,0.5790210920203696,-0.3441980881274166,-0.5855998946383527,-0.6968376944179825,-0.41411350018778736,0.5625028927795578,0.018511682373118288,-0.8265880553397478,0.5836636522982902,-0.7169899199109755,0.38113277966067594
10:03:21.646457,,-0.15264753799192166,-0.47372015723780564,0.04350867756000001,-2.2076841773964238,0.010463034539273861,0.22359103727437568,,0.033854572733561544,0.5790223778592067,-0.34419818396246804,-0.5925292417061676,-0.6833756697657186,-0.4265053243458627,0.5628817684296793,0.027515341846860275,-0.8260793065635571,0.5762579392013537,-0.7295482163197344,0.36835606085973804,,-0.0026880820969120978,0.28087821828016235,-0.07171087202829463,-0.801184661688341,0.2742484250643518,0.5318749281719384,-0.3391454383814016,-0.9403749535983065,-0.025986886364346137,0.49303499824380514,-0.2012032504398205,0.8464240914057358,,0.04386479256510742,0.7208103421942793,1.179233716562278,0.9913132679183223,-0.04274310856972448,-0.12438260135120849,0.04769661193910066,-0.7645042084078753,0.6428517313783785,-0.12256850353425935,-0.6432000792882763,-0.7558244637115998,,0.05682626736839789,0.6509679396921597,-0.3920810383023352,0.9322524979838066,-0.35978965033599003,-0.03816657587547924,-0.2811630497308207,-0.7868072559031413,0.5494376047598428,-0.22771170252979256,-0.5014835486526703,-0.8346625850975401,,0.0,0.0,0.045,1.0,0.0,0.0,0.0,1.0,0.0,0.0,0.0,1.0,,0.017444116233895766,-0.1925897926022419,0.2248824739289125,False,,0.033854572733561544,0.5790223778592067,-0.34419818396246804,-0.5857959597265091,-0.6959772067278476,-0.41528161683778053,0.5628463311308518,0.019323759837560794,-0.8263356459927648,0.583135576946423,-0.7178038172237894,0.3804084369178989
10:03:21.657967,,-0.15264753799192166,-0.4737587709021768,0.04350867756000001,-2.207474500867086,0.010060610133917175,0.22482821062376374,,0.03385112664655553,0.5790231787315165,-0.3441985553303796,-0.5927855021186917,-0.6835377689131424,-0.4258890312594748,0.5627144424642188,0.026784084079135184,-0.8262173255761617,0.5761577949833483,-0.7294235609776292,0.36875935780755553,,-0.0026878733952384604,0.28087846958482265,-0.0717109932490265,-0.801183882805931,0.2742489272170574,0.5318758425094612,-0.33914563760064953,-0.9403749123627234,-0.025985778573924367,0.49303612689264953,-0.20120275870856572,0.8464235508654054,,0.04386479256510742,0.7208103421942793,1.179233716562278,0.9913132679183223,-0.04274310856972448,-0.12438260135120849,0.04769661193910066,-0.7645042084078753,0.6428517313783785,-0.12256850353425935,-0.6432000792882763,-0.7558244637115998,,0.05682626736839789,0.6509679396921597,-0.3920810383023352,0.9322524979838066,-0.35978965033599003,-0.03816657587547924,-0.2811630497308207,-0.7868072559031413,0.5494376047598428,-0.22771170252979256,-0.5014835486526703,-0.8346625850975401,,0.0,0.0,0.045,1.0,0.0,0.0,0.0,1.0,0.0,0.0,0.0,1.0,,0.017444116233895766,-0.1925897926022419,0.2248824739289125,False,,0.03385112664655553,0.5790231787315165,-0.3441985553303796,-0.5858626375946794,-0.6952813944056028,-0.4163517172583855,0.5631191499501628,0.02020706923815302,-0.8261286203202327,0.5828051070726921,-0.7184535175960973,0.37968770091192405
10:03:21.669881,,-0.15263981525904743,-0.47382055276517054,0.04350867756000001,-2.2070551478084104,0.009121619854751573,0.22771494843900253,,0.03384824911391143,0.5790237589293847,-0.3441989895862889,-0.5930309444620898,-0.6837183498070719,-0.4252570011739915,0.5625540878161053,0.026033175095045435,-0.8263505140531229,0.5760617998025832,-0.7292814901885041,0.36919007418488836,,-0.0026878733952384604,0.28087846958482265,-0.0717109932490265,-0.801183882805931,0.2742489272170574,0.5318758425094612,-0.33914563760064953,-0.9403749123627234,-0.025985778573924367,0.49303612689264953,-0.20120275870856572,0.8464235508654054,,0.04386479256510742,0.7208103421942793,1.179233716562278,0.9913132679183223,-0.04274310856972448,-0.12438260135120849,0.04769661193910066,-0.7645042084078753,0.6428517313783785,-0.12256850353425935,-0.6432000792882763,-0.7558244637115998,,0.05682626736839789,0.6509679396921597,-0.3920810383023352,0.9322524979838066,-0.35978965033599003,-0.03816657587547924,-0.2811630497308207,-0.7868072559031413,0.5494376047598428,-0.22771170252979256,-0.5014835486526703,-0.8346625850975401,,0.0,0.0,0.045,1.0,0.0,0.0,0.0,1.0,0.0,0.0,0.0,1.0,,0.017444116233895766,-0.1925897926022419,0.2248824739289125,False,,0.03384824911391143,0.5790237589293847,-0.3441989895862889,-0.5859278273264295,-0.6945596400164269,-0.4174631572064549,0.5633879886991617,0.02114609105772053,-0.8259217983698528,0.5824796608930161,-0.7191242933549318,0.3789164754305715
10:03:21.681717,,-0.15264753799192166,-0.4738282754980448,0.04350867756000001,-2.206845471279073,0.008853336917847114,0.2294351920445808,,0.033844336519627725,0.5790260218298438,-0.3441973710917339,-0.5934131836484027,-0.6838780292305412,-0.4244662938420649,0.5623041796707727,0.025097605150594643,-0.8265495264897829,0.575912148679854,-0.7291645571141373,0.3696542244469794,,-0.002688082098379254,0.2808782182804164,-0.07171087203029711,-0.8011846616835626,0.27424842506271624,0.5318749281687664,-0.339145438379379,-0.940374953592698,-0.025986886364190984,0.4930349982408647,-0.20120325043862047,0.8464240914006876,,0.04386479256510742,0.7208103421942793,1.179233716562278,0.9913132679183223,-0.04274310856972448,-0.12438260135120849,0.04769661193910066,-0.7645042084078753,0.6428517313783785,-0.12256850353425935,-0.6432000792882763,-0.7558244637115998,,0.05682626736839789,0.6509679396921597,-0.3920810383023352,0.9322524979838066,-0.35978965033599003,-0.03816657587547924,-0.2811630497308207,-0.7868072559031413,0.5494376047598428,-0.22771170252979256,-0.5014835486526703,-0.8346625850975401,,0.0,0.0,0.045,1.0,0.0,0.0,0.0,1.0,0.0,0.0,0.0,1.0,,0.017444116233895766,-0.1925897926022419,0.2248824739289125,False,,0.033844336519627725,0.5790260218298438,-0.3441973710917339,-0.5859581296794591,-0.6937029833467627,-0.41884274036725433,0.5637766432645415,0.022283620403146243,-0.8256266327893587,0.5820729909314777,-0.7199163917827747,0.3780362708399214
10:03:21.693211,,-0.15265526072479588,-0.47383599823091904,0.043507381270000006,-2.2062164416910597,0.008853336917847114,0.2310194698577358,,0.03384191204743027,0.5790275401388859,-0.3441962064518491,-0.5936080790273609,-0.6841696873401785,-0.42372312591866984,0.5621766724761702,0.024209644216629744,-0.8266627377900404,0.5758357729744371,-0.7289209367632039,0.37025319784059374,,-0.0026884995032707866,0.2808777156713712,-0.07171062959092274,-0.8011862194424386,0.27424742075811603,0.5318730994882124,-0.3391450399354837,-0.9403750360592499,-0.02598910194423508,0.4930327409400273,-0.20120423390234504,0.846425172473668,,0.04386479256510742,0.7208103421942793,1.179233716562278,0.9913132679183223,-0.04274310856972448,-0.12438260135120849,0.04769661193910066,-0.7645042084078753,0.6428517313783785,-0.12256850353425935,-0.6432000792882763,-0.7558244637115998,,0.05682626736839789,0.6509679396921597,-0.3920810383023352,0.9322524979838066,-0.35978965033599003,-0.03816657587547924,-0.2811630497308207,-0.7868072559031413,0.5494376047598428,-0.22771170252979256,-0.5014835486526703,-0.8346625850975401,,0.0,0.0,0.045,1.0,0.0,0.0,0.0,1.0,0.0,0.0,0.0,1.0,,0.017444116233895766,-0.1925897926022419,0.2248824739289125,False,,0.03384191204743027,0.5790275401388859,-0.3441962064518491,-0.5860547071303472,-0.6928203351390456,-0.42016647113755246,0.5639593818311304,0.02355914566108125,-0.8254664028901295,0.581798672991794,-0.7207252943206175,0.37691557971440653
10:03:21.706549,,-0.1526629834576701,-0.47383599823091904,0.043507381270000006,-2.2057970886323846,0.008853336917847114,0.23315480082329265,,0.03384099402367502,0.5790287170657884,-0.34419729763182044,-0.5934805688780561,-0.6851061024533228,-0.4223866034161076,0.5622601004170241,0.022589531379405697,-0.8266518569210964,0.5758857472131229,-0.7280929483611802,0.37180137802798285,,-0.0026889169082651466,0.2808772130623543,-0.07171038715166417,-0.80118777719976,0.2742464164567778,0.5318712708045426,-0.3391446414870862,-0.9403751185271271,-0.025991317523420127,0.4930304836389117,-0.2012052173692896,0.8464262535431385,,0.04386479256510742,0.7208103421942793,1.179233716562278,0.9913132679183223,-0.04274310856972448,-0.12438260135120849,0.04769661193910066,-0.7645042084078753,0.6428517313783785,-0.12256850353425935,-0.6432000792882763,-0.7558244637115998,,0.05682626736839789,0.6509679396921597,-0.3920810383023352,0.9322524979838066,-0.35978965033599003,-0.03816657587547924,-0.2811630497308207,-0.7868072559031413,0.5494376047598428,-0.22771170252979256,-0.5014835486526703,-0.8346625850975401,,0.0,0.0,0.045,1.0,0.0,0.0,0.0,1.0,0.0,0.0,0.0,1.0,,0.017444116233895766,-0.1925897926022419,0.2248824739289125,False,,0.03384099402367502,0.5790287170657884,-0.34419729763182044,-0.5868657318094688,-0.6906474167207015,-0.42260473093040374,0.5637903728190075,0.026053622533700305,-0.8255068892925587,0.5811445847156642,-0.722722183504764,0.37409038630492086
10:03:21.720045,,-0.15267842892341857,-0.47383599823091904,0.043507381270000006,-2.204958382515034,0.008853336917847114,0.23735658111035607,,0.03383940898576587,0.5790294259409575,-0.3441969698140133,-0.5935694224868694,-0.6855828810741291,-0.42148719300436716,0.5622019674416481,0.02150883158241315,-0.8267202174670094,0.575850925581738,-0.7276767711986247,0.3726690598434485,,-0.0026891256100673062,0.28087696175772947,-0.0717102659310771,-0.8011885560802269,0.2742459143081496,0.5318703564631252,-0.3391444422622103,-0.9403751597643666,-0.025992425312768144,0.4930293549897197,-0.20120570910456936,0.8464267940790816,,0.04386479256510742,0.7208103421942793,1.179233716562278,0.9913132679183223,-0.04274310856972448,-0.12438260135120849,0.04769661193910066,-0.7645042084078753,0.6428517313783785,-0.12256850353425935,-0.6432000792882763,-0.7558244637115998,,0.05682626736839789,0.6509679396921597,-0.3920810383023352,0.9322524979838066,-0.35978965033599003,-0.03816657587547924,-0.2811630497308207,-0.7868072559031413,0.5494376047598428,-0.22771170252979256,-0.5014835486526703,-0.8346625850975401,,0.0,0.0,0.045,1.0,0.0,0.0,0.0,1.0,0.0,0.0,0.0,1.0,,0.017444116233895766,-0.1925897926022419,0.2248824739289125,False,,0.03383940898576587,0.5790294259409575,-0.3441969698140133,-0.5869958653977394,-0.689541598028174,-0.4242266358854797,0.5638643997119568,0.027801512911502735,-0.825399306164784,0.5809412988791846,-0.7237122774062799,0.3724885861177257
10:03:21.731870,,-0.1526861516562928,-0.4738282754980448,0.043507381270000006,-2.2039099998683453,0.00938990279165603,0.23880669062676518,,0.03383991607842382,0.5790291737446858,-0.3441971269671095,-0.5933924113839549,-0.6861227973058117,-0.42085740236947616,0.5623177662265494,0.020741669518895278,-0.8266610629100374,0.5759202860621587,-0.7271899959177223,0.3735110894461693,,-0.0026891256100673062,0.28087696175772947,-0.07171026593107709,-0.801188556080227,0.27424591430814965,0.5318703564631252,-0.33914444226221035,-0.9403751597643667,-0.025992425312768158,0.4930293549897197,-0.20120570910456936,0.8464267940790817,,0.04386479256510742,0.7208103421942793,1.179233716562278,0.9913132679183223,-0.04274310856972448,-0.12438260135120849,0.04769661193910066,-0.7645042084078753,0.6428517313783785,-0.12256850353425935,-0.6432000792882763,-0.7558244637115998,,0.05682626736839789,0.6509679396921597,-0.3920810383023352,0.9322524979838066,-0.35978965033599003,-0.03816657587547924,-0.2811630497308207,-0.7868072559031413,0.5494376047598428,-0.22771170252979256,-0.5014835486526703,-0.8346625850975401,,0.0,0.0,0.045,1.0,0.0,0.0,0.0,1.0,0.0,0.0,0.0,1.0,,0.017444116233895766,-0.1925897926022419,0.2248824739289125,False,,0.03383991607842382,0.5790291737446858,-0.3441971269671095,-0.5875136602623735,-0.6883811058421849,-0.42539293849874704,0.5636592501966096,0.029057634101355034,-0.8254961559984563,0.580616869090887,-0.7247669328963086,0.370940620999067
10:03:21.743494,,-0.152693874389167,-0.47382055276517054,0.043507381270000006,-2.2037003233390076,0.009926468665464946,0.23963686534672232,,0.033842144607612416,0.5790273117630872,-0.344198923434392,-0.5929283691877325,-0.6867148179067007,-0.42054572626498393,0.5626211142344562,0.020346260864733817,-0.8264644647450992,0.576101927465926,-0.7266421323706678,0.37429638073838484,,-0.0026891256100673062,0.28087696175772947,-0.0717102659310771,-0.801188556080227,0.2742459143081497,0.5318703564631252,-0.3391444422622104,-0.9403751597643667,-0.025992425312768144,0.4930293549897197,-0.20120570910456936,0.8464267940790817,,0.04386479256510742,0.7208103421942793,1.179233716562278,0.9913132679183223,-0.04274310856972448,-0.12438260135120849,0.04769661193910066,-0.7645042084078753,0.6428517313783785,-0.12256850353425935,-0.6432000792882763,-0.7558244637115998,,0.05682626736839789,0.6509679396921597,-0.3920810383023352,0.9322524979838066,-0.35978965033599003,-0.03816657587547924,-0.2811630497308207,-0.7868072559031413,0.5494376047598428,-0.22771170252979256,-0.5014835486526703,-0.8346625850975401,,0.0,0.0,0.045,1.0,0.0,0.0,0.0,1.0,0.0,0.0,0.0,1.0,,0.017444116233895766,-0.1925897926022419,0.2248824739289125,False,,0.033842144607612416,0.5790273117630872,-0.344198923434392,-0.5884209764393065,-0.6872225375338146,-0.42601166461940665,0.5631669809703901,0.02972075959894166,-0.8258084693157113,0.5801755820705569,-0.7258387288884816,0.3695327233340018
10:03:21.756437,,-0.15270159712204123,-0.47382055276517054,0.043507381270000006,-2.2037003233390076,0.010060610133917175,0.2401199356029125,,0.033846279440271174,0.5790232372199374,-0.34420320678704897,-0.592279511727495,-0.6873854437031126,-0.42036440355115107,0.5630447356078861,0.02010168350740066,-0.8261819097658903,0.5763554508218741,-0.7260145825706555,0.3751229401178646,,-0.0026891256100673062,0.28087696175772947,-0.0717102659310771,-0.8011885560802269,0.2742459143081496,0.5318703564631252,-0.3391444422622103,-0.9403751597643666,-0.025992425312768144,0.4930293549897197,-0.20120570910456936,0.8464267940790816,,0.04386479256510742,0.7208103421942793,1.179233716562278,0.9913132679183223,-0.04274310856972448,-0.12438260135120849,0.04769661193910066,-0.7645042084078753,0.6428517313783785,-0.12256850353425935,-0.6432000792882763,-0.7558244637115998,,0.05682626736839789,0.6509679396921597,-0.3920810383023352,0.9322524979838066,-0.35978965033599003,-0.03816657587547924,-0.2811630497308207,-0.7868072559031413,0.5494376047598428,-0.22771170252979256,-0.5014835486526703,-0.8346625850975401,,0.0,0.0,0.045,1.0,0.0,0.0,0.0,1.0,0.0,0.0,0.0,1.0,,0.017444116233895766,-0.1925897926022419,0.2248824739289125,False,,0.033846279440271174,0.5790232372199374,-0.34420320678704897,-0.5887857148206077,-0.6866487459136914,-0.4264327400169238,0.5624919345631152,0.03079295923453701,-0.8262291553879133,0.5804603393640521,-0.7263369007538687,0.36810392693998045
10:03:21.770379,,-0.15270931985491545,-0.47382055276517054,0.043507381270000006,-2.2024422641629817,0.010194751602369403,0.24018971599480132,,0.03384631410741164,0.5790232447423697,-0.34420317889596014,-0.5922153373688632,-0.6874372822421946,-0.42037004789655125,0.563086599004163,0.020105938111868144,-0.8261532746861,0.576380496032793,-0.725965380879906,0.3751796763643847,,-0.002688499504737988,0.2808777156716252,-0.07171062959292518,-0.80118621943766,0.27424742075648034,0.5318730994850401,-0.339145039933461,-0.9403750360536413,-0.02598910194408008,0.49303274093708677,-0.20120423390114506,0.8464251724686197,,0.04386479256510742,0.7208103421942793,1.179233716562278,0.9913132679183223,-0.04274310856972448,-0.12438260135120849,0.04769661193910066,-0.7645042084078753,0.6428517313783785,-0.12256850353425935,-0.6432000792882763,-0.7558244637115998,,0.05682626736839789,0.6509679396921597,-0.3920810383023352,0.9322524979838066,-0.35978965033599003,-0.03816657587547924,-0.2811630497308207,-0.7868072559031413,0.5494376047598428,-0.22771170252979256,-0.5014835486526703,-0.8346625850975401,,0.0,0.0,0.045,1.0,0.0,0.0,0.0,1.0,0.0,0.0,0.0,1.0,,0.017444116233895766,-0.1925897926022419,0.2248824739289125,False,,0.03384631410741164,0.5790232447423697,-0.34420317889596014,-0.5891078616592637,-0.6863812945908644,-0.42641839285731975,0.5624220318328065,0.03061730095464288,-0.8262832680088052,0.5802011594613614,-0.726597068063189,0.3679990696206581
10:03:21.781954,,-0.15271704258778968,-0.47382055276517054,0.043507381270000006,-2.202022911104306,0.010194751602369403,0.24025859763885155,,0.033846660404962176,0.5790226745658145,-0.3442038942684043,-0.5919853244048842,-0.6875690818479192,-0.4204784576836883,0.5632365946141251,0.02022722736296459,-0.8260480602003073,0.5764702196789767,-0.7258371835060643,0.37528984646970676,,-0.002688082102780792,0.2808782182811785,-0.07171087203630447,-0.8011846616692277,0.2742484250578094,0.5318749281592503,-0.33914543837331096,-0.9403749535758729,-0.02598688636372594,0.49303499823204366,-0.20120325043502052,0.8464240913855433,,0.04386479256510742,0.7208103421942793,1.179233716562278,0.9913132679183223,-0.04274310856972448,-0.12438260135120849,0.04769661193910066,-0.7645042084078753,0.6428517313783785,-0.12256850353425935,-0.6432000792882763,-0.7558244637115998,,0.05682626736839789,0.6509679396921597,-0.3920810383023352,0.9322524979838066,-0.35978965033599003,-0.03816657587547924,-0.2811630497308207,-0.7868072559031413,0.5494376047598428,-0.22771170252979256,-0.5014835486526703,-0.8346625850975401,,0.0,0.0,0.045,1.0,0.0,0.0,0.0,1.0,0.0,0.0,0.0,1.0,,0.017444116233895766,-0.1925897926022419,0.2248824739289125,False,,0.033846660404962176,0.5790226745658145,-0.3442038942684043,-0.5897868412311641,-0.6859186496619804,-0.4262242226298866,0.5621771818542566,0.03017156410800348,-0.8264662684717887,0.5797484783188066,-0.7270524621821743,0.36781302195798626
10:03:21.795462,,-0.1527247653206639,-0.47381283003229635,0.043507381270000006,-2.202022911104306,0.010463034539273861,0.24005375020237818,,0.0338474387899602,0.5790218377292872,-0.34420482869525154,-0.5917320080618229,-0.6876821075134893,-0.42065015112433796,0.5634016951419717,0.020423720121091782,-0.8259306275756869,0.5765689555866457,-0.7257245969803015,0.37535589617255727,,-0.0026878817158117532,0.28087843723842043,-0.07171098898102063,-0.8011956980656504,0.2742150008642237,0.5318755335100477,-0.339106191273157,-0.9403891140098257,-0.025986568386321435,0.4930440557250205,-0.2011826135562357,0.8464237186902162,,0.04386479256510742,0.7208103421942793,1.179233716562278,0.9913132679183223,-0.04274310856972448,-0.12438260135120849,0.04769661193910066,-0.7645042084078753,0.6428517313783785,-0.12256850353425935,-0.6432000792882763,-0.7558244637115998,,0.05682626736839789,0.6509679396921597,-0.3920810383023352,0.9322524979838066,-0.35978965033599003,-0.03816657587547924,-0.2811630497308207,-0.7868072559031413,0.5494376047598428,-0.22771170252979256,-0.5014835486526703,-0.8346625850975401,,0.0,0.0,0.045,1.0,0.0,0.0,0.0,1.0,0.0,0.0,0.0,1.0,,0.017444116233895766,-0.1925897926022419,0.2248824739289125,False,,0.0338474387899602,0.5790218377292872,-0.34420482869525154,-0.5901774446740014,-0.6857687530260707,-0.42592464259670926,0.5619011672940003,0.02985808465448686,-0.8266653331151644,0.5796185486953521,-0.7272067877528606,0.367712694714855
10:03:21.806922,,-0.1527247653206639,-0.47382055276517054,0.043507381270000006,-2.202022911104306,0.01073131747617832,0.2396422578337541,,0.03384894485470989,0.5790198996702152,-0.34420707195524847,-0.5915067439243393,-0.68772042914973,-0.4209042447186026,0.5635484318326375,0.02072028170716883,-0.8258231256782234,0.5766566889155118,-0.7256798751902156,0.37530758302079625,,-0.002687472608923991,0.2808789074968907,-0.07171122712145585,-0.8012059549073248,0.2741820786365523,0.531877053709962,-0.33906714309928965,-0.9404032324041521,-0.025985142714952336,0.4930542414168406,-0.20116148469816503,0.8464228061568889,,0.04386479256510742,0.7208103421942793,1.179233716562278,0.9913132679183223,-0.04274310856972448,-0.12438260135120849,0.04769661193910066,-0.7645042084078753,0.6428517313783785,-0.12256850353425935,-0.6432000792882763,-0.7558244637115998,,0.05682626736839789,0.6509679396921597,-0.3920810383023352,0.9322524979838066,-0.35978965033599003,-0.03816657587547924,-0.2811630497308207,-0.7868072559031413,0.5494376047598428,-0.22771170252979256,-0.5014835486526703,-0.8346625850975401,,0.0,0.0,0.045,1.0,0.0,0.0,0.0,1.0,0.0,0.0,0.0,1.0,,0.017444116233895766,-0.1925897926022419,0.2248824739289125,False,,0.03384894485470989,0.5790198996702152,-0.34420707195524847,-0.5902458667556508,-0.6859794903214552,-0.42549025327989265,0.5616801179787679,0.029559414843459475,-0.8268262732046374,0.5797631083858544,-0.7270202059450817,0.3678537186197025
10:03:21.820557,,-0.1527479335192866,-0.4738282754980448,0.043507381270000006,-2.201813234574969,0.010865458944630549,0.23888545849704032,,0.03384922257130807,0.5790193152593265,-0.34420784323326065,-0.5914090129969213,-0.6877001549408038,-0.42107466824828316,0.56361207000115,0.02092121066774441,-0.8257746287536416,0.576694731981337,-0.7256933235455526,0.37522311531458663,,-0.002687280530773179,0.280879094095275,-0.07171133979424094,-0.8012287994461224,0.2741147255886953,0.531877350246504,-0.3389884467028845,-0.9404315862268808,-0.025985614875176727,0.49307122354866095,-0.20112070105762275,0.846422601107744,,0.04386479256510742,0.7208103421942793,1.179233716562278,0.9913132679183223,-0.04274310856972448,-0.12438260135120849,0.04769661193910066,-0.7645042084078753,0.6428517313783785,-0.12256850353425935,-0.6432000792882763,-0.7558244637115998,,0.05682626736839789,0.6509679396921597,-0.3920810383023352,0.9322524979838066,-0.35978965033599003,-0.03816657587547924,-0.2811630497308207,-0.7868072559031413,0.5494376047598428,-0.22771170252979256,-0.5014835486526703,-0.8346625850975401,,0.0,0.0,0.045,1.0,0.0,0.0,0.0,1.0,0.0,0.0,0.0,1.0,,0.017444116233895766,-0.1925897926022419,0.2248824739289125,False,,0.03384922257130807,0.5790193152593265,-0.34420784323326065,-0.5902808139841179,-0.6861398465786614,-0.4251831035909799,0.5615753270951236,0.02929388346439632,-0.8269068994690874,0.5798290374241808,-0.7268796181821204,0.36802759139929
10:03:21.832008,,-0.1527556562521608,-0.4738282754980448,0.043507381270000006,-2.201184204986956,0.010865458944630549,0.23854105027678923,,0.03384791407803867,0.5790194373916336,-0.34420828552533556,-0.591379770862916,-0.687629993368911,-0.4212302919230722,0.5636311084439832,0.021106972258415457,-0.8257569069140684,0.5767061125116777,-0.7257544267460959,0.3750874189440564,,-0.0026881374806176847,0.28087851882139503,-0.07171083211812349,-0.8012551241153941,0.2740460897749718,0.531873062164569,-0.338908924196347,-0.9404601411741603,-0.025989449036027817,0.4930831113284474,-0.20108070777717502,0.8464251778987504,,0.04386479256510742,0.7208103421942793,1.179233716562278,0.9913132679183223,-0.04274310856972448,-0.12438260135120849,0.04769661193910066,-0.7645042084078753,0.6428517313783785,-0.12256850353425935,-0.6432000792882763,-0.7558244637115998,,0.05682626736839789,0.6509679396921597,-0.3920810383023352,0.9322524979838066,-0.35978965033599003,-0.03816657587547924,-0.2811630497308207,-0.7868072559031413,0.5494376047598428,-0.22771170252979256,-0.5014835486526703,-0.8346625850975401,,0.0,0.0,0.045,1.0,0.0,0.0,0.0,1.0,0.0,0.0,0.0,1.0,,0.017444116233895766,-0.1925897926022419,0.2248824739289125,False,,0.03384791407803867,0.5790194373916336,-0.34420828552533556,-0.5904455782114802,-0.6861851092046836,-0.4248811775970633,0.5615442814784133,0.028842848895318518,-0.8269438372746327,0.579691330890331,-0.7268549277354859,0.3682931915162678
10:03:21.844126,,-0.15276337898503503,-0.4738282754980448,0.043507381270000006,-2.2007648519282803,0.010865458944630549,0.23819664205653812,,0.033847400661102575,0.5790196713648254,-0.3442081793520778,-0.5912779859834593,-0.6876081766252018,-0.4214087549274568,0.5636973667487966,0.021317385177428788,-0.8257062721147695,0.5767457169427587,-0.7257689470674275,0.374998417944424,,-0.002689208649115215,0.28087818689990707,-0.0717101889776231,-0.8012818136545221,0.27397818005791047,0.531867846888437,-0.3388293724586831,-0.94048873240121,-0.025992213847366205,0.49309441901206075,-0.2010395375879765,0.8464283743239223,,0.04386479256510742,0.7208103421942793,1.179233716562278,0.9913132679183223,-0.04274310856972448,-0.12438260135120849,0.04769661193910066,-0.7645042084078753,0.6428517313783785,-0.12256850353425935,-0.6432000792882763,-0.7558244637115998,,0.05682626736839789,0.6509679396921597,-0.3920810383023352,0.9322524979838066,-0.35978965033599003,-0.03816657587547924,-0.2811630497308207,-0.7868072559031413,0.5494376047598428,-0.22771170252979256,-0.5014835486526703,-0.8346625850975401,,0.0,0.0,0.045,1.0,0.0,0.0,0.0,1.0,0.0,0.0,0.0,1.0,,0.017444116233895766,-0.1925897926022419,0.2248824739289125,False,,0.033847400661102575,0.5790196713648254,-0.3442081793520778,-0.5909293916150601,-0.6859687576871779,-0.4245577906511253,0.5614426200619432,0.028209852508697175,-0.8270346961279303,0.5792966757227556,-0.7270839481783017,0.3684620656160104
10:03:21.856772,,-0.15277110171790925,-0.4738282754980448,0.043507381270000006,-2.2005551753989425,0.010999600413082778,0.23771536929602521,,0.03384716661500185,0.5790193214478521,-0.344208843210161,-0.5910786120371934,-0.6875340868687118,-0.4218091437911127,0.5638271071874785,0.021790533668057582,-0.8256053329788154,0.5768232550728034,-0.7258250836365934,0.37477043689590517,,-0.0026900628716892624,0.2808781386322626,-0.07170967146443236,-0.8012959126874117,0.2739447001297151,0.5318638528428489,-0.3387894677506967,-0.9405030848755327,-0.025993081009327387,0.49309892844255787,-0.2010180215552782,0.8464308584629663,,0.04386479256510742,0.7208103421942793,1.179233716562278,0.9913132679183223,-0.04274310856972448,-0.12438260135120849,0.04769661193910066,-0.7645042084078753,0.6428517313783785,-0.12256850353425935,-0.6432000792882763,-0.7558244637115998,,0.05682626736839789,0.6509679396921597,-0.3920810383023352,0.9322524979838066,-0.35978965033599003,-0.03816657587547924,-0.2811630497308207,-0.7868072559031413,0.5494376047598428,-0.22771170252979256,-0.5014835486526703,-0.8346625850975401,,0.0,0.0,0.045,1.0,0.0,0.0,0.0,1.0,0.0,0.0,0.0,1.0,,0.017444116233895766,-0.1925897926022419,0.2248824739289125,False,,0.03384716661500185,0.5790193214478521,-0.344208843210161,-0.5914479039242272,-0.6859702193894921,-0.4238327913863792,0.5612359372527569,0.027197145310520643,-0.8272088841538018,0.5789677017586193,-0.7271211545524517,0.3689054444199108
10:03:21.868333,,-0.15277882445078347,-0.4738282754980448,0.043507381270000006,-2.2005551753989425,0.011133741881535007,0.23716521489146208,,0.03384744606540644,0.5790187376764748,-0.3442096133556896,-0.5909693010081283,-0.6874715364710586,-0.422064179726361,0.5638982149636781,0.02209257663815245,-0.8255487394565294,0.5768657455827496,-0.7258751990525706,0.3746079376810497,,-0.0026907083765216055,0.2808783416742668,-0.07170927514374498,-0.8013092323557264,0.273911722332215,0.5318607735904529,-0.33874976199907497,-0.9405173953612986,-0.025992840208943283,0.49310456584867024,-0.2009960133076204,0.8464328028540696,,0.04386479256510742,0.7208103421942793,1.179233716562278,0.9913132679183223,-0.04274310856972448,-0.12438260135120849,0.04769661193910066,-0.7645042084078753,0.6428517313783785,-0.12256850353425935,-0.6432000792882763,-0.7558244637115998,,0.05682626736839789,0.6509679396921597,-0.3920810383023352,0.9322524979838066,-0.35978965033599003,-0.03816657587547924,-0.2811630497308207,-0.7868072559031413,0.5494376047598428,-0.22771170252979256,-0.5014835486526703,-0.8346625850975401,,0.0,0.0,0.045,1.0,0.0,0.0,0.0,1.0,0.0,0.0,0.0,1.0,,0.017444116233895766,-0.1925897926022419,0.2248824739289125,False,,0.03384744606540644,0.5790187376764748,-0.3442096133556896,-0.591482830523004,-0.6862174092294728,-0.42338366580075526,0.5611311304529865,0.026760371660936755,-0.8272942263458158,0.5790336049255249,-0.7269040856804692,0.36922965020159526
10:03:21.880374,,-0.15277882445078347,-0.47383599823091904,0.043507381270000006,-2.2005551753989425,0.011267883349987236,0.2356507174701959,,0.03384810686673072,0.5790176070159623,-0.34421102370896467,-0.590851259254206,-0.6873844696748872,-0.42237114045291196,0.5639749821228662,0.022456625012770737,-0.8254864744697812,0.57691161279457,-0.7259464793239307,0.3743991188290352,,-0.0026907083765216055,0.2808783416742669,-0.07170927514374498,-0.8013092323557264,0.273911722332215,0.5318607735904529,-0.33874976199907497,-0.9405173953612986,-0.025992840208943283,0.49310456584867024,-0.2009960133076204,0.8464328028540696,,0.04386479256510742,0.7208103421942793,1.179233716562278,0.9913132679183223,-0.04274310856972448,-0.12438260135120849,0.04769661193910066,-0.7645042084078753,0.6428517313783785,-0.12256850353425935,-0.6432000792882763,-0.7558244637115998,,0.05682626736839789,0.6509679396921597,-0.3920810383023352,0.9322524979838066,-0.35978965033599003,-0.03816657587547924,-0.2811630497308207,-0.7868072559031413,0.5494376047598428,-0.22771170252979256,-0.5014835486526703,-0.8346625850975401,,0.0,0.0,0.045,1.0,0.0,0.0,0.0,1.0,0.0,0.0,0.0,1.0,,0.017444116233895766,-0.1925897926022419,0.2248824739289125,False,,0.03384810686673072,0.5790176070159623,-0.34421102370896467,-0.5915175941086159,-0.6865250394852488,-0.42283602734361747,0.5610187156376495,0.026214610576798192,-0.82738793494744,0.5791070165040629,-0.7266334456602479,0.3696469925262189
10:03:21.891972,,-0.1527865471836577,-0.47383599823091904,0.043507381270000006,-2.2005551753989425,0.011267883349987236,0.23482413774159325,,0.03384810686673072,0.5790176070159623,-0.34421102370896467,-0.5908556640819923,-0.6871923621583955,-0.42267746759602953,0.5639721178649597,0.022824718482682416,-0.8254783355710181,0.576909901538481,-0.7261168567230423,0.37407121767052487,,-0.00269049410708299,0.28087809833125277,-0.07170941050451346,-0.8013088645041697,0.2739109950222749,0.5318617023598908,-0.338749790005191,-0.9405173557230244,-0.025993909275532162,0.4931051443685137,-0.2009971899154138,0.846432186419934,,0.04386479256510742,0.7208103421942793,1.179233716562278,0.9913132679183223,-0.04274310856972448,-0.12438260135120849,0.04769661193910066,-0.7645042084078753,0.6428517313783785,-0.12256850353425935,-0.6432000792882763,-0.7558244637115998,,0.05682626736839789,0.6509679396921597,-0.3920810383023352,0.9322524979838066,-0.35978965033599003,-0.03816657587547924,-0.2811630497308207,-0.7868072559031413,0.5494376047598428,-0.22771170252979256,-0.5014835486526703,-0.8346625850975401,,0.0,0.0,0.045,1.0,0.0,0.0,0.0,1.0,0.0,0.0,0.0,1.0,,0.017444116233895766,-0.1925897926022419,0.2248824739289125,False,,0.03384810686673072,0.5790176070159623,-0.34421102370896467,-0.5915175941086162,-0.6868743126055472,-0.4222684152794425,0.5610187156376494,0.025530699604600804,-0.8274093207608807,0.5791070165040628,-0.7263276547539387,0.3702474866564341
10:03:21.904395,,-0.1527865471836577,-0.47383599823091904,0.043507381270000006,-2.2005551753989425,0.011267883349987236,0.23447972952134216,,0.03384753738442671,0.5790178287121042,-0.344210962800135,-0.5908755598740307,-0.6869943834539209,-0.42297138182898114,0.5639591801812673,0.023178622511448144,-0.8254773131635689,0.5769021718045646,-0.7262929633152444,0.37374110772824776,,-0.0026900655669655285,0.2808776116451823,-0.0717096812239978,-0.8013081288068162,0.27390954040114085,0.5318635599000656,-0.3387498460228547,-0.9405172764510129,-0.025996047408735887,0.49310630141159945,-0.20099954313037827,0.8464309535536659,,0.04386479256510742,0.7208103421942793,1.179233716562278,0.9913132679183223,-0.04274310856972448,-0.12438260135120849,0.04769661193910066,-0.7645042084078753,0.6428517313783785,-0.12256850353425935,-0.6432000792882763,-0.7558244637115998,,0.05682626736839789,0.6509679396921597,-0.3920810383023352,0.9322524979838066,-0.35978965033599003,-0.03816657587547924,-0.2811630497308207,-0.7868072559031413,0.5494376047598428,-0.22771170252979256,-0.5014835486526703,-0.8346625850975401,,0.0,0.0,0.045,1.0,0.0,0.0,0.0,1.0,0.0,0.0,0.0,1.0,,0.017444116233895766,-0.1925897926022419,0.2248824739289125,False,,0.03384753738442671,0.5790178287121042,-0.344210962800135,-0.5915189401787335,-0.6872186088728806,-0.4217059722468378,0.5610226159716308,0.024847414470339224,-0.8274274774036012,0.5791018630415342,-0.726025612229322,0.3708474654205717
10:03:21.916534,,-0.15279426991653192,-0.47383599823091904,0.043507381270000006,-2.2005551753989425,0.011402024818439464,0.23427398333703012,,0.03384781694387705,0.579017245239596,-0.34421173313180997,-0.5907880794643405,-0.6869207003642746,-0.4232131810020699,0.5640160618629124,0.023465639889038603,-0.825430339704841,0.5769361551536596,-0.7263534368030846,0.3735710879081248,,-0.0026894283233745812,0.28087737626345455,-0.07171007316184148,-0.8013066144529506,0.273908588247953,0.5318663317899738,-0.33875010129515853,-0.9405171560341395,-0.025997077753714168,0.49310858690579396,-0.20100140413247408,0.8464291801623475,,0.04386479256510742,0.7208103421942793,1.179233716562278,0.9913132679183223,-0.04274310856972448,-0.12438260135120849,0.04769661193910066,-0.7645042084078753,0.6428517313783785,-0.12256850353425935,-0.6432000792882763,-0.7558244637115998,,0.05682626736839789,0.6509679396921597,-0.3920810383023352,0.9322524979838066,-0.35978965033599003,-0.03816657587547924,-0.2811630497308207,-0.7868072559031413,0.5494376047598428,-0.22771170252979256,-0.5014835486526703,-0.8346625850975401,,0.0,0.0,0.045,1.0,0.0,0.0,0.0,1.0,0.0,0.0,0.0,1.0,,0.017444116233895766,-0.1925897926022419,0.2248824739289125,False,,0.03384781694387705,0.579017245239596,-0.34421173313180997,-0.591553849118051,-0.687464423372397,-0.4212561099745332,0.5609177897995461,0.024410310523251322,-0.8275115526846444,0.5791677448546412,-0.7258076903267259,0.3711710117756681
10:03:21.929281,,-0.15279426991653192,-0.47383599823091904,0.043507381270000006,-2.2005551753989425,0.011402024818439464,0.23427398333703012,,0.03384781694387705,0.579017245239596,-0.34421173313180997,-0.5907989849667773,-0.6869153660345906,-0.4232066153402971,0.5640089714889727,0.02345819171091784,-0.8254353962131774,0.5769319192436633,-0.726358722083805,0.37356735324517426,,-0.002688791080954881,0.280877140882477,-0.07171046510208437,-0.8013051000942442,0.2739076360794709,0.5318691036745884,-0.33875035655915386,-0.9405170356190962,-0.025998108096829106,0.4931108723981859,-0.2010032651250333,0.8464274067603649,,0.04386479256510742,0.7208103421942793,1.179233716562278,0.9913132679183223,-0.04274310856972448,-0.12438260135120849,0.04769661193910066,-0.7645042084078753,0.6428517313783785,-0.12256850353425935,-0.6432000792882763,-0.7558244637115998,,0.05682626736839789,0.6509679396921597,-0.3920810383023352,0.9322524979838066,-0.35978965033599003,-0.03816657587547924,-0.2811630497308207,-0.7868072559031413,0.5494376047598428,-0.22771170252979256,-0.5014835486526703,-0.8346625850975401,,0.0,0.0,0.045,1.0,0.0,0.0,0.0,1.0,0.0,0.0,0.0,1.0,,0.017444116233895766,-0.1925897926022419,0.2248824739289125,False,,0.03384781694387705,0.579017245239596,-0.34421173313180997,-0.591553849118051,-0.687464423372397,-0.4212561099745332,0.5609177897995461,0.024410310523251322,-0.8275115526846444,0.5791677448546412,-0.7258076903267259,0.3711710117756681
10:03:21.941322,,-0.15279426991653192,-0.4738282754980448,0.043507381270000006,-2.2007648519282803,0.011402024818439464,0.23427398333703012,,0.03384781694387705,0.579017245239596,-0.34421173313180997,-0.5907997487024653,-0.6869151883662188,-0.4232058375364237,0.5640084749282543,0.023457287982155933,-0.8254357611889775,0.5769316225881611,-0.726358919290129,0.37356742795038655,,-0.002688582378912518,0.280877392187089,-0.0717105863223729,-0.801304321429088,0.27390813855056123,0.5318700180222418,-0.3387505558056761,-0.9405169944729742,-0.0259970003079862,0.49311200084418827,-0.20100277291478957,0.8464268662324888,,0.04386479256510742,0.7208103421942793,1.179233716562278,0.9913132679183223,-0.04274310856972448,-0.12438260135120849,0.04769661193910066,-0.7645042084078753,0.6428517313783785,-0.12256850353425935,-0.6432000792882763,-0.7558244637115998,,0.05682626736839789,0.6509679396921597,-0.3920810383023352,0.9322524979838066,-0.35978965033599003,-0.03816657587547924,-0.2811630497308207,-0.7868072559031413,0.5494376047598428,-0.22771170252979256,-0.5014835486526703,-0.8346625850975401,,0.0,0.0,0.045,1.0,0.0,0.0,0.0,1.0,0.0,0.0,0.0,1.0,,0.017444116233895766,-0.1925897926022419,0.2248824739289125,False,,0.03384781694387705,0.579017245239596,-0.34421173313180997,-0.591553849118051,-0.687464423372397,-0.4212561099745332,0.5609177897995461,0.024410310523251322,-0.8275115526846444,0.5791677448546412,-0.7258076903267259,0.3711710117756681
10:03:21.952687,,-0.15279426991653192,-0.4738282754980448,0.043507381270000006,-2.2007648519282803,0.011402024818439464,0.23420510169297992,,0.03384798552189272,0.5790175662717288,-0.3442111697690047,-0.5908427440244832,-0.6868879161904689,-0.4231900783632982,0.5639805191049412,0.023440093652730698,-0.8254553507487079,0.5769149208537947,-0.7263852645814525,0.3735419942860416,,-0.0026881649734377434,0.2808778947960801,-0.07171082876103438,-0.8013027641023891,0.2739091434968223,0.5318718467183836,-0.3387509542973635,-0.9405169121873311,-0.02599478472981122,0.4931142577389262,-0.20100178849791583,0.8464257851791511,,0.04386479256510742,0.7208103421942793,1.179233716562278,0.9913132679183223,-0.04274310856972448,-0.12438260135120849,0.04769661193910066,-0.7645042084078753,0.6428517313783785,-0.12256850353425935,-0.6432000792882763,-0.7558244637115998,,0.05682626736839789,0.6509679396921597,-0.3920810383023352,0.9322524979838066,-0.35978965033599003,-0.03816657587547924,-0.2811630497308207,-0.7868072559031413,0.5494376047598428,-0.22771170252979256,-0.5014835486526703,-0.8346625850975401,,0.0,0.0,0.045,1.0,0.0,0.0,0.0,1.0,0.0,0.0,0.0,1.0,,0.017444116233895766,-0.1925897926022419,0.2248824739289125,False,,0.03384798552189272,0.5790175662717288,-0.3442111697690047,-0.591391942492429,-0.6875860842871758,-0.4212848763600002,0.5609567736600117,0.024520965912791848,-0.8274818549766844,0.5792953205749053,-0.7256887066265624,0.3712045697922983
10:03:21.964625,,-0.15279426991653192,-0.47383599823091904,0.043507381270000006,-2.2007648519282803,0.011402024818439464,0.2341362200489297,,0.03384798552189272,0.5790175662717288,-0.3442111697690047,-0.5908442063514152,-0.6868717464775265,-0.42321428108214715,0.563979568242457,0.02346923859987532,-0.8254551722804782,0.5769143527647912,-0.726399613663481,0.3735149673621225,,-0.0026877475680657827,0.2808783974050996,-0.07171107119981164,-0.8013012067741371,0.2739101484463462,0.53187367541141,-0.33875135278454827,-0.9405168299030116,-0.025992569150777217,0.4931165146333875,-0.20100080408426227,0.846424704122304,,0.04386479256510742,0.7208103421942793,1.179233716562278,0.9913132679183223,-0.04274310856972448,-0.12438260135120849,0.04769661193910066,-0.7645042084078753,0.6428517313783785,-0.12256850353425935,-0.6432000792882763,-0.7558244637115998,,0.05682626736839789,0.6509679396921597,-0.3920810383023352,0.9322524979838066,-0.35978965033599003,-0.03816657587547924,-0.2811630497308207,-0.7868072559031413,0.5494376047598428,-0.22771170252979256,-0.5014835486526703,-0.8346625850975401,,0.0,0.0,0.045,1.0,0.0,0.0,0.0,1.0,0.0,0.0,0.0,1.0,,0.017444116233895766,-0.1925897926022419,0.2248824739289125,False,,0.03384798552189272,0.5790175662717288,-0.3442111697690047,-0.591391942492429,-0.6876151014508618,-0.4212375133006949,0.5609567736600118,0.02446396754407254,-0.8274835420580602,0.5792953205749054,-0.7256631357239558,0.3712545555428163
10:03:21.976970,,-0.15280199264940614,-0.47384372096379324,0.043507381270000006,-2.2009745284576177,0.011402024818439464,0.23406733840487948,,0.03384702008144036,0.5790171329988559,-0.34421228313256114,-0.5908697389546116,-0.6868377100623326,-0.4232338734364729,0.5639629654254195,0.023493824543487307,-0.8254658162739915,0.5769044333477394,-0.7264310017094886,0.3734692417577018,,-0.002687538866151938,0.28087864870974705,-0.07171119242024496,-0.8013004281070388,0.2739106509215148,0.5318745897551687,-0.3387515520254418,-0.940516788758543,-0.0259914613608605,0.4931176430790438,-0.20100031187804354,0.8464241635900399,,0.04386479256510742,0.7208103421942793,1.179233716562278,0.9913132679183223,-0.04274310856972448,-0.12438260135120849,0.04769661193910066,-0.7645042084078753,0.6428517313783785,-0.12256850353425935,-0.6432000792882763,-0.7558244637115998,,0.05682626736839789,0.6509679396921597,-0.3920810383023352,0.9322524979838066,-0.35978965033599003,-0.03816657587547924,-0.2811630497308207,-0.7868072559031413,0.5494376047598428,-0.22771170252979256,-0.5014835486526703,-0.8346625850975401,,0.0,0.0,0.045,1.0,0.0,0.0,0.0,1.0,0.0,0.0,0.0,1.0,,0.017444116233895766,-0.1925897926022419,0.2248824739289125,False,,0.03384702008144036,0.5790171329988559,-0.34421228313256114,-0.5912349365651883,-0.6877841229330688,-0.42118196783094497,0.5609885322552279,0.024478434999708143,-0.8274615839409647,0.5794248151942434,-0.7255024510373169,0.37136649966840396
10:03:21.988520,,-0.15280199264940614,-0.4738514436966675,0.043507381270000006,-2.201184204986956,0.011402024818439464,0.23392957511677903,,0.03384681229851755,0.5790168033739141,-0.34421287819266416,-0.5908930319973112,-0.6867977459892756,-0.4232662056449525,0.5639478180552274,0.023533635836982952,-0.8254750308125864,0.576895383278262,-0.7264674969249093,0.37341222886226483,,-0.002687538866151938,0.28087864870974705,-0.07171119242024496,-0.8013004281070388,0.2739106509215148,0.5318745897551687,-0.3387515520254418,-0.940516788758543,-0.0259914613608605,0.4931176430790438,-0.20100031187804354,0.8464241635900399,,0.04386479256510742,0.7208103421942793,1.179233716562278,0.9913132679183223,-0.04274310856972448,-0.12438260135120849,0.04769661193910066,-0.7645042084078753,0.6428517313783785,-0.12256850353425935,-0.6432000792882763,-0.7558244637115998,,0.05682626736839789,0.6509679396921597,-0.3920810383023352,0.9322524979838066,-0.35978965033599003,-0.03816657587547924,-0.2811630497308207,-0.7868072559031413,0.5494376047598428,-0.22771170252979256,-0.5014835486526703,-0.8346625850975401,,0.0,0.0,0.045,1.0,0.0,0.0,0.0,1.0,0.0,0.0,0.0,1.0,,0.017444116233895766,-0.1925897926022419,0.2248824739289125,False,,0.03384681229851755,0.5790168033739141,-0.34421287819266416,-0.5910753652855506,-0.6879596567479055,-0.4211192506165651,0.5610200630368934,0.024486551842042292,-0.8274399661902774,0.5795570734816662,-0.7253357287947364,0.3714857724209306
10:03:22.001847,,-0.15280199264940614,-0.4738591664295417,0.043507381270000006,-2.201184204986956,0.011402024818439464,0.2338606934727288,,0.03384662412505581,0.5790164780505069,-0.34421345741301074,-0.5908840482751018,-0.6868070205003611,-0.42326369804820707,0.5639536602288768,0.023530254272973422,-0.8254711359268123,0.5768988738145359,-0.7264588382869781,0.37342368118031083,,-0.002687538866151938,0.28087864870974705,-0.07171119242024496,-0.8013004281070388,0.2739106509215148,0.5318745897551687,-0.3387515520254418,-0.940516788758543,-0.0259914613608605,0.4931176430790438,-0.20100031187804354,0.8464241635900399,,0.04386479256510742,0.7208103421942793,1.179233716562278,0.9913132679183223,-0.04274310856972448,-0.12438260135120849,0.04769661193910066,-0.7645042084078753,0.6428517313783785,-0.12256850353425935,-0.6432000792882763,-0.7558244637115998,,0.05682626736839789,0.6509679396921597,-0.3920810383023352,0.9322524979838066,-0.35978965033599003,-0.03816657587547924,-0.2811630497308207,-0.7868072559031413,0.5494376047598428,-0.22771170252979256,-0.5014835486526703,-0.8346625850975401,,0.0,0.0,0.045,1.0,0.0,0.0,0.0,1.0,0.0,0.0,0.0,1.0,,0.017444116233895766,-0.1925897926022419,0.2248824739289125,False,,0.03384662412505581,0.5790164780505069,-0.34421345741301074,-0.5910765587012636,-0.6879576126146518,-0.42112091493942816,0.5610163611413874,0.024492266608483415,-0.827442306996721,0.5795594398209287,-0.7253374746433058,0.3714786717868518
10:03:22.013159,,-0.15280199264940614,-0.4738591664295417,0.043507381270000006,-2.201184204986956,0.011267883349987236,0.23392867636894038,,0.03384662412505581,0.5790164780505069,-0.34421345741301074,-0.5908839623734766,-0.686791214971466,-0.423289463662678,0.5639537160906875,0.023561218704326342,-0.8254702145327057,0.576898907190267,-0.7264727771989703,0.37339651159523596,,-0.002687538866151938,0.28087864870974705,-0.07171119242024496,-0.8013004281070388,0.2739106509215148,0.5318745897551687,-0.3387515520254418,-0.940516788758543,-0.0259914613608605,0.4931176430790438,-0.20100031187804354,0.8464241635900399,,0.04386479256510742,0.7208103421942793,1.179233716562278,0.9913132679183223,-0.04274310856972448,-0.12438260135120849,0.04769661193910066,-0.7645042084078753,0.6428517313783785,-0.12256850353425935,-0.6432000792882763,-0.7558244637115998,,0.05682626736839789,0.6509679396921597,-0.3920810383023352,0.9322524979838066,-0.35978965033599003,-0.03816657587547924,-0.2811630497308207,-0.7868072559031413,0.5494376047598428,-0.22771170252979256,-0.5014835486526703,-0.8346625850975401,,0.0,0.0,0.045,1.0,0.0,0.0,0.0,1.0,0.0,0.0,0.0,1.0,,0.017444116233895766,-0.1925897926022419,0.2248824739289125,False,,0.03384662412505581,0.5790164780505069,-0.34421345741301074,-0.5910765587012635,-0.687986618483524,-0.4210735262890296,0.5610163611413873,0.024435270963961808,-0.8274439921013352,0.5795594398209286,-0.7253118848609363,0.3715286333432831
10:03:22.024543,,-0.15280199264940614,-0.4738591664295417,0.043507381270000006,-2.2013938815162932,0.011267883349987236,0.23392867636894038,,0.033845775768853135,0.5790172833630135,-0.3442126256143751,-0.5909923851954604,-0.6867456792873663,-0.4232119712639454,0.5638831999845827,0.023472525482897633,-0.8255209127106363,0.5768567737455528,-0.7265186938596891,0.37337226739044704,,-0.002687538866151938,0.28087864870974705,-0.07171119242024496,-0.8013004281070388,0.2739106509215148,0.5318745897551687,-0.3387515520254418,-0.940516788758543,-0.0259914613608605,0.4931176430790438,-0.20100031187804354,0.8464241635900399,,0.04386479256510742,0.7208103421942793,1.179233716562278,0.9913132679183223,-0.04274310856972448,-0.12438260135120849,0.04769661193910066,-0.7645042084078753,0.6428517313783785,-0.12256850353425935,-0.6432000792882763,-0.7558244637115998,,0.05682626736839789,0.6509679396921597,-0.3920810383023352,0.9322524979838066,-0.35978965033599003,-0.03816657587547924,-0.2811630497308207,-0.7868072559031413,0.5494376047598428,-0.22771170252979256,-0.5014835486526703,-0.8346625850975401,,0.0,0.0,0.045,1.0,0.0,0.0,0.0,1.0,0.0,0.0,0.0,1.0,,0.017444116233895766,-0.1925897926022419,0.2248824739289125,False,,0.033845775768853135,0.5790172833630135,-0.3442126256143751,-0.5910429933577461,-0.6879396128937187,-0.42119742284866346,0.5611250889212478,0.02447407721319217,-0.8273691160103117,0.5794884076371478,-0.7253551602878435,0.371554944601683
10:03:22.037635,,-0.15280199264940614,-0.4738591664295417,0.043507381270000006,-2.2013938815162932,0.011133741881535007,0.233996659265152,,0.03384490831124154,0.5790180846387025,-0.3442118093846043,-0.5911324720599275,-0.6866826475728159,-0.4231185909395931,0.5637920642128935,0.023366053273011778,-0.8255861771402228,0.5768023134548642,-0.7265817015840892,0.3733337945006934,,-0.0026877475680657827,0.2808783974050996,-0.07171107119981164,-0.8013012067741371,0.27391014844634626,0.53187367541141,-0.3387513527845483,-0.9405168299030114,-0.02599256915077723,0.4931165146333874,-0.20100080408426224,0.846424704122304,,0.04386479256510742,0.7208103421942793,1.179233716562278,0.9913132679183223,-0.04274310856972448,-0.12438260135120849,0.04769661193910066,-0.7645042084078753,0.6428517313783785,-0.12256850353425935,-0.6432000792882763,-0.7558244637115998,,0.05682626736839789,0.6509679396921597,-0.3920810383023352,0.9322524979838066,-0.35978965033599003,-0.03816657587547924,-0.2811630497308207,-0.7868072559031413,0.5494376047598428,-0.22771170252979256,-0.5014835486526703,-0.8346625850975401,,0.0,0.0,0.045,1.0,0.0,0.0,0.0,1.0,0.0,0.0,0.0,1.0,,0.017444116233895766,-0.1925897926022419,0.2248824739289125,False,,0.03384490831124154,0.5790180846387025,-0.3442118093846043,-0.590848627021768,-0.6880121313149218,-0.4213516430607469,0.561269012200453,0.024629267756259843,-0.827266882640251,0.5795472335280534,-0.7252811222783133,0.37160772028671685
10:03:22.049386,,-0.15280199264940614,-0.4738591664295417,0.043507381270000006,-2.2013938815162932,0.011133741881535007,0.23392777762110178,,0.03384490831124154,0.5790180846387025,-0.3442118093846043,-0.5911316037702092,-0.6866670364534839,-0.4231451383062908,0.563792629183039,0.02339793501078266,-0.8255848883767843,0.5768026510886861,-0.7265954291663421,0.37330655500760035,,-0.002687956270005336,0.2808781461004593,-0.0717109499794073,-0.8013019854408465,0.2739096459719933,0.5318727610668721,-0.33875115354252894,-0.9405168710478102,-0.025993676940479174,0.4931153861876616,-0.201001296291286,0.8464252446536902,,0.04386479256510742,0.7208103421942793,1.179233716562278,0.9913132679183223,-0.04274310856972448,-0.12438260135120849,0.04769661193910066,-0.7645042084078753,0.6428517313783785,-0.12256850353425935,-0.6432000792882763,-0.7558244637115998,,0.05682626736839789,0.6509679396921597,-0.3920810383023352,0.9322524979838066,-0.35978965033599003,-0.03816657587547924,-0.2811630497308207,-0.7868072559031413,0.5494376047598428,-0.22771170252979256,-0.5014835486526703,-0.8346625850975401,,0.0,0.0,0.045,1.0,0.0,0.0,0.0,1.0,0.0,0.0,0.0,1.0,,0.017444116233895766,-0.1925897926022419,0.2248824739289125,False,,0.03384490831124154,0.5790180846387025,-0.3442118093846043,-0.5908486270217678,-0.6880411530765972,-0.42130425065446364,0.561269012200453,0.024572284194931793,-0.8272685771821457,0.5795472335280535,-0.7252555236070048,0.3716576779611982
10:03:22.061316,,-0.15280199264940614,-0.4738591664295417,0.043507381270000006,-2.2013938815162932,0.010999600413082778,0.23399576051731336,,0.03384490831124154,0.5790180846387025,-0.3442118093846043,-0.5911300738099281,-0.686667394558619,-0.4231466945251338,0.5637936246796866,0.02339974255286756,-0.8255841573207423,0.5768032460102921,-0.726595032530871,0.37330640778515045,,-0.0026883736754287,0.280877643491454,-0.07171070754068791,-0.8013035427683222,0.2739086410241008,0.5318709323722881,-0.3387507550530929,-0.9405169533327917,-0.02599589251908367,0.49311312929306217,-0.20100228070654963,0.8464263257087826,,0.04386479256510742,0.7208103421942793,1.179233716562278,0.9913132679183223,-0.04274310856972448,-0.12438260135120849,0.04769661193910066,-0.7645042084078753,0.6428517313783785,-0.12256850353425935,-0.6432000792882763,-0.7558244637115998,,0.05682626736839789,0.6509679396921597,-0.3920810383023352,0.9322524979838066,-0.35978965033599003,-0.03816657587547924,-0.2811630497308207,-0.7868072559031413,0.5494376047598428,-0.22771170252979256,-0.5014835486526703,-0.8346625850975401,,0.0,0.0,0.045,1.0,0.0,0.0,0.0,1.0,0.0,0.0,0.0,1.0,,0.017444116233895766,-0.1925897926022419,0.2248824739289125,False,,0.03384490831124154,0.5790180846387025,-0.3442118093846043,-0.5908486270217678,-0.6880411530765972,-0.42130425065446364,0.561269012200453,0.024572284194931793,-0.8272685771821457,0.5795472335280535,-0.7252555236070048,0.3716576779611982
10:03:22.073562,,-0.15279426991653192,-0.4738591664295417,0.043507381270000006,-2.2013938815162932,0.010999600413082778,0.23399576051731336,,0.03384406028220777,0.5790188903138281,-0.3442109776035033,-0.5912369594568208,-0.686622160473982,-0.42307075828789575,0.5637240691688516,0.02331288614448146,-0.825634109747972,0.5767616766151903,-0.7266405700796343,0.3732819983636751,,-0.002688791080954881,0.28087714088247695,-0.07171046510208438,-0.8013051000942442,0.2739076360794709,0.5318691036745884,-0.33875035655915386,-0.9405170356190962,-0.025998108096829106,0.4931108723981859,-0.2010032651250333,0.8464274067603649,,0.04386479256510742,0.7208103421942793,1.179233716562278,0.9913132679183223,-0.04274310856972448,-0.12438260135120849,0.04769661193910066,-0.7645042084078753,0.6428517313783785,-0.12256850353425935,-0.6432000792882763,-0.7558244637115998,,0.05682626736839789,0.6509679396921597,-0.3920810383023352,0.9322524979838066,-0.35978965033599003,-0.03816657587547924,-0.2811630497308207,-0.7868072559031413,0.5494376047598428,-0.22771170252979256,-0.5014835486526703,-0.8346625850975401,,0.0,0.0,0.045,1.0,0.0,0.0,0.0,1.0,0.0,0.0,0.0,1.0,,0.017444116233895766,-0.1925897926022419,0.2248824739289125,False,,0.03384406028220777,0.5790188903138281,-0.3442109776035033,-0.5908150401698535,-0.6879941337170069,-0.421428119944647,0.5613777198369098,0.02461106574949884,-0.8271936599813771,0.5794761806837332,-0.7252988124998271,0.3716839902478102
10:03:22.085098,,-0.15279426991653192,-0.4738668891624159,0.043507381270000006,-2.2013938815162932,0.010999600413082778,0.23399576051731336,,0.03384462976031083,0.579018668604262,-0.34421103848825524,-0.5912257750542552,-0.6866254972557931,-0.42308097266330696,0.5637313481842973,0.023324701933308267,-0.8256288060345501,0.5767660270732056,-0.7266370378655062,0.3732821522872921,,-0.002688999783022953,0.2808768895778721,-0.07171034388182482,-0.8013058787590127,0.27390713360919633,0.5318681893261561,-0.3387501573115061,-0.9405170767655496,-0.025999215885457325,0.4931097439521144,-0.20100375733608217,0.8464279472873643,,0.04386479256510742,0.7208103421942793,1.179233716562278,0.9913132679183223,-0.04274310856972448,-0.12438260135120849,0.04769661193910066,-0.7645042084078753,0.6428517313783785,-0.12256850353425935,-0.6432000792882763,-0.7558244637115998,,0.05682626736839789,0.6509679396921597,-0.3920810383023352,0.9322524979838066,-0.35978965033599003,-0.03816657587547924,-0.2811630497308207,-0.7868072559031413,0.5494376047598428,-0.22771170252979256,-0.5014835486526703,-0.8346625850975401,,0.0,0.0,0.045,1.0,0.0,0.0,0.0,1.0,0.0,0.0,0.0,1.0,,0.017444116233895766,-0.1925897926022419,0.2248824739289125,False,,0.03384462976031083,0.579018668604262,-0.34421103848825524,-0.5908136932005449,-0.687998635942735,-0.4214226582276617,0.5613738211883901,0.024610417444690558,-0.827196325087064,0.5794813308563771,-0.725294563811238,0.3716842516098685
