AlexandreBanks6/RCL_Autocam_Public/optimizationData/Data_22.csv
System Time,q_des,q0,q1,q2,q3,q4,q5,T_des,Tx,Ty,Tz,R00,R01,R02,R10,R11,R12,R20,R21,R22,T_target,Tx,Ty,Tz,R00,R01,R02,R10,R11,R12,R20,R21,R22,worldFrame,Tx,Ty,Tz,R00,R01,R02,R10,R11,R12,R20,R21,R22,ECM_T_PSM_RCM,Tx,Ty,Tz,R00,R01,R02,R10,R11,R12,R20,R21,R22,psm3_T_cam,Tx,Ty,Tz,R00,R01,R02,R10,R11,R12,R20,R21,R22,offset,x,y,z,IK Trigered,ECM_T_PSM3,Tx,Ty,Tz,R00,R01,R02,R10,R11,R12,R20,R21,R22
15:29:20.529922,,0.16881894063054778,-0.2168080027109789,0.06482227774,-2.5886664312029866,-0.20684614435333712,1.1429448834391307,,0.05622548960776,0.564175514003052,-0.3768053531078605,-0.1305495126871723,-0.8429030318754728,-0.5219878385482534,0.7399198373332324,0.2676023056900533,-0.617177154721503,0.6599056440567127,-0.466801333379097,0.588745323631188,,-0.005246872613623239,0.2788871407138814,-0.06831761705580956,-0.9527602832094366,-0.07248646871990558,0.29494669788148614,0.19090825176536166,-0.8982118227182116,0.3959413604779394,0.2362242200676463,0.4335449611998119,0.8696188156150292,,0.04420685651125435,0.7189201446337808,1.1777892181658507,0.990605372480209,-0.04030520590214452,-0.130677030845256,0.053799511010110296,-0.7636627402398745,0.6433699027654303,-0.12572433586390214,-0.6443560425312329,-0.7543200128758808,,0.05251192886101025,0.6518392887617648,-0.3936597755228255,0.9332099683316947,-0.35662045092986416,-0.044056883513680076,-0.2751541002763074,-0.788059068477848,0.55068423410423,-0.2311046864680451,-0.5017815845249871,-0.8335501576534551,,0.0,0.0,0.045,1.0,0.0,0.0,0.0,1.0,0.0,0.0,0.0,1.0,,0.019037333378670685,-0.19337877532911046,0.2249495411038443,False,,0.06534866334578232,0.5709348511577562,-0.31947181655178863,-0.1675170398934117,-0.4859926244842682,-0.8577582469975108,0.7802330341843806,0.4664892986794762,-0.4166823089416757,0.6026395719771352,-0.7390527066214047,0.3010425935358514
15:29:33.528022,,0.16881894063054778,-0.2168080027109789,0.06482487032,-2.5890857842616617,-0.20684614435333712,1.1429448834391307,,0.05345436477540648,0.5631604351472229,-0.3802824371258374,-0.11556580362752383,-0.8546060300007767,-0.5062539664222255,0.7445930250607271,0.26280243063214365,-0.6136090852364827,0.6574387971992834,-0.4478653993558205,0.6059627150221464,,-0.0052456876610945825,0.27888125494792376,-0.06832109532717683,-0.9527689621653211,-0.07250438545881278,0.29491424482820067,0.19088325733213407,-0.8982603495915983,0.3958433015737227,0.2362093981695527,0.4334414048285544,0.8696744573549106,,0.04420685651125435,0.7189201446337808,1.1777892181658507,0.990605372480209,-0.04030520590214452,-0.130677030845256,0.053799511010110296,-0.7636627402398745,0.6433699027654303,-0.12572433586390214,-0.6443560425312329,-0.7543200128758808,,0.052504803601003035,0.6518306648552239,-0.3936461129102795,0.9332186031253182,-0.3565977491365042,-0.0440577358883613,-0.2751330368676689,-0.7880627442939176,0.5506894978841648,-0.2310948956701635,-0.5017919452987647,-0.8335466350651761,,0.0,0.0,0.045,1.0,0.0,0.0,0.0,1.0,0.0,0.0,0.0,1.0,,0.019037333378670685,-0.19337877532911046,0.2249495411038443,False,,0.06544710993698748,0.5709284000190474,-0.3194899878931892,-0.167255657982323,-0.48607590066822604,-0.8577620670456775,0.7802807673121024,0.4665459946060667,-0.41652942162573947,0.6026503704767278,-0.7389621463286257,0.30124321943846954
15:29:33.645262,,0.16881894063054778,-0.2168080027109789,0.06482487032,-2.5888761077323243,-0.20684614435333712,1.1429448834391307,,0.06656915431775358,0.570738270993203,-0.3586406259900857,-0.2409115764086732,-0.7208475478395227,-0.6498772385043465,0.7174893752774185,0.31864257487525,-0.6194157778430338,0.6535829011811035,-0.6155044453540671,0.44043577174552273,,-0.005245292678397165,0.27887929300091074,-0.06832225479593762,-0.9527718565206866,-0.07251035695997114,0.29490342709896,0.190874926524913,-0.898276524028805,0.39581061451391975,0.23620445720875616,0.4334068853529155,0.8696930032387588,,0.04420685651125435,0.7189201446337808,1.1777892181658507,0.990605372480209,-0.04030520590214452,-0.130677030845256,0.053799511010110296,-0.7636627402398745,0.6433699027654303,-0.12572433586390214,-0.6443560425312329,-0.7543200128758808,,0.052504803601003035,0.6518306648552239,-0.3936461129102795,0.9332186031253182,-0.3565977491365042,-0.0440577358883613,-0.2751330368676689,-0.7880627442939176,0.5506894978841648,-0.2310948956701635,-0.5017919452987647,-0.8335466350651761,,0.0,0.0,0.045,1.0,0.0,0.0,0.0,1.0,0.0,0.0,0.0,1.0,,0.019037333378670685,-0.19337877532911046,0.2249495411038443,False,,0.06544710993698748,0.5709284000190474,-0.3194899878931892,-0.167255657982323,-0.48607590066822604,-0.8577620670456775,0.7802807673121024,0.4665459946060667,-0.41652942162573947,0.6026503704767278,-0.7389621463286257,0.30124321943846954
15:29:33.758185,,0.16881121789767356,-0.2168080027109789,0.06482487032,-2.5886664312029866,-0.20684614435333712,1.1429448834391307,,0.05707885798170912,0.5644691707832092,-0.3753782674569307,-0.13969076120997284,-0.8336093138048044,-0.5343987305097773,0.7386333209806658,0.27171266542917194,-0.6169222354417514,0.659475024826302,-0.48090304572050496,0.5777758667918647,,-0.005245635277753798,0.27887769020480274,-0.06832248584613206,-0.9527735889787415,-0.07251624476895274,0.29489638339395946,0.19087212038742224,-0.8982853101650823,0.39579202840644867,0.23619973825776602,0.4333876905680306,0.8697038506645417,,0.04420685651125435,0.7189201446337808,1.1777892181658507,0.990605372480209,-0.04030520590214452,-0.130677030845256,0.053799511010110296,-0.7636627402398745,0.6433699027654303,-0.12572433586390214,-0.6443560425312329,-0.7543200128758808,,0.052504803601003035,0.6518306648552239,-0.3936461129102795,0.9332186031253182,-0.3565977491365042,-0.0440577358883613,-0.2751330368676689,-0.7880627442939176,0.5506894978841648,-0.2310948956701635,-0.5017919452987647,-0.8335466350651761,,0.0,0.0,0.045,1.0,0.0,0.0,0.0,1.0,0.0,0.0,0.0,1.0,,0.019037333378670685,-0.19337877532911046,0.2249495411038443,False,,0.06544543975167998,0.5709283836653338,-0.3194897173350566,-0.1676593664706349,-0.4859672039497369,-0.8577448417332164,0.7802069289865765,0.4664488614635656,-0.41677644799182056,0.602633789955393,-0.73909494405294,0.30095045917788715
15:29:33.885690,,0.16881894063054778,-0.2168080027109789,0.06482487032,-2.5886664312029866,-0.20684614435333712,1.1429448834391307,,0.05705446775261615,0.5644819921172033,-0.37541631799205266,-0.13935571270735542,-0.8338549389184868,-0.5341029172145301,0.7386687034236945,0.27168524638998,-0.6168919463539575,0.6595062789073227,-0.4804925262012533,0.5780816554316135,,-0.005245438172116191,0.27887686174619003,-0.06832272772770956,-0.9527744001161542,-0.07252107887295733,0.2948925739125758,0.19086934933793942,-0.8982948849560679,0.3957716332576853,0.23619870557010533,0.43336703534907495,0.8697144236507404,,0.04420685651125435,0.7189201446337808,1.1777892181658507,0.990605372480209,-0.04030520590214452,-0.130677030845256,0.053799511010110296,-0.7636627402398745,0.6433699027654303,-0.12572433586390214,-0.6443560425312329,-0.7543200128758808,,0.052504803601003035,0.6518306648552239,-0.3936461129102795,0.9332186031253182,-0.3565977491365042,-0.0440577358883613,-0.2751330368676689,-0.7880627442939176,0.5506894978841648,-0.2310948956701635,-0.5017919452987647,-0.8335466350651761,,0.0,0.0,0.045,1.0,0.0,0.0,0.0,1.0,0.0,0.0,0.0,1.0,,0.019037333378670685,-0.19337877532911046,0.2249495411038443,False,,0.06544620489199864,0.5709282290375376,-0.3194900180091901,-0.16765872255270292,-0.48597350997007094,-0.8577413948034484,0.7802046201706453,0.46644901269897293,-0.4167806008159839,0.6026369582230872,-0.7390907022548198,0.3009545321541152
15:29:34.003125,,0.16881894063054778,-0.2168080027109789,0.06482487032,-2.5886664312029866,-0.20684614435333712,1.1429448834391307,,0.05706439351124497,0.5644707967889468,-0.37540615867809024,-0.1394190374427357,-0.8337794638117979,-0.5342042097590133,0.7386667582152318,0.2717205402876221,-0.6168787306218324,0.6594950737544155,-0.4806035306898125,0.5780021574199743,,-0.005245209644544379,0.27887389441031735,-0.06832380398040402,-0.9527779891748102,-0.07253302767908318,0.29487804730356076,0.19085989695754443,-0.8983194344534363,0.39572047326170057,0.23619187670030312,0.4333141506122482,0.8697426307832824,,0.04420685651125435,0.7189201446337808,1.1777892181658507,0.990605372480209,-0.04030520590214452,-0.130677030845256,0.053799511010110296,-0.7636627402398745,0.6433699027654303,-0.12572433586390214,-0.6443560425312329,-0.7543200128758808,,0.052504803601003035,0.6518306648552239,-0.3936461129102795,0.9332186031253182,-0.3565977491365042,-0.0440577358883613,-0.2751330368676689,-0.7880627442939176,0.5506894978841648,-0.2310948956701635,-0.5017919452987647,-0.8335466350651761,,0.0,0.0,0.045,1.0,0.0,0.0,0.0,1.0,0.0,0.0,0.0,1.0,,0.019037333378670685,-0.19337877532911046,0.2249495411038443,False,,0.06544620489199864,0.5709282290375376,-0.3194900180091901,-0.16765872255270292,-0.48597350997007094,-0.8577413948034484,0.7802046201706453,0.46644901269897293,-0.4167806008159839,0.6026369582230872,-0.7390907022548198,0.3009545321541152
15:29:34.117279,,0.16881121789767356,-0.2168080027109789,0.06482487032,-2.5888761077323243,-0.20684614435333712,1.1429448834391307,,0.051981622567581764,0.5640915257933322,-0.38232231319503374,-0.09982492802253819,-0.8653319956559888,-0.49115732819466185,0.745165634237877,0.26209541623559374,-0.6132162508766004,0.6593657265100744,-0.42720783008076363,0.6186520093085671,,-0.005245455092686535,0.27887328144272494,-0.06832348881177357,-0.9527781032140189,-0.07253781163752976,0.29487650207639005,0.19086044065928032,-0.8983245761677074,0.3957085387030799,0.23619097735797265,0.4333026901532228,0.8697485846373874,,0.04420685651125435,0.7189201446337808,1.1777892181658507,0.990605372480209,-0.04030520590214452,-0.130677030845256,0.053799511010110296,-0.7636627402398745,0.6433699027654303,-0.12572433586390214,-0.6443560425312329,-0.7543200128758808,,0.05263344830062138,0.6518218415606967,-0.3936952965480436,0.9332659529480012,-0.35647406136465964,-0.044055699316252875,-0.27502171792274144,-0.7880816688198586,0.5507180203524585,-0.23103617841992463,-0.5018501039596303,-0.8335278984034218,,0.0,0.0,0.045,1.0,0.0,0.0,0.0,1.0,0.0,0.0,0.0,1.0,,0.019037333378670685,-0.19337877532911046,0.2249495411038443,False,,0.06544589226735345,0.5709284691853379,-0.3194897022381359,-0.16745783722317253,-0.48601840785920536,-0.8577551981623548,0.7802450155834775,0.46649734846750107,-0.4166508604694461,0.6026405134154826,-0.7390306699283826,0.3010948031692502
15:29:34.226644,,0.16881121789767356,-0.2168080027109789,0.06482487032,-2.5890857842616617,-0.20684614435333712,1.1429448834391307,,0.05686023560758641,0.5687540850253994,-0.3734659389865442,-0.146697304611364,-0.8137029019776565,-0.5624655439517168,0.7369163085226523,0.289420747376881,-0.6108927771885626,0.6598744236997733,-0.5041063561401974,0.5571736952207492,,-0.005253680400723824,0.27887043216012375,-0.06832361089595887,-0.9527748383257229,-0.07254738330680721,0.2948846963144118,0.1908694421920496,-0.8983289442566624,0.39569428027167775,0.23619687335441913,0.4332920315188826,0.8697522934327631,,0.04420685651125435,0.7189201446337808,1.1777892181658507,0.990605372480209,-0.04030520590214452,-0.130677030845256,0.053799511010110296,-0.7636627402398745,0.6433699027654303,-0.12572433586390214,-0.6443560425312329,-0.7543200128758808,,0.05263344830062138,0.6518218415606967,-0.3936952965480436,0.9332659529480012,-0.35647406136465964,-0.044055699316252875,-0.27502171792274144,-0.7880816688198586,0.5507180203524585,-0.23103617841992463,-0.5018501039596303,-0.8335278984034218,,0.0,0.0,0.045,1.0,0.0,0.0,0.0,1.0,0.0,0.0,0.0,1.0,,0.019037333378670685,-0.19337877532911046,0.2249495411038443,False,,0.06534656409652163,0.5709368917510392,-0.31945188197612767,-0.16718764971997863,-0.48607205615155125,-0.8577775037908799,0.7803135989908747,0.46654809471376013,-0.4164655598592379,0.602626731079047,-0.7389633492586511,0.301287556067984
15:29:34.334306,,0.16881894063054778,-0.2168080027109789,0.06482487032,-2.5890857842616617,-0.20684614435333712,1.1429448834391307,,0.05677711852213739,0.5688736528069137,-0.3736044656123909,-0.14564740451320157,-0.814827646994956,-0.5611084915158842,0.7370414687117376,0.2889729701321469,-0.610953759242261,0.659967201425808,-0.5025440560047136,0.5584736026138736,,-0.005261473635439247,0.27886808033013355,-0.06832401193354612,-0.9527713453417677,-0.07255463339960017,0.29489419844769504,0.19087735619807583,-0.8983327530467022,0.39568181573656697,0.23620456811139745,0.43328292094889137,0.8697547424576229,,0.04420685651125435,0.7189201446337808,1.1777892181658507,0.990605372480209,-0.04030520590214452,-0.130677030845256,0.053799511010110296,-0.7636627402398745,0.6433699027654303,-0.12572433586390214,-0.6443560425312329,-0.7543200128758808,,0.05263344830062138,0.6518218415606967,-0.3936952965480436,0.9332659529480012,-0.35647406136465964,-0.044055699316252875,-0.27502171792274144,-0.7880816688198586,0.5507180203524585,-0.23103617841992463,-0.5018501039596303,-0.8335278984034218,,0.0,0.0,0.045,1.0,0.0,0.0,0.0,1.0,0.0,0.0,0.0,1.0,,0.019037333378670685,-0.19337877532911046,0.2249495411038443,False,,0.06534656409652163,0.5709368917510392,-0.31945188197612767,-0.16718764971997863,-0.48607205615155125,-0.8577775037908799,0.7803135989908747,0.46654809471376013,-0.4164655598592379,0.602626731079047,-0.7389633492586511,0.301287556067984
15:29:34.444661,,0.16881894063054778,-0.2168080027109789,0.06482487032,-2.5890857842616617,-0.20684614435333712,1.1429448834391307,,0.0567351675766679,0.5690956996528858,-0.3736972039187485,-0.14499739268564368,-0.8158171272880863,-0.559837629083451,0.7371259996963017,0.2883688514173867,-0.6111371909022926,0.6600159215398468,-0.5012841712598071,0.5595472839343207,,-0.005269885581481738,0.2788653465661289,-0.06832417022759814,-0.9527681942786262,-0.07256174283450822,0.29490262979174175,0.19088690132091668,-0.8983325386338753,0.3956776978121663,0.23620956476265945,0.43328217493759885,0.8697537571095623,,0.04420685651125435,0.7189201446337808,1.1777892181658507,0.990605372480209,-0.04030520590214452,-0.130677030845256,0.053799511010110296,-0.7636627402398745,0.6433699027654303,-0.12572433586390214,-0.6443560425312329,-0.7543200128758808,,0.05263344830062138,0.6518218415606967,-0.3936952965480436,0.9332659529480012,-0.35647406136465964,-0.044055699316252875,-0.27502171792274144,-0.7880816688198586,0.5507180203524585,-0.23103617841992463,-0.5018501039596303,-0.8335278984034218,,0.0,0.0,0.045,1.0,0.0,0.0,0.0,1.0,0.0,0.0,0.0,1.0,,0.019037333378670685,-0.19337877532911046,0.2249495411038443,False,,0.06534656409652163,0.5709368917510392,-0.31945188197612767,-0.16718764971997863,-0.48607205615155125,-0.8577775037908799,0.7803135989908747,0.46654809471376013,-0.4164655598592379,0.602626731079047,-0.7389633492586511,0.301287556067984
15:29:34.555729,,0.16881894063054778,-0.2168080027109789,0.06482487032,-2.5890857842616617,-0.20684614435333712,1.1429448834391307,,0.05752159441974265,0.5689536593456905,-0.3725033250088843,-0.15321903036428824,-0.8085514729764303,-0.5681271374277699,0.735978845663365,0.29028248318179073,-0.6116136187936255,0.6594384485835264,-0.5118404004232746,0.5505999791357548,,-0.0052778654428957215,0.2788631102463333,-0.06832460747884898,-0.9527648150835604,-0.07256653059968413,0.29491236921090846,0.19089535902931223,-0.8983317651134586,0.39567537379433276,0.23621636009797475,0.4332829770057209,0.869751512098255,,0.04420685651125435,0.7189201446337808,1.1777892181658507,0.990605372480209,-0.04030520590214452,-0.130677030845256,0.053799511010110296,-0.7636627402398745,0.6433699027654303,-0.12572433586390214,-0.6443560425312329,-0.7543200128758808,,0.05263344830062138,0.6518218415606967,-0.3936952965480436,0.9332659529480012,-0.35647406136465964,-0.044055699316252875,-0.27502171792274144,-0.7880816688198586,0.5507180203524585,-0.23103617841992463,-0.5018501039596303,-0.8335278984034218,,0.0,0.0,0.045,1.0,0.0,0.0,0.0,1.0,0.0,0.0,0.0,1.0,,0.019037333378670685,-0.19337877532911046,0.2249495411038443,False,,0.06534656409652163,0.5709368917510392,-0.31945188197612767,-0.16718764971997863,-0.48607205615155125,-0.8577775037908799,0.7803135989908747,0.46654809471376013,-0.4164655598592379,0.602626731079047,-0.7389633492586511,0.301287556067984
15:29:34.670647,,0.16881894063054778,-0.2168080027109789,0.06482487032,-2.5886664312029866,-0.20684614435333712,1.1429448834391307,,0.057083295047749706,0.5685409413150135,-0.37308043567102733,-0.14958776739208615,-0.8110307052692338,-0.5655552094686603,0.7365590854162559,0.29018779592220967,-0.6109597014440304,0.6596242972612668,-0.5079569255441836,0.5539634900011742,,-0.005285629260052089,0.27886112264287416,-0.06832518421413662,-0.9527613217844144,-0.0725701575039841,0.2949227626676761,0.19090327302180882,-0.8983307120731291,0.3956739466831465,0.23622405476421784,0.4332845531219681,0.8697486372307346,,0.04420685651125435,0.7189201446337808,1.1777892181658507,0.990605372480209,-0.04030520590214452,-0.130677030845256,0.053799511010110296,-0.7636627402398745,0.6433699027654303,-0.12572433586390214,-0.6443560425312329,-0.7543200128758808,,0.05263344830062138,0.6518218415606967,-0.3936952965480436,0.9332659529480012,-0.35647406136465964,-0.044055699316252875,-0.27502171792274144,-0.7880816688198586,0.5507180203524585,-0.23103617841992463,-0.5018501039596303,-0.8335278984034218,,0.0,0.0,0.045,1.0,0.0,0.0,0.0,1.0,0.0,0.0,0.0,1.0,,0.019037333378670685,-0.19337877532911046,0.2249495411038443,False,,0.06534565904004701,0.5709367208238719,-0.31945191205540957,-0.16759071940559128,-0.48596967570343147,-0.8577568566125356,0.7802374760509769,0.46645110171410653,-0.4167167511335458,0.6026133351783028,-0.7390919049796162,0.30099887750435944
15:29:34.774838,,0.16881894063054778,-0.2168080027109789,0.06482487032,-2.5886664312029866,-0.20684614435333712,1.1429448834391307,,0.057083295047749706,0.5685409413150135,-0.37308043567102733,-0.14958776739208615,-0.8110307052692338,-0.5655552094686603,0.7365590854162559,0.29018779592220967,-0.6109597014440304,0.6596242972612668,-0.5079569255441836,0.5539634900011742,,-0.0052856292600520875,0.27886112264287416,-0.06832518421413662,-0.9527613217844144,-0.07257015750398413,0.29492276266767614,0.19090327302180884,-0.8983307120731291,0.3956739466831464,0.23622405476421784,0.4332845531219682,0.8697486372307347,,0.04420685651125435,0.7189201446337808,1.1777892181658507,0.990605372480209,-0.04030520590214452,-0.130677030845256,0.053799511010110296,-0.7636627402398745,0.6433699027654303,-0.12572433586390214,-0.6443560425312329,-0.7543200128758808,,0.05263344830062138,0.6518218415606967,-0.3936952965480436,0.9332659529480012,-0.35647406136465964,-0.044055699316252875,-0.27502171792274144,-0.7880816688198586,0.5507180203524585,-0.23103617841992463,-0.5018501039596303,-0.8335278984034218,,0.0,0.0,0.045,1.0,0.0,0.0,0.0,1.0,0.0,0.0,0.0,1.0,,0.019037333378670685,-0.19337877532911046,0.2249495411038443,False,,0.06534565904004701,0.5709367208238719,-0.31945191205540957,-0.16759071940559128,-0.48596967570343147,-0.8577568566125356,0.7802374760509769,0.46645110171410653,-0.4167167511335458,0.6026133351783028,-0.7390919049796162,0.30099887750435944
15:29:34.880710,,0.16881894063054778,-0.2168080027109789,0.06482487032,-2.5886664312029866,-0.20684614435333712,1.1429448834391307,,0.057083295047749706,0.5685409413150135,-0.37308043567102733,-0.14958776739208615,-0.8110307052692338,-0.5655552094686603,0.7365590854162559,0.29018779592220967,-0.6109597014440304,0.6596242972612668,-0.5079569255441836,0.5539634900011742,,-0.005285629260052091,0.27886112264287416,-0.06832518421413662,-0.9527613217844144,-0.07257015750398414,0.29492276266767603,0.19090327302180882,-0.8983307120731291,0.3956739466831465,0.2362240547642178,0.4332845531219681,0.8697486372307347,,0.04420685651125435,0.7189201446337808,1.1777892181658507,0.990605372480209,-0.04030520590214452,-0.130677030845256,0.053799511010110296,-0.7636627402398745,0.6433699027654303,-0.12572433586390214,-0.6443560425312329,-0.7543200128758808,,0.05263344830062138,0.6518218415606967,-0.3936952965480436,0.9332659529480012,-0.35647406136465964,-0.044055699316252875,-0.27502171792274144,-0.7880816688198586,0.5507180203524585,-0.23103617841992463,-0.5018501039596303,-0.8335278984034218,,0.0,0.0,0.045,1.0,0.0,0.0,0.0,1.0,0.0,0.0,0.0,1.0,,0.019037333378670685,-0.19337877532911046,0.2249495411038443,False,,0.06534565904004701,0.5709367208238719,-0.31945191205540957,-0.16759071940559128,-0.48596967570343147,-0.8577568566125356,0.7802374760509769,0.46645110171410653,-0.4167167511335458,0.6026133351783028,-0.7390919049796162,0.30099887750435944
15:29:34.988050,,0.16881894063054778,-0.2168080027109789,0.06482487032,-2.5886664312029866,-0.20684614435333712,1.1429448834391307,,0.057085896232244346,0.5685399613586248,-0.3730769036103328,-0.14961316020544138,-0.8110072399991534,-0.5655821416578645,0.7365558825707829,0.29019448660429353,-0.6109603847999032,0.659622114656351,-0.507990567445328,0.5539352392138069,,-0.005285413213704241,0.2788613713610291,-0.06832532369566656,-0.9527612077474719,-0.07256899665087654,0.29492341672354955,0.19090272932333566,-0.8983304325424687,0.3956748436534614,0.23622495410880842,0.43328532710948675,0.8697480073924545,,0.04420685651125435,0.7189201446337808,1.1777892181658507,0.990605372480209,-0.04030520590214452,-0.130677030845256,0.053799511010110296,-0.7636627402398745,0.6433699027654303,-0.12572433586390214,-0.6443560425312329,-0.7543200128758808,,0.05263344830062138,0.6518218415606967,-0.3936952965480436,0.9332659529480012,-0.35647406136465964,-0.044055699316252875,-0.27502171792274144,-0.7880816688198586,0.5507180203524585,-0.23103617841992463,-0.5018501039596303,-0.8335278984034218,,0.0,0.0,0.045,1.0,0.0,0.0,0.0,1.0,0.0,0.0,0.0,1.0,,0.019037333378670685,-0.19337877532911046,0.2249495411038443,False,,0.06534565904004701,0.5709367208238719,-0.31945191205540957,-0.16759071940559128,-0.48596967570343147,-0.8577568566125356,0.7802374760509769,0.46645110171410653,-0.4167167511335458,0.6026133351783028,-0.7390919049796162,0.30099887750435944
15:29:35.098143,,0.16881121789767356,-0.2168080027109789,0.06482487032,-2.5890857842616617,-0.20684614435333712,1.1428760017950805,,0.054243100176435785,0.5635646784753091,-0.3789899600376599,-0.12338916449161011,-0.8501563875362596,-0.5118683725503652,0.7433088071362686,0.2625625544099132,-0.615266545698203,0.6574702512811663,-0.45639349442453536,0.5995313560834342,,-0.005285629260052089,0.27886112264287416,-0.06832518421413662,-0.9527613217844144,-0.0725701575039841,0.2949227626676761,0.19090327302180882,-0.8983307120731291,0.3956739466831465,0.23622405476421784,0.43328455312196823,0.8697486372307346,,0.04420685651125435,0.7189201446337808,1.1777892181658507,0.990605372480209,-0.04030520590214452,-0.130677030845256,0.053799511010110296,-0.7636627402398745,0.6433699027654303,-0.12572433586390214,-0.6443560425312329,-0.7543200128758808,,0.05263344830062138,0.6518218415606967,-0.3936952965480436,0.9332659529480012,-0.35647406136465964,-0.044055699316252875,-0.27502171792274144,-0.7880816688198586,0.5507180203524585,-0.23103617841992463,-0.5018501039596303,-0.8335278984034218,,0.0,0.0,0.045,1.0,0.0,0.0,0.0,1.0,0.0,0.0,0.0,1.0,,0.019037333378670685,-0.19337877532911046,0.2249495411038443,False,,0.06534579897623194,0.5709370464335731,-0.3194515812771256,-0.16718829338905816,-0.4861248348981041,-0.8577474683430695,0.7803159062024024,0.46651925603051403,-0.4164935417029406,0.6026235649899343,-0.738946837497818,0.30133438282213265
15:29:35.206767,,0.16881894063054778,-0.2168080027109789,0.06482487032,-2.5890857842616617,-0.20684614435333712,1.1428760017950805,,0.05663979366548425,0.5661723307093249,-0.3743812981618924,-0.14362163239429404,-0.8197492485152469,-0.554422218410379,0.7388812687479279,0.28386912506718254,-0.6111242022101928,0.6583519555692461,-0.4974228476781901,0.5649276176696172,,-0.005285629260052091,0.27886112264287416,-0.06832518421413661,-0.9527613217844149,-0.07257015750398416,0.29492276266767603,0.19090327302180882,-0.8983307120731295,0.39567394668314654,0.2362240547642178,0.4332845531219682,0.8697486372307351,,0.04420685651125435,0.7189201446337808,1.1777892181658507,0.990605372480209,-0.04030520590214452,-0.130677030845256,0.053799511010110296,-0.7636627402398745,0.6433699027654303,-0.12572433586390214,-0.6443560425312329,-0.7543200128758808,,0.05253537493752566,0.6518283378122341,-0.3936597927943615,0.9332413565197851,-0.3565391702514575,-0.04404986444376256,-0.27508757475880624,-0.7880786237362906,0.5506894851213637,-0.2310571286379839,-0.5018086317375545,-0.8335470595108915,,0.0,0.0,0.045,1.0,0.0,0.0,0.0,1.0,0.0,0.0,0.0,1.0,,0.019037333378670685,-0.19337877532911046,0.2249495411038443,False,,0.06534656409652163,0.5709368917510392,-0.31945188197612767,-0.16718764971997785,-0.486131140123067,-0.8577440203136116,0.7803135989908749,0.466519406774519,-0.4164976954710065,0.6026267310790473,-0.7389425943234009,0.30133845636357753
15:29:35.314195,,0.16881894063054778,-0.2168080027109789,0.06482487032,-2.5890857842616617,-0.20684614435333712,1.1428760017950805,,0.05708797099124047,0.5689904353945644,-0.37307705587669854,-0.14933235230970682,-0.8114141603586774,-0.5650724811235036,0.7365627545391377,0.2899829962406946,-0.611052510441605,0.6596780708643938,-0.507461251979589,0.5543536060674091,,-0.005273363315775598,0.2788705344732171,-0.06831705270633592,-0.9527645452115013,-0.07256716550739559,0.2949130848007099,0.19089769961031208,-0.8983289877848439,0.3956805500621381,0.23621555702353625,0.43328862886557196,0.8697489145864918,,0.04420685651125435,0.7189201446337808,1.1777892181658507,0.990605372480209,-0.04030520590214452,-0.130677030845256,0.053799511010110296,-0.7636627402398745,0.6433699027654303,-0.12572433586390214,-0.6443560425312329,-0.7543200128758808,,0.05253537493752566,0.6518283378122341,-0.3936597927943615,0.9332413565197851,-0.3565391702514575,-0.04404986444376256,-0.27508757475880624,-0.7880786237362906,0.5506894851213637,-0.2310571286379839,-0.5018086317375545,-0.8335470595108915,,0.0,0.0,0.045,1.0,0.0,0.0,0.0,1.0,0.0,0.0,0.0,1.0,,0.019037333378670685,-0.19337877532911046,0.2249495411038443,False,,0.06535877915730565,0.570953727727249,-0.3194512482699941,-0.1671231074611324,-0.4861573114881519,-0.8577417650080632,0.7803113714583987,0.46654785675353216,-0.41647000003769674,0.6026475176463006,-0.7389074135812269,0.3013831508718661
15:29:35.439230,,0.16881121789767356,-0.2168080027109789,0.06482487032,-2.5890857842616617,-0.20684614435333712,1.1428760017950805,,0.058043195284261766,0.568864502496785,-0.3716390626340601,-0.1590300312229882,-0.8024629927446831,-0.575119634897351,0.7351027830527113,0.29261644492864897,-0.611554997122481,0.6590397161911976,-0.5200276544882644,0.5433579768900612,,-0.005260881330721785,0.27888019502496764,-0.06830906068204247,-0.9527676545583134,-0.07256301273975732,0.2949040609609192,0.1908915824780357,-0.8983269839450019,0.39568805038435123,0.23620795864691566,0.43329347867244367,0.8697485620416114,,0.04420685651125435,0.7189201446337808,1.1777892181658507,0.990605372480209,-0.04030520590214452,-0.130677030845256,0.053799511010110296,-0.7636627402398745,0.6433699027654303,-0.12572433586390214,-0.6443560425312329,-0.7543200128758808,,0.05253537493752566,0.6518283378122341,-0.3936597927943615,0.9332413565197851,-0.3565391702514575,-0.04404986444376256,-0.27508757475880624,-0.7880786237362906,0.5506894851213637,-0.2310571286379839,-0.5018086317375545,-0.8335470595108915,,0.0,0.0,0.045,1.0,0.0,0.0,0.0,1.0,0.0,0.0,0.0,1.0,,0.019037333378670685,-0.19337877532911046,0.2249495411038443,False,,0.06535801406048951,0.5709538824340399,-0.31945094752374786,-0.1671237512308753,-0.4861510065187954,-0.8577452131229198,0.7803136787382651,0.4665477058343746,-0.41646584608421133,0.6026443516274559,-0.7389116571292164,0.30137907759179183
15:29:35.557844,,0.16881894063054778,-0.2168080027109789,0.06482487032,-2.5886664312029866,-0.20684614435333712,1.1428760017950805,,0.0634720062588112,0.5696802997027517,-0.36321868586661704,-0.2096151234127131,-0.7501873366300219,-0.6271207698654443,0.7250920612023729,0.31102003656004784,-0.6144168289032138,0.6559748492266815,-0.5835113510619488,0.47876037885761985,,-0.005248399346843801,0.2788898555752363,-0.06830106865917862,-0.9527707638737476,-0.07255886002605177,0.29489503708549736,0.19088546528974304,-0.8983249801080824,0.3956955506616587,0.23620036030255187,0.4332983285267032,0.8697482094534092,,0.04420685651125435,0.7189201446337808,1.1777892181658507,0.990605372480209,-0.04030520590214452,-0.130677030845256,0.053799511010110296,-0.7636627402398745,0.6433699027654303,-0.12572433586390214,-0.6443560425312329,-0.7543200128758808,,0.05253537493752566,0.6518283378122341,-0.3936597927943615,0.9332413565197851,-0.3565391702514575,-0.04404986444376256,-0.27508757475880624,-0.7880786237362906,0.5506894851213637,-0.2310571286379839,-0.5018086317375545,-0.8335470595108915,,0.0,0.0,0.045,1.0,0.0,0.0,0.0,1.0,0.0,0.0,0.0,1.0,,0.019037333378670685,-0.19337877532911046,0.2249495411038443,False,,0.06535787409270018,0.5709535568341837,-0.3194512782983513,-0.16752618076783926,-0.48605494080335065,-0.8577211512362237,0.7802352637060387,0.4664508444442945,-0.41672118135124026,0.6026341444250483,-0.7390359965778773,0.30109447642763904
15:29:35.665528,,0.16881894063054778,-0.2168080027109789,0.06482487032,-2.5886664312029866,-0.20684614435333712,1.1428760017950805,,0.05703384560778104,0.5645572919097533,-0.3753839530900536,-0.13981747070971223,-0.8337652313344243,-0.5341222836600181,0.7385414638146063,0.27149287312959264,-0.6171289379590119,0.6595510451139607,-0.48075686043746996,0.5778107475907569,,-0.005235485278439412,0.2789000135646804,-0.06829335560265028,-0.9527736451003035,-0.07255238570329764,0.2948873212594405,0.19087826067549585,-0.8983224171122189,0.3957048448322128,0.23619456071701986,0.4333047264350437,0.8697465971449808,,0.04420685651125435,0.7189201446337808,1.1777892181658507,0.990605372480209,-0.04030520590214452,-0.130677030845256,0.053799511010110296,-0.7636627402398745,0.6433699027654303,-0.12572433586390214,-0.6443560425312329,-0.7543200128758808,,0.05253537493752566,0.6518283378122341,-0.3936597927943615,0.9332413565197851,-0.3565391702514575,-0.04404986444376256,-0.27508757475880624,-0.7880786237362906,0.5506894851213637,-0.2310571286379839,-0.5018086317375545,-0.8335470595108915,,0.0,0.0,0.045,1.0,0.0,0.0,0.0,1.0,0.0,0.0,0.0,1.0,,0.019037333378670685,-0.19337877532911046,0.2249495411038443,False,,0.06535787409270018,0.5709535568341837,-0.3194512782983513,-0.16752618076783926,-0.48605494080335065,-0.8577211512362237,0.7802352637060387,0.4664508444442945,-0.41672118135124026,0.6026341444250483,-0.7390359965778773,0.30109447642763904
15:29:35.792016,,0.16881121789767356,-0.2168080027109789,0.06482487032,-2.5886664312029866,-0.20684614435333712,1.1428760017950805,,0.056407257584559965,0.564049604661609,-0.3766104364394662,-0.13155442413993493,-0.8417450854137081,-0.5236016087361457,0.7399065002230191,0.2681377626871779,-0.6169607047039856,0.6597210049838751,-0.46858014405540516,0.5875379512679004,,-0.005223219341320567,0.2789094253938476,-0.06828522409932504,-0.9527768683828491,-0.07254939394517047,0.294877643270614,0.1908726870768685,-0.8983206928439258,0.39571144805847747,0.23618606307464224,0.43330880239693925,0.869746874304647,,0.04420685651125435,0.7189201446337808,1.1777892181658507,0.990605372480209,-0.04030520590214452,-0.130677030845256,0.053799511010110296,-0.7636627402398745,0.6433699027654303,-0.12572433586390214,-0.6443560425312329,-0.7543200128758808,,0.05253537493752566,0.6518283378122341,-0.3936597927943615,0.9332413565197851,-0.3565391702514575,-0.04404986444376256,-0.27508757475880624,-0.7880786237362906,0.5506894851213637,-0.2310571286379839,-0.5018086317375545,-0.8335470595108915,,0.0,0.0,0.045,1.0,0.0,0.0,0.0,1.0,0.0,0.0,0.0,1.0,,0.019037333378670685,-0.19337877532911046,0.2249495411038443,False,,0.06535787409270018,0.5709535568341837,-0.3194512782983513,-0.16752618076783926,-0.48605494080335065,-0.8577211512362237,0.7802352637060387,0.4664508444442945,-0.41672118135124026,0.6026341444250483,-0.7390359965778773,0.30109447642763904
15:29:35.910775,,0.16881894063054778,-0.2168080027109789,0.06482487032,-2.5886664312029866,-0.20684614435333712,1.1428760017950805,,0.05637322145500235,0.5640515097704482,-0.3766613222157887,-0.13123187255145444,-0.8420362307727265,-0.5232142789457283,0.7399371666037627,0.26804271450590916,-0.6169652280953112,0.6597508507800763,-0.4681111932718158,0.5878781554272978,,-0.005223003300059663,0.2789096741163833,-0.06828536358092255,-0.9527767543549499,-0.07254823312935088,0.2948782973124435,0.19087214340963748,-0.8983204132444293,0.3957123450358827,0.23618696243926604,0.4333095764155185,0.8697462444618808,,0.04420685651125435,0.7189201446337808,1.1777892181658507,0.990605372480209,-0.04030520590214452,-0.130677030845256,0.053799511010110296,-0.7636627402398745,0.6433699027654303,-0.12572433586390214,-0.6443560425312329,-0.7543200128758808,,0.05253537493752566,0.6518283378122341,-0.3936597927943615,0.9332413565197851,-0.3565391702514575,-0.04404986444376256,-0.27508757475880624,-0.7880786237362906,0.5506894851213637,-0.2310571286379839,-0.5018086317375545,-0.8335470595108915,,0.0,0.0,0.045,1.0,0.0,0.0,0.0,1.0,0.0,0.0,0.0,1.0,,0.019037333378670685,-0.19337877532911046,0.2249495411038443,False,,0.06535787409270018,0.5709535568341837,-0.3194512782983513,-0.16752618076783926,-0.48605494080335065,-0.8577211512362237,0.7802352637060387,0.4664508444442945,-0.41672118135124026,0.6026341444250483,-0.7390359965778773,0.30109447642763904
15:29:36.040199,,0.16881894063054778,-0.2168080027109789,0.06482487032,-2.5890857842616617,-0.20684614435333712,1.1428760017950805,,0.056760182540302906,0.5647417289530139,-0.3757753843747364,-0.1361781162125726,-0.8366221119345849,-0.5305836055579838,0.7388644393218866,0.2710061157386326,-0.6169562590150237,0.659950650405278,-0.4760452993722066,0.5812452253354662,,-0.005222787260377776,0.2789099228391394,-0.0682855030646187,-0.952776640321102,-0.07254707231254774,0.2948789513514905,0.1908715997422778,-0.8983201336391637,0.3957132420114115,0.236187861803058,0.4333103504305386,0.8697456146135528,,0.04420685651125435,0.7189201446337808,1.1777892181658507,0.990605372480209,-0.04030520590214452,-0.130677030845256,0.053799511010110296,-0.7636627402398745,0.6433699027654303,-0.12572433586390214,-0.6443560425312329,-0.7543200128758808,,0.05253537493752566,0.6518283378122341,-0.3936597927943615,0.9332413565197851,-0.3565391702514575,-0.04404986444376256,-0.27508757475880624,-0.7880786237362906,0.5506894851213637,-0.2310571286379839,-0.5018086317375545,-0.8335470595108915,,0.0,0.0,0.045,1.0,0.0,0.0,0.0,1.0,0.0,0.0,0.0,1.0,,0.019037333378670685,-0.19337877532911046,0.2249495411038443,False,,0.06535877915730565,0.570953727727249,-0.3194512482699941,-0.1671231074611324,-0.4861573114881519,-0.8577417650080632,0.7803113714583987,0.46654785675353216,-0.41647000003769674,0.6026475176463006,-0.7389074135812269,0.3013831508718661
15:29:36.160552,,0.16881121789767356,-0.2168080027109789,0.06482487032,-2.5890857842616617,-0.20684614435333712,1.1428760017950805,,0.056766185027518117,0.5647343869644516,-0.3757692205840809,-0.13626699218650334,-0.8365645548689952,-0.5306515357344059,0.738863347900696,0.27099927549966085,-0.6169605707074273,0.6599335269323866,-0.47615033152933856,0.5811786315885008,,-0.005222571220729683,0.2789101715619115,-0.0682856425483272,-0.952776526286988,-0.0725459114951938,0.2948796053895134,0.1908710560759278,-0.8983198540334866,0.3957141389874241,0.23618876116742651,0.43331112444458414,0.8697449847648502,,0.04420685651125435,0.7189201446337808,1.1777892181658507,0.990605372480209,-0.04030520590214452,-0.130677030845256,0.053799511010110296,-0.7636627402398745,0.6433699027654303,-0.12572433586390214,-0.6443560425312329,-0.7543200128758808,,0.05253537493752566,0.6518283378122341,-0.3936597927943615,0.9332413565197851,-0.3565391702514575,-0.04404986444376256,-0.27508757475880624,-0.7880786237362906,0.5506894851213637,-0.2310571286379839,-0.5018086317375545,-0.8335470595108915,,0.0,0.0,0.045,1.0,0.0,0.0,0.0,1.0,0.0,0.0,0.0,1.0,,0.019037333378670685,-0.19337877532911046,0.2249495411038443,False,,0.06535877915730565,0.570953727727249,-0.3194512482699941,-0.1671231074611324,-0.4861573114881519,-0.8577417650080632,0.7803113714583987,0.46654785675353216,-0.41647000003769674,0.6026475176463006,-0.7389074135812269,0.3013831508718661
15:29:36.280969,,0.16881894063054778,-0.2168080027109789,0.06482487032,-2.5890857842616617,-0.20684614435333712,1.1428760017950805,,0.056760005663298974,0.5647414089123182,-0.375775231528223,-0.13617870805194873,-0.8366211122533744,-0.5305850299482913,0.7388643516099993,0.2710068450131622,-0.6169560437145808,0.6599506264814348,-0.4760466410846094,0.5812441536211984,,-0.005223003301604891,0.27890967411658785,-0.06828536358300884,-0.9527767543492673,-0.07254823312891814,0.2948782973106849,0.1908721434084991,-0.8983204132390716,0.39571234503352265,0.23618696243785745,0.43330957641293416,0.8697462444566935,,0.04420685651125435,0.7189201446337808,1.1777892181658507,0.990605372480209,-0.04030520590214452,-0.130677030845256,0.053799511010110296,-0.7636627402398745,0.6433699027654303,-0.12572433586390214,-0.6443560425312329,-0.7543200128758808,,0.05253537493752566,0.6518283378122341,-0.3936597927943615,0.9332413565197851,-0.3565391702514575,-0.04404986444376256,-0.27508757475880624,-0.7880786237362906,0.5506894851213637,-0.2310571286379839,-0.5018086317375545,-0.8335470595108915,,0.0,0.0,0.045,1.0,0.0,0.0,0.0,1.0,0.0,0.0,0.0,1.0,,0.019037333378670685,-0.19337877532911046,0.2249495411038443,False,,0.06535877915730565,0.570953727727249,-0.3194512482699941,-0.1671231074611324,-0.4861573114881519,-0.8577417650080632,0.7803113714583987,0.46654785675353216,-0.41647000003769674,0.6026475176463006,-0.7389074135812269,0.3013831508718661
15:29:36.403612,,0.16881121789767356,-0.2168080027109789,0.06482487032,-2.5886664312029866,-0.20684614435333712,1.1428760017950805,,0.05640551576343575,0.5640498679088275,-0.3766134056199477,-0.13153702945811394,-0.84176094664392,-0.5235804795697284,0.7399081663754026,0.26813244731751423,-0.6169610166181576,0.6597226047456048,-0.4685546920058022,0.5875564529362457,,-0.005223003301604891,0.27890967411658785,-0.06828536358300882,-0.9527767543492673,-0.07254823312891816,0.2948782973106849,0.19087214340849906,-0.8983204132390716,0.3957123450335226,0.23618696243785747,0.4333095764129341,0.8697462444566935,,0.04420685651125435,0.7189201446337808,1.1777892181658507,0.990605372480209,-0.04030520590214452,-0.130677030845256,0.053799511010110296,-0.7636627402398745,0.6433699027654303,-0.12572433586390214,-0.6443560425312329,-0.7543200128758808,,0.05254622849997198,0.6518466908381225,-0.39365727030555275,0.9332175046127871,-0.3565980606487566,-0.04407847803439767,-0.27511906448692375,-0.7880583198654743,0.5507028099135197,-0.23111596535099654,-0.5017986724099138,-0.8335367435977403,,0.0,0.0,0.045,1.0,0.0,0.0,0.0,1.0,0.0,0.0,0.0,1.0,,0.019037333378670685,-0.19337877532911046,0.2249495411038443,False,,0.06535787409270018,0.5709535568341837,-0.3194512782983513,-0.16752618076783926,-0.48605494080335065,-0.8577211512362237,0.7802352637060387,0.4664508444442945,-0.41672118135124026,0.6026341444250483,-0.7390359965778773,0.30109447642763904
15:29:36.514531,,0.16881894063054778,-0.2168080027109789,0.06482487032,-2.5886664312029866,-0.20684614435333712,1.1428760017950805,,0.056495710863063354,0.5640962058084905,-0.3764559711304806,-0.1326251448205082,-0.8409724364716541,-0.5245721418987753,0.7397703338833297,0.26824761516663514,-0.6170762271093905,0.6596593242481202,-0.469902732544026,0.5865500813060814,,-0.005211454258231538,0.27891190447826164,-0.06828528824498145,-0.952781138041006,-0.0725488693700176,0.29486397532289893,0.19086465840395161,-0.8983242054772353,0.39570734567713334,0.23617532589674536,0.43330160720176375,0.8697533742565993,,0.04420685651125435,0.7189201446337808,1.1777892181658507,0.990605372480209,-0.04030520590214452,-0.130677030845256,0.053799511010110296,-0.7636627402398745,0.6433699027654303,-0.12572433586390214,-0.6443560425312329,-0.7543200128758808,,0.05254622849997198,0.6518466908381225,-0.39365727030555275,0.9332175046127871,-0.3565980606487566,-0.04407847803439767,-0.27511906448692375,-0.7880583198654743,0.5507028099135197,-0.23111596535099654,-0.5017986724099138,-0.8335367435977403,,0.0,0.0,0.045,1.0,0.0,0.0,0.0,1.0,0.0,0.0,0.0,1.0,,0.019037333378670685,-0.19337877532911046,0.2249495411038443,False,,0.06531213943476369,0.5709446265890921,-0.3194414948830775,-0.16751077470031472,-0.4860405123827991,-0.8577323362692858,0.7802512925936762,0.4664473758628407,-0.41669505151437564,0.6026176737909358,-0.7390476749664643,0.30109877675185825
15:29:36.624186,,0.16881121789767356,-0.2168080027109789,0.06482487032,-2.5886664312029866,-0.20684614435333712,1.1428760017950805,,0.05669680496041812,0.5641934907917052,-0.3761831345306544,-0.13382304782895071,-0.8395908186495538,-0.5264775865211574,0.7396652251455538,0.2689406073039809,-0.6169005628570489,0.6595352504454544,-0.4719726760971851,0.5850256801521742,,-0.005200121255781306,0.2789138861145322,-0.06828507342766517,-0.9527856356970411,-0.07255066628851481,0.2948489992584529,0.19085771718105699,-0.8983282773993307,0.39570144926499845,0.236162789903605,0.4332928639835614,0.8697611337712798,,0.04420685651125435,0.7189201446337808,1.1777892181658507,0.990605372480209,-0.04030520590214452,-0.130677030845256,0.053799511010110296,-0.7636627402398745,0.6433699027654303,-0.12572433586390214,-0.6443560425312329,-0.7543200128758808,,0.05254622849997198,0.6518466908381225,-0.39365727030555275,0.9332175046127871,-0.3565980606487566,-0.04407847803439767,-0.27511906448692375,-0.7880583198654743,0.5507028099135197,-0.23111596535099654,-0.5017986724099138,-0.8335367435977403,,0.0,0.0,0.045,1.0,0.0,0.0,0.0,1.0,0.0,0.0,0.0,1.0,,0.019037333378670685,-0.19337877532911046,0.2249495411038443,False,,0.06531137433966278,0.5709447813232618,-0.3194411941486091,-0.1675114186145052,-0.48603420699025657,-0.8577357834841154,0.7802536013501473,0.46644722396000954,-0.416690898436871,0.6026145054791513,-0.7390519175912839,0.30109470418917145
15:29:36.743699,,0.16881894063054778,-0.2168080027109789,0.06482487032,-2.5890857842616617,-0.20684614435333712,1.1428760017950805,,0.056273592532761624,0.5642022116903158,-0.3767603038447652,-0.13059528775522863,-0.8428378321712446,-0.5220816597784357,0.7399147479536448,0.2676447028328761,-0.6171648716560235,0.6599022932047014,-0.4668947437125188,0.5886750051741605,,-0.005189004297790423,0.27891561901372675,-0.06828471915700782,-0.9527902472655274,-0.07255362383772287,0.29483336910586716,0.19085131975140926,-0.8983326289940167,0.3956946557491661,0.23614935447603416,0.4332833466766522,0.8697695229357256,,0.04420685651125435,0.7189201446337808,1.1777892181658507,0.990605372480209,-0.04030520590214452,-0.130677030845256,0.053799511010110296,-0.7636627402398745,0.6433699027654303,-0.12572433586390214,-0.6443560425312329,-0.7543200128758808,,0.05254622849997198,0.6518466908381225,-0.39365727030555275,0.9332175046127871,-0.3565980606487566,-0.04407847803439767,-0.27511906448692375,-0.7880583198654743,0.5507028099135197,-0.23111596535099654,-0.5017986724099138,-0.8335367435977403,,0.0,0.0,0.045,1.0,0.0,0.0,0.0,1.0,0.0,0.0,0.0,1.0,,0.019037333378670685,-0.19337877532911046,0.2249495411038443,False,,0.06531304450322724,0.5709447974615716,-0.3194414648538572,-0.16710769967540073,-0.4861428814067012,-0.8577529455308133,0.7803273911781436,0.46654439315197643,-0.4164438639187358,0.6026310473965879,-0.7389190944048234,0.3013874460518342
15:29:36.859451,,0.16881121789767356,-0.2168080027109789,0.06482487032,-2.5890857842616617,-0.20684614435333712,1.1428760017950805,,0.05651438591967597,0.5641421472762017,-0.37643323682898433,-0.13280819749131065,-0.8409247468259806,-0.524602280641983,0.7397407709895933,0.2681713619417503,-0.6171448066459195,0.6596556483611974,-0.47003158490676744,0.5864509653630054,,-0.0051770231737386044,0.27891834682414085,-0.06828492277079655,-0.9527944027357669,-0.0725519381443471,0.2948203551403316,0.1908427476511562,-0.8983358622344415,0.3956914501358839,0.23613951639344385,0.43327692566438436,0.8697753927896956,,0.04420685651125435,0.7189201446337808,1.1777892181658507,0.990605372480209,-0.04030520590214452,-0.130677030845256,0.053799511010110296,-0.7636627402398745,0.6433699027654303,-0.12572433586390214,-0.6443560425312329,-0.7543200128758808,,0.05254622849997198,0.6518466908381225,-0.39365727030555275,0.9332175046127871,-0.3565980606487566,-0.04407847803439767,-0.27511906448692375,-0.7880583198654743,0.5507028099135197,-0.23111596535099654,-0.5017986724099138,-0.8335367435977403,,0.0,0.0,0.045,1.0,0.0,0.0,0.0,1.0,0.0,0.0,0.0,1.0,,0.019037333378670685,-0.19337877532911046,0.2249495411038443,False,,0.06531304450322724,0.5709447974615716,-0.3194414648538572,-0.16710769967540073,-0.4861428814067012,-0.8577529455308133,0.7803273911781436,0.46654439315197643,-0.4164438639187358,0.6026310473965879,-0.7389190944048234,0.3013874460518342
15:29:36.970383,,0.16881121789767356,-0.2168080027109789,0.06482487032,-2.5890857842616617,-0.20684614435333712,1.1428760017950805,,0.05665157167622125,0.5642121590955987,-0.37625964207925544,-0.1336295109827897,-0.8400383878392368,-0.5258123817018356,0.7396894634250857,0.2685607477416729,-0.6170369701001254,0.6595473080017914,-0.47139222705607897,0.5854799029673867,,-0.005165690177546138,0.2789203284404527,-0.06828470799084527,-0.9527989001336808,-0.07255373464313632,0.2948053789819351,0.19083580672317263,-0.8983399343603734,0.39568555342470724,0.2361269801603894,0.4332681824298137,0.8697831518933911,,0.04420685651125435,0.7189201446337808,1.1777892181658507,0.990605372480209,-0.04030520590214452,-0.130677030845256,0.053799511010110296,-0.7636627402398745,0.6433699027654303,-0.12572433586390214,-0.6443560425312329,-0.7543200128758808,,0.05254622849997198,0.6518466908381225,-0.39365727030555275,0.9332175046127871,-0.3565980606487566,-0.04407847803439767,-0.27511906448692375,-0.7880583198654743,0.5507028099135197,-0.23111596535099654,-0.5017986724099138,-0.8335367435977403,,0.0,0.0,0.045,1.0,0.0,0.0,0.0,1.0,0.0,0.0,0.0,1.0,,0.019037333378670685,-0.19337877532911046,0.2249495411038443,False,,0.06531227940860569,0.5709449521923167,-0.3194411641143512,-0.16710834337609842,-0.48613657642073704,-0.8577563935290844,0.7803296984094736,0.46654424199995576,-0.41643970996636137,0.6026278813283339,-0.7389233379198495,0.30138337267193754
15:29:37.083036,,0.16881121789767356,-0.2168080027109789,0.06482487032,-2.5886664312029866,-0.20684614435333712,1.1428760017950805,,0.05204217973932292,0.5603146558757969,-0.3877141714691297,-0.07059780886634726,-0.8730827783843245,-0.48243384154926294,0.7517848524873423,0.27130639497633974,-0.6010094638319166,0.6556183988829601,-0.40511640565848595,0.6372167707401407,,-0.005165474135573665,0.27892057717499613,-0.06828484744999523,-0.9527987861461479,-0.07255257388901348,0.2948060330397775,0.19083526302228399,-0.8983396547515294,0.39568645044310347,0.2361278795097835,0.43326895653753694,0.8697825221256351,,0.04420685651125435,0.7189201446337808,1.1777892181658507,0.990605372480209,-0.04030520590214452,-0.130677030845256,0.053799511010110296,-0.7636627402398745,0.6433699027654303,-0.12572433586390214,-0.6443560425312329,-0.7543200128758808,,0.05254622849997198,0.6518466908381225,-0.39365727030555275,0.9332175046127871,-0.3565980606487566,-0.04407847803439767,-0.27511906448692375,-0.7880583198654743,0.5507028099135197,-0.23111596535099654,-0.5017986724099138,-0.8335367435977403,,0.0,0.0,0.045,1.0,0.0,0.0,0.0,1.0,0.0,0.0,0.0,1.0,,0.019037333378670685,-0.19337877532911046,0.2249495411038443,False,,0.06531137433966278,0.5709447813232618,-0.3194411941486091,-0.1675114186145052,-0.48603420699025657,-0.8577357834841154,0.7802536013501473,0.46644722396000954,-0.416690898436871,0.6026145054791513,-0.7390519175912839,0.30109470418917145
15:29:37.196825,,0.16881894063054778,-0.2168080027109789,0.06482487032,-2.5886664312029866,-0.20684614435333712,1.1428760017950805,,0.05284175794961312,0.5613932747671275,-0.3855792191937843,-0.08215436338172599,-0.8690717387088134,-0.48781653677892417,0.7498587893436627,0.2685143371180074,-0.604658454671837,0.6564773085350326,-0.4154688480978052,0.6296214574161862,,-0.005165690179091225,0.2789203284406573,-0.06828470799293167,-0.9527989001279981,-0.07255373464270357,0.29480537898017684,0.19083580672203446,-0.8983399343550154,0.3956855534223473,0.2361269801589811,0.4332681824272296,0.8697831518882033,,0.04420685651125435,0.7189201446337808,1.1777892181658507,0.990605372480209,-0.04030520590214452,-0.130677030845256,0.053799511010110296,-0.7636627402398745,0.6433699027654303,-0.12572433586390214,-0.6443560425312329,-0.7543200128758808,,0.05254622849997198,0.6518466908381225,-0.39365727030555275,0.9332175046127871,-0.3565980606487566,-0.04407847803439767,-0.27511906448692375,-0.7880583198654743,0.5507028099135197,-0.23111596535099654,-0.5017986724099138,-0.8335367435977403,,0.0,0.0,0.045,1.0,0.0,0.0,0.0,1.0,0.0,0.0,0.0,1.0,,0.019037333378670685,-0.19337877532911046,0.2249495411038443,False,,0.06531213943476369,0.5709446265890921,-0.3194414948830775,-0.16751077470031472,-0.4860405123827991,-0.8577323362692858,0.7802512925936762,0.4664473758628407,-0.41669505151437564,0.6026176737909358,-0.7390476749664643,0.30109877675185825
15:29:37.307585,,0.16881121789767356,-0.2168080027109789,0.06482487032,-2.5886664312029866,-0.20684614435333712,1.1428760017950805,,0.05204421511752228,0.5603185631631689,-0.3877152622345299,-0.0705860229514724,-0.8730941924395955,-0.48241490906909645,0.7517811525760061,0.271303533920183,-0.6010153834253431,0.6556239104817536,-0.40509372200846366,0.6372255208275506,,-0.005165690179091225,0.2789203284406573,-0.06828470799293165,-0.9527989001279981,-0.07255373464270357,0.29480537898017684,0.19083580672203446,-0.8983399343550154,0.3956855534223473,0.2361269801589811,0.4332681824272296,0.8697831518882033,,0.04420685651125435,0.7189201446337808,1.1777892181658507,0.990605372480209,-0.04030520590214452,-0.130677030845256,0.053799511010110296,-0.7636627402398745,0.6433699027654303,-0.12572433586390214,-0.6443560425312329,-0.7543200128758808,,0.05254622849997198,0.6518466908381225,-0.39365727030555275,0.9332175046127871,-0.3565980606487566,-0.04407847803439767,-0.27511906448692375,-0.7880583198654743,0.5507028099135197,-0.23111596535099654,-0.5017986724099138,-0.8335367435977403,,0.0,0.0,0.045,1.0,0.0,0.0,0.0,1.0,0.0,0.0,0.0,1.0,,0.019037333378670685,-0.19337877532911046,0.2249495411038443,False,,0.06531213943476369,0.5709446265890921,-0.3194414948830775,-0.16751077470031472,-0.4860405123827991,-0.8577323362692858,0.7802512925936762,0.4664473758628407,-0.41669505151437564,0.6026176737909358,-0.7390476749664643,0.30109877675185825
15:29:37.431494,,0.16881894063054778,-0.2168080027109789,0.06482487032,-2.5886664312029866,-0.20684614435333712,1.1428760017950805,,0.052854039962747866,0.5613947522924839,-0.3855657317399969,-0.08226214033046876,-0.8690315565164916,-0.4878699560813048,0.7498405410792326,0.2684911383064859,-0.6046913854230863,0.6564846557401434,-0.41556787944860646,0.6295484368563979,,-0.005166122264682629,0.27891983097182277,-0.0682844290767552,-0.9527991280965833,-0.07255605614886379,0.29480407085966187,0.1908368941257026,-0.8983404935661109,0.3956837593846463,0.23612518146051473,0.4332666342062751,0.869784411417404,,0.04420685651125435,0.7189201446337808,1.1777892181658507,0.990605372480209,-0.04030520590214452,-0.130677030845256,0.053799511010110296,-0.7636627402398745,0.6433699027654303,-0.12572433586390214,-0.6443560425312329,-0.7543200128758808,,0.052502739909027145,0.6518365696574437,-0.393649172868326,0.9332121604107566,-0.3566141283474271,-0.04406162870904426,-0.27514555556968745,-0.7880600524042602,0.5506870954133964,-0.23110600795249123,-0.5017845327106047,-0.8335480165057461,,0.0,0.0,0.045,1.0,0.0,0.0,0.0,1.0,0.0,0.0,0.0,1.0,,0.019037333378670685,-0.19337877532911046,0.2249495411038443,False,,0.06531213943476369,0.5709446265890921,-0.3194414948830775,-0.16751077470031472,-0.4860405123827991,-0.8577323362692858,0.7802512925936762,0.4664473758628407,-0.41669505151437564,0.6026176737909358,-0.7390476749664643,0.30109877675185825
15:29:37.548013,,0.16881894063054778,-0.2168080027109789,0.06482487032,-2.5890857842616617,-0.20684614435333712,1.1428760017950805,,0.06477456887474738,0.5707535837955585,-0.3614464348455972,-0.22166429052164738,-0.7401135806841423,-0.6348990707147341,0.7221233866712542,0.3129495079524756,-0.6169282129184417,0.6552883004677966,-0.5952264217583096,0.465083594755637,,-0.005179482019438686,0.2789168604992948,-0.06828700929331318,-0.9527936787106586,-0.0725544450991148,0.29482207772986296,0.19084492618417992,-0.8983370122877243,0.3956877881806609,0.236140676653449,0.43327412115415825,0.8697764747217107,,0.04420685651125435,0.7189201446337808,1.1777892181658507,0.990605372480209,-0.04030520590214452,-0.130677030845256,0.053799511010110296,-0.7636627402398745,0.6433699027654303,-0.12572433586390214,-0.6443560425312329,-0.7543200128758808,,0.052502739909027145,0.6518365696574437,-0.393649172868326,0.9332121604107566,-0.3566141283474271,-0.04406162870904426,-0.27514555556968745,-0.7880600524042602,0.5506870954133964,-0.23110600795249123,-0.5017845327106047,-0.8335480165057461,,0.0,0.0,0.045,1.0,0.0,0.0,0.0,1.0,0.0,0.0,0.0,1.0,,0.019037333378670685,-0.19337877532911046,0.2249495411038443,False,,0.06530547121306324,0.570931901690592,-0.3194420875270719,-0.1670863981193924,-0.48615341302481896,-0.8577511262410605,0.7803247084439863,0.4665552500361572,-0.41643672755354666,0.6026404275812368,-0.7389053103531052,0.3014024840254066
15:29:37.668468,,0.16881894063054778,-0.2168080027109789,0.06482487032,-2.5890857842616617,-0.20684614435333712,1.1428760017950805,,0.05660288736224055,0.5642082175064755,-0.37630076320775263,-0.13344310066721948,-0.8402620598147469,-0.5255022452094732,0.7397404172978055,0.26841812849621144,-0.6170379431693489,0.6595279022910158,-0.4710747065280307,0.5857572594250475,,-0.005193489902780613,0.2789131438327454,-0.06828917111638766,-0.9527885711956005,-0.07255631625051984,0.29483812238656215,0.19085458942315053,-0.8983343699367679,0.3956891258648179,0.2361534736911559,0.43327928591579085,0.869770427239933,,0.04420685651125435,0.7189201446337808,1.1777892181658507,0.990605372480209,-0.04030520590214452,-0.130677030845256,0.053799511010110296,-0.7636627402398745,0.6433699027654303,-0.12572433586390214,-0.6443560425312329,-0.7543200128758808,,0.052502739909027145,0.6518365696574437,-0.393649172868326,0.9332121604107566,-0.3566141283474271,-0.04406162870904426,-0.27514555556968745,-0.7880600524042602,0.5506870954133964,-0.23110600795249123,-0.5017845327106047,-0.8335480165057461,,0.0,0.0,0.045,1.0,0.0,0.0,0.0,1.0,0.0,0.0,0.0,1.0,,0.019037333378670685,-0.19337877532911046,0.2249495411038443,False,,0.06530547121306324,0.570931901690592,-0.3194420875270719,-0.1670863981193924,-0.48615341302481896,-0.8577511262410605,0.7803247084439863,0.4665552500361572,-0.41643672755354666,0.6026404275812368,-0.7389053103531052,0.3014024840254066
15:29:37.804771,,0.16881121789767356,-0.2168080027109789,0.06482487032,-2.5890857842616617,-0.20684614435333712,1.1428760017950805,,0.05646105718816391,0.5641397495201388,-0.3764706599761735,-0.132661000953177,-0.8411550440048967,-0.5242702077852812,0.7397669776042402,0.26800506444829236,-0.6171856319425743,0.65965587822166,-0.46971425076868534,0.5867049044898326,,-0.005206633620410597,0.278910422075533,-0.06829189082686239,-0.952783007509553,-0.07255354413968373,0.29485678321698716,0.19086207795882043,-0.8983306093179398,0.3956940514272959,0.236169868047428,0.43328754698292143,0.8697618604142345,,0.04420685651125435,0.7189201446337808,1.1777892181658507,0.990605372480209,-0.04030520590214452,-0.130677030845256,0.053799511010110296,-0.7636627402398745,0.6433699027654303,-0.12572433586390214,-0.6443560425312329,-0.7543200128758808,,0.052502739909027145,0.6518365696574437,-0.393649172868326,0.9332121604107566,-0.3566141283474271,-0.04406162870904426,-0.27514555556968745,-0.7880600524042602,0.5506870954133964,-0.23110600795249123,-0.5017845327106047,-0.8335480165057461,,0.0,0.0,0.045,1.0,0.0,0.0,0.0,1.0,0.0,0.0,0.0,1.0,,0.019037333378670685,-0.19337877532911046,0.2249495411038443,False,,0.06530470612650223,0.5709320564274636,-0.3194417867702123,-0.16708704186184037,-0.4861471081303358,-0.8577545742800625,0.7803270157060732,0.46655509884686724,-0.4164325735329113,0.6026372615438853,-0.738909554002722,0.301398410749601
15:29:37.927720,,0.16881894063054778,-0.2168080027109789,0.06482487032,-2.5886664312029866,-0.20684614435333712,1.1428760017950805,,0.05664552614167868,0.5641882339796852,-0.3762282714091087,-0.13367635025312208,-0.83977833964413,-0.5262157101869472,0.739687887599885,0.2688276142777614,-0.6169226391856173,0.6595395835892074,-0.47170335388491325,0.5852379717795999,,-0.005219993380087065,0.278907451593301,-0.06829447105945079,-0.9527775577236581,-0.07255193268710013,0.2948747899380849,0.1908701103190571,-0.8983271284485498,0.3956980799292506,0.23618536293439985,0.43329503405447783,0.8697539232327709,,0.04420685651125435,0.7189201446337808,1.1777892181658507,0.990605372480209,-0.04030520590214452,-0.130677030845256,0.053799511010110296,-0.7636627402398745,0.6433699027654303,-0.12572433586390214,-0.6443560425312329,-0.7543200128758808,,0.052502739909027145,0.6518365696574437,-0.393649172868326,0.9332121604107566,-0.3566141283474271,-0.04406162870904426,-0.27514555556968745,-0.7880600524042602,0.5506870954133964,-0.23110600795249123,-0.5017845327106047,-0.8335480165057461,,0.0,0.0,0.045,1.0,0.0,0.0,0.0,1.0,0.0,0.0,0.0,1.0,,0.019037333378670685,-0.19337877532911046,0.2249495411038443,False,,0.06530456614209307,0.5709317308282489,-0.3194421175384138,-0.1674894742606372,-0.48605104778509456,-0.8577305258406671,0.7802486143737164,0.4664582325888369,-0.41668791321322757,0.6026270619378051,-0.7390338938080652,0.30111381240836266
15:29:38.034771,,0.16881894063054778,-0.2168080027109789,0.06482487032,-2.5886664312029866,-0.20684614435333712,1.1428760017950805,,0.05639624138396938,0.5640930279576539,-0.3765612964327588,-0.13204708745086727,-0.8415180046009221,-0.5238425475543446,0.7398170080672287,0.26805642799074025,-0.6171033511392556,0.6597229428102357,-0.4690343264040786,0.5871732618098979,,-0.005233569182805892,0.2789042323859272,-0.06829691181507185,-0.9527722218388907,-0.07255148192186821,0.2948921425647444,0.190878686464742,-0.898323927303664,0.3957012113584151,0.2361999583593939,0.43330174715544734,0.8697466157257286,,0.04420685651125435,0.7189201446337808,1.1777892181658507,0.990605372480209,-0.04030520590214452,-0.130677030845256,0.053799511010110296,-0.7636627402398745,0.6433699027654303,-0.12572433586390214,-0.6443560425312329,-0.7543200128758808,,0.052502739909027145,0.6518365696574437,-0.393649172868326,0.9332121604107566,-0.3566141283474271,-0.04406162870904426,-0.27514555556968745,-0.7880600524042602,0.5506870954133964,-0.23110600795249123,-0.5017845327106047,-0.8335480165057461,,0.0,0.0,0.045,1.0,0.0,0.0,0.0,1.0,0.0,0.0,0.0,1.0,,0.019037333378670685,-0.19337877532911046,0.2249495411038443,False,,0.06530456614209307,0.5709317308282489,-0.3194421175384138,-0.1674894742606372,-0.48605104778509456,-0.8577305258406671,0.7802486143737164,0.4664582325888369,-0.41668791321322757,0.6026270619378051,-0.7390338938080652,0.30111381240836266
15:29:38.139922,,0.16881894063054778,-0.2168080027109789,0.06482487032,-2.5886664312029866,-0.20684614435333712,1.1428760017950805,,0.05639716644250848,0.564092791432835,-0.37655952860001635,-0.13205640613891656,-0.8415087495571734,-0.5238550658497027,0.7398160420814845,0.2680602126741884,-0.6171028652177498,0.6597221608196598,-0.4690487680399466,0.58716260415974,,-0.0052337852241198315,0.2789039836639633,-0.06829677233251398,-0.9527723358745538,-0.07255264274951007,0.2948914885226824,0.190879230142173,-0.8983242068870739,0.39570031438192715,0.23619905900192045,0.43330097314878785,0.8697472455695595,,0.04420685651125435,0.7189201446337808,1.1777892181658507,0.990605372480209,-0.04030520590214452,-0.130677030845256,0.053799511010110296,-0.7636627402398745,0.6433699027654303,-0.12572433586390214,-0.6443560425312329,-0.7543200128758808,,0.052502739909027145,0.6518365696574437,-0.393649172868326,0.9332121604107566,-0.3566141283474271,-0.04406162870904426,-0.27514555556968745,-0.7880600524042602,0.5506870954133964,-0.23110600795249123,-0.5017845327106047,-0.8335480165057461,,0.0,0.0,0.045,1.0,0.0,0.0,0.0,1.0,0.0,0.0,0.0,1.0,,0.019037333378670685,-0.19337877532911046,0.2249495411038443,False,,0.06530456614209307,0.5709317308282489,-0.3194421175384138,-0.1674894742606372,-0.48605104778509456,-0.8577305258406671,0.7802486143737164,0.4664582325888369,-0.41668791321322757,0.6026270619378051,-0.7390338938080652,0.30111381240836266
15:29:38.248184,,0.16881894063054778,-0.2168080027109789,0.06482487032,-2.5886664312029866,-0.20684614435333712,1.1428760017950805,,0.05639716644250848,0.564092791432835,-0.37655952860001635,-0.13205640613891656,-0.8415087495571734,-0.5238550658497027,0.7398160420814845,0.2680602126741884,-0.6171028652177498,0.6597221608196598,-0.4690487680399466,0.58716260415974,,-0.0052337852241198315,0.2789039836639633,-0.06829677233251398,-0.9527723358745538,-0.0725526427495101,0.2948914885226824,0.19087923014217298,-0.8983242068870739,0.39570031438192704,0.23619905900192045,0.43330097314878774,0.8697472455695595,,0.04420685651125435,0.7189201446337808,1.1777892181658507,0.990605372480209,-0.04030520590214452,-0.130677030845256,0.053799511010110296,-0.7636627402398745,0.6433699027654303,-0.12572433586390214,-0.6443560425312329,-0.7543200128758808,,0.052502739909027145,0.6518365696574437,-0.393649172868326,0.9332121604107566,-0.3566141283474271,-0.04406162870904426,-0.27514555556968745,-0.7880600524042602,0.5506870954133964,-0.23110600795249123,-0.5017845327106047,-0.8335480165057461,,0.0,0.0,0.045,1.0,0.0,0.0,0.0,1.0,0.0,0.0,0.0,1.0,,0.019037333378670685,-0.19337877532911046,0.2249495411038443,False,,0.06530456614209307,0.5709317308282489,-0.3194421175384138,-0.1674894742606372,-0.48605104778509456,-0.8577305258406671,0.7802486143737164,0.4664582325888369,-0.41668791321322757,0.6026270619378051,-0.7390338938080652,0.30111381240836266
15:29:38.361917,,0.16881894063054778,-0.2168080027109789,0.06482487032,-2.5890857842616617,-0.20684614435333712,1.1428760017950805,,0.05706422441328728,0.5645948333816158,-0.37528503866001334,-0.14045133335665974,-0.833585078892208,-0.5342371563328484,0.738468260234511,0.27122027456000264,-0.6173363680310857,0.659498333268972,-0.48122289940927454,0.5774828737716643,,-0.0052342173053038475,0.27890348621987876,-0.068296493365349,-0.9527725639507648,-0.0725549644035742,0.294890180437245,0.19088031750120252,-0.8983247660580176,0.3956985204327624,0.23619726029011212,0.4332994251351289,0.8697485052612858,,0.04420685651125435,0.7189201446337808,1.1777892181658507,0.990605372480209,-0.04030520590214452,-0.130677030845256,0.053799511010110296,-0.7636627402398745,0.6433699027654303,-0.12572433586390214,-0.6443560425312329,-0.7543200128758808,,0.052502739909027145,0.6518365696574437,-0.393649172868326,0.9332121604107566,-0.3566141283474271,-0.04406162870904426,-0.27514555556968745,-0.7880600524042602,0.5506870954133964,-0.23110600795249123,-0.5017845327106047,-0.8335480165057461,,0.0,0.0,0.045,1.0,0.0,0.0,0.0,1.0,0.0,0.0,0.0,1.0,,0.019037333378670685,-0.19337877532911046,0.2249495411038443,False,,0.06530547121306324,0.570931901690592,-0.3194420875270719,-0.1670863981193924,-0.48615341302481896,-0.8577511262410605,0.7803247084439863,0.4665552500361572,-0.41643672755354666,0.6026404275812368,-0.7389053103531052,0.3014024840254066
15:29:38.473875,,0.16881894063054778,-0.2168080027109789,0.06482487032,-2.5890857842616617,-0.20684614435333712,1.1428760017950805,,0.05706422441337317,0.5645948333815638,-0.3752850386598903,-0.14045133335762147,-0.8335850788914487,-0.5342371563337801,0.7384682602344155,0.27122027456013853,-0.61733636803114,0.659498333268874,-0.48122289941051294,0.5774828737707441,,-0.0052342173053038475,0.2789034862198787,-0.068296493365349,-0.9527725639507648,-0.0725549644035742,0.294890180437245,0.19088031750120252,-0.8983247660580176,0.3956985204327624,0.23619726029011212,0.4332994251351289,0.8697485052612858,,0.04420685651125435,0.7189201446337808,1.1777892181658507,0.990605372480209,-0.04030520590214452,-0.130677030845256,0.053799511010110296,-0.7636627402398745,0.6433699027654303,-0.12572433586390214,-0.6443560425312329,-0.7543200128758808,,0.052502739909027145,0.6518365696574437,-0.393649172868326,0.9332121604107566,-0.3566141283474271,-0.04406162870904426,-0.27514555556968745,-0.7880600524042602,0.5506870954133964,-0.23110600795249123,-0.5017845327106047,-0.8335480165057461,,0.0,0.0,0.045,1.0,0.0,0.0,0.0,1.0,0.0,0.0,0.0,1.0,,0.019037333378670685,-0.19337877532911046,0.2249495411038443,False,,0.06530547121306324,0.570931901690592,-0.3194420875270719,-0.1670863981193924,-0.48615341302481896,-0.8577511262410605,0.7803247084439863,0.4665552500361572,-0.41643672755354666,0.6026404275812368,-0.7389053103531052,0.3014024840254066
15:29:38.582731,,0.16881894063054778,-0.2168080027109789,0.06482487032,-2.5890857842616617,-0.20684614435333712,1.1428760017950805,,0.05706422441327043,0.5645948333816393,-0.37528503866003726,-0.14045133335631482,-0.8335850788924924,-0.5342371563324951,0.7384682602345342,0.2712202745599477,-0.617336368031082,0.6594983332690193,-0.4812228994088124,0.5774828737719949,,-0.0052342173053038475,0.2789034862198787,-0.06829649336534901,-0.9527725639507648,-0.0725549644035742,0.294890180437245,0.19088031750120252,-0.8983247660580176,0.3956985204327624,0.23619726029011212,0.4332994251351289,0.8697485052612858,,0.04420685651125435,0.7189201446337808,1.1777892181658507,0.990605372480209,-0.04030520590214452,-0.130677030845256,0.053799511010110296,-0.7636627402398745,0.6433699027654303,-0.12572433586390214,-0.6443560425312329,-0.7543200128758808,,0.05249448169833077,0.6518243698497409,-0.3936489186433527,0.9332042551114031,-0.3566333797869426,-0.044073242037700605,-0.2751540445073453,-0.788052389592124,0.5506938196942048,-0.23112782185020744,-0.5017828850009594,-0.8335429600727805,,0.0,0.0,0.045,1.0,0.0,0.0,0.0,1.0,0.0,0.0,0.0,1.0,,0.019037333378670685,-0.19337877532911046,0.2249495411038443,False,,0.06530547121306324,0.570931901690592,-0.3194420875270719,-0.1670863981193924,-0.48615341302481896,-0.8577511262410605,0.7803247084439863,0.4665552500361572,-0.41643672755354666,0.6026404275812368,-0.7389053103531052,0.3014024840254066
15:29:38.709531,,0.16881894063054778,-0.2168080027109789,0.06482487032,-2.5890857842616617,-0.20684614435333712,1.1428760017950805,,0.06648981295090231,0.5707876537920562,-0.35874875715301624,-0.24058889897664934,-0.7214850590904677,-0.6492890659778803,0.7176442175171911,0.31817854602384166,-0.6194749308198781,0.6535317580296635,-0.6149973352457541,0.4412193546154556,,-0.005243650887950891,0.2788974058194095,-0.0683014727041674,-0.9527701958032748,-0.07255938773546261,0.2948967430713283,0.19088622528780852,-0.8983256927939901,0.3956935664061301,0.2362020381326,0.4332967629134625,0.8697485339248082,,0.04420685651125435,0.7189201446337808,1.1777892181658507,0.990605372480209,-0.04030520590214452,-0.130677030845256,0.053799511010110296,-0.7636627402398745,0.6433699027654303,-0.12572433586390214,-0.6443560425312329,-0.7543200128758808,,0.05249448169833077,0.6518243698497409,-0.3936489186433527,0.9332042551114031,-0.3566333797869426,-0.044073242037700605,-0.2751540445073453,-0.788052389592124,0.5506938196942048,-0.23112782185020744,-0.5017828850009594,-0.8335429600727805,,0.0,0.0,0.045,1.0,0.0,0.0,0.0,1.0,0.0,0.0,0.0,1.0,,0.019037333378670685,-0.19337877532911046,0.2249495411038443,False,,0.06534449441306907,0.5709405125064098,-0.3194519854901736,-0.167135448913467,-0.4861548742836724,-0.8577407416735672,0.7803071909159032,0.46654681865181813,-0.4164789956417976,0.6026495080238818,-0.738909672569046,0.30137363232784486
15:29:38.821036,,0.16881894063054778,-0.2168080027109789,0.06482487032,-2.5886664312029866,-0.20684614435333712,1.1428760017950805,,0.05701321300951966,0.5645442697497258,-0.37538650725028694,-0.13986290776264834,-0.8338518375941242,-0.5339751679367488,0.7385586966351494,0.27134195764705205,-0.6171746864906686,0.6595221138496925,-0.4806918503169861,0.5778978511658144,,-0.005253084471356351,0.27889132541793354,-0.06830645204333287,-0.9527678276312561,-0.07256381108831561,0.29490330568242923,0.19089213304950825,-0.898326619525663,0.39568861234899294,0.2362068159937259,0.43329410072513336,0.8697485625778131,,0.04420685651125435,0.7189201446337808,1.1777892181658507,0.990605372480209,-0.04030520590214452,-0.130677030845256,0.053799511010110296,-0.7636627402398745,0.6433699027654303,-0.12572433586390214,-0.6443560425312329,-0.7543200128758808,,0.05249448169833077,0.6518243698497409,-0.3936489186433527,0.9332042551114031,-0.3566333797869426,-0.044073242037700605,-0.2751540445073453,-0.788052389592124,0.5506938196942048,-0.23112782185020744,-0.5017828850009594,-0.8335429600727805,,0.0,0.0,0.045,1.0,0.0,0.0,0.0,1.0,0.0,0.0,0.0,1.0,,0.019037333378670685,-0.19337877532911046,0.2249495411038443,False,,0.06534358935025607,0.5709403416054062,-0.3194520155273758,-0.16753852142189157,-0.4860525015853522,-0.8577201230835076,0.7802310796281252,0.4664498078295798,-0.41673017548298347,0.6026361308634725,-0.739038255084518,0.30108495694659704
15:29:38.927806,,0.16881121789767356,-0.2168080027109789,0.06482487032,-2.5886664312029866,-0.20684614435333712,1.1428760017950805,,0.056786715851406246,0.5646887244543045,-0.3756942975838246,-0.13721559820779605,-0.8360221599249738,-0.5312615436137443,0.7387798184835662,0.27089364193479626,-0.6171069717323665,0.6598304777818819,-0.4771620090427194,0.5804654664288391,,-0.00526251805552023,0.278885245015451,-0.06831143138284546,-0.9527654594347081,-0.07256823446213316,0.2949098682705478,0.19089804078630174,-0.8983275462530356,0.3956836582613506,0.2362115938734898,0.43329143857014146,0.8697485912202999,,0.04420685651125435,0.7189201446337808,1.1777892181658507,0.990605372480209,-0.04030520590214452,-0.130677030845256,0.053799511010110296,-0.7636627402398745,0.6433699027654303,-0.12572433586390214,-0.6443560425312329,-0.7543200128758808,,0.05249448169833077,0.6518243698497409,-0.3936489186433527,0.9332042551114031,-0.3566333797869426,-0.044073242037700605,-0.2751540445073453,-0.788052389592124,0.5506938196942048,-0.23112782185020744,-0.5017828850009594,-0.8335429600727805,,0.0,0.0,0.045,1.0,0.0,0.0,0.0,1.0,0.0,0.0,0.0,1.0,,0.019037333378670685,-0.19337877532911046,0.2249495411038443,False,,0.06534282424889498,0.5709404963074554,-0.319451714792309,-0.16753916539747382,-0.48604619617015643,-0.8577235704155737,0.7802333884415703,0.46644965623477985,-0.41672602241693685,0.6026329626056839,-0.7390424976866874,0.30108088447146375
15:29:39.039344,,0.16881894063054778,-0.2168080027109789,0.06482487032,-2.5886664312029866,-0.20684614435333712,1.1428760017950805,,0.06658625593075787,0.5709989549387371,-0.35854829324893667,-0.24088974381825262,-0.7204699209206831,-0.6503039476827136,0.7173710132014327,0.31913341068100126,-0.6193001659982509,0.6537208584262296,-0.6156922601719598,0.4399682716092348,,-0.005271735589846196,0.27887941332342386,-0.06831655020788684,-0.9527629771833545,-0.07257149698665484,0.2949170848942963,0.19090340477642742,-0.8983281934553468,0.39567960108747513,0.23621727113443916,0.433289550412991,0.8697479900232192,,0.04420685651125435,0.7189201446337808,1.1777892181658507,0.990605372480209,-0.04030520590214452,-0.130677030845256,0.053799511010110296,-0.7636627402398745,0.6433699027654303,-0.12572433586390214,-0.6443560425312329,-0.7543200128758808,,0.05249448169833077,0.6518243698497409,-0.3936489186433527,0.9332042551114031,-0.3566333797869426,-0.044073242037700605,-0.2751540445073453,-0.788052389592124,0.5506938196942048,-0.23112782185020744,-0.5017828850009594,-0.8335429600727805,,0.0,0.0,0.045,1.0,0.0,0.0,0.0,1.0,0.0,0.0,0.0,1.0,,0.019037333378670685,-0.19337877532911046,0.2249495411038443,False,,0.06534358935025607,0.5709403416054062,-0.3194520155273758,-0.16753852142189157,-0.4860525015853522,-0.8577201230835076,0.7802310796281252,0.4664498078295798,-0.41673017548298347,0.6026361308634725,-0.739038255084518,0.30108495694659704
15:29:39.154841,,0.16881121789767356,-0.2168080027109789,0.06482487032,-2.5886664312029866,-0.20684614435333712,1.1428760017950805,,0.05695707357673693,0.5685293535961435,-0.3733726768370784,-0.14791279576164137,-0.813376212578691,-0.5626197131821092,0.7366619909816674,0.28896051305853493,-0.6114171513262233,0.6598870478293244,-0.5048969783075475,0.55644238282414,,-0.005280953128373947,0.2788735816356231,-0.068321669031315,-0.9527604948999636,-0.07257475954698829,0.29492430150055093,0.19090876876661578,-0.898328840651374,0.3956755439029406,0.2362229483917807,0.433287662311737,0.869747388798862,,0.04420685651125435,0.7189201446337808,1.1777892181658507,0.990605372480209,-0.04030520590214452,-0.130677030845256,0.053799511010110296,-0.7636627402398745,0.6433699027654303,-0.12572433586390214,-0.6443560425312329,-0.7543200128758808,,0.05249448169833077,0.6518243698497409,-0.3936489186433527,0.9332042551114031,-0.3566333797869426,-0.044073242037700605,-0.2751540445073453,-0.788052389592124,0.5506938196942048,-0.23112782185020744,-0.5017828850009594,-0.8335429600727805,,0.0,0.0,0.045,1.0,0.0,0.0,0.0,1.0,0.0,0.0,0.0,1.0,,0.019037333378670685,-0.19337877532911046,0.2249495411038443,False,,0.06534282424889498,0.5709404963074554,-0.319451714792309,-0.16753916539747382,-0.48604619617015643,-0.8577235704155737,0.7802333884415703,0.46644965623477985,-0.41672602241693685,0.6026329626056839,-0.7390424976866874,0.30108088447146375
15:29:39.263538,,0.16881121789767356,-0.2168080027109789,0.06482487032,-2.5890857842616617,-0.20684614435333712,1.1428760017950805,,0.05777577050037916,0.5688868377718521,-0.372005805213112,-0.15657172113634943,-0.8046211988952489,-0.5727739715007776,0.7355008586169168,0.29206433209433286,-0.6113402595053506,0.6591841799635212,-0.5169943444629387,0.5460705674902802,,-0.005280737081361073,0.27887383035231317,-0.06832180851445005,-0.9527603808638272,-0.07257359869269389,0.29492495556040665,0.1909082250702744,-0.8983285611215525,0.3956764408669028,0.23622384773776225,0.43328843629777847,0.8697467589556707,,0.04420685651125435,0.7189201446337808,1.1777892181658507,0.990605372480209,-0.04030520590214452,-0.130677030845256,0.053799511010110296,-0.7636627402398745,0.6433699027654303,-0.12572433586390214,-0.6443560425312329,-0.7543200128758808,,0.05249448169833077,0.6518243698497409,-0.3936489186433527,0.9332042551114031,-0.3566333797869426,-0.044073242037700605,-0.2751540445073453,-0.788052389592124,0.5506938196942048,-0.23112782185020744,-0.5017828850009594,-0.8335429600727805,,0.0,0.0,0.045,1.0,0.0,0.0,0.0,1.0,0.0,0.0,0.0,1.0,,0.019037333378670685,-0.19337877532911046,0.2249495411038443,False,,0.06534372931218745,0.5709406672050342,-0.31945168475006924,-0.1671360926755162,-0.4861485692750751,-0.8577441897890996,0.7803094982041585,0.4665466678078373,-0.41647484170088567,0.6026463420095867,-0.7389139160614049,0.30136955903551954
15:29:39.424435,,0.16881894063054778,-0.2168080027109789,0.06482487032,-2.5890857842616617,-0.20684614435333712,1.1428760017950805,,0.057746287866776894,0.5688900628866645,-0.3720526667589398,-0.15625046459764427,-0.8049181858720054,-0.5724443259964591,0.735551375410971,0.29197654479847446,-0.611321414166536,0.6592040400695747,-0.5165814663149121,0.5464372079350803,,-0.005280521034381992,0.27887407906901907,-0.06832194799759747,-0.9527602668274242,-0.07257243783784867,0.2949256096192383,0.19090768137494268,-0.8983282815913192,0.39567733783134873,0.2362247470843204,0.43328921028284506,0.8697461291121046,,0.04420685651125435,0.7189201446337808,1.1777892181658507,0.990605372480209,-0.04030520590214452,-0.130677030845256,0.053799511010110296,-0.7636627402398745,0.6433699027654303,-0.12572433586390214,-0.6443560425312329,-0.7543200128758808,,0.05249448169833077,0.6518243698497409,-0.3936489186433527,0.9332042551114031,-0.3566333797869426,-0.044073242037700605,-0.2751540445073453,-0.788052389592124,0.5506938196942048,-0.23112782185020744,-0.5017828850009594,-0.8335429600727805,,0.0,0.0,0.045,1.0,0.0,0.0,0.0,1.0,0.0,0.0,0.0,1.0,,0.019037333378670685,-0.19337877532911046,0.2249495411038443,False,,0.06534449441306907,0.5709405125064098,-0.3194519854901736,-0.167135448913467,-0.4861548742836724,-0.8577407416735672,0.7803071909159032,0.46654681865181813,-0.4164789956417976,0.6026495080238818,-0.738909672569046,0.30137363232784486
15:29:39.545300,,0.16881894063054778,-0.2168080027109789,0.06482487032,-2.5890857842616617,-0.20684614435333712,1.1428760017950805,,0.05774620143996513,0.5688907535719752,-0.37205381569730905,-0.15624331838058642,-0.8049243739982547,-0.5724375752909135,0.7355525398793723,0.2919750042514948,-0.6113207488457628,0.6592044345561,-0.5165726948221879,0.5464450241567905,,-0.005280088942070504,0.27887457650268355,-0.06832222696601561,-0.9527600387481373,-0.07257011612607309,0.29492691773207075,0.1909065939861698,-0.8983277225242603,0.3956791317593321,0.23622654577775776,0.43329075824747,0.8697448694186617,,0.04420685651125435,0.7189201446337808,1.1777892181658507,0.990605372480209,-0.04030520590214452,-0.130677030845256,0.053799511010110296,-0.7636627402398745,0.6433699027654303,-0.12572433586390214,-0.6443560425312329,-0.7543200128758808,,0.05249448169833077,0.6518243698497409,-0.3936489186433527,0.9332042551114031,-0.3566333797869426,-0.044073242037700605,-0.2751540445073453,-0.788052389592124,0.5506938196942048,-0.23112782185020744,-0.5017828850009594,-0.8335429600727805,,0.0,0.0,0.045,1.0,0.0,0.0,0.0,1.0,0.0,0.0,0.0,1.0,,0.019037333378670685,-0.19337877532911046,0.2249495411038443,False,,0.06534449441306907,0.5709405125064098,-0.3194519854901736,-0.167135448913467,-0.4861548742836724,-0.8577407416735672,0.7803071909159032,0.46654681865181813,-0.4164789956417976,0.6026495080238818,-0.738909672569046,0.30137363232784486
15:29:39.683600,,0.16881894063054778,-0.2168080027109789,0.06482487032,-2.5890857842616617,-0.20684614435333712,1.1428760017950805,,0.05774620144000523,0.5688907535719738,-0.37205381569724255,-0.15624331838103417,-0.804924373997826,-0.5724375752913943,0.7355525398793041,0.29197500425163136,-0.6113207488457796,0.6592044345560699,-0.5165726948227789,0.5464450241562684,,-0.005280088942070504,0.27887457650268355,-0.06832222696601563,-0.9527600387481371,-0.07257011612607306,0.29492691773207075,0.19090659398616977,-0.8983277225242601,0.39567913175933206,0.23622654577775776,0.43329075824746993,0.8697448694186615,,0.04420685651125435,0.7189201446337808,1.1777892181658507,0.990605372480209,-0.04030520590214452,-0.130677030845256,0.053799511010110296,-0.7636627402398745,0.6433699027654303,-0.12572433586390214,-0.6443560425312329,-0.7543200128758808,,0.052531884908513245,0.6518336925502157,-0.3936577608828604,0.9332220222706817,-0.3565865506374353,-0.04407594642790583,-0.27510970929582546,-0.788059260657703,0.5507061371936954,-0.23110885963153002,-0.5018053742200563,-0.8335346791847855,,0.0,0.0,0.045,1.0,0.0,0.0,0.0,1.0,0.0,0.0,0.0,1.0,,0.019037333378670685,-0.19337877532911046,0.2249495411038443,False,,0.06534449441306907,0.5709405125064098,-0.3194519854901736,-0.167135448913467,-0.4861548742836724,-0.8577407416735672,0.7803071909159032,0.46654681865181813,-0.4164789956417976,0.6026495080238818,-0.738909672569046,0.30137363232784486
15:29:39.806135,,0.16881894063054778,-0.2168080027109789,0.06482487032,-2.5886664312029866,-0.20684614435333712,1.1428760017950805,,0.0533726551928756,0.5632725592586463,-0.38021690407619585,-0.11638600447654535,-0.8542076984577356,-0.506738103814509,0.7443740908656986,0.2627567722610028,-0.6138942021870255,0.6575420220866883,-0.4486514086977973,0.6052688680773457,,-0.005272400682365289,0.2788787056270096,-0.06831984862676499,-0.9527623294998457,-0.07256347826435908,0.2949211503433442,0.19089922634994697,-0.8983266932909117,0.3956850228548513,0.23622326023627574,0.4332940035989771,0.869744144895584,,0.04420685651125435,0.7189201446337808,1.1777892181658507,0.990605372480209,-0.04030520590214452,-0.130677030845256,0.053799511010110296,-0.7636627402398745,0.6433699027654303,-0.12572433586390214,-0.6443560425312329,-0.7543200128758808,,0.052531884908513245,0.6518336925502157,-0.3936577608828604,0.9332220222706817,-0.3565865506374353,-0.04407594642790583,-0.27510970929582546,-0.788059260657703,0.5507061371936954,-0.23110885963153002,-0.5018053742200563,-0.8335346791847855,,0.0,0.0,0.045,1.0,0.0,0.0,0.0,1.0,0.0,0.0,0.0,1.0,,0.019037333378670685,-0.19337877532911046,0.2249495411038443,False,,0.06535120199850572,0.5709336505876138,-0.3194652057685014,-0.1675097431649355,-0.4860533407163809,-0.8577252683250408,0.7802330640634216,0.4664641128247605,-0.4167104476597794,0.6026415615330741,-0.739028674291502,0.301097603590469
15:29:39.922047,,0.16881121789767356,-0.2168080027109789,0.06482487032,-2.5886664312029866,-0.20684614435333712,1.1428760017950805,,0.068293641712891,0.5711194839257387,-0.356409288620791,-0.25547026563220127,-0.7096661828162182,-0.6565888000452575,0.7132992882423139,0.3200864568654688,-0.6234972217454693,0.6526400759766606,-0.6276293246004114,0.42443181093175664,,-0.005264496386938952,0.2788830834738466,-0.06831760977480093,-0.9527645061676636,-0.07255567958608905,0.2949160369574003,0.19089131501714218,-0.8983253844511192,0.395691810895228,0.2362208740689191,0.433298022979934,0.8697427905096806,,0.04420685651125435,0.7189201446337808,1.1777892181658507,0.990605372480209,-0.04030520590214452,-0.130677030845256,0.053799511010110296,-0.7636627402398745,0.6433699027654303,-0.12572433586390214,-0.6443560425312329,-0.7543200128758808,,0.052531884908513245,0.6518336925502157,-0.3936577608828604,0.9332220222706817,-0.3565865506374353,-0.04407594642790583,-0.27510970929582546,-0.788059260657703,0.5507061371936954,-0.23110885963153002,-0.5018053742200563,-0.8335346791847855,,0.0,0.0,0.045,1.0,0.0,0.0,0.0,1.0,0.0,0.0,0.0,1.0,,0.019037333378670685,-0.19337877532911046,0.2249495411038443,False,,0.06535120199850572,0.5709336505876138,-0.3194652057685014,-0.1675097431649355,-0.4860533407163809,-0.8577252683250408,0.7802330640634216,0.4664641128247605,-0.4167104476597794,0.6026415615330741,-0.739028674291502,0.301097603590469
15:29:40.055419,,0.16881121789767356,-0.2168080027109789,0.06482487032,-2.5886664312029866,-0.20684614435333712,1.1428760017950805,,0.0666305773513438,0.5710015396827878,-0.3585273959553052,-0.24101232165237269,-0.7202708735900362,-0.6504790000219685,0.7173373476519129,0.3192447087575593,-0.6192817982098455,0.6537126207099356,-0.6158674245226383,0.4397352896191077,,-0.005257097793112599,0.2788879971629029,-0.0683152063331355,-0.9527674133090092,-0.0725477546033543,0.29490859446583867,0.19088273082179533,-0.8983233422333874,0.3957005882280131,0.23621608510391295,0.4333035838208507,0.8697413207601058,,0.04420685651125435,0.7189201446337808,1.1777892181658507,0.990605372480209,-0.04030520590214452,-0.130677030845256,0.053799511010110296,-0.7636627402398745,0.6433699027654303,-0.12572433586390214,-0.6443560425312329,-0.7543200128758808,,0.052531884908513245,0.6518336925502157,-0.3936577608828604,0.9332220222706817,-0.3565865506374353,-0.04407594642790583,-0.27510970929582546,-0.788059260657703,0.5507061371936954,-0.23110885963153002,-0.5018053742200563,-0.8335346791847855,,0.0,0.0,0.045,1.0,0.0,0.0,0.0,1.0,0.0,0.0,0.0,1.0,,0.019037333378670685,-0.19337877532911046,0.2249495411038443,False,,0.06535120199850572,0.5709336505876138,-0.3194652057685014,-0.1675097431649355,-0.4860533407163809,-0.8577252683250408,0.7802330640634216,0.4664641128247605,-0.4167104476597794,0.6026415615330741,-0.739028674291502,0.301097603590469
15:29:40.164494,,0.16881894063054778,-0.2168080027109789,0.06482487032,-2.5890857842616617,-0.20684614435333712,1.1428760017950805,,0.05824476393300538,0.5688516014647336,-0.3713671574825641,-0.16066191235543867,-0.8006803910322838,-0.5771470014950116,0.7348443848238609,0.2933429826340509,-0.6115174769638239,0.6589320754153157,-0.5223608005543185,0.541246444822612,,-0.005249915245958086,0.2788926621331618,-0.06831266340695928,-0.9527704344577537,-0.07254099052192314,0.29490049787968736,0.19087469026977388,-0.8983215795422819,0.39570846854153047,0.23621039682877448,0.4333083707420891,0.8697404808373789,,0.04420685651125435,0.7189201446337808,1.1777892181658507,0.990605372480209,-0.04030520590214452,-0.130677030845256,0.053799511010110296,-0.7636627402398745,0.6433699027654303,-0.12572433586390214,-0.6443560425312329,-0.7543200128758808,,0.052531884908513245,0.6518336925502157,-0.3936577608828604,0.9332220222706817,-0.3565865506374353,-0.04407594642790583,-0.27510970929582546,-0.788059260657703,0.5507061371936954,-0.23110885963153002,-0.5018053742200563,-0.8335346791847855,,0.0,0.0,0.045,1.0,0.0,0.0,0.0,1.0,0.0,0.0,0.0,1.0,,0.019037333378670685,-0.19337877532911046,0.2249495411038443,False,,0.06535210706594827,0.5709338214666058,-0.31946517574556765,-0.16710666859472856,-0.48615570895583976,-0.857745876096654,0.7803091655482748,0.4665611256831965,-0.41645926831154045,0.6026549323390017,-0.7389000897623936,0.30138628017313585
15:29:40.276665,,0.16881894063054778,-0.2168080027109789,0.06482487032,-2.5890857842616617,-0.20684614435333712,1.1428760017950805,,0.05910293310665279,0.5688833810012832,-0.37003137875145464,-0.16920042042209615,-0.7922262866335404,-0.5863008856345162,0.7333589272217276,0.2962271037624776,-0.6119102768059149,0.6584496196317401,-0.5335044646142394,0.5308644691853946,,-0.005242948735765644,0.27889707837916156,-0.0683099809948961,-0.9527735696202262,-0.07253538732801146,0.29489174722688094,0.19086719335181052,-0.898320096430688,0.3957154518274177,0.23620380923971118,0.4333123837350487,0.8697402707513981,,0.04420685651125435,0.7189201446337808,1.1777892181658507,0.990605372480209,-0.04030520590214452,-0.130677030845256,0.053799511010110296,-0.7636627402398745,0.6433699027654303,-0.12572433586390214,-0.6443560425312329,-0.7543200128758808,,0.052531884908513245,0.6518336925502157,-0.3936577608828604,0.9332220222706817,-0.3565865506374353,-0.04407594642790583,-0.27510970929582546,-0.788059260657703,0.5507061371936954,-0.23110885963153002,-0.5018053742200563,-0.8335346791847855,,0.0,0.0,0.045,1.0,0.0,0.0,0.0,1.0,0.0,0.0,0.0,1.0,,0.019037333378670685,-0.19337877532911046,0.2249495411038443,False,,0.06535134197374796,0.5709339761827171,-0.3194648749923735,-0.16710731235289294,-0.4861494040205486,-0.8577493241784909,0.7803114728629922,0.4665609747011759,-0.4164551142731666,0.6026517663432011,-0.7389043333587603,0.30138220695168066
15:29:40.389063,,0.16881121789767356,-0.2168080027109789,0.06482487032,-2.5890857842616617,-0.20684614435333712,1.1428760017950805,,0.05917418633060203,0.568886903825251,-0.3699170491859287,-0.1699171394702097,-0.7914887363540696,-0.5870892146334322,0.7332284643072092,0.29649593024215304,-0.6119364202917918,0.6584103468536575,-0.5344490093306181,0.5299623303420421,,-0.005243670472234245,0.2788973655006218,-0.06830967692284413,-0.952774414144408,-0.07253642188207597,0.2948887641368454,0.190867064169377,-0.8983196426970466,0.39571654415988733,0.2362005070463937,0.43331315120479164,0.8697407851916744,,0.04420685651125435,0.7189201446337808,1.1777892181658507,0.990605372480209,-0.04030520590214452,-0.130677030845256,0.053799511010110296,-0.7636627402398745,0.6433699027654303,-0.12572433586390214,-0.6443560425312329,-0.7543200128758808,,0.052531884908513245,0.6518336925502157,-0.3936577608828604,0.9332220222706817,-0.3565865506374353,-0.04407594642790583,-0.27510970929582546,-0.788059260657703,0.5507061371936954,-0.23110885963153002,-0.5018053742200563,-0.8335346791847855,,0.0,0.0,0.045,1.0,0.0,0.0,0.0,1.0,0.0,0.0,0.0,1.0,,0.019037333378670685,-0.19337877532911046,0.2249495411038443,False,,0.06535134197374796,0.5709339761827171,-0.3194648749923735,-0.16710731235289294,-0.4861494040205486,-0.8577493241784909,0.7803114728629922,0.4665609747011759,-0.4164551142731666,0.6026517663432011,-0.7389043333587603,0.30138220695168066
15:29:40.494560,,0.16881121789767356,-0.2168080027109789,0.06482487032,-2.5890857842616617,-0.20684614435333712,1.1428760017950805,,0.059141834600246204,0.568884747508792,-0.369967934732343,-0.1695916739283289,-0.7918210798883261,-0.5867350693274375,0.7332878990665275,0.29637653210300813,-0.6119230411589297,0.6584280683694964,-0.5340227791612264,0.530369823915477,,-0.005244608245076185,0.2788974038986922,-0.06830923336392866,-0.9527753727088677,-0.07253861727043306,0.29488512702426317,0.19086747865879064,-0.8983194685798307,0.3957167395208731,0.23619630548774107,0.4333131446784047,0.869741929481957,,0.04420685651125435,0.7189201446337808,1.1777892181658507,0.990605372480209,-0.04030520590214452,-0.130677030845256,0.053799511010110296,-0.7636627402398745,0.6433699027654303,-0.12572433586390214,-0.6443560425312329,-0.7543200128758808,,0.052531884908513245,0.6518336925502157,-0.3936577608828604,0.9332220222706817,-0.3565865506374353,-0.04407594642790583,-0.27510970929582546,-0.788059260657703,0.5507061371936954,-0.23110885963153002,-0.5018053742200563,-0.8335346791847855,,0.0,0.0,0.045,1.0,0.0,0.0,0.0,1.0,0.0,0.0,0.0,1.0,,0.019037333378670685,-0.19337877532911046,0.2249495411038443,False,,0.06535134197374796,0.5709339761827171,-0.3194648749923735,-0.16710731235289294,-0.4861494040205486,-0.8577493241784909,0.7803114728629922,0.4665609747011759,-0.4164551142731666,0.6026517663432011,-0.7389043333587603,0.30138220695168066
15:29:40.611985,,0.16881894063054778,-0.2168080027109789,0.06482487032,-2.5886664312029866,-0.20684614435333712,1.1428760017950805,,0.06266988431206594,0.570594022247842,-0.3640475341848058,-0.2025935018562135,-0.7529433848210297,-0.6261246938588894,0.7262156327993085,0.31341039900396633,-0.6118699015918948,0.6569373849032621,-0.5786624068059252,0.4833043464174905,,-0.005245040317392029,0.27889690645425796,-0.06830895439324322,-0.9527756007889082,-0.07254093894632827,0.29488381898475663,0.19086856603140043,-0.8983200277885461,0.39571494558080234,0.23619450675950654,0.43331159669651753,0.8697431891804974,,0.04420685651125435,0.7189201446337808,1.1777892181658507,0.990605372480209,-0.04030520590214452,-0.130677030845256,0.053799511010110296,-0.7636627402398745,0.6433699027654303,-0.12572433586390214,-0.6443560425312329,-0.7543200128758808,,0.052531884908513245,0.6518336925502157,-0.3936577608828604,0.9332220222706817,-0.3565865506374353,-0.04407594642790583,-0.27510970929582546,-0.788059260657703,0.5507061371936954,-0.23110885963153002,-0.5018053742200563,-0.8335346791847855,,0.0,0.0,0.045,1.0,0.0,0.0,0.0,1.0,0.0,0.0,0.0,1.0,,0.019037333378670685,-0.19337877532911046,0.2249495411038443,False,,0.06535165452517364,0.5709337360580725,-0.3194651907206327,-0.16730820902106697,-0.4861045331954394,-0.8577355921267387,0.7802711285951802,0.4665126149296997,-0.4165848604933423,0.6026482631477226,-0.7389643854194178,0.30124194264201604
15:29:40.716159,,0.16881894063054778,-0.2168080027109789,0.06482487032,-2.5886664312029866,-0.20684614435333712,1.1428760017950805,,0.06266895018246607,0.5705942073134918,-0.3640479294235001,-0.2025930736001931,-0.7529474990929483,-0.6261198847975535,0.7262155191819533,0.313406847099276,-0.6118718557758459,0.6569376425723475,-0.5786589771194826,0.4833081025293504,,-0.005245256352828005,0.2788966577319626,-0.0683088149068759,-0.9527757148313707,-0.07254209978366596,0.29488316496434674,0.19086910971978902,-0.8983203073949656,0.39571404861267256,0.2361936073969586,0.433310822705404,0.8697438190317999,,0.04420685651125435,0.7189201446337808,1.1777892181658507,0.990605372480209,-0.04030520590214452,-0.130677030845256,0.053799511010110296,-0.7636627402398745,0.6433699027654303,-0.12572433586390214,-0.6443560425312329,-0.7543200128758808,,0.052531884908513245,0.6518336925502157,-0.3936577608828604,0.9332220222706817,-0.3565865506374353,-0.04407594642790583,-0.27510970929582546,-0.788059260657703,0.5507061371936954,-0.23110885963153002,-0.5018053742200563,-0.8335346791847855,,0.0,0.0,0.045,1.0,0.0,0.0,0.0,1.0,0.0,0.0,0.0,1.0,,0.019037333378670685,-0.19337877532911046,0.2249495411038443,False,,0.06535043690582595,0.5709338053071499,-0.3194649050203448,-0.1675103871366322,-0.486047035374495,-0.8577287156234192,0.7802353729033418,0.46646396109190796,-0.41670629449629226,0.6026383932937889,-0.7390329169976881,0.30109353118619037
15:29:40.830469,,0.16881121789767356,-0.2168080027109789,0.06482487032,-2.5886664312029866,-0.20684614435333712,1.1428760017950805,,0.06265959594232741,0.5705932064065424,-0.3640601271959226,-0.20250011477995006,-0.7530157347258105,-0.6260678930990277,0.7262341133885164,0.3134037996263014,-0.611851347085706,0.656945748189988,-0.5785718292789114,0.4834014090794025,,-0.005245472389843041,0.2788964090098876,-0.06830867542260717,-0.9527758288678849,-0.07254326062002028,0.29488251094115403,0.19086965340804893,-0.8983205869956162,0.39571315164266646,0.23619270803357859,0.4333100487107315,0.8697444488775409,,0.04420685651125435,0.7189201446337808,1.1777892181658507,0.990605372480209,-0.04030520590214452,-0.130677030845256,0.053799511010110296,-0.7636627402398745,0.6433699027654303,-0.12572433586390214,-0.6443560425312329,-0.7543200128758808,,0.052540237704340624,0.651827566626342,-0.3936704628822567,0.9332115690631556,-0.3566138631456099,-0.04407629724747186,-0.27513150499989575,-0.7880489043943143,0.5507100682204867,-0.23112512265691848,-0.5018022288663982,-0.8335320634393973,,0.0,0.0,0.045,1.0,0.0,0.0,0.0,1.0,0.0,0.0,0.0,1.0,,0.019037333378670685,-0.19337877532911046,0.2249495411038443,False,,0.06535043690582595,0.5709338053071499,-0.3194649050203448,-0.1675103871366322,-0.486047035374495,-0.8577287156234192,0.7802353729033418,0.46646396109190796,-0.41670629449629226,0.6026383932937889,-0.7390329169976881,0.30109353118619037
15:29:40.943479,,0.16881894063054778,-0.2168080027109789,0.06482487032,-2.5886664312029866,-0.20684614435333712,1.1428760017950805,,0.0669178563472202,0.570833799616231,-0.35815618962150375,-0.2429754022600684,-0.7192137382845146,-0.6509182379987302,0.7168766128666636,0.31892256790870704,-0.6199809009988417,0.6534912974335445,-0.6172681705234199,0.4380971694011419,,-0.005244665961194774,0.27889750944433256,-0.06830705898312973,-0.9527754059409395,-0.07254387849148793,0.29488372541873764,0.1908705256348487,-0.8983208571581314,0.3957121176156979,0.2361937092034794,0.433309385171191,0.8697445075679465,,0.04420685651125435,0.7189201446337808,1.1777892181658507,0.990605372480209,-0.04030520590214452,-0.130677030845256,0.053799511010110296,-0.7636627402398745,0.6433699027654303,-0.12572433586390214,-0.6443560425312329,-0.7543200128758808,,0.052540237704340624,0.651827566626342,-0.3936704628822567,0.9332115690631556,-0.3566138631456099,-0.04407629724747186,-0.27513150499989575,-0.7880489043943143,0.5507100682204867,-0.23112512265691848,-0.5018022288663982,-0.8335320634393973,,0.0,0.0,0.045,1.0,0.0,0.0,0.0,1.0,0.0,0.0,0.0,1.0,,0.019037333378670685,-0.19337877532911046,0.2249495411038443,False,,0.06534028948897591,0.5709495267636224,-0.319441825358014,-0.1675328471206639,-0.48604202985047307,-0.8577271654520898,0.7802459150529453,0.4664400826502405,-0.4167132843340004,0.602618500528184,-0.7390512800314124,0.30108827327728066
15:29:41.060645,,0.16881121789767356,-0.2168080027109789,0.06482487032,-2.5890857842616617,-0.20684614435333712,1.1428760017950805,,0.056981537338852216,0.5685487328859702,-0.3733860833660333,-0.1477086396404669,-0.813477808243953,-0.5625264556180246,0.7366997069833561,0.2889909778933275,-0.6113573066766239,0.6598906723891468,-0.5047158311276485,0.5566023987577913,,-0.00524385953256978,0.2788986098787488,-0.0683054425436769,-0.9527749830134133,-0.07254449636394428,0.294884939895616,0.1908713978606218,-0.8983211273206283,0.3957110835878586,0.23619471037402934,0.4333087216325638,0.869744566257606,,0.04420685651125435,0.7189201446337808,1.1777892181658507,0.990605372480209,-0.04030520590214452,-0.130677030845256,0.053799511010110296,-0.7636627402398745,0.6433699027654303,-0.12572433586390214,-0.6443560425312329,-0.7543200128758808,,0.052540237704340624,0.651827566626342,-0.3936704628822567,0.9332115690631556,-0.3566138631456099,-0.04407629724747186,-0.27513150499989575,-0.7880489043943143,0.5507100682204867,-0.23112512265691848,-0.5018022288663982,-0.8335320634393973,,0.0,0.0,0.045,1.0,0.0,0.0,0.0,1.0,0.0,0.0,0.0,1.0,,0.019037333378670685,-0.19337877532911046,0.2249495411038443,False,,0.06534042945276461,0.5709498523685532,-0.3194414945867132,-0.16713041747972612,-0.486138097154706,-0.8577512308635031,0.7803243289172497,0.46653694644259824,-0.41645794421989457,0.602628712602459,-0.7389269436817272,0.30137286979468647
15:29:41.183407,,0.16881121789767356,-0.2168080027109789,0.06482487032,-2.5890857842616617,-0.20684614435333712,1.1428760017950805,,0.05957885876034428,0.5690283715818863,-0.3699959388307205,-0.1740347767820551,-0.7942315756924588,-0.5821581405799412,0.7325425202488872,0.29066610381650654,-0.6155442080951948,0.6580982848312471,-0.5335816903391704,0.531222389623183,,-0.005243053103968059,0.2788997103131364,-0.06830382610424869,-0.9527745600853069,-0.07254511423738941,0.294886154371789,0.1908722700853684,-0.8983213974831072,0.39571004955914874,0.2361957115452282,0.43330805809485,0.8697446249465196,,0.04420685651125435,0.7189201446337808,1.1777892181658507,0.990605372480209,-0.04030520590214452,-0.130677030845256,0.053799511010110296,-0.7636627402398745,0.6433699027654303,-0.12572433586390214,-0.6443560425312329,-0.7543200128758808,,0.052540237704340624,0.651827566626342,-0.3936704628822567,0.9332115690631556,-0.3566138631456099,-0.04407629724747186,-0.27513150499989575,-0.7880489043943143,0.5507100682204867,-0.23112512265691848,-0.5018022288663982,-0.8335320634393973,,0.0,0.0,0.045,1.0,0.0,0.0,0.0,1.0,0.0,0.0,0.0,1.0,,0.019037333378670685,-0.19337877532911046,0.2249495411038443,False,,0.06534042945276461,0.5709498523685532,-0.3194414945867132,-0.16713041747972612,-0.486138097154706,-0.8577512308635031,0.7803243289172497,0.46653694644259824,-0.41645794421989457,0.602628712602459,-0.7389269436817272,0.30137286979468647
