AlexandreBanks6/RCL_Autocam_Public/optimizationData/Data_62.csv
System Time,q_des,q0,q1,q2,q3,q4,q5,T_des,Tx,Ty,Tz,R00,R01,R02,R10,R11,R12,R20,R21,R22,T_target,Tx,Ty,Tz,R00,R01,R02,R10,R11,R12,R20,R21,R22,worldFrame,Tx,Ty,Tz,R00,R01,R02,R10,R11,R12,R20,R21,R22,ECM_T_PSM_RCM,Tx,Ty,Tz,R00,R01,R02,R10,R11,R12,R20,R21,R22,psm3_T_cam,Tx,Ty,Tz,R00,R01,R02,R10,R11,R12,R20,R21,R22,offset,x,y,z,IK Trigered,ECM_T_PSM3,Tx,Ty,Tz,R00,R01,R02,R10,R11,R12,R20,R21,R22,solverSuccess,q_solverOutput,q0,q1,q2,q3,q4,q5
11:00:07.186062,,-0.31440790077542824,-0.20891536971352143,0.06925558954000001,0.7028357263399004,-0.016365259151171936,-0.002244978201869657,,0.1378989706496362,0.4742462534991294,-0.43192536102737156,0.45757627390453753,-0.39404080202817376,-0.7970920899724406,0.7234311778426279,0.6861925764064682,0.07607285330445758,0.5169828667227452,-0.6114504022581448,0.5990468438223219,,0.03050806620677922,0.2750925956197298,-0.12077627603953534,-0.038275852575517466,0.7970920899724405,0.6026434760395103,-0.9964030902078784,-0.07607285330445757,0.03733366864251114,0.07560318071223987,-0.5990468438223218,0.7971367749468764,,0.08402820212686413,0.7871991096554704,1.1377680784101278,0.9955154581583485,-0.042603977264593126,-0.08446226192218509,0.018341926437523276,-0.7889715436256064,0.6141559061700771,-0.09280380543024219,-0.6129508989064835,-0.7846519287094118,,0.13471369704132194,0.6115918199193087,-0.4623357149500644,0.996840739944861,-0.07101463648789963,-0.03557331289988755,-0.03459239831494253,-0.7913419572671746,0.6103943583023826,-0.07149758852578311,-0.6072353975791008,-0.7912984688232051,,0.0,0.0,0.045,1.0,0.0,0.0,0.0,1.0,0.0,0.0,0.0,1.0,,-0.019501160741314527,-0.1568017533185176,0.2605595468860936,True,,0.10223944040545035,0.5283894503222023,-0.38966263833665427,0.614879547848248,0.7391858108274052,-0.27482263136314994,-0.6318626312769413,0.25325338714157936,-0.7325382837074782,-0.47188214294854863,0.6240729596551585,0.6227842196086351,False,,0.0,0.0,0.0,0.0,0.0,0.0
11:00:14.773394,,0.08261007355557957,-0.7045526428483763,0.09533564805000001,-1.9640400503060405,-0.3495726667865088,0.671664750163929,,0.13778213570580344,0.4742778029201353,-0.43198972940649355,0.20769306007120109,-0.409306902983225,-0.8884432744798855,0.7810206617234736,0.6162316063152965,-0.1013179813216621,0.5889569753040436,-0.672849512557117,0.4476641762441596,,0.015418492418491622,0.2712472472172496,-0.1420759250159586,0.27778339619842385,-0.07354260003396368,0.20659500132221617,0.07754032366615715,0.3448178379367086,0.018487310269856904,-0.20512802538129607,0.03075334803742211,0.2867583452704945,,0.08402820212686413,0.7871991096554704,1.1377680784101278,0.9955154581583485,-0.042603977264593126,-0.08446226192218509,0.018341926437523276,-0.7889715436256064,0.6141559061700771,-0.09280380543024219,-0.6129508989064835,-0.7846519287094118,,0.1347129423749401,0.6115924904371945,-0.4623324584790198,0.996839670797492,-0.0710609556574812,-0.03551072099231187,-0.03466781472691266,-0.7913430597359363,0.6103886503121002,-0.07147596341714316,-0.6072285421394586,-0.7913056832001015,,0.0,0.0,0.045,1.0,0.0,0.0,0.0,1.0,0.0,0.0,0.0,1.0,,-0.019501160741314527,-0.1568017533185176,0.2605595468860936,False,,0.13778213570580344,0.4742778029201353,-0.43198972940649355,-0.8276401505146881,-0.23246698567067026,-0.5108530922185134,0.3957841354112831,0.403626537288742,-0.8248881963957558,0.3979531372068421,-0.8848981404486577,-0.2420507831380434,False,,0.0,0.0,0.0,0.0,0.0,0.0
11:00:14.871117,,0.08261007355557957,-0.7045526428483763,0.09533564805000001,-1.9640400503060405,-0.3495726667865088,0.671664750163929,,0.030250824814983576,0.4879379720578564,-0.3792029453997899,-0.6780118379092285,-0.10341974675699062,0.7277391728055251,-0.6124787389973432,0.626888746642005,-0.4815395036856691,-0.4064108043976863,-0.7722142547987159,-0.4883803873565047,,0.016017924967705575,0.2701577648057812,-0.14155557454725082,0.1585445466985077,-0.3097982040549435,0.2451708918044984,0.3726569780842721,0.20499112731312974,0.018041095302317886,-0.13118868132952552,0.20790328809073844,0.3475425433005237,,0.08402820212686413,0.7871991096554704,1.1377680784101278,0.9955154581583485,-0.042603977264593126,-0.08446226192218509,0.018341926437523276,-0.7889715436256064,0.6141559061700771,-0.09280380543024219,-0.6129508989064835,-0.7846519287094118,,0.1347129423749401,0.6115924904371945,-0.4623324584790198,0.996839670797492,-0.0710609556574812,-0.03551072099231187,-0.03466781472691266,-0.7913430597359363,0.6103886503121002,-0.07147596341714316,-0.6072285421394586,-0.7913056832001015,,0.0,0.0,0.045,1.0,0.0,0.0,0.0,1.0,0.0,0.0,0.0,1.0,,-0.019501160741314527,-0.1568017533185176,0.2605595468860936,True,,0.13778213570580344,0.4742778029201353,-0.43198972940649355,-0.8276401505146881,-0.23246698567067026,-0.5108530922185134,0.3957841354112831,0.403626537288742,-0.8248881963957558,0.3979531372068421,-0.8848981404486577,-0.2420507831380434,False,,-0.6088745603021534,-0.19697222138905773,0.04010866353743985,-2.3448726454195437,0.40564249245168743,0.3612674297394501
11:00:14.970889,,0.08254056895971155,-0.7060971894232212,0.09547694366000001,-2.011426945936356,-0.3934369269703876,0.705536155069606,,0.024350701771255007,0.4628010227216094,-0.37247187736125725,-0.4905513769942928,-0.31984188920399215,0.8105926920713167,-0.7110548839293901,0.6846518147304875,-0.16016505432338168,-0.5037462640746477,-0.6549450805194826,-0.5632820278813835,,0.017374030508766493,0.2696495348735,-0.13986728802421106,0.05681308991810055,-0.4178069424950495,0.2964485183859329,0.5084281458707526,0.08255449659977701,0.01891211288843017,-0.06281071355035825,0.2903346454187208,0.4212276111192131,,0.08402820212686413,0.7871991096554704,1.1377680784101278,0.9955154581583485,-0.042603977264593126,-0.08446226192218509,0.018341926437523276,-0.7889715436256064,0.6141559061700771,-0.09280380543024219,-0.6129508989064835,-0.7846519287094118,,0.1347129423749401,0.6115924904371945,-0.4623324584790198,0.996839670797492,-0.0710609556574812,-0.03551072099231187,-0.03466781472691266,-0.7913430597359363,0.6103886503121002,-0.07147596341714316,-0.6072285421394586,-0.7913056832001015,,0.0,0.0,0.045,1.0,0.0,0.0,0.0,1.0,0.0,0.0,0.0,1.0,,-0.019501160741314527,-0.1568017533185176,0.2605595468860936,True,,0.13746807956348306,0.4743251738310771,-0.43182563413382424,-0.7927868011110752,-0.2284192457931652,-0.565078522097018,0.44286202733795343,0.42110790207913,-0.7915436561230415,0.41876283589424024,-0.8777771829785709,-0.23269057633694207,False,,-0.21955620561781394,-0.35557702238112404,0.08349486514960103,-2.424611420955906,-0.08356382153339863,0.7583452861244834
11:00:15.071369,,0.07782970190643461,-0.7098967739973396,0.09542249948,-2.1475070134765097,-0.43180138694772513,0.7457126382452366,,0.024134018796678258,0.4493427840472227,-0.3706650106115588,-0.3731370832453197,-0.43899422484785683,0.8173449624591839,-0.7496621793426086,0.6616899505683388,0.013153941620666309,-0.5466034522123565,-0.6078243824223397,-0.5759984254860733,,0.018525126767007304,0.2693557922515986,-0.1383968500857879,-0.01770034603804349,-0.47937575424124096,0.3374493211542706,0.5861190342997984,-0.007714833974971802,0.01978432005184011,-0.011731825659654943,0.3378251440228853,0.4792942694048318,,0.08402820212686413,0.7871991096554704,1.1377680784101278,0.9955154581583485,-0.042603977264593126,-0.08446226192218509,0.018341926437523276,-0.7889715436256064,0.6141559061700771,-0.09280380543024219,-0.6129508989064835,-0.7846519287094118,,0.1347129423749401,0.6115924904371945,-0.4623324584790198,0.996839670797492,-0.0710609556574812,-0.03551072099231187,-0.03466781472691266,-0.7913430597359363,0.6103886503121002,-0.07147596341714316,-0.6072285421394586,-0.7913056832001015,,0.0,0.0,0.045,1.0,0.0,0.0,0.0,1.0,0.0,0.0,0.0,1.0,,-0.019501160741314527,-0.1568017533185176,0.2605595468860936,True,,0.1369302192662082,0.47456688347553255,-0.4316533802015775,-0.7079088221154157,-0.2835282771730127,-0.646897840168344,0.49992064936096553,0.4458624251294862,-0.7424863919292825,0.4989433273566003,-0.8490102554745477,-0.17388830376240894,False,,-0.4571687929409142,-0.17027853194818593,0.05944443377672385,-2.268189018504612,0.3134269493834939,0.5956832763954976
11:00:15.179382,,0.039772074302256225,-0.6984671293434873,0.09313065876000001,-2.330973976646979,-0.45071533399948943,0.7836085823157111,,0.13035203854828997,0.5332452216194411,-0.44499832756461727,-0.43197000516248196,-0.6873498320405621,-0.5839110574682903,0.6869326969919435,0.1687706230051594,-0.706852139144974,0.5844017320673346,-0.7064465197056761,0.3992592270097687,,0.025662711652969808,0.2682681145456341,-0.12908602891597679,-0.41682195572492653,-0.7013707855934791,0.578220095038082,0.8685934770533214,-0.49484792319753657,0.025901824100276694,0.2679642304679565,0.5130346518387294,0.8154695685104656,,0.08402820212686413,0.7871991096554704,1.1377680784101278,0.9955154581583485,-0.042603977264593126,-0.08446226192218509,0.018341926437523276,-0.7889715436256064,0.6141559061700771,-0.09280380543024219,-0.6129508989064835,-0.7846519287094118,,0.1347129423749401,0.6115924904371945,-0.4623324584790198,0.996839670797492,-0.0710609556574812,-0.03551072099231187,-0.03466781472691266,-0.7913430597359363,0.6103886503121002,-0.07147596341714316,-0.6072285421394586,-0.7913056832001015,,0.0,0.0,0.045,1.0,0.0,0.0,0.0,1.0,0.0,0.0,0.0,1.0,,-0.019501160741314527,-0.1568017533185176,0.2605595468860936,False,,0.1338725086748096,0.4770904880461767,-0.4298383888702296,-0.6017917377174633,-0.3419197004705636,-0.7217600867636806,0.5578538512184584,0.46675881809979436,-0.6862472487426212,0.5715293387882461,-0.8156145683815383,-0.090150378524259,False,,0.0,0.0,0.0,0.0,0.0,0.0
11:00:15.281707,,-0.011877563160557296,-0.6662633332579712,0.08886716095000001,-2.4913765215903036,-0.45862968063817094,0.8029801798153938,,0.13039470114379698,0.5378778994940075,-0.4377678507111761,-0.4889600830312803,-0.6365849279153668,-0.5963871785619062,0.6607619490449917,0.17605176079694176,-0.7296570593193494,0.5694836994122904,-0.7508431308011574,0.33454881412494736,,0.025663236161345204,0.26826829872287,-0.1290864229969317,-0.4168215856638337,-0.7013687830793309,0.5782227907984888,0.8685934191998506,-0.4948479759819433,0.02590275548226667,0.26796499360865667,0.5130373385443594,0.8154676274457008,,0.08402820212686413,0.7871991096554704,1.1377680784101278,0.9955154581583485,-0.042603977264593126,-0.08446226192218509,0.018341926437523276,-0.7889715436256064,0.6141559061700771,-0.09280380543024219,-0.6129508989064835,-0.7846519287094118,,0.1347129423749401,0.6115924904371945,-0.4623324584790198,0.996839670797492,-0.0710609556574812,-0.03551072099231187,-0.03466781472691266,-0.7913430597359363,0.6103886503121002,-0.07147596341714316,-0.6072285421394586,-0.7913056832001015,,0.0,0.0,0.045,1.0,0.0,0.0,0.0,1.0,0.0,0.0,0.0,1.0,,-0.019501160741314527,-0.1568017533185176,0.2605595468860936,False,,0.1288429154037378,0.4831452842157471,-0.4254689220517258,-0.47984958244042974,-0.3901903154430867,-0.7858090709365538,0.6264704838898646,0.47466688463412443,-0.618244354156618,0.6142305031879679,-0.788950484102874,0.016674009334785245,False,,0.0,0.0,0.0,0.0,0.0,0.0
11:00:15.389063,,-0.057217727865129395,-0.6298815386874994,0.08260996912,-2.6102631137247676,-0.4639953393762601,0.8112789088319252,,0.13105512975039996,0.539918520842888,-0.43274877567004705,-0.5115129377307532,-0.6161540366122956,-0.5989229647462427,0.6488633089332977,0.1799722699156491,-0.7393148100650635,0.5633213300188329,-0.766788227105622,0.30774160251423643,,0.025663773836698614,0.268268523972308,-0.12908682799312005,-0.416792288822906,-0.7013837878967315,0.578225705509364,0.8686140831886331,-0.4948115925772873,0.025904802564481993,0.26794357413929426,0.5130519139279835,0.8154654935377088,,0.08402820212686413,0.7871991096554704,1.1377680784101278,0.9955154581583485,-0.042603977264593126,-0.08446226192218509,0.018341926437523276,-0.7889715436256064,0.6141559061700771,-0.09280380543024219,-0.6129508989064835,-0.7846519287094118,,0.1347129423749401,0.6115924904371945,-0.4623324584790198,0.996839670797492,-0.0710609556574812,-0.03551072099231187,-0.03466781472691266,-0.7913430597359363,0.6103886503121002,-0.07147596341714316,-0.6072285421394586,-0.7913056832001015,,0.0,0.0,0.045,1.0,0.0,0.0,0.0,1.0,0.0,0.0,0.0,1.0,,-0.019501160741314527,-0.1568017533185176,0.2605595468860936,False,,0.12503389629827752,0.4909948829946744,-0.4221620824395336,-0.3909415968116365,-0.41769235411694006,-0.8201815440465707,0.6769144380111748,0.4733184078457706,-0.5636989696694152,0.6236597722271202,-0.7755661042790574,0.09770213098506614,False,,0.0,0.0,0.0,0.0,0.0,0.0
11:00:15.490403,,-0.08659500371867943,-0.6127293489738468,0.07387556710000001,-2.69497243157719,-0.46801958342982697,0.8069124028216026,,0.029766992312028576,0.424359691158879,-0.36632304248646974,0.0959247993686125,-0.7062827730606548,0.7014007965092733,-0.7787966525592696,0.3855817912241456,0.4947751572571685,-0.6198985455932026,-0.593709800116295,-0.5130638034565498,,0.025663787016289106,0.2682685650488804,-0.12908683888678268,-0.41676336178330675,-0.7014007946545445,0.5782259249155197,0.8686348042528017,-0.4947751559488242,0.025905918394681565,0.26792139113391406,0.5130638020998445,0.8154653014439537,,0.08402820212686413,0.7871991096554704,1.1377680784101278,0.9955154581583485,-0.042603977264593126,-0.08446226192218509,0.018341926437523276,-0.7889715436256064,0.6141559061700771,-0.09280380543024219,-0.6129508989064835,-0.7846519287094118,,0.1347129423749401,0.6115924904371945,-0.4623324584790198,0.996839670797492,-0.0710609556574812,-0.03551072099231187,-0.03466781472691266,-0.7913430597359363,0.6103886503121002,-0.07147596341714316,-0.6072285421394586,-0.7913056832001015,,0.0,0.0,0.045,1.0,0.0,0.0,0.0,1.0,0.0,0.0,0.0,1.0,,-0.019501160741314527,-0.1568017533185176,0.2605595468860936,True,,0.12308616032539088,0.5003392133252211,-0.4225245887358284,-0.323638550602023,-0.4452973515408547,-0.8348463075769833,0.7032365690543658,0.4771010564056116,-0.527098577043511,0.6330216556397313,-0.757683872526894,0.15874108732078024,False,,-0.2840677338703593,-0.513316662636445,0.13443273772755035,-2.638348639943492,-0.3004228561977718,0.7415303458846751
11:00:15.585226,,-0.10271234722718597,-0.6075628406809906,0.06670189824,-2.743617386383532,-0.4704341298619671,0.7964262154648738,,0.029421469071084907,0.4279617279736687,-0.36709085132340347,0.09587454056195349,-0.706274512600347,0.7014159859335805,-0.7788031188954848,0.38561537820373987,0.49473880188585573,-0.6198981968603391,-0.5936978128172018,-0.5130780959906311,,0.025664157177817584,0.2682690158824084,-0.12908712541229175,-0.4167349520785555,-0.7014159840796556,0.578227975548933,0.8686554161941068,-0.49473880057820296,0.025909107141102505,0.26789875390992784,0.5130780946345055,0.8154637460816381,,0.08402820212686413,0.7871991096554704,1.1377680784101278,0.9955154581583485,-0.042603977264593126,-0.08446226192218509,0.018341926437523276,-0.7889715436256064,0.6141559061700771,-0.09280380543024219,-0.6129508989064835,-0.7846519287094118,,0.1347129423749401,0.6115924904371945,-0.4623324584790198,0.996839670797492,-0.0710609556574812,-0.03551072099231187,-0.03466781472691266,-0.7913430597359363,0.6103886503121002,-0.07147596341714316,-0.6072285421394586,-0.7913056832001015,,0.0,0.0,0.045,1.0,0.0,0.0,0.0,1.0,0.0,0.0,0.0,1.0,,-0.019501160741314527,-0.1568017533185176,0.2605595468860936,True,,0.12239709804274267,0.5075372010387191,-0.42406213522696945,-0.28405749986798395,-0.4671995296883038,-0.8372788879625346,0.7136488460584709,0.48016544458862054,-0.5100455571244845,0.6403254338913642,-0.7424053779991365,0.1970218095282758,False,,-0.24385209990955806,-0.5247848110188383,0.12254717443357645,-2.660337824005498,-0.33331784336134407,0.6896542662793035
11:00:15.683239,,-0.1136245687784652,-0.5971294285679133,0.061686552230000004,-2.760181832201208,-0.47164140307803715,0.7780956094169678,,0.02920435917250877,0.4306080457414202,-0.3673174689603076,0.0958343387443601,-0.7062639008985698,0.7014321647921248,-0.7788082898294203,0.3856450666777025,0.4947075198944563,-0.6198979167656596,-0.5936911527340505,-0.5130861408719881,,0.025676026028594073,0.2682706228244506,-0.12908370036654965,-0.41671500448219845,-0.7014321635522415,0.5782227264977851,0.8686730221218951,-0.4947075190199889,0.025916167297854065,0.26787269764148114,0.5130861399650338,0.8154672447736738,,0.08402820212686413,0.7871991096554704,1.1377680784101278,0.9955154581583485,-0.042603977264593126,-0.08446226192218509,0.018341926437523276,-0.7889715436256064,0.6141559061700771,-0.09280380543024219,-0.6129508989064835,-0.7846519287094118,,0.13481202487121519,0.6115638648447301,-0.46235861849021687,0.9968472737919726,-0.07095686735254425,-0.0355054321058898,-0.03458817271667701,-0.7913445501380821,0.6103912362369548,-0.07140848018011467,-0.6072387717712613,-0.7913039258187061,,0.0,0.0,0.045,1.0,0.0,0.0,0.0,1.0,0.0,0.0,0.0,1.0,,-0.019501160741314527,-0.1568017533185176,0.2605595468860936,True,,0.12195351711788827,0.512823380923513,-0.42452004250313014,-0.2700362970890298,-0.4826523032560165,-0.833142936365728,0.7238327950287021,0.4688422826360446,-0.5062143803306661,0.6349381726557178,-0.7397524370857359,0.22275513177103728,False,,-0.2586989509729692,-0.5037884044413137,0.11869453313766641,-2.6029222268709566,-0.2749336257107241,0.6353764482569183
11:00:15.779023,,-0.12144769718005465,-0.5883023448926747,0.05800508863000001,-2.766262451552001,-0.4689585737089926,0.7632351492588929,,0.02908550217980098,0.4325415487323475,-0.3674892232592797,0.09579576855390476,-0.7062512614552308,0.7014501596122579,-0.7788132496745559,0.3856752820893147,0.4946761555974631,-0.6198976470825847,-0.5936865608031084,-0.5130917799607128,,0.025687537931868593,0.26827182002066813,-0.12907999965340655,-0.4166945387830419,-0.7014501594819861,0.5782156472628952,0.8686907358391028,-0.4946761555055929,0.02592115487567878,0.2678470952694288,0.5130917798654225,0.8154721078116816,,0.08402820212686413,0.7871991096554704,1.1377680784101278,0.9955154581583485,-0.042603977264593126,-0.08446226192218509,0.018341926437523276,-0.7889715436256064,0.6141559061700771,-0.09280380543024219,-0.6129508989064835,-0.7846519287094118,,0.13481202487121519,0.6115638648447301,-0.46235861849021687,0.9968472737919726,-0.07095686735254425,-0.0355054321058898,-0.03458817271667701,-0.7913445501380821,0.6103912362369548,-0.07140848018011467,-0.6072387717712613,-0.7913039258187061,,0.0,0.0,0.045,1.0,0.0,0.0,0.0,1.0,0.0,0.0,0.0,1.0,,-0.019501160741314527,-0.1568017533185176,0.2605595468860936,True,,0.1217070804263188,0.5166843282431162,-0.4248681258729696,-0.265424450056141,-0.4926510988645952,-0.8287609764581719,0.72932500528208,0.4596147526080116,-0.5067931687141912,0.6305829826301131,-0.7389514016311111,0.23730977233297257,False,,-0.3132055147465356,-0.49863223268015844,0.1273178085564113,-2.5714170748174086,-0.21754673557952958,0.5972792858824791
11:00:15.861348,,-0.13033656271828706,-0.5862944343453763,0.05632639308000001,-2.766891481140014,-0.46278806616019,0.7449539743421114,,0.028813572446049776,0.4333913331368749,-0.36770235537791307,0.0958062917090376,-0.7062484806993932,0.7014515221872156,-0.7788118965922536,0.3856714316076832,0.4946812878693281,-0.619897720753464,-0.5936923701307599,-0.5130849690384441,,0.02569870147742556,0.26827342728487125,-0.12907605127230737,-0.4167047761838789,-0.7014515220230638,0.5782066164348486,0.8686876295247715,-0.4946812877535641,0.025927309715326696,0.2678412428065222,0.5130849689183734,0.8154783153792963,,0.08402820212686413,0.7871991096554704,1.1377680784101278,0.9955154581583485,-0.042603977264593126,-0.08446226192218509,0.018341926437523276,-0.7889715436256064,0.6141559061700771,-0.09280380543024219,-0.6129508989064835,-0.7846519287094118,,0.13481202487121519,0.6115638648447301,-0.46235861849021687,0.9968472737919726,-0.07095686735254425,-0.0355054321058898,-0.03458817271667701,-0.7913445501380821,0.6103912362369548,-0.07140848018011467,-0.6072387717712613,-0.7913039258187061,,0.0,0.0,0.045,1.0,0.0,0.0,0.0,1.0,0.0,0.0,0.0,1.0,,-0.019501160741314527,-0.1568017533185176,0.2605595468860936,True,,0.12115226861237788,0.5183830852901068,-0.4252972827983841,-0.26683913813100263,-0.5016981728172881,-0.8228583217986547,0.7282180255961762,0.4543006912370762,-0.5131368132752917,0.6312649060088091,-0.7361452474432674,0.24412044795219462,True,,-0.25627774245354695,-0.5131355380017273,0.11426107947160014,-2.6041226727279305,-0.286629807128886,0.5897768421167521
11:00:15.963357,,-0.1386076096265815,-0.5820700994631756,0.05631602276000001,-2.763117303611936,-0.45675170007983973,0.724054398203583,,0.02846646534355267,0.4334982930212501,-0.36754602460624963,0.0958175156855181,-0.7062450507681471,0.7014534424702418,-0.7788104532991881,0.3856676518907872,0.49468650690812244,-0.6198977992538518,-0.5936989056336082,-0.5130773118446063,,0.02570936232601276,0.2682757112865795,-0.12907174763339227,-0.41671767610853955,-0.701453442304254,0.5781949897957805,0.8686843715025239,-0.49468650679106274,0.025936889421297488,0.267831739442313,0.5130773117231947,0.8154862543715475,,0.08402820212686413,0.7871991096554704,1.1377680784101278,0.9955154581583485,-0.042603977264593126,-0.08446226192218509,0.018341926437523276,-0.7889715436256064,0.6141559061700771,-0.09280380543024219,-0.6129508989064835,-0.7846519287094118,,0.13481202487121519,0.6115638648447301,-0.46235861849021687,0.9968472737919726,-0.07095686735254425,-0.0355054321058898,-0.03458817271667701,-0.7913445501380821,0.6103912362369548,-0.07140848018011467,-0.6072387717712613,-0.7913039258187061,,0.0,0.0,0.045,1.0,0.0,0.0,0.0,1.0,0.0,0.0,0.0,1.0,,-0.019501160741314527,-0.1568017533185176,0.2605595468860936,True,,0.12044769120266552,0.518595530008162,-0.4249877380289274,-0.27163717317962044,-0.5110799946522936,-0.815481750386357,0.728442598769827,0.4445768964542738,-0.5212703362330786,0.6289551863562663,-0.7356280460975488,0.2515288280699782,False,,-0.2958415538549964,-0.5140328523961807,0.12217238185071362,-2.600850585572135,-0.26105431003810964,0.5657571680040854
11:00:16.061557,,-0.1491259718012753,-0.5734824205070379,0.058203421000000005,-2.754520565909091,-0.44950806078341937,0.6900753984260606,,0.027887361984135953,0.43281512469008965,-0.36688285397648324,0.09582932115304392,-0.7062408244378634,0.7014560849437931,-0.7788089351227613,0.3856641126734249,0.4946916562554602,-0.6198978817356108,-0.5937062321494925,-0.513068734310088,,0.025720012258846854,0.2682775648207419,-0.12906742459301015,-0.41672942944751856,-0.7014560848977743,0.5781833130253958,0.8686812182292974,-0.49469165622300615,0.025944290851621338,0.2678236800523809,0.5130687342764284,0.8154942980671136,,0.08402820212686413,0.7871991096554704,1.1377680784101278,0.9955154581583485,-0.042603977264593126,-0.08446226192218509,0.018341926437523276,-0.7889715436256064,0.6141559061700771,-0.09280380543024219,-0.6129508989064835,-0.7846519287094118,,0.13481202487121519,0.6115638648447301,-0.46235861849021687,0.9968472737919726,-0.07095686735254425,-0.0355054321058898,-0.03458817271667701,-0.7913445501380821,0.6103912362369548,-0.07140848018011467,-0.6072387717712613,-0.7913039258187061,,0.0,0.0,0.045,1.0,0.0,0.0,0.0,1.0,0.0,0.0,0.0,1.0,,-0.019501160741314527,-0.1568017533185176,0.2605595468860936,True,,0.11927924413439843,0.5172281379605161,-0.4236643902919264,-0.2803855267343559,-0.5269070614054332,-0.8023421371453635,0.7310523772841326,0.4244630792112029,-0.5342223470183203,0.6220501411181548,-0.7363423409173451,0.2661833558043186,False,,-0.23705214603920755,-0.48349316337407416,0.1067116444157409,-2.5567948666143274,-0.24570903423161436,0.6034972905334016
11:00:16.164049,,-0.15993007509231538,-0.5672038386802933,0.06221543855000001,-2.741310944560817,-0.4379718944965277,0.6555741054269726,,0.027116765432514206,0.4310975211076543,-0.36597973131033557,0.09582978842519872,-0.706240391701533,0.7014564567951791,-0.7788088750295212,0.38566415979508895,0.49469171412587837,-0.619897884998516,-0.5937067162992292,-0.513068170125134,,0.025719677135377345,0.2682780159764758,-0.12906718775068318,-0.4167312044953565,-0.701456456760874,0.5781815825244856,0.8686811170923335,-0.4946917141016852,0.025946574119546956,0.26782124618717984,0.513068170100042,0.8154954523620161,,0.08402820212686413,0.7871991096554704,1.1377680784101278,0.9955154581583485,-0.042603977264593126,-0.08446226192218509,0.018341926437523276,-0.7889715436256064,0.6141559061700771,-0.09280380543024219,-0.6129508989064835,-0.7846519287094118,,0.13481202487121519,0.6115638648447301,-0.46235861849021687,0.9968472737919726,-0.07095686735254425,-0.0355054321058898,-0.03458817271667701,-0.7913445501380821,0.6103912362369548,-0.07140848018011467,-0.6072387717712613,-0.7913039258187061,,0.0,0.0,0.045,1.0,0.0,0.0,0.0,1.0,0.0,0.0,0.0,1.0,,-0.019501160741314527,-0.1568017533185176,0.2605595468860936,True,,0.11773844379158932,0.5137924886098264,-0.42185829435329014,-0.2943915415177708,-0.5406548217696076,-0.7880520185749573,0.7293194123231254,0.4057854590237371,-0.5508460366141763,0.6175976158401537,-0.7369060489249424,0.27485025007518005,False,,-0.33475103631692277,-0.5131332862221892,0.13459777398568806,-2.5932857651927312,-0.23821638944858647,0.588450585024298
11:00:16.263739,,-0.1712516014859285,-0.5618442620655816,0.06825096479000001,-2.7239077926257895,-0.42415532324594807,0.6187461152434337,,0.026126595987949655,0.42843710800791096,-0.36476995550107283,0.09583083721797142,-0.7062391626064562,0.7014575509886782,-0.7788087401495501,0.38566444738164296,0.49469170226766723,-0.6198978923216087,-0.5937079915469754,-0.5130666855960184,,0.025719331095996258,0.26827803666715055,-0.12906693150969523,-0.4167318330604416,-0.701457550963577,0.5781798019982161,0.868681120718185,-0.494691702249965,0.025946679195256228,0.267820256422687,0.5130666855776587,0.8154967114148735,,0.08402820212686413,0.7871991096554704,1.1377680784101278,0.9955154581583485,-0.042603977264593126,-0.08446226192218509,0.018341926437523276,-0.7889715436256064,0.6141559061700771,-0.09280380543024219,-0.6129508989064835,-0.7846519287094118,,0.13481202487121519,0.6115638648447301,-0.46235861849021687,0.9968472737919726,-0.07095686735254425,-0.0355054321058898,-0.03458817271667701,-0.7913445501380821,0.6103912362369548,-0.07140848018011467,-0.6072387717712613,-0.7913039258187061,,0.0,0.0,0.045,1.0,0.0,0.0,0.0,1.0,0.0,0.0,0.0,1.0,,-0.019501160741314527,-0.1568017533185176,0.2605595468860936,True,,0.11575862054183363,0.5084716398816422,-0.4194387688737396,-0.31268227607222715,-0.5534232372147421,-0.7719796077235765,0.7255380833517724,0.3853864183125526,-0.5701506802473001,0.6130450911935665,-0.7383766173782712,0.2810261323658248,False,,-0.31085116433234083,-0.5263773651826568,0.1299894485286616,-2.6267828494244916,-0.28704929371012716,0.5836647470960932
11:00:16.372575,,-0.18298243272187553,-0.5539052926708787,0.07578629856,-2.7046175519267233,-0.4099363275900118,0.5808875966426574,,0.12384784029125769,0.5460421978230079,-0.43020325532184295,-0.5853886596780496,-0.5859425560024356,-0.5603493893863625,0.6066331100219085,0.14197625169122463,-0.7822013895288459,0.537881387431731,-0.7978183157969253,0.27234086735830443,,0.025719331095996258,0.26827803666715055,-0.1290669315096952,-0.4167318330604416,-0.701457550963577,0.5781798019982161,0.868681120718185,-0.494691702249965,0.025946679195256228,0.267820256422687,0.5130666855776587,0.8154967114148735,,0.08402820212686413,0.7871991096554704,1.1377680784101278,0.9955154581583485,-0.042603977264593126,-0.08446226192218509,0.018341926437523276,-0.7889715436256064,0.6141559061700771,-0.09280380543024219,-0.6129508989064835,-0.7846519287094118,,0.13481202487121519,0.6115638648447301,-0.46235861849021687,0.9968472737919726,-0.07095686735254425,-0.0355054321058898,-0.03458817271667701,-0.7913445501380821,0.6103912362369548,-0.07140848018011467,-0.6072387717712613,-0.7913039258187061,,0.0,0.0,0.045,1.0,0.0,0.0,0.0,1.0,0.0,0.0,0.0,1.0,,-0.019501160741314527,-0.1568017533185176,0.2605595468860936,False,,0.11337153462505659,0.501941922818877,-0.4161736168173443,-0.33231336541353995,-0.5653527277828927,-0.7549464354217255,0.7231631264382818,0.36111837217793696,-0.588751742108307,0.6054774312288911,-0.7415994973461075,0.2888377845927781,False,,0.0,0.0,0.0,0.0,0.0,0.0
11:00:16.479512,,-0.19783324803900926,-0.5460512733377924,0.08306755949000001,-2.6800853979942145,-0.3910223805382475,0.5387209906410695,,0.11714742377322812,0.5493965975057953,-0.431855481618188,-0.6462233241041635,-0.5940108377389844,-0.4791101543824722,0.5670792688515903,0.046362632545598324,-0.8223573488102285,0.5107019857240729,-0.8031199355962176,0.3068906170371074,,0.025719833790897532,0.2682773599338803,-0.12906728676015594,-0.4167291705101546,-0.7014569932018044,0.5781823977763572,0.8686812724605899,-0.4946916154505516,0.02594325429450739,0.2678239072345565,0.5130675318663449,0.8154949800105507,,0.08402820212686413,0.7871991096554704,1.1377680784101278,0.9955154581583485,-0.042603977264593126,-0.08446226192218509,0.018341926437523276,-0.7889715436256064,0.6141559061700771,-0.09280380543024219,-0.6129508989064835,-0.7846519287094118,,0.13481202487121519,0.6115638648447301,-0.46235861849021687,0.9968472737919726,-0.07095686735254425,-0.0355054321058898,-0.03458817271667701,-0.7913445501380821,0.6103912362369548,-0.07140848018011467,-0.6072387717712613,-0.7913039258187061,,0.0,0.0,0.045,1.0,0.0,0.0,0.0,1.0,0.0,0.0,0.0,1.0,,-0.019501160741314527,-0.1568017533185176,0.2605595468860936,False,,0.11081089521905414,0.49627546246520005,-0.4132644885559795,-0.35505259667137035,-0.5744489807386686,-0.7375269636597852,0.7189834227138066,0.33643731058907045,-0.6081716648334853,0.597495181118356,-0.7462025894969128,0.2935663536041637,False,,0.0,0.0,0.0,0.0,0.0,0.0
11:00:16.599889,,-0.2084288375424453,-0.5416029792022391,0.08808420179000001,-2.66603707052859,-0.3800227801251647,0.5166836802237167,,0.1165108520274552,0.5514314899875602,-0.427301076832271,-0.696242771090956,-0.5698276687285773,-0.43651166267918073,0.5270000822991435,0.007095405899218849,-0.8498356126168297,0.48735707336642153,-0.8217335840565854,0.2953591032510022,,0.025720001355769177,0.2682771343560601,-0.1290674051770016,-0.4167282829958681,-0.7014568072799686,0.5781832630341558,0.8686813230370815,-0.4946915865245439,0.02594211266050961,0.26782512417392157,0.5130678139616027,0.8154944028739871,,0.08402820212686413,0.7871991096554704,1.1377680784101278,0.9955154581583485,-0.042603977264593126,-0.08446226192218509,0.018341926437523276,-0.7889715436256064,0.6141559061700771,-0.09280380543024219,-0.6129508989064835,-0.7846519287094118,,0.13481202487121519,0.6115638648447301,-0.46235861849021687,0.9968472737919726,-0.07095686735254425,-0.0355054321058898,-0.03458817271667701,-0.7913445501380821,0.6103912362369548,-0.07140848018011467,-0.6072387717712613,-0.7913039258187061,,0.0,0.0,0.045,1.0,0.0,0.0,0.0,1.0,0.0,0.0,0.0,1.0,,-0.019501160741314527,-0.1568017533185176,0.2605595468860936,False,,0.10855934226815724,0.49179561292683077,-0.41101414554346927,-0.3713105863088211,-0.5770966523540911,-0.7273842879363708,0.7161281653415074,0.3206430911907453,-0.6199584331842339,0.5910066829568059,-0.7510975049308478,0.29421699268915247,False,,0.0,0.0,0.0,0.0,0.0,0.0
11:00:16.724374,,-0.21059120274722815,-0.5391394274153615,0.09076881838,-2.6513597134749527,-0.36942560411743863,0.4966412412403043,,0.11488869156628574,0.5509436944050687,-0.43098626880060253,-0.630000581820367,-0.6035015072146908,-0.48875883387985575,0.5771761229134523,0.05721283030342692,-0.8146130462908551,0.5195834774553503,-0.7953066219001754,0.31228254372785125,,0.02571964439793791,0.2682767245817648,-0.12906712954084276,-0.4167277650739766,-0.7014586238213236,0.5781814324753836,0.8686814314175741,-0.49469150491482233,0.025940039544414595,0.2678255785075542,0.5130654090931742,0.8154957666752727,,0.08402820212686413,0.7871991096554704,1.1377680784101278,0.9955154581583485,-0.042603977264593126,-0.08446226192218509,0.018341926437523276,-0.7889715436256064,0.6141559061700771,-0.09280380543024219,-0.6129508989064835,-0.7846519287094118,,0.13476722099839372,0.6115883973603566,-0.4623324771344204,0.9968452069282863,-0.07095485174362198,-0.03556743507962096,-0.03454837532454953,-0.7913426533261574,0.6103959491913026,-0.07145658252768937,-0.6072414791833293,-0.7912975058552287,,0.0,0.0,0.045,1.0,0.0,0.0,0.0,1.0,0.0,0.0,0.0,1.0,,-0.019501160741314527,-0.1568017533185176,0.2605595468860936,False,,0.10773960197260572,0.4892310187282223,-0.40977264817872633,-0.38630341395048473,-0.5837853044234547,-0.714117910928871,0.7102781191430751,0.30565589831445183,-0.6340973626282964,0.5884510734434735,-0.75217630258125,0.2965740109962839,False,,0.0,0.0,0.0,0.0,0.0,0.0
11:00:16.848785,,-0.2165299843275068,-0.5355174656973501,0.09069233727,-2.6352146207159515,-0.3566821646144769,0.47764640688306326,,0.1184537731232223,0.5483044601574729,-0.4309202785340299,-0.6412497828553784,-0.600489600332127,-0.4777143036176469,0.5696201305492052,0.04461297354585079,-0.8206964051733768,0.5141319119263424,-0.7983870755995242,0.31344290493581645,,0.02570699980699584,0.2682739685501321,-0.1290644647970418,-0.41668685942189365,-0.7014803278050799,0.5781845768478149,0.8687083272727176,-0.49464446114186067,0.025936329844548855,0.2678019740951249,0.5130810859710637,0.8154936516654179,,0.08402820212686413,0.7871991096554704,1.1377680784101278,0.9955154581583485,-0.042603977264593126,-0.08446226192218509,0.018341926437523276,-0.7889715436256064,0.6141559061700771,-0.09280380543024219,-0.6129508989064835,-0.7846519287094118,,0.13476722099839372,0.6115883973603566,-0.4623324771344204,0.9968452069282863,-0.07095485174362198,-0.03556743507962096,-0.03454837532454953,-0.7913426533261574,0.6103959491913026,-0.07145658252768937,-0.6072414791833293,-0.7912975058552287,,0.0,0.0,0.045,1.0,0.0,0.0,0.0,1.0,0.0,0.0,0.0,1.0,,-0.019501160741314527,-0.1568017533185176,0.2605595468860936,False,,0.10696578459012072,0.48930661635999234,-0.4094685151245569,-0.402835122271628,-0.5857712163327775,-0.7032751569481331,0.7047693069352041,0.29173051365044544,-0.6466788471933497,0.5839726776712032,-0.756151697426691,0.295314277020701,False,,0.0,0.0,0.0,0.0,0.0,0.0
11:00:16.970928,,-0.22022917337426035,-0.5318568903149677,0.08759420417000001,-2.623682411602379,-0.3493043838496043,0.4528984461561089,,0.11275925177124874,0.5512892385883292,-0.43143903894913654,-0.6375809667991508,-0.6038693553701002,-0.47836420478581004,0.5720705016310025,0.044762102432241754,-0.8189821092975711,0.5159707859357093,-0.7958254556312868,0.3169163805014518,,0.025694535919823173,0.2682710280063559,-0.12906192945522854,-0.41661613182318014,-0.7015188419239636,0.5781888046689678,0.8687559807438775,-0.49456094386674754,0.02593259411539256,0.2677574001603176,0.5131089240516784,0.8154907647742523,,0.08402820212686413,0.7871991096554704,1.1377680784101278,0.9955154581583485,-0.042603977264593126,-0.08446226192218509,0.018341926437523276,-0.7889715436256064,0.6141559061700771,-0.09280380543024219,-0.6129508989064835,-0.7846519287094118,,0.13476722099839372,0.6115883973603566,-0.4623324771344204,0.9968452069282863,-0.07095485174362198,-0.03556743507962096,-0.03454837532454953,-0.7913426533261574,0.6103959491913026,-0.07145658252768937,-0.6072414791833293,-0.7912975058552287,,0.0,0.0,0.045,1.0,0.0,0.0,0.0,1.0,0.0,0.0,0.0,1.0,,-0.019501160741314527,-0.1568017533185176,0.2605595468860936,False,,0.10707919927521287,0.4924684275935287,-0.4102901940507383,-0.41559228695559297,-0.5954942037313771,-0.6875097849088068,0.7018785207662948,0.2707828101892555,-0.6588195593581962,0.578489060492883,-0.7563486782088955,0.3054293434850664,False,,0.0,0.0,0.0,0.0,0.0,0.0
11:00:17.085206,,-0.2237430168320325,-0.5286442334392903,0.08192941687000001,-2.5855212832629215,-0.3290490221133177,0.4108097092769574,,0.10738003233205098,0.5547550106833663,-0.4301170327107468,-0.6816783376489086,-0.5863656665217026,-0.4375956456647848,0.5384021374122238,0.002962767710726749,-0.8426828350200571,0.49541677647226406,-0.8100410650899443,0.31368087359253977,,0.02568228408218008,0.26826807859495405,-0.12905953450833663,-0.41654488229210457,-0.7015449599079238,0.5782084448504463,0.8688037380092017,-0.4944767051910488,0.025938933612783904,0.2677132818704006,0.5131543945865801,0.8154766345266952,,0.08402820212686413,0.7871991096554704,1.1377680784101278,0.9955154581583485,-0.042603977264593126,-0.08446226192218509,0.018341926437523276,-0.7889715436256064,0.6141559061700771,-0.09280380543024219,-0.6129508989064835,-0.7846519287094118,,0.13476722099839372,0.6115883973603566,-0.4623324771344204,0.9968452069282863,-0.07095485174362198,-0.03556743507962096,-0.03454837532454953,-0.7913426533261574,0.6103959491913026,-0.07145658252768937,-0.6072414791833293,-0.7912975058552287,,0.0,0.0,0.045,1.0,0.0,0.0,0.0,1.0,0.0,0.0,0.0,1.0,,-0.019501160741314527,-0.1568017533185176,0.2605595468860936,False,,0.10776547033640539,0.4976911582122683,-0.4122650901949861,-0.4521692083808319,-0.6024335215704162,-0.657736162211353,0.6884821139853488,0.23307285422203933,-0.6867819328921355,0.5670409030347966,-0.763381226329977,0.3093763364777978,False,,0.0,0.0,0.0,0.0,0.0,0.0
11:00:17.211942,,-0.22789012438549106,-0.5228753519822447,0.07702814438000001,-2.5366666519272423,-0.29497708912645154,0.3657138694429249,,0.0749683874585953,0.5679006311611968,-0.42382524041573166,-0.8806034013163386,-0.4013411176105106,-0.25191855212596476,0.3214689398312189,-0.11540865282190231,-0.9398609277853962,0.3481312544341403,-0.9086287196478986,0.23064795580523104,,0.02567090290114513,0.2682652925715276,-0.1290577897703549,-0.416472634888161,-0.701567976776264,0.5782325641454107,0.8688514299709017,-0.4943925288443803,0.025946096954689107,0.26767091159413664,0.5132040347383509,0.815459307201436,,0.08402820212686413,0.7871991096554704,1.1377680784101278,0.9955154581583485,-0.042603977264593126,-0.08446226192218509,0.018341926437523276,-0.7889715436256064,0.6141559061700771,-0.09280380543024219,-0.6129508989064835,-0.7846519287094118,,0.13476722099839372,0.6115883973603566,-0.4623324771344204,0.9968452069282863,-0.07095485174362198,-0.03556743507962096,-0.03454837532454953,-0.7913426533261574,0.6103959491913026,-0.07145658252768937,-0.6072414791833293,-0.7912975058552287,,0.0,0.0,0.045,1.0,0.0,0.0,0.0,1.0,0.0,0.0,0.0,1.0,,-0.019501160741314527,-0.1568017533185176,0.2605595468860936,False,,0.10828863964671655,0.5019266521679301,-0.4137062151082158,-0.49691780556944537,-0.6046505094959018,-0.6224712490343579,0.6670906628010407,0.192620948895719,-0.7196438130423837,0.5550340008609521,-0.772848582461571,0.3076399299106431,False,,0.0,0.0,0.0,0.0,0.0,0.0
11:00:17.332570,,-0.23400652882187686,-0.5167048884157392,0.07342316189,-2.485295902239511,-0.24896656544733703,0.3205602548784301,,0.022479227925319686,0.42701803640105374,-0.3625032668009748,0.09527690048664214,-0.7061795683596066,0.7015929941676287,-0.7788798560193224,0.38601227383328385,0.49430829887568906,-0.6198939281207537,-0.5935528128831483,-0.5132509875270813,,0.025658997287113017,0.26826232229866515,-0.12905565085944187,-0.41640075593057246,-0.7015929923024511,0.5782539911626738,0.8688991762055411,-0.4943082975615757,0.02595232617955409,0.2676277764597708,0.513250986162609,0.8154439239784238,,0.08402820212686413,0.7871991096554704,1.1377680784101278,0.9955154581583485,-0.042603977264593126,-0.08446226192218509,0.018341926437523276,-0.7889715436256064,0.6141559061700771,-0.09280380543024219,-0.6129508989064835,-0.7846519287094118,,0.13476722099839372,0.6115883973603566,-0.4623324771344204,0.9968452069282863,-0.07095485174362198,-0.03556743507962096,-0.03454837532454953,-0.7913426533261574,0.6103959491913026,-0.07145658252768937,-0.6072414791833293,-0.7912975058552287,,0.0,0.0,0.045,1.0,0.0,0.0,0.0,1.0,0.0,0.0,0.0,1.0,,-0.019501160741314527,-0.1568017533185176,0.2605595468860936,True,,0.10854521191819427,0.5055897835106565,-0.4149452389231116,-0.5546897841571742,-0.6034285693754149,-0.5728814929924055,0.6315384001063546,0.14294713289665162,-0.7620533881479256,0.5417365527106079,-0.7844998909229798,0.3017969989894854,False,,-0.3780054080435708,-0.5180411479886763,0.1313860030373164,-2.556787108997049,-0.17813469721639097,0.3953988248651532
11:00:17.448517,,-0.24732824302991416,-0.5080863185281047,0.07085780398000001,-2.436231594374494,-0.1869932070224072,0.27943984501759467,,0.022213224518451646,0.4283040032005229,-0.3628418574389569,0.09521464030929058,-0.7061835832495102,0.7015974052258563,-0.778887833720654,0.38604380563451374,0.49427110234482513,-0.6198934704872436,-0.5935275283254382,-0.5132807792691803,,0.025659390084801656,0.26826212880424577,-0.12905592070076483,-0.4163704142056523,-0.7015974048285594,0.5782704891134376,0.8689200376199158,-0.4942711020649318,0.02596237187878017,0.26760725936391905,0.5132807789785222,0.8154319073560856,,0.08402820212686413,0.7871991096554704,1.1377680784101278,0.9955154581583485,-0.042603977264593126,-0.08446226192218509,0.018341926437523276,-0.7889715436256064,0.6141559061700771,-0.09280380543024219,-0.6129508989064835,-0.7846519287094118,,0.13476722099839372,0.6115883973603566,-0.4623324771344204,0.9968452069282863,-0.07095485174362198,-0.03556743507962096,-0.03454837532454953,-0.7913426533261574,0.6103959491913026,-0.07145658252768937,-0.6072414791833293,-0.7912975058552287,,0.0,0.0,0.045,1.0,0.0,0.0,0.0,1.0,0.0,0.0,0.0,1.0,,-0.019501160741314527,-0.1568017533185176,0.2605595468860936,True,,0.10801349602079482,0.5081561451417304,-0.4156267680777783,-0.6105947278793613,-0.5958891399706073,-0.5216226712394882,0.5877996828921658,0.10039876001785059,-0.8027525283540051,0.5307217831197422,-0.7967661023487185,0.2889604939610836,True,,-0.3893909445571737,-0.5141516915598245,0.13093467581125504,-2.534974393279516,-0.14898424732320187,0.3607361866626219
11:00:17.564304,,-0.2668358662702053,-0.4996994306266969,0.07009688175,-2.4202961781448304,-0.1670061282230251,0.267175062516511,,0.021368783254965648,0.42897990075028536,-0.3627550582277596,0.09517850367413137,-0.706220666384962,0.7015649811736142,-0.778892462655025,0.3860376232661269,0.49426863651483116,-0.6198932037516977,-0.5934874251353774,-0.5133274706740678,,0.025661539527044263,0.26826083920593863,-0.1290573995591255,-0.41633839524239064,-0.7015649784335103,0.5783328746242724,0.8689219985670491,-0.494268634584365,0.02594358226898877,0.26765069258612273,0.5133274686691636,0.8153882565112605,,0.08402820212686413,0.7871991096554704,1.1377680784101278,0.9955154581583485,-0.042603977264593126,-0.08446226192218509,0.018341926437523276,-0.7889715436256064,0.6141559061700771,-0.09280380543024219,-0.6129508989064835,-0.7846519287094118,,0.13476722099839372,0.6115883973603566,-0.4623324771344204,0.9968452069282863,-0.07095485174362198,-0.03556743507962096,-0.03454837532454953,-0.7913426533261574,0.6103959491913026,-0.07145658252768937,-0.6072414791833293,-0.7912975058552287,,0.0,0.0,0.045,1.0,0.0,0.0,0.0,1.0,0.0,0.0,0.0,1.0,,-0.019501160741314527,-0.1568017533185176,0.2605595468860936,True,,0.1063174383234827,0.5095088476359133,-0.41545892796478057,-0.6281625651331071,-0.5824485334162173,-0.5159122965065797,0.5828191587281206,0.08706808824472445,-0.8079238678420478,0.5154935692953317,-0.8081910998833796,0.28476925059502545,True,,-0.3964201585540101,-0.5102130237194357,0.13017961453981297,-2.512164566362317,-0.12661786703365216,0.33908864460780236
11:00:17.679393,,-0.2667277480099661,-0.5005412085099874,0.07179891052000001,-2.415892971028739,-0.15989663039505697,0.2635719690172968,,0.021200537528459032,0.42817875565451213,-0.3624831211202029,0.09515636427869359,-0.7062428318802216,0.7015456711826149,-0.7788952980895644,0.3860342255497447,0.49426682198806077,-0.619893039928042,-0.5934632584431945,-0.5133556076705085,,0.025663465998167663,0.2682591280648421,-0.1290587185036481,-0.41630574627435424,-0.7015456670323668,0.578379798104445,0.8689239552159163,-0.4942668190640459,0.02591254122065123,0.26769511358849124,0.513355604633567,0.8153559575549953,,0.08402820212686413,0.7871991096554704,1.1377680784101278,0.9955154581583485,-0.042603977264593126,-0.08446226192218509,0.018341926437523276,-0.7889715436256064,0.6141559061700771,-0.09280380543024219,-0.6129508989064835,-0.7846519287094118,,0.13476722099839372,0.6115883973603566,-0.4623324771344204,0.9968452069282863,-0.07095485174362198,-0.03556743507962096,-0.03454837532454953,-0.7913426533261574,0.6103959491913026,-0.07145658252768937,-0.6072414791833293,-0.7912975058552287,,0.0,0.0,0.045,1.0,0.0,0.0,0.0,1.0,0.0,0.0,0.0,1.0,,-0.019501160741314527,-0.1568017533185176,0.2605595468860936,True,,0.10597602735074119,0.507907987333814,-0.41491809603959295,-0.6337647120776808,-0.5824116485577044,-0.5090569333084384,0.5759926748608815,0.08393986413670002,-0.8131337760266263,0.516308752813374,-0.8085485581169568,0.2822667194964524,False,,-0.3851567725257586,-0.5012783899558784,0.12198184540130172,-2.4975087236516256,-0.11476670012824476,0.3368377644566775
11:00:17.784893,,-0.27334613008317654,-0.500595267640107,0.07474667398000001,-2.411909116971323,-0.15211642522482768,0.2598356059691752,,0.02054063153975287,0.4269139893713352,-0.36197936827450145,0.09513690719059234,-0.7062617435569083,0.7015292712910591,-0.7788977896704974,0.3860316398076314,0.494264915115209,-0.6198928956978151,-0.5934424341546424,-0.5133798546962968,,0.0256646894303973,0.2682570278888369,-0.12905950558682805,-0.41627320540557117,-0.7015292670726827,0.578423109735084,0.8689260235531138,-0.49426491214313706,0.025879532261614796,0.2677389998250424,0.5133798516092845,0.8153262806435742,,0.08402820212686413,0.7871991096554704,1.1377680784101278,0.9955154581583485,-0.042603977264593126,-0.08446226192218509,0.018341926437523276,-0.7889715436256064,0.6141559061700771,-0.09280380543024219,-0.6129508989064835,-0.7846519287094118,,0.13476722099839372,0.6115883973603566,-0.4623324771344204,0.9968452069282863,-0.07095485174362198,-0.03556743507962096,-0.03454837532454953,-0.7913426533261574,0.6103959491913026,-0.07145658252768937,-0.6072414791833293,-0.7912975058552287,,0.0,0.0,0.045,1.0,0.0,0.0,0.0,1.0,0.0,0.0,0.0,1.0,,-0.019501160741314527,-0.1568017533185176,0.2605595468860936,True,,0.1046524499579081,0.5053802593781732,-0.4139135615540072,-0.6395364404742524,-0.5782709304524474,-0.5065529313893901,0.5719585584148146,0.08236326105377739,-0.8161370599872517,0.5136696883811332,-0.8116766746816422,0.2780727009545908,False,,-0.3971120777975867,-0.508974446908519,0.1284059169466105,-2.518141916482768,-0.11614051076332153,0.32887251023522796
11:00:17.900148,,-0.28190291810781726,-0.5005566539757358,0.07692573747,-2.4077155863845694,-0.14473864445995507,0.2576119428466426,,0.09615503332216846,0.5603796371425611,-0.428512898694814,-0.8067398404195131,-0.503654987145775,-0.309034761480142,0.42008565499800965,-0.12103774388329663,-0.8993763989679378,0.41557053835034086,-0.8553838427740095,0.3092242053532954,,0.02566662676794399,0.2682557472049822,-0.12906084404193544,-0.41624170005426436,-0.7015092333854079,0.5784700809443959,0.8689278758773412,-0.49426317014568344,0.02585066919238449,0.26778197399393916,0.5134089072556294,0.8152938735764871,,0.08402820212686413,0.7871991096554704,1.1377680784101278,0.9955154581583485,-0.042603977264593126,-0.08446226192218509,0.018341926437523276,-0.7889715436256064,0.6141559061700771,-0.09280380543024219,-0.6129508989064835,-0.7846519287094118,,0.13470267071344194,0.6115932181109756,-0.4623309224369374,0.9968394513519596,-0.07103779440301315,-0.0355631831347971,-0.034617112978924475,-0.7913422403928054,0.610392590108284,-0.07150359233862494,-0.607232319904376,-0.7913002880994175,,0.0,0.0,0.045,1.0,0.0,0.0,0.0,1.0,0.0,0.0,0.0,1.0,,-0.019501160741314527,-0.1568017533185176,0.2605595468860936,False,,0.10328053587726066,0.5035940276938596,-0.4132402423003319,-0.6453990814711094,-0.5717862148356911,-0.5064785781848247,0.569110236041201,0.08230833361668283,-0.8181313326418771,0.5094836257127182,-0.8162633537903794,0.27228766477662025,False,,0.0,0.0,0.0,0.0,0.0,0.0
11:00:17.958721,,-0.28765635409911455,-0.5005566539757358,0.07879109878000001,-2.4068768802672187,-0.14178753215400605,0.25838941338364496,,0.1171185903005905,0.548474518291614,-0.4334183860471376,-0.6647750588259541,-0.5727629212905032,-0.4796006225576839,0.551987992015358,0.05598432984683505,-0.831970559264241,0.5033720073998971,-0.8178070620912795,0.27894126865673396,,0.025666896683354822,0.2682548342732032,-0.12906741754954626,-0.41621291089724555,-0.7014802846377559,0.578525904930278,0.8689280098215058,-0.49426409394224663,0.025828642928150986,0.2678262984818732,0.5134475779594305,0.8152549651106185,,0.08402820212686413,0.7871991096554704,1.1377680784101278,0.9955154581583485,-0.042603977264593126,-0.08446226192218509,0.018341926437523276,-0.7889715436256064,0.6141559061700771,-0.09280380543024219,-0.6129508989064835,-0.7846519287094118,,0.13470267071344194,0.6115932181109756,-0.4623309224369374,0.9968394513519596,-0.07103779440301315,-0.0355631831347971,-0.034617112978924475,-0.7913422403928054,0.610392590108284,-0.07150359233862494,-0.607232319904376,-0.7913002880994175,,0.0,0.0,0.045,1.0,0.0,0.0,0.0,1.0,0.0,0.0,0.0,1.0,,-0.019501160741314527,-0.1568017533185176,0.2605595468860936,False,,0.102353708898519,0.5021454444575927,-0.4126670623389967,-0.6472268124516152,-0.5675282891727994,-0.5089293607489328,0.5690838453288308,0.08447454045276565,-0.8179288654895641,0.507189343568527,-0.8190089700387228,0.26829699358479075,False,,0.0,0.0,0.0,0.0,0.0,0.0
11:00:18.076824,,-0.29039020153659,-0.5004717039141193,0.07924609657000001,-2.4051994680325173,-0.13803157103734365,0.2568991821540217,,0.08177633743410034,0.5669491336353771,-0.4261656453122232,-0.8737065245324112,-0.4224079592198487,-0.241264222331488,0.3290968116274832,-0.14802177117885645,-0.9326225623657726,0.3582348357797157,-0.894237703994188,0.2683406998371347,,0.025739294178574932,0.2681849742591961,-0.12912695339733898,-0.4159017742642521,-0.7013397744005498,0.5789192896545852,0.8689410406405478,-0.49425857738926904,0.025480099964373226,0.268265709662837,0.5136441262658986,0.8149862142994645,,0.08402820212686413,0.7871991096554704,1.1377680784101278,0.9955154581583485,-0.042603977264593126,-0.08446226192218509,0.018341926437523276,-0.7889715436256064,0.6141559061700771,-0.09280380543024219,-0.6129508989064835,-0.7846519287094118,,0.13470267071344194,0.6115932181109756,-0.4623309224369374,0.9968394513519596,-0.07103779440301315,-0.0355631831347971,-0.034617112978924475,-0.7913422403928054,0.610392590108284,-0.07150359233862494,-0.607232319904376,-0.7913002880994175,,0.0,0.0,0.045,1.0,0.0,0.0,0.0,1.0,0.0,0.0,0.0,1.0,,-0.019501160741314527,-0.1568017533185176,0.2605595468860936,False,,0.1019494574909905,0.5016999992407896,-0.4125144077528843,-0.6490994169175818,-0.5661997369072503,-0.5080234294630677,0.5674313547022628,0.08441155922309357,-0.8190826248738777,0.5066474165117303,-0.8199344770136742,0.26648798987253186,False,,0.0,0.0,0.0,0.0,0.0,0.0
11:00:18.126352,,-0.2940430541860982,-0.4997998261540618,0.07844498935000001,-2.4020543200924522,-0.13306833670461116,0.2547971048584942,,0.11685620065644842,0.5486479196678946,-0.43340749629782077,-0.6699856808157849,-0.5701564709222272,-0.47543746819883764,0.5479991084739619,0.05220761401356891,-0.8348480952549109,0.5008154995739966,-0.8198755781852036,0.2774668839373922,,0.025787609636173055,0.26814048634623255,-0.12916917415512058,-0.4156993282472174,-0.7012376377678802,0.5791882911666597,0.8689487198325934,-0.49425629879211763,0.02525997144959305,0.268554321410268,0.5137856744149842,0.8148018716042755,,0.08402820212686413,0.7871991096554704,1.1377680784101278,0.9955154581583485,-0.042603977264593126,-0.08446226192218509,0.018341926437523276,-0.7889715436256064,0.6141559061700771,-0.09280380543024219,-0.6129508989064835,-0.7846519287094118,,0.13470267071344194,0.6115932181109756,-0.4623309224369374,0.9968394513519596,-0.07103779440301315,-0.0355631831347971,-0.034617112978924475,-0.7913422403928054,0.610392590108284,-0.07150359233862494,-0.607232319904376,-0.7913002880994175,,0.0,0.0,0.045,1.0,0.0,0.0,0.0,1.0,0.0,0.0,0.0,1.0,,-0.019501160741314527,-0.1568017533185176,0.2605595468860936,False,,0.1017439526985066,0.5024856683802821,-0.41284840730901656,-0.6538104472214341,-0.5628404683248495,-0.5057099033240028,0.564533173556803,0.08216738547579111,-0.8213104265245617,0.5038196056705145,-0.8224713538962538,0.2640202207446815,False,,0.0,0.0,0.0,0.0,0.0,0.0
11:00:18.232525,,-0.2952632459802257,-0.49917428479124965,0.07721221756,-2.3986994956230494,-0.12743439502961754,0.25194182321760744,,0.09582438450282679,0.5587555858709132,-0.4284271408885742,-0.7922375041949847,-0.5157750939169462,-0.32609168870406174,0.4362163453419125,-0.10500865989950557,-0.8936937290832108,0.4267025158156988,-0.8502642141364505,0.30818132512447616,,0.025781469068865283,0.2681598180133155,-0.1291728816583553,-0.4157598156082061,-0.7012109636488913,0.5791770924398303,0.8689425425854534,-0.4942617993148282,0.025362879296878083,0.2684804976783044,0.5138167011879758,0.814806580833604,,0.08402820212686413,0.7871991096554704,1.1377680784101278,0.9955154581583485,-0.042603977264593126,-0.08446226192218509,0.018341926437523276,-0.7889715436256064,0.6141559061700771,-0.09280380543024219,-0.6129508989064835,-0.7846519287094118,,0.13470267071344194,0.6115932181109756,-0.4623309224369374,0.9968394513519596,-0.07103779440301315,-0.0355631831347971,-0.034617112978924475,-0.7913422403928054,0.610392590108284,-0.07150359233862494,-0.607232319904376,-0.7913002880994175,,0.0,0.0,0.045,1.0,0.0,0.0,0.0,1.0,0.0,0.0,0.0,1.0,,-0.019501160741314527,-0.1568017533185176,0.2605595468860936,False,,0.10196625689491051,0.5036013077531041,-0.41331804378168613,-0.6579392116983422,-0.5621185447928565,-0.5011374415364764,0.560404226878433,0.07906543782985925,-0.8244366313050133,0.5030537706911158,-0.8232687277801423,0.2629933566703087,False,,0.0,0.0,0.0,0.0,0.0,0.0
11:00:18.301368,,-0.30137965041661147,-0.49643271462089994,0.07443815696,-2.393876935448283,-0.11777620930105706,0.24718481797847341,,0.019359543063335247,0.42730104945864905,-0.3621898206932258,0.09479190102764122,-0.7066527008040853,0.7011821845610868,-0.7789419189444098,0.3859465707391579,0.4942618045589653,-0.6198902986906365,-0.593032212431143,-0.5138568016561202,,0.025796293918038858,0.2681371261304691,-0.12919170931954882,-0.41567127795099856,-0.7011819171943194,0.5792758799305497,0.8689458961328238,-0.4942616160927096,0.02525315493907951,0.2686068794047126,0.5138566057181244,0.8147398176591963,,0.08402820212686413,0.7871991096554704,1.1377680784101278,0.9955154581583485,-0.042603977264593126,-0.08446226192218509,0.018341926437523276,-0.7889715436256064,0.6141559061700771,-0.09280380543024219,-0.6129508989064835,-0.7846519287094118,,0.13470267071344194,0.6115932181109756,-0.4623309224369374,0.9968394513519596,-0.07103779440301315,-0.0355631831347971,-0.034617112978924475,-0.7913422403928054,0.610392590108284,-0.07150359233862494,-0.607232319904376,-0.7913002880994175,,0.0,0.0,0.045,1.0,0.0,0.0,0.0,1.0,0.0,0.0,0.0,1.0,,-0.019501160741314527,-0.1568017533185176,0.2605595468860936,True,,0.10210487007428556,0.5062737991749511,-0.4142761894375079,-0.6642686728670572,-0.5588776792698487,-0.4963898365814786,0.5561633021592491,0.07416371571850888,-0.8277572860459425,0.4994291857498504,-0.8259270445292203,0.26156262259059315,True,,-0.40485391459804115,-0.5045582743596456,0.12697188313840926,-2.48588676448641,-0.08799059337376978,0.3048155460579031
11:00:18.404476,,-0.30688595895593357,-0.493922826436777,0.07305112666000001,-2.3888446987441783,-0.10945943825701886,0.2431076417014553,,0.019309342354017697,0.42797369357624876,-0.36241778875778397,0.09484697694743531,-0.7067047794818011,0.7011222472732637,-0.7789348806772063,0.3858794456810662,0.49432530287783116,-0.6198907182950227,-0.5930138346265219,-0.5138775041906668,,0.025838167323970443,0.2680652391787711,-0.12922329371585226,-0.41546337520137283,-0.7011219905214425,0.5794975460441838,0.8689203323239303,-0.494325121855303,0.024887699261032403,0.26901098032989484,0.5138773160080987,0.8145934348814499,,0.08402820212686413,0.7871991096554704,1.1377680784101278,0.9955154581583485,-0.042603977264593126,-0.08446226192218509,0.018341926437523276,-0.7889715436256064,0.6141559061700771,-0.09280380543024219,-0.6129508989064835,-0.7846519287094118,,0.13470267071344194,0.6115932181109756,-0.4623309224369374,0.9968394513519596,-0.07103779440301315,-0.0355631831347971,-0.034617112978924475,-0.7913422403928054,0.610392590108284,-0.07150359233862494,-0.607232319904376,-0.7913002880994175,,0.0,0.0,0.045,1.0,0.0,0.0,0.0,1.0,0.0,0.0,0.0,1.0,,-0.019501160741314527,-0.1568017533185176,0.2605595468860936,True,,0.1019533049701063,0.5077008166012726,-0.41470375006317545,-0.6702445022734095,-0.5552941466419541,-0.49236238471013827,0.5525796481247554,0.069464415505607,-0.8305603093435096,0.495406943482418,-0.828747914436983,0.2602861015608784,False,,-0.4090480873145313,-0.5026438670475127,0.12871372807822437,-2.476499966783083,-0.07689338485686234,0.3057786307888328
11:00:18.432555,,-0.3123382083651361,-0.4913743245882829,0.07177168843000001,-2.3882156691561653,-0.10489862832964307,0.24079622323026126,,0.019123814801632333,0.42858485860445644,-0.3626160027366121,0.09553608718383522,-0.7061375455302112,0.7016000447820478,-0.7788466116604611,0.38589882742443815,0.4944492395559554,-0.6198958070116473,-0.5936765632775246,-0.5131055706814787,,0.02572719581541669,0.2679535992631927,-0.12913767971402712,-0.4154623457364256,-0.7015993272837953,0.5789191462642247,0.8688654792030805,-0.49444873390253075,0.024314260683219957,0.26918724525053933,0.5131050459489718,0.8150211000319659,,0.08402820212686413,0.7871991096554704,1.1377680784101278,0.9955154581583485,-0.042603977264593126,-0.08446226192218509,0.018341926437523276,-0.7889715436256064,0.6141559061700771,-0.09280380543024219,-0.6129508989064835,-0.7846519287094118,,0.13470267071344194,0.6115932181109756,-0.4623309224369374,0.9968394513519596,-0.07103779440301315,-0.0355631831347971,-0.034617112978924475,-0.7913422403928054,0.610392590108284,-0.07150359233862494,-0.607232319904376,-0.7913002880994175,,0.0,0.0,0.045,1.0,0.0,0.0,0.0,1.0,0.0,0.0,0.0,1.0,,-0.019501160741314527,-0.1568017533185176,0.2605595468860936,True,,0.10176727998775087,0.5090539967583757,-0.4150661423287326,-0.67201192613929,-0.5533514677288021,-0.4921403501938669,0.5526625102601281,0.06759740225136412,-0.8306592207167997,0.4929139081822861,-0.8302004242176991,0.26039035072217454,True,,-0.31191141573010533,-0.49606423524894916,0.06789465011917692,-2.3925263169705553,-0.1006300909777766,0.24279794032171992
11:00:18.463006,,-0.31272434500884727,-0.49127392906091794,0.07177168843000001,-2.3884253456855027,-0.1044962039242864,0.2405922745416265,,0.01904187968759624,0.42852252716798395,-0.36263450647795986,0.0961094184042804,-0.7057031902496551,0.7019586789587049,-0.7787728818958364,0.3858884581864142,0.4945734488042861,-0.6198998129679059,-0.5941995499072439,-0.5124949919485888,,0.02565510664329531,0.26783637007670913,-0.12908143264744135,-0.4153812980015153,-0.7019578270839418,0.5785422708248268,0.8688112506916233,-0.49457284860565315,0.023712464206129935,0.26948647611190735,0.5124943700009402,0.8153061589213624,,0.08402820212686413,0.7871991096554704,1.1377680784101278,0.9955154581583485,-0.042603977264593126,-0.08446226192218509,0.018341926437523276,-0.7889715436256064,0.6141559061700771,-0.09280380543024219,-0.6129508989064835,-0.7846519287094118,,0.13470267071344194,0.6115932181109756,-0.4623309224369374,0.9968394513519596,-0.07103779440301315,-0.0355631831347971,-0.034617112978924475,-0.7913422403928054,0.610392590108284,-0.07150359233862494,-0.607232319904376,-0.7913002880994175,,0.0,0.0,0.045,1.0,0.0,0.0,0.0,1.0,0.0,0.0,0.0,1.0,,-0.019501160741314527,-0.1568017533185176,0.2605595468860936,True,,0.10173108722918192,0.5090658155054055,-0.41506475717441604,-0.672015048745856,-0.553410841666708,-0.49206931888185335,0.5525893695416951,0.06761147695358483,-0.8307067333624226,0.4929916459014464,-0.8301597006057938,0.2603730181134023,True,,-0.31224391781052846,-0.4958739666302666,0.06793387552007855,-2.392665813998414,-0.10027705030125394,0.24253347466587602
11:00:18.496181,,-0.31331899544016256,-0.4913048199924149,0.07184168809000001,-2.389054375273516,-0.1040937795189297,0.24038832585299172,,0.01900967197144522,0.42840498173835395,-0.36265672098746815,0.0964364663221689,-0.7055456843402435,0.7020721439226533,-0.7787307054727928,0.38581894686999824,0.49469407575790914,-0.6199020054146781,-0.594431684506288,-0.5122230726332788,,0.025683166540209953,0.2676712310179539,-0.1290953929729783,-0.4150065709820556,-0.7020715568014669,0.5786738309572437,0.8687655420347772,-0.4946936620605774,0.022867906610950756,0.27021159574930903,0.51222264427699,0.8152373787279091,,0.08402820212686413,0.7871991096554704,1.1377680784101278,0.9955154581583485,-0.042603977264593126,-0.08446226192218509,0.018341926437523276,-0.7889715436256064,0.6141559061700771,-0.09280380543024219,-0.6129508989064835,-0.7846519287094118,,0.13470267071344194,0.6115932181109756,-0.4623309224369374,0.9968394513519596,-0.07103779440301315,-0.0355631831347971,-0.034617112978924475,-0.7913422403928054,0.610392590108284,-0.07150359233862494,-0.607232319904376,-0.7913002880994175,,0.0,0.0,0.045,1.0,0.0,0.0,0.0,1.0,0.0,0.0,0.0,1.0,,-0.019501160741314527,-0.1568017533185176,0.2605595468860936,True,,0.10165619896937723,0.5090145608827124,-0.4150530783740226,-0.6717835877682654,-0.5535957020066229,-0.4921774171221105,0.5525859669855233,0.06796280124049969,-0.830680327646092,0.4933108151012623,-0.8300077447634685,0.2602529218602348,True,,-0.312624635984154,-0.4957463337704786,0.06817977075227376,-2.393063627202687,-0.09996093994272144,0.2421550292954791
11:00:18.524744,,-0.3142920597823149,-0.49136660185540865,0.07227076008000001,-2.3905221109788797,-0.1040937795189297,0.2405260891410922,,0.0189338276119516,0.4281647213566353,-0.36260322495535763,0.09661210354296884,-0.7055825556769341,0.7020109390696194,-0.7787080196132677,0.385696019360695,0.4948256267002518,-0.6199031550484198,-0.594467692792233,-0.5121798908462672,,0.025735601255549388,0.26756697221747394,-0.1291280710066165,-0.41475629526515745,-0.7020104985127176,0.5789276469369302,0.8687047627144355,-0.49482531616542547,0.02233129174783044,0.2707914246191365,0.5121795694205268,0.815072289979868,,0.08402820212686413,0.7871991096554704,1.1377680784101278,0.9955154581583485,-0.042603977264593126,-0.08446226192218509,0.018341926437523276,-0.7889715436256064,0.6141559061700771,-0.09280380543024219,-0.6129508989064835,-0.7846519287094118,,0.13470267071344194,0.6115932181109756,-0.4623309224369374,0.9968394513519596,-0.07103779440301315,-0.0355631831347971,-0.034617112978924475,-0.7913422403928054,0.610392590108284,-0.07150359233862494,-0.607232319904376,-0.7913002880994175,,0.0,0.0,0.045,1.0,0.0,0.0,0.0,1.0,0.0,0.0,0.0,1.0,,-0.019501160741314527,-0.1568017533185176,0.2605595468860936,True,,0.1014425887828303,0.508658689315818,-0.41490671509917654,-0.6708934134372777,-0.5538646832548756,-0.49308816701423114,0.5531717522693888,0.06904743229244731,-0.8302008579765706,0.4938654070672413,-0.8297387328170213,0.2600588298164702,True,,-0.3135314834640277,-0.49574220061674584,0.06863325270511922,-2.3943761718952987,-0.1000209639013599,0.24221318663095448
11:00:18.552132,,-0.31517245132997646,-0.49135887912253445,0.07282816478000001,-2.391780170154906,-0.1040937795189297,0.2413526688696948,,0.018833844707467365,0.4279087518680711,-0.36250757702078784,0.09666918586543187,-0.7056422781663776,0.7019430488068668,-0.778700641336666,0.3856224048419519,0.49489460702838,-0.6199035244987557,-0.5944445610383482,-0.5122062906348829,,0.025766215570419117,0.26753241751541856,-0.12914684560777626,-0.4146722376927884,-0.7019426178189792,0.5790701758779576,0.8686701388300895,-0.49489430316671823,0.022149280193176163,0.2710311738653012,0.5122059761439742,0.8149760197764288,,0.08402820212686413,0.7871991096554704,1.1377680784101278,0.9955154581583485,-0.042603977264593126,-0.08446226192218509,0.018341926437523276,-0.7889715436256064,0.6141559061700771,-0.09280380543024219,-0.6129508989064835,-0.7846519287094118,,0.13470267071344194,0.6115932181109756,-0.4623309224369374,0.9968394513519596,-0.07103779440301315,-0.0355631831347971,-0.034617112978924475,-0.7913422403928054,0.610392590108284,-0.07150359233862494,-0.607232319904376,-0.7913002880994175,,0.0,0.0,0.045,1.0,0.0,0.0,0.0,1.0,0.0,0.0,0.0,1.0,,-0.019501160741314527,-0.1568017533185176,0.2605595468860936,True,,0.10120148566826544,0.508191996991605,-0.4147007365961126,-0.6701198350900329,-0.5537218349014951,-0.4942990351722615,0.5537286522394053,0.07053627952868119,-0.8297042924797867,0.4942913981732222,-0.8297088421992219,0.25934388534991104,True,,-0.3144052718690318,-0.4957057275357695,0.06916755495157985,-2.3955791697381876,-0.10004269795535838,0.24301023917569067
11:00:18.580085,,-0.3157516562955433,-0.4913743245882829,0.07317816308000001,-2.3928285528015945,-0.10422792098738193,0.24231611313855922,,0.018848297775462472,0.42780159765085307,-0.36243484683151916,0.09623023319650861,-0.7061817755263793,0.7014606490269829,-0.7787573115213953,0.3854843223270678,0.49491300951986483,-0.6199006307231136,-0.5938932034923887,-0.5128489747231967,,0.025875426948003218,0.2676134663283531,-0.12922847481724622,-0.4147101228204337,-0.7014603442869674,0.5796274929215537,0.8686492610232954,-0.49491279451165526,0.022559217180625812,0.27104078379719787,0.5128487519229515,0.8145687093776235,,0.08402820212686413,0.7871991096554704,1.1377680784101278,0.9955154581583485,-0.042603977264593126,-0.08446226192218509,0.018341926437523276,-0.7889715436256064,0.6141559061700771,-0.09280380543024219,-0.6129508989064835,-0.7846519287094118,,0.13470267071344194,0.6115932181109756,-0.4623309224369374,0.9968394513519596,-0.07103779440301315,-0.0355631831347971,-0.034617112978924475,-0.7913422403928054,0.610392590108284,-0.07150359233862494,-0.607232319904376,-0.7913002880994175,,0.0,0.0,0.045,1.0,0.0,0.0,0.0,1.0,0.0,0.0,0.0,1.0,,-0.019501160741314527,-0.1568017533185176,0.2605595468860936,True,,0.10104640846078955,0.5078994921304145,-0.41457326304179404,-0.6694241435560396,-0.5535475287390055,-0.49543561584852064,0.5542207108064492,0.07195941721134685,-0.8292534268773315,0.4946824433285027,-0.8297029442526664,0.2586161336053874,True,,-0.31495882830709127,-0.495675940446005,0.06951657718518703,-2.3965602008891245,-0.10020379862147115,0.2439320405270176
11:00:18.603845,,-0.3167247206376956,-0.4913743245882829,0.07363056829,-2.394715641565633,-0.10543519420345199,0.24437447372951815,,0.018800094510611237,0.42763538536692947,-0.362347333105687,0.0961286976356375,-0.7065869689281202,0.7010664225534181,-0.7787703980134082,0.385254423133575,0.4950714055912076,-0.6198999440788117,-0.593560346381889,-0.5132350090690405,,0.025948700144369913,0.2676708990655498,-0.1292816033920787,-0.4148612373829549,-0.7010663053834347,0.5799964266363941,0.8685517309876827,-0.49507132284939237,0.022846041852687488,0.27112305334158804,0.5132349232915228,0.8142983907626007,,0.08402820212686413,0.7871991096554704,1.1377680784101278,0.9955154581583485,-0.042603977264593126,-0.08446226192218509,0.018341926437523276,-0.7889715436256064,0.6141559061700771,-0.09280380543024219,-0.6129508989064835,-0.7846519287094118,,0.13470267071344194,0.6115932181109756,-0.4623309224369374,0.9968394513519596,-0.07103779440301315,-0.0355631831347971,-0.034617112978924475,-0.7913422403928054,0.610392590108284,-0.07150359233862494,-0.607232319904376,-0.7913002880994175,,0.0,0.0,0.045,1.0,0.0,0.0,0.0,1.0,0.0,0.0,0.0,1.0,,-0.019501160741314527,-0.1568017533185176,0.2605595468860936,True,,0.10081562363131782,0.5075341862164287,-0.4144049423389029,-0.6678236067026884,-0.5529640717523301,-0.4982392654957025,0.5558833242764281,0.07462043730895357,-0.8279042940625493,0.49498016134184675,-0.8298569308542917,0.25755021683371726,True,,-0.3156932389889789,-0.495845218099557,0.07002676763958433,-2.39862003078256,-0.10111949021175196,0.2459657491265653
11:00:18.627530,,-0.31736570746625625,-0.49135887912253445,0.07384056727,-2.395344671153646,-0.1063741844826176,0.24615910523995344,,0.01874857781122964,0.427558852992454,-0.3623076798214815,0.09631512990082144,-0.7067148449622395,0.7009119228991513,-0.7787463631763114,0.3850610133150145,0.4952596469171325,-0.6199011998632172,-0.5935336080920878,-0.5132644137998772,,0.025951256901123317,0.26770890926661406,-0.12928467371826352,-0.41510461342764887,-0.700911820984819,0.5800090415759803,0.8684394606884379,-0.49525957490515127,0.023034013523568153,0.27111025842877523,0.5132643391699582,0.8142841365924849,,0.08402820212686413,0.7871991096554704,1.1377680784101278,0.9955154581583485,-0.042603977264593126,-0.08446226192218509,0.018341926437523276,-0.7889715436256064,0.6141559061700771,-0.09280380543024219,-0.6129508989064835,-0.7846519287094118,,0.13470267071344194,0.6115932181109756,-0.4623309224369374,0.9968394513519596,-0.07103779440301315,-0.0355631831347971,-0.034617112978924475,-0.7913422403928054,0.610392590108284,-0.07150359233862494,-0.607232319904376,-0.7913002880994175,,0.0,0.0,0.045,1.0,0.0,0.0,0.0,1.0,0.0,0.0,0.0,1.0,,-0.019501160741314527,-0.1568017533185176,0.2605595468860936,True,,0.1006860860293899,0.5073722886719318,-0.41432712317758674,-0.6671148718621166,-0.5519112282201609,-0.5003516202680924,0.5570255770988971,0.07641936043738634,-0.8269719389483428,0.4946516493432853,-0.8303939291172922,0.2564481785607243,True,,-0.3160292892212842,-0.49608477043195076,0.07037707628332586,-2.3996189477621495,-0.10161014153232673,0.2477620232247131
11:00:18.719557,,-0.3181997626166725,-0.491412938252654,0.07400389981000001,-2.3984898190937116,-0.10838630650940102,0.24993411444513608,,0.018656247931868958,0.42745974139752463,-0.36229278947027843,0.09741882081484655,-0.7067043375821903,0.7007699712413215,-0.7786035026838626,0.3844577367198068,0.4959524516369529,-0.6199081859109986,-0.5939370572028666,-0.5127890532389839,,0.025886093857317747,0.26773121551696466,-0.1292370453765121,-0.4158247299787237,-0.7007694725743161,0.5796641415933272,0.8680410802889555,-0.49595209871782964,0.02312521375589993,0.271280396770569,0.5127886883389567,0.8145264171545988,,0.08402820212686413,0.7871991096554704,1.1377680784101278,0.9955154581583485,-0.042603977264593126,-0.08446226192218509,0.018341926437523276,-0.7889715436256064,0.6141559061700771,-0.09280380543024219,-0.6129508989064835,-0.7846519287094118,,0.13470267071344194,0.6115932181109756,-0.4623309224369374,0.9968394513519596,-0.07103779440301315,-0.0355631831347971,-0.034617112978924475,-0.7913422403928054,0.610392590108284,-0.07150359233862494,-0.607232319904376,-0.7913002880994175,,0.0,0.0,0.045,1.0,0.0,0.0,0.0,1.0,0.0,0.0,0.0,1.0,,-0.019501160741314527,-0.1568017533185176,0.2605595468860936,True,,0.10054458680751047,0.5072591439632947,-0.4142712899299937,-0.6644048492168091,-0.5512757483913067,-0.5046397185842533,0.5594054912883557,0.08094316725263867,-0.8249325426915496,0.4956124419883172,-0.8303874113392594,0.2546076480305745,True,,-0.41247170574290265,-0.5017269093530907,0.13032028077216504,-2.466073769883363,-0.06821084501397862,0.30506749882770906
11:00:18.767706,,-0.31831560360978584,-0.4921620433414538,0.07380427115,-2.4253284148489347,-0.12005661426474495,0.2844345086963855,,0.019767372299987054,0.4250929685382117,-0.36318716522478445,0.14167153057638862,-0.7142727993477939,0.6853783958777878,-0.7720641067732114,0.35359860261927434,0.5280956762350737,-0.6195532200357178,-0.6039721817580367,-0.5013695355781109,,0.025732505548519708,0.26776690325329383,-0.12918085709666322,-0.4411446599931931,-0.6844323211247125,0.578087324858852,0.8477136598014876,-0.5273667095948948,0.022518281465442852,0.2898518731155504,0.5006774608608097,0.8139712158550293,,0.08402820212686413,0.7871991096554704,1.1377680784101278,0.9955154581583485,-0.042603977264593126,-0.08446226192218509,0.018341926437523276,-0.7889715436256064,0.6141559061700771,-0.09280380543024219,-0.6129508989064835,-0.7846519287094118,,0.13470267071344194,0.6115932181109756,-0.4623309224369374,0.9968394513519596,-0.07103779440301315,-0.0355631831347971,-0.034617112978924475,-0.7913422403928054,0.610392590108284,-0.07150359233862494,-0.607232319904376,-0.7913002880994175,,0.0,0.0,0.045,1.0,0.0,0.0,0.0,1.0,0.0,0.0,0.0,1.0,,-0.019501160741314527,-0.1568017533185176,0.2605595468860936,True,,0.10053472967119699,0.5074721103210484,-0.4143462044814193,-0.6426076316077932,-0.5495354063246969,-0.5339159755944498,0.5717051744503807,0.12003044572434396,-0.811631619397541,0.5101064842815493,-0.8268031986481219,0.23703975489177323,True,,-0.3998185522452085,-0.5000047500444329,0.12681953651897823,-2.4799921474410493,-0.08898447712209415,0.3241827841061007
11:00:18.868301,,-0.3183233263426601,-0.4927953074371402,0.07374334552,-2.425538091378272,-0.1207273216070061,0.2832590270083386,,0.022405239309236727,0.4201455980931463,-0.36521312490372354,0.23572164998411838,-0.7223061638497851,0.6501608334815104,-0.752798279185692,0.28738163441351827,0.5922048185019063,-0.6145974736230418,-0.6290354535846311,-0.47600876415224946,,0.025532694123029193,0.26778439677591176,-0.12921351091894412,-0.49016420757923956,-0.6463358312754788,0.5746801965289108,0.8007747006630812,-0.5887207809829702,0.02088076343455686,0.32675252692370177,0.47320832696930965,0.8109099523996102,,0.08402820212686413,0.7871991096554704,1.1377680784101278,0.9955154581583485,-0.042603977264593126,-0.08446226192218509,0.018341926437523276,-0.7889715436256064,0.6141559061700771,-0.09280380543024219,-0.6129508989064835,-0.7846519287094118,,0.13470267071344194,0.6115932181109756,-0.4623309224369374,0.9968394513519596,-0.07103779440301315,-0.0355631831347971,-0.034617112978924475,-0.7913422403928054,0.610392590108284,-0.07150359233862494,-0.607232319904376,-0.7913002880994175,,0.0,0.0,0.045,1.0,0.0,0.0,0.0,1.0,0.0,0.0,0.0,1.0,,-0.019501160741314527,-0.1568017533185176,0.2605595468860936,True,,0.10055155294376385,0.5074967929596587,-0.414434550446008,-0.6423640784254517,-0.5500748394675488,-0.5336535034396108,0.5718943116301689,0.1195038378994534,-0.8115760771809113,0.5102012221405154,-0.8265207218890835,0.2378196989617825,False,,-0.39651472272734173,-0.5016184323060822,0.124922885212111,-2.480566038947342,-0.09362875613018068,0.32143208424282566
11:00:18.977916,,-0.3199142093147503,-0.49326639414246787,0.07485556234,-2.424489708731584,-0.11898348251712712,0.27906893044317743,,0.09766733383700882,0.5554049023055664,-0.438541633794092,-0.7198255070871656,-0.573524755673852,-0.3910506284050097,0.5068755876344249,-0.049383086464512525,-0.8606035378915745,0.4742661468067913,-0.8176983951314121,0.32625290281092073,,0.025271185789744466,0.2677866207996475,-0.12943764513115963,-0.5660902406861127,-0.5693649143813547,0.5680754679039296,0.7061442098132681,-0.6843903949174815,0.017732621202343368,0.38502791835132055,0.4180642117893174,0.8026955341060785,,0.08402820212686413,0.7871991096554704,1.1377680784101278,0.9955154581583485,-0.042603977264593126,-0.08446226192218509,0.018341926437523276,-0.7889715436256064,0.6141559061700771,-0.09280380543024219,-0.6129508989064835,-0.7846519287094118,,0.13474898537825386,0.6115824593749725,-0.46233308169733034,0.9968424604532008,-0.0709885807277705,-0.035577105613943,-0.03456928632448923,-0.7913419671218959,0.6103956548949736,-0.07148477796443328,-0.6072384313248833,-0.791297298138614,,0.0,0.0,0.045,1.0,0.0,0.0,0.0,1.0,0.0,0.0,0.0,1.0,,-0.019501160741314527,-0.1568017533185176,0.2605595468860936,False,,0.10009423629045114,0.5065262644906808,-0.4140889373581132,-0.6438863238302784,-0.5506751446823059,-0.5311942083771731,0.5707541805461374,0.11667211068613709,-0.8127898153748909,0.5095586986534891,-0.8265255613815967,0.23917656450705896,False,,0.0,0.0,0.0,0.0,0.0,0.0
11:00:19.028892,,-0.32396864407371817,-0.49326639414246787,0.07650444322000001,-2.422812296496882,-0.11630065314808254,0.2719232144187272,,0.11501407810137126,0.5491731065813041,-0.43174006711122903,-0.6442281995840135,-0.5815560455963401,-0.49675204346946433,0.5671215142423626,0.0725564235433323,-0.8204320529367743,0.5131697720483835,-0.8102642354398648,0.28307005108782074,,0.025272813667966805,0.2678043949395896,-0.12941481018711615,-0.6323989184934204,-0.4945766202265207,0.5680638001258076,0.6141271790345153,-0.7680190652845372,0.01501431750975124,0.4360622917189354,0.3643783589683766,0.8026886044139735,,0.08402820212686413,0.7871991096554704,1.1377680784101278,0.9955154581583485,-0.042603977264593126,-0.08446226192218509,0.018341926437523276,-0.7889715436256064,0.6141559061700771,-0.09280380543024219,-0.6129508989064835,-0.7846519287094118,,0.13474898537825386,0.6115824593749725,-0.46233308169733034,0.9968424604532008,-0.0709885807277705,-0.035577105613943,-0.03456928632448923,-0.7913419671218959,0.6103956548949736,-0.07148477796443328,-0.6072384313248833,-0.791297298138614,,0.0,0.0,0.045,1.0,0.0,0.0,0.0,1.0,0.0,0.0,0.0,1.0,,-0.019501160741314527,-0.1568017533185176,0.2605595468860936,False,,0.0992708249633486,0.5052533785328898,-0.4135703308207607,-0.6458654562521565,-0.5508427043332877,-0.528611509052711,0.5703477430183699,0.11213743358530887,-0.8137128781227151,0.5075049403247676,-0.827041420408731,0.24174619846910445,False,,0.0,0.0,0.0,0.0,0.0,0.0
11:00:19.140364,,-0.3256908135046703,-0.4932818396082163,0.07672351623000001,-2.4209252077328434,-0.11455681405820356,0.26752647292141535,,0.09759964161496931,0.5472136768293271,-0.4576786002748966,-0.6920676656096064,-0.6455108620215348,-0.32304500186488705,0.5278317408599417,-0.14728524746107632,-0.8364811469609419,0.4923779031987861,-0.7494149604141516,0.44265247943394886,,0.02547152134899779,0.26782706117765087,-0.12919209361276146,-0.6910779083876498,-0.42082002638073523,0.5731277219074777,0.5232789924135505,-0.8421240418011446,0.012639224760643636,0.48139793967215644,0.31127344779278554,0.8090231270254155,,0.08402820212686413,0.7871991096554704,1.1377680784101278,0.9955154581583485,-0.042603977264593126,-0.08446226192218509,0.018341926437523276,-0.7889715436256064,0.6141559061700771,-0.09280380543024219,-0.6129508989064835,-0.7846519287094118,,0.13474898537825386,0.6115824593749725,-0.46233308169733034,0.9968424604532008,-0.0709885807277705,-0.035577105613943,-0.03456928632448923,-0.7913419671218959,0.6103956548949736,-0.07148477796443328,-0.6072384313248833,-0.791297298138614,,0.0,0.0,0.045,1.0,0.0,0.0,0.0,1.0,0.0,0.0,0.0,1.0,,-0.019501160741314527,-0.1568017533185176,0.2605595468860936,False,,0.0989789399265202,0.5050189846211725,-0.41350825936313385,-0.6481613232756109,-0.5509456058270983,-0.525686064518949,0.5692508288772093,0.10797815943861361,-0.8150424595730333,0.5058066753535575,-0.8275262270792757,0.24363897607673524,False,,0.0,0.0,0.0,0.0,0.0,0.0
11:00:19.250249,,-0.32742842840137076,-0.49324322594384523,0.07574870615000001,-2.4156832944994013,-0.11066671147308892,0.25604930205234894,,0.11241631252374831,0.5467661321570931,-0.44245986518174923,-0.6773299117884667,-0.5989445526466731,-0.42718803055739424,0.5417332964116651,-0.013195426876829326,-0.840446855112499,0.4977441372387818,-0.8006817742177073,0.33340586419558643,,0.025678467497163543,0.2678893825951773,-0.12905910467632412,-0.722178137826166,-0.3745091050264723,0.5771407245691804,0.4664216375437913,-0.8815933585017686,0.011565238198031236,0.5057660938961173,0.278254971125189,0.8134276721179462,,0.08402820212686413,0.7871991096554704,1.1377680784101278,0.9955154581583485,-0.042603977264593126,-0.08446226192218509,0.018341926437523276,-0.7889715436256064,0.6141559061700771,-0.09280380543024219,-0.6129508989064835,-0.7846519287094118,,0.13474898537825386,0.6115824593749725,-0.46233308169733034,0.9968424604532008,-0.0709885807277705,-0.035577105613943,-0.03456928632448923,-0.7913419671218959,0.6103956548949736,-0.07148477796443328,-0.6072384313248833,-0.791297298138614,,0.0,0.0,0.045,1.0,0.0,0.0,0.0,1.0,0.0,0.0,0.0,1.0,,-0.019501160741314527,-0.1568017533185176,0.2605595468860936,False,,0.09910106960493649,0.5058924762642786,-0.4139485440128074,-0.6531313271770334,-0.5527668777624992,-0.5175598982810253,0.5662657729194676,0.09725381461118526,-0.8184648862128975,0.5027549541077493,-0.8276415132122551,0.24949345027042985,False,,0.0,0.0,0.0,0.0,0.0,0.0
11:00:19.364682,,-0.32932822068843,-0.494061835628513,0.07423334314,-2.4181994128514535,-0.10865458944630549,0.24855468406845443,,0.10339540180535228,0.544684167471623,-0.45910927219772435,-0.6404474253452193,-0.6742478496487471,-0.36771855081396293,0.5688330980199517,-0.09475811841604107,-0.8169760128616238,0.5160000019047523,-0.7324006664649427,0.4442220861190981,,0.025782904770770537,0.26797434475298554,-0.12902512357643364,-0.733483627833458,-0.35453826844656244,0.5784758472087445,0.44209031911851115,-0.8959662033651061,0.0114295260576463,0.5146725554550723,0.2643427709076279,0.8145949803595128,,0.08402820212686413,0.7871991096554704,1.1377680784101278,0.9955154581583485,-0.042603977264593126,-0.08446226192218509,0.018341926437523276,-0.7889715436256064,0.6141559061700771,-0.09280380543024219,-0.6129508989064835,-0.7846519287094118,,0.13474898537825386,0.6115824593749725,-0.46233308169733034,0.9968424604532008,-0.0709885807277705,-0.035577105613943,-0.03456928632448923,-0.7913419671218959,0.6103956548949736,-0.07148477796443328,-0.6072384313248833,-0.791297298138614,,0.0,0.0,0.045,1.0,0.0,0.0,0.0,1.0,0.0,0.0,0.0,1.0,,-0.019501160741314527,-0.1568017533185176,0.2605595468860936,False,,0.09936589767213083,0.5072093999866722,-0.41467946281629414,-0.6524774280453065,-0.5571887998449188,-0.5136281215225283,0.5652292045229197,0.09363382514759938,-0.8196027410536256,0.5047664333588057,-0.825089903050333,0.2538454246950741,False,,0.0,0.0,0.0,0.0,0.0,0.0
11:00:19.414257,,-0.3329810733379382,-0.49709686964808325,0.07324816274000001,-2.4194574720274793,-0.1078497406355921,0.2449782310648748,,0.11452428474587732,0.5498149621624407,-0.4327303594449463,-0.6487314825454766,-0.5827451185065746,-0.48944416475335223,0.5637766342696936,0.06399111995714098,-0.8234446206140198,0.5111784132823725,-0.8101316333926171,0.28702502742918895,,0.025820482873210596,0.26807103922469566,-0.12900921744272217,-0.7230446243603761,-0.376254270941693,0.5785829286389977,0.4692725321168301,-0.8824648729801902,0.012571757534137723,0.5060719042932565,0.2807267035480836,0.8149863533402293,,0.08402820212686413,0.7871991096554704,1.1377680784101278,0.9955154581583485,-0.042603977264593126,-0.08446226192218509,0.018341926437523276,-0.7889715436256064,0.6141559061700771,-0.09280380543024219,-0.6129508989064835,-0.7846519287094118,,0.13474898537825386,0.6115824593749725,-0.46233308169733034,0.9968424604532008,-0.0709885807277705,-0.035577105613943,-0.03456928632448923,-0.7913419671218959,0.6103956548949736,-0.07148477796443328,-0.6072384313248833,-0.791297298138614,,0.0,0.0,0.045,1.0,0.0,0.0,0.0,1.0,0.0,0.0,0.0,1.0,,-0.019501160741314527,-0.1568017533185176,0.2605595468860936,False,,0.09931691181532157,0.5079994401699395,-0.41546823758596313,-0.6528225745232414,-0.556896550989563,-0.513506492353092,0.5644477278086265,0.09447700320981495,-0.8200444246723293,0.5051944662845446,-0.8251910853617008,0.25266227236184774,False,,0.0,0.0,0.0,0.0,0.0,0.0
11:00:19.474429,,-0.3330042415365609,-0.4980776567231098,0.07296686781,-2.4240703556729084,-0.10798388210404435,0.24387522601223263,,0.11457286454349656,0.5496466096010622,-0.4329030211893712,-0.6508087275074245,-0.5823653792690457,-0.4871330056863195,0.5622749964394671,0.06145198708219169,-0.8246638598014632,0.510190972655499,-0.8106011462565735,0.2874560020392076,,0.025829556152756637,0.26816597997080943,-0.12898733376760135,-0.7158043765633586,-0.3905164854299513,0.5785958882224012,0.4871854434265368,-0.8729950464789742,0.013499085307960873,0.4999266655957846,0.2915969070451563,0.8152893999039041,,0.08402820212686413,0.7871991096554704,1.1377680784101278,0.9955154581583485,-0.042603977264593126,-0.08446226192218509,0.018341926437523276,-0.7889715436256064,0.6141559061700771,-0.09280380543024219,-0.6129508989064835,-0.7846519287094118,,0.13474898537825386,0.6115824593749725,-0.46233308169733034,0.9968424604532008,-0.0709885807277705,-0.035577105613943,-0.03456928632448923,-0.7913419671218959,0.6103956548949736,-0.07148477796443328,-0.6072384313248833,-0.791297298138614,,0.0,0.0,0.045,1.0,0.0,0.0,0.0,1.0,0.0,0.0,0.0,1.0,,-0.019501160741314527,-0.1568017533185176,0.2605595468860936,False,,0.09940772243039211,0.5081970572191125,-0.41567802416750843,-0.6499408529224906,-0.5604090719464706,-0.5133405884814501,0.5644566265909553,0.09633102524874448,-0.8198225724338681,0.508886632168644,-0.8225946788392335,0.25371714554880576,False,,0.0,0.0,0.0,0.0,0.0,0.0
11:00:19.527126,,-0.3328575096119506,-0.499220621188495,0.07224742686,-2.4295219454356882,-0.11026428706773224,0.24351553907872484,,0.11467156171276138,0.5500155385721239,-0.4329389267625743,-0.6475076965417649,-0.5867906217607528,-0.48622067945821407,0.5647086062921552,0.05895607739646034,-0.8231818577432295,0.5117010581372187,-0.8075895907895622,0.2931912003277019,,0.025829325999226594,0.2682604207515028,-0.12897501067137593,-0.7109318877128217,-0.3997579448776118,0.5785905991085025,0.49887695244831426,-0.8665540016453884,0.014268615373269095,0.4956765903140776,0.2987898803105892,0.8154918577613253,,0.08402820212686413,0.7871991096554704,1.1377680784101278,0.9955154581583485,-0.042603977264593126,-0.08446226192218509,0.018341926437523276,-0.7889715436256064,0.6141559061700771,-0.09280380543024219,-0.6129508989064835,-0.7846519287094118,,0.13474898537825386,0.6115824593749725,-0.46233308169733034,0.9968424604532008,-0.0709885807277705,-0.035577105613943,-0.03456928632448923,-0.7913419671218959,0.6103956548949736,-0.07148477796443328,-0.6072384313248833,-0.791297298138614,,0.0,0.0,0.045,1.0,0.0,0.0,0.0,1.0,0.0,0.0,0.0,1.0,,-0.019501160741314527,-0.1568017533185176,0.2605595468860936,False,,0.09962997629560659,0.5087791521746061,-0.4160579607736272,-0.645733927733023,-0.5638572142571477,-0.5148715728263233,0.5661194362095455,0.09894288679365182,-0.8183636655538445,0.5123831364518834,-0.8199239886008381,0.25531974932743284,False,,0.0,0.0,0.0,0.0,0.0,0.0
11:00:19.645028,,-0.33324364625566183,-0.500595267640107,0.07127391307000001,-2.436860623962507,-0.11348368231058573,0.24487160201160213,,0.10357846656000029,0.5490292470212803,-0.45166585376859886,-0.6641029846604106,-0.6501265789350226,-0.36919189742920716,0.5521425419369019,-0.09353406601649428,-0.8284865671076862,0.5040891182604427,-0.7540469546763425,0.42107879428290323,,0.02582660302084825,0.268286193560895,-0.12897135228491516,-0.7105745839982034,-0.40043070403749964,0.5785663243835364,0.4997787059557574,-0.8660330501160816,0.014421548137695972,0.495282732911043,0.29940271749189534,0.8155078216114788,,0.08402820212686413,0.7871991096554704,1.1377680784101278,0.9955154581583485,-0.042603977264593126,-0.08446226192218509,0.018341926437523276,-0.7889715436256064,0.6141559061700771,-0.09280380543024219,-0.6129508989064835,-0.7846519287094118,,0.13474898537825386,0.6115824593749725,-0.46233308169733034,0.9968424604532008,-0.0709885807277705,-0.035577105613943,-0.03456928632448923,-0.7913419671218959,0.6103956548949736,-0.07148477796443328,-0.6072384313248833,-0.791297298138614,,0.0,0.0,0.045,1.0,0.0,0.0,0.0,1.0,0.0,0.0,0.0,1.0,,-0.019501160741314527,-0.1568017533185176,0.2605595468860936,False,,0.09982410145648976,0.5094543379453212,-0.41647884736497903,-0.6408329987286522,-0.566679301227242,-0.5178876686126526,0.5683900120734129,0.10321154125810883,-0.8162598678890882,0.5160095560313098,-0.8174484370966348,0.2559534933784653,False,,0.0,0.0,0.0,0.0,0.0,0.0
11:00:19.745078,,-0.33315869619404537,-0.5017382321054922,0.06980780908,-2.441263831078598,-0.11509337993201248,0.24410311895298614,,0.041788738362139574,0.4008596817054527,-0.38016614827610995,0.7285295630830777,-0.5557925176088735,0.40042396667029073,-0.49916641094856173,-0.030409538341015813,0.8659723749396501,-0.46912425848032163,-0.8307646702573939,-0.299587203928025,,0.025834222764166272,0.2683156738236799,-0.12897715197106022,-0.710547807110326,-0.4004239434818841,0.5786038052742593,0.4998794209464485,-0.865972324791504,0.014573310885663271,0.4952194084501125,0.2995871865790387,0.8154784726237142,,0.08402820212686413,0.7871991096554704,1.1377680784101278,0.9955154581583485,-0.042603977264593126,-0.08446226192218509,0.018341926437523276,-0.7889715436256064,0.6141559061700771,-0.09280380543024219,-0.6129508989064835,-0.7846519287094118,,0.13474898537825386,0.6115824593749725,-0.46233308169733034,0.9968424604532008,-0.0709885807277705,-0.035577105613943,-0.03456928632448923,-0.7913419671218959,0.6103956548949736,-0.07148477796443328,-0.6072384313248833,-0.791297298138614,,0.0,0.0,0.045,1.0,0.0,0.0,0.0,1.0,0.0,0.0,0.0,1.0,,-0.019501160741314527,-0.1568017533185176,0.2605595468860936,True,,0.1003078080526934,0.5108276543843537,-0.4172316143039099,-0.636689926982825,-0.5701065882931843,-0.5192344507670027,0.5697872694154046,0.10588896647617907,-0.8149417122658185,0.5195848385882159,-0.81471835916672,0.25742103788530046,False,,-0.4031441188942623,-0.5143253000092414,0.12696032386623482,-2.5099036236132455,-0.12087656341952446,0.28281519261488397
11:00:19.814982,,-0.33350621917338547,-0.5020934778177065,0.06915318263,-2.44021544843191,-0.11442267258975133,0.23329319457629483,,0.04151677684579702,0.4014244172786278,-0.3800409403310254,0.7217255215126682,-0.5612887373227133,0.4050521262158009,-0.5052274045422902,-0.027177597249455957,0.862558199721739,-0.47313585923783874,-0.8271737009615456,-0.3031932175046986,,0.025844148395309893,0.2683556173217616,-0.12898586863788908,-0.7078761862975369,-0.4050334835682984,0.578590644212677,0.5057144362633545,-0.8625185002178306,0.014923044122376744,0.4930234936965471,0.3031792629444994,0.8154251165451907,,0.08402820212686413,0.7871991096554704,1.1377680784101278,0.9955154581583485,-0.042603977264593126,-0.08446226192218509,0.018341926437523276,-0.7889715436256064,0.6141559061700771,-0.09280380543024219,-0.6129508989064835,-0.7846519287094118,,0.13474898537825386,0.6115824593749725,-0.46233308169733034,0.9968424604532008,-0.0709885807277705,-0.035577105613943,-0.03456928632448923,-0.7913419671218959,0.6103956548949736,-0.07148477796443328,-0.6072384313248833,-0.791297298138614,,0.0,0.0,0.045,1.0,0.0,0.0,0.0,1.0,0.0,0.0,0.0,1.0,,-0.019501160741314527,-0.1568017533185176,0.2605595468860936,True,,0.10047132411841876,0.511387984873846,-0.41753141385129644,-0.6377460194780651,-0.5747732962734594,-0.5127530326880825,0.5690693986151684,0.09702018300587417,-0.8165458368329838,0.519076135263079,-0.8125409171115318,0.26521165852936585,True,,-0.40179033593153674,-0.5098173145999565,0.12438332032565205,-2.495249767051507,-0.10553960733946165,0.27822950350112857
11:00:19.905925,,-0.334317106125179,-0.5031669376872238,0.06885373964000001,-2.440005771902572,-0.11442267258975133,0.2282648345606288,,0.040614182112601135,0.40225222878125977,-0.3794798290494738,0.7040978713837047,-0.574863729584504,0.41686674120290557,-0.5204171201651793,-0.018333120551413562,0.8537153610717267,-0.4831275282489265,-0.8180437574476329,-0.31207723779385316,,0.025851756005659955,0.26841147408165617,-0.12899854446708897,-0.7008535131493772,-0.41674907395444455,0.5784117135932689,0.5203597806999114,-0.8534743863726746,0.015579422111874908,0.48730442199279195,0.31198914904450237,0.8152500960701393,,0.08402820212686413,0.7871991096554704,1.1377680784101278,0.9955154581583485,-0.042603977264593126,-0.08446226192218509,0.018341926437523276,-0.7889715436256064,0.6141559061700771,-0.09280380543024219,-0.6129508989064835,-0.7846519287094118,,0.13474898537825386,0.6115824593749725,-0.46233308169733034,0.9968424604532008,-0.0709885807277705,-0.035577105613943,-0.03456928632448923,-0.7913419671218959,0.6103956548949736,-0.07148477796443328,-0.6072384313248833,-0.791297298138614,,0.0,0.0,0.045,1.0,0.0,0.0,0.0,1.0,0.0,0.0,0.0,1.0,,-0.019501160741314527,-0.1568017533185176,0.2605595468860936,True,,0.10048979236467814,0.5116171111284634,-0.4177735386038123,-0.6381868197490963,-0.5764524760193777,-0.5103137524990519,0.5687313234607225,0.09376628487275096,-0.8171612848977718,0.5189048706778051,-0.8117329774699875,0.2680061724560822,True,,-0.4093440461119982,-0.5113111591555324,0.12776692281129268,-2.499808466168751,-0.10440632721522715,0.2734403943624352
11:00:20.009436,,-0.33625551207660936,-0.5039314882417719,0.06961855074000001,-2.4389573892558833,-0.1133495408421335,0.22331254617172203,,0.03773779086516134,0.4041175839774941,-0.3774325181359087,0.6491386647895774,-0.6122648408623367,0.45138759234057624,-0.5635177498859307,0.011523825427237483,0.8260235753360918,-0.5109469047158445,-0.790568761140573,-0.33754154480590637,,0.025846416094702715,0.26851807011492795,-0.12901796281102657,-0.6779965840159171,-0.4503618594496437,0.5770226968052556,0.5620912913400526,-0.8241465198647295,0.01721217612999898,0.4688649883228888,0.33677451560430977,0.8137621970680765,,0.08402820212686413,0.7871991096554704,1.1377680784101278,0.9955154581583485,-0.042603977264593126,-0.08446226192218509,0.018341926437523276,-0.7889715436256064,0.6141559061700771,-0.09280380543024219,-0.6129508989064835,-0.7846519287094118,,0.13474898537825386,0.6115824593749725,-0.46233308169733034,0.9968424604532008,-0.0709885807277705,-0.035577105613943,-0.03456928632448923,-0.7913419671218959,0.6103956548949736,-0.07148477796443328,-0.6072384313248833,-0.791297298138614,,0.0,0.0,0.045,1.0,0.0,0.0,0.0,1.0,0.0,0.0,0.0,1.0,,-0.019501160741314527,-0.1568017533185176,0.2605595468860936,True,,0.10009308170709474,0.5109489986986369,-0.4176064660196128,-0.6395874318336778,-0.576933306840904,-0.5080116893320662,0.568108431585706,0.09044788697708195,-0.8179682082468794,0.5178616871343446,-0.8117679096878617,0.2699113443324862,False,,-0.412219226757558,-0.5117072172346441,0.12828482825302256,-2.496854871745339,-0.10152849950634127,0.26637762431711415
11:00:20.109717,,-0.3386572820004932,-0.503900597310275,0.0710626178,-2.4383283596678704,-0.11200812615761122,0.21732883061773922,,0.03262410170847313,0.4081426166777635,-0.37365929498512584,0.5358325816767666,-0.670188353514242,0.5135474809864037,-0.6359187965923193,0.07977494088096616,0.7676218098438936,-0.555419416796161,-0.7378912722219365,-0.38343935873160506,,0.025903045574208736,0.26872953612580275,-0.12908248129894245,-0.6288603051195326,-0.509433709064489,0.57363331623805,0.6354427209113694,-0.7614727755970121,0.020369812218932526,0.4298725786442077,0.38036781787879576,0.8090568941900189,,0.08402820212686413,0.7871991096554704,1.1377680784101278,0.9955154581583485,-0.042603977264593126,-0.08446226192218509,0.018341926437523276,-0.7889715436256064,0.6141559061700771,-0.09280380543024219,-0.6129508989064835,-0.7846519287094118,,0.13473103671488862,0.6115926819931896,-0.4623412536499949,0.9968407052468782,-0.07102517886409251,-0.035553232345748184,-0.0346129902114782,-0.7913409707080703,0.6103944699843123,-0.07148810580458265,-0.6072354502547864,-0.791299285152173,,0.0,0.0,0.045,1.0,0.0,0.0,0.0,1.0,0.0,0.0,0.0,1.0,,-0.019501160741314527,-0.1568017533185176,0.2605595468860936,True,,0.09944385665431557,0.5097353244370102,-0.41710966238861436,-0.6406503413731878,-0.5780606788405138,-0.5053840041758961,0.5679944329462074,0.08611306848865041,-0.8185150356453967,0.5166715245110127,-0.8114372378772823,0.2731668807625708,False,,-0.41238900803302875,-0.5121667490890948,0.1268411783523713,-2.4970129322548615,-0.10269401252580711,0.26129410078064197
11:00:20.206799,,-0.3408968745340183,-0.5039623791732688,0.07197131709,-2.4379090066091953,-0.11093499440999338,0.21313424031338485,,0.026265327189482657,0.41540209709485687,-0.36889474751829743,0.36157680478112675,-0.7185411797868677,0.5941050304405503,-0.714900048771784,0.19536597271920575,0.6713792199417401,-0.5984815239507163,-0.6674808683804914,-0.44304532029539967,,0.026207507748146834,0.2690652603199612,-0.1291069886839217,-0.5498723347152814,-0.5849678274497072,0.5700263498697483,0.7292834037544764,-0.661053557134454,0.02511761912411639,0.3677813422474618,0.4362313819877569,0.8024437979360305,,0.08402820212686413,0.7871991096554704,1.1377680784101278,0.9955154581583485,-0.042603977264593126,-0.08446226192218509,0.018341926437523276,-0.7889715436256064,0.6141559061700771,-0.09280380543024219,-0.6129508989064835,-0.7846519287094118,,0.13473103671488862,0.6115926819931896,-0.4623412536499949,0.9968407052468782,-0.07102517886409251,-0.035553232345748184,-0.0346129902114782,-0.7913409707080703,0.6103944699843123,-0.07148810580458265,-0.6072354502547864,-0.791299285152173,,0.0,0.0,0.045,1.0,0.0,0.0,0.0,1.0,0.0,0.0,0.0,1.0,,-0.019501160741314527,-0.1568017533185176,0.2605595468860936,True,,0.09890826560778926,0.5090009596422047,-0.4167949841123665,-0.6414554070086305,-0.5785189586860269,-0.5038360599046353,0.5679938789898269,0.08331724445505484,-0.8188047326478434,0.5156722934669672,-0.8114025210814,0.275150930460477,False,,-0.41419942946552896,-0.510996589877763,0.1263935207007375,-2.4910329268338844,-0.09488477119045835,0.25395579932920975
11:00:20.306152,,-0.3422020163897623,-0.5040936656321306,0.07289816444000001,-2.43748965355052,-0.10986186266237555,0.2093529398733318,,0.019825944042155985,0.4259665602243765,-0.363855351572426,0.1438978971994857,-0.7200460864741596,0.678842418043255,-0.7716930323287557,0.34778852515238295,0.5324781738508914,-0.6195024285963826,-0.6004804535749497,-0.5056085104481594,,0.026859116193035704,0.2694565809150935,-0.12903037852694343,-0.4394127895277766,-0.6642384169409439,0.5684543517808657,0.8276552845032776,-0.5210229205679718,0.03095917434326964,0.28167313438205965,0.49473130677369437,0.7958252343729598,,0.08402820212686413,0.7871991096554704,1.1377680784101278,0.9955154581583485,-0.042603977264593126,-0.08446226192218509,0.018341926437523276,-0.7889715436256064,0.6141559061700771,-0.09280380543024219,-0.6129508989064835,-0.7846519287094118,,0.13473103671488862,0.6115926819931896,-0.4623412536499949,0.9968407052468782,-0.07102517886409251,-0.035553232345748184,-0.0346129902114782,-0.7913409707080703,0.6103944699843123,-0.07148810580458265,-0.6072354502547864,-0.791299285152173,,0.0,0.0,0.045,1.0,0.0,0.0,0.0,1.0,0.0,0.0,0.0,1.0,,-0.019501160741314527,-0.1568017533185176,0.2605595468860936,True,,0.09851218594666625,0.50820890316203,-0.4164900968512797,-0.6422457871950881,-0.5793540557220136,-0.5018657459407003,0.5675532694530501,0.08062408855449343,-0.8193796694316443,0.5151734030045758,-0.8110786857409157,0.2770338072753463,False,,-0.4104010925445902,-0.5090437090786379,0.12233440779428204,-2.479140476415259,-0.0868531209295512,0.24107385517609195
