AlexandreBanks6/RCL_Autocam_Public/optimizationData/Data_9.csv
System Time,q_des,q0,q1,q2,q3,q4,q5,T_des,Tx,Ty,Tz,R00,R01,R02,R10,R11,R12,R20,R21,R22,T_target,Tx,Ty,Tz,R00,R01,R02,R10,R11,R12,R20,R21,R22,worldFrame,Tx,Ty,Tz,R00,R01,R02,R10,R11,R12,R20,R21,R22,ECM_T_PSM_RCM,Tx,Ty,Tz,R00,R01,R02,R10,R11,R12,R20,R21,R22,psm3_T_cam,Tx,Ty,Tz,R00,R01,R02,R10,R11,R12,R20,R21,R22,offset,x,y,z,IK Trigered,ECM_T_PSM3,Tx,Ty,Tz,R00,R01,R02,R10,R11,R12,R20,R21,R22
10:36:05.975614,,-0.2195881865456997,-0.42116696002870785,0.09282343803000001,0.6107877299606593,-0.021999200826165556,0.0118380114192029,,0.013535069541075785,0.5462359775373742,-0.3135261200333411,-0.6909208887565774,-0.14288381583527235,-0.7086695567414852,0.4897518775403262,0.6285440852696651,-0.604214722857897,0.5317625634863237,-0.7645368192866004,-0.36429662094175613,,-0.013423341229040596,0.28962334053712796,-0.07998938352536528,0.7633062482023859,-0.5040262039152812,0.4041301241208685,0.47767886066659604,0.8614895457783426,0.17221692305603178,-0.4349557190421341,0.061590163836247935,0.8983430158860054,,0.04269594805284387,0.7203709254330657,1.1770666115938742,0.9911959966889486,-0.041371972668245695,-0.12577303377648108,0.04967711890861507,-0.7643247600307831,0.642915114973062,-0.12273011042422001,-0.6435029301265257,-0.755540401907029,,0.0,0.0,0.0,1.0,0.0,0.0,0.0,1.0,0.0,0.0,0.0,1.0,,0.0,0.0,0.045,1.0,0.0,0.0,0.0,1.0,0.0,0.0,0.0,1.0,,0.019037333378670685,-0.19337877532911046,0.2249495411038443,True,,0.013535069541075785,0.5462359775373742,-0.3135261200333411,0.3211372118647484,0.9053274764393426,-0.2779443317639485,-0.6371060226377039,-0.010619454300013265,-0.7707030187492041,-0.700690236177515,0.42458142634168783,0.5733792857534676
10:36:08.009554,,-0.22951962102195242,-0.41877291283769824,0.09286103044,-2.116474887134533,0.14084854187484044,1.0753595691258866,,0.013401118818354332,0.5461752674492734,-0.3137702602057032,-0.5071414830900453,-0.8058698606538114,-0.3055835136571275,0.6128882005530125,-0.08792712411485629,-0.7852622966039952,0.6059501380081694,-0.5855276155184289,0.5384996209034721,,-0.013463057364343299,0.2896060655312605,-0.0799992439830982,0.7633224942007858,-0.5040299813301,0.40409472133803753,0.4776453413900037,0.8614936562442898,0.17228930362929748,-0.43496401430614234,0.06150166027856855,0.8983450607018783,,0.04269594805284387,0.7203709254330657,1.1770666115938742,0.9911959966889486,-0.041371972668245695,-0.12577303377648108,0.04967711890861507,-0.7643247600307831,0.642915114973062,-0.12273011042422001,-0.6435029301265257,-0.755540401907029,,0.05445249202358471,0.6513013065352852,-0.3943137505230152,0.9329542068080608,-0.3577135886791546,-0.04046525019597212,-0.2781980994560074,-0.7877421750606662,0.5496072080038216,-0.22847815094272672,-0.501501001100667,-0.8344426166231093,,0.0,0.0,0.045,1.0,0.0,0.0,0.0,1.0,0.0,0.0,0.0,1.0,,0.019037333378670685,-0.19337877532911046,0.2249495411038443,False,,0.013401118818354332,0.5461752674492734,-0.3137702602057032,-0.6874483774119676,-0.14685371430951888,-0.7112304232716365,0.5007867378429758,0.613402904653302,-0.6106959306917665,0.5259537732484137,-0.775996690171028,-0.34814043897451197
10:36:08.022425,,-0.22951962102195242,-0.41877291283769824,0.09286103044,-2.116474887134533,0.14084854187484044,1.0753595691258866,,0.013401118818354332,0.5461752674492734,-0.3137702602057032,-0.5070725861500613,-0.8058149011086433,-0.30584266792969883,0.6129253175237916,-0.08765080209038137,-0.7852642179746075,0.6059702529938643,-0.585644672172624,0.5383496730215148,,-0.013477040308573725,0.2896003343588787,-0.08000219353901317,0.763329582176753,-0.5040312942329329,0.40407969482946976,0.47763392263602816,0.8614951379678315,0.17231355016610508,-0.4349641149415932,0.06147013955898215,0.8983471695404928,,0.04269594805284387,0.7203709254330657,1.1770666115938742,0.9911959966889486,-0.041371972668245695,-0.12577303377648108,0.04967711890861507,-0.7643247600307831,0.642915114973062,-0.12273011042422001,-0.6435029301265257,-0.755540401907029,,0.05445249202358471,0.6513013065352852,-0.3943137505230152,0.9329542068080608,-0.3577135886791546,-0.04046525019597212,-0.2781980994560074,-0.7877421750606662,0.5496072080038216,-0.22847815094272672,-0.501501001100667,-0.8344426166231093,,0.0,0.0,0.045,1.0,0.0,0.0,0.0,1.0,0.0,0.0,0.0,1.0,,0.019037333378670685,-0.19337877532911046,0.2249495411038443,False,,0.013401118818354332,0.5461752674492734,-0.3137702602057032,-0.6874483774119676,-0.14685371430951888,-0.7112304232716365,0.5007867378429758,0.613402904653302,-0.6106959306917665,0.5259537732484137,-0.775996690171028,-0.34814043897451197
10:36:08.034589,,-0.22951962102195242,-0.41877291283769824,0.09286103044,-2.116265210605196,0.14084854187484044,1.0753595691258866,,0.01340133785169928,0.5461753448337576,-0.31377004753742055,-0.5067511058691215,-0.8059204840257213,-0.30609719065710045,0.6130984327059202,-0.08729182005787445,-0.7851690582062743,0.6060640465445599,-0.5855529963877997,0.5383438119894227,,-0.013483473596659211,0.2895974484062151,-0.08000392128956554,0.7633318723928874,-0.5040319100368688,0.4040746010543156,0.47762839778383503,0.8614957943862985,0.17232558384818175,-0.43496616326223025,0.06145589379999196,0.8983471527742649,,0.04269594805284387,0.7203709254330657,1.1770666115938742,0.9911959966889486,-0.041371972668245695,-0.12577303377648108,0.04967711890861507,-0.7643247600307831,0.642915114973062,-0.12273011042422001,-0.6435029301265257,-0.755540401907029,,0.05445249202358471,0.6513013065352852,-0.3943137505230152,0.9329542068080608,-0.3577135886791546,-0.04046525019597212,-0.2781980994560074,-0.7877421750606662,0.5496072080038216,-0.22847815094272672,-0.501501001100667,-0.8344426166231093,,0.0,0.0,0.045,1.0,0.0,0.0,0.0,1.0,0.0,0.0,0.0,1.0,,0.019037333378670685,-0.19337877532911046,0.2249495411038443,False,,0.01340133785169928,0.5461753448337576,-0.31377004753742055,-0.6875927551793211,-0.14680679066689906,-0.7111005338480598,0.500735729175469,0.6133355039179115,-0.6108054429692593,0.525813591068186,-0.7760588417432321,-0.34821364361571383
10:36:08.047084,,-0.22951962102195242,-0.41877291283769824,0.09286103044,-2.116684563663871,0.14084854187484044,1.0754284507699365,,0.013400899741998762,0.5461751901052263,-0.31377047284439175,-0.5073455083498802,-0.8056317699868081,-0.30587250014527984,0.6127782517235343,-0.08771585721170308,-0.7853717225672598,0.60589054240172,-0.5858868317188386,0.5381758737128698,,-0.013487530011464124,0.28959548425680465,-0.08000482004044196,0.7633340882194563,-0.5040316935816973,0.40407068571526894,0.47762483950115897,0.8614965231753445,0.1723318040158444,-0.43496618245644547,0.06144745600127995,0.8983477209284315,,0.04269594805284387,0.7203709254330657,1.1770666115938742,0.9911959966889486,-0.041371972668245695,-0.12577303377648108,0.04967711890861507,-0.7643247600307831,0.642915114973062,-0.12273011042422001,-0.6435029301265257,-0.755540401907029,,0.05445249202358471,0.6513013065352852,-0.3943137505230152,0.9329542068080608,-0.3577135886791546,-0.04046525019597212,-0.2781980994560074,-0.7877421750606662,0.5496072080038216,-0.22847815094272672,-0.501501001100667,-0.8344426166231093,,0.0,0.0,0.045,1.0,0.0,0.0,0.0,1.0,0.0,0.0,0.0,1.0,,0.019037333378670685,-0.19337877532911046,0.2249495411038443,False,,0.013400899741998762,0.5461751901052263,-0.31377047284439175,-0.6873039712937775,-0.14685161986363893,-0.7113704047732291,0.5008377198559669,0.6135123639383648,-0.6105441488248297,0.526093935921408,-0.7759105496371247,-0.34812065372301126
10:36:08.060231,,-0.22951962102195242,-0.41877291283769824,0.09286103044,-2.1231845360733392,0.14098268334329267,1.0743961248570222,,0.01339780940260802,0.5461748005663857,-0.31377255720073505,-0.5103453446653438,-0.8041298071619974,-0.3048325481506533,0.6111557741429025,-0.08976023200482938,-0.7864042983619997,0.6050092965485746,-0.5876379446428287,0.5372572913472192,,-0.013504059430289142,0.28958835798746335,-0.08000842401389843,0.7633424331453016,-0.5040326501647322,0.40405373071396306,0.4776110416109463,0.8614985678845029,0.1723598283835352,-0.4349666914457497,0.06141095241902285,0.8983499720219681,,0.04269594805284387,0.7203709254330657,1.1770666115938742,0.9911959966889486,-0.041371972668245695,-0.12577303377648108,0.04967711890861507,-0.7643247600307831,0.642915114973062,-0.12273011042422001,-0.6435029301265257,-0.755540401907029,,0.05445249202358471,0.6513013065352852,-0.3943137505230152,0.9329542068080608,-0.3577135886791546,-0.04046525019597212,-0.2781980994560074,-0.7877421750606662,0.5496072080038216,-0.22847815094272672,-0.501501001100667,-0.8344426166231093,,0.0,0.0,0.045,1.0,0.0,0.0,0.0,1.0,0.0,0.0,0.0,1.0,,0.019037333378670685,-0.19337877532911046,0.2249495411038443,False,,0.01339780940260802,0.5461748005663857,-0.31377255720073505,-0.6858596194769812,-0.14736158578446135,-0.7126578038624006,0.501350186987009,0.614142860580485,-0.609488750352384,0.5274889310487777,-0.7753148456163523,-0.3473360300744942
10:36:08.072187,,-0.2295118982890782,-0.41877291283769824,0.09286103044,-2.127168390130755,0.1411168248117449,1.0726749825036053,,0.013395067165875546,0.5461720914863202,-0.31377781129622284,-0.5165732773348405,-0.8010385454542632,-0.30247197860307706,0.6077520202400771,-0.09418092250219848,-0.7885223114983747,0.6031496754849884,-0.5911575107643928,0.5354841420893807,,-0.013504255872773178,0.28958812540988743,-0.08000828611270969,0.7633432747796431,-0.5040320642201805,0.4040528716239357,0.4776107982426291,0.8614989028855893,0.17235882834911395,-0.43496548165531884,0.06141106207992544,0.8983505502884088,,0.04269594805284387,0.7203709254330657,1.1770666115938742,0.9911959966889486,-0.041371972668245695,-0.12577303377648108,0.04967711890861507,-0.7643247600307831,0.642915114973062,-0.12273011042422001,-0.6435029301265257,-0.755540401907029,,0.05445249202358471,0.6513013065352852,-0.3943137505230152,0.9329542068080608,-0.3577135886791546,-0.04046525019597212,-0.2781980994560074,-0.7877421750606662,0.5496072080038216,-0.22847815094272672,-0.501501001100667,-0.8344426166231093,,0.0,0.0,0.045,1.0,0.0,0.0,0.0,1.0,0.0,0.0,0.0,1.0,,0.019037333378670685,-0.19337877532911046,0.2249495411038443,False,,0.013395067165875546,0.5461720914863202,-0.31377781129622284,-0.6828414633827945,-0.14911541031103667,-0.7151867800043669,0.5022935589326512,0.6150346448070212,-0.6078104690953192,0.5304985547011553,-0.7742719032064072,-0.34507144675431056
10:36:08.085117,,-0.22949645282332976,-0.4187806355705725,0.09286103044,-2.13031353807082,0.14165339068555383,1.0699233117329507,,0.013394825006681273,0.5461642059003325,-0.31378983285433454,-0.5260952981232789,-0.7957268947117933,-0.3000707355356484,0.6024544683280705,-0.09968406788184733,-0.7919038453007216,0.60022691616098,-0.5973958450163961,0.5318325426983816,,-0.013504255872773175,0.2895881254098875,-0.08000828611270966,0.7633432747796434,-0.5040320642201807,0.4040528716239358,0.47761079824262914,0.8614989028855895,0.17235882834911398,-0.43496548165531895,0.06141106207992547,0.898350550288409,,0.04269594805284387,0.7203709254330657,1.1770666115938742,0.9911959966889486,-0.041371972668245695,-0.12577303377648108,0.04967711890861507,-0.7643247600307831,0.642915114973062,-0.12273011042422001,-0.6435029301265257,-0.755540401907029,,0.05445249202358471,0.6513013065352852,-0.3943137505230152,0.9329542068080608,-0.3577135886791546,-0.04046525019597212,-0.2781980994560074,-0.7877421750606662,0.5496072080038216,-0.22847815094272672,-0.501501001100667,-0.8344426166231093,,0.0,0.0,0.045,1.0,0.0,0.0,0.0,1.0,0.0,0.0,0.0,1.0,,0.019037333378670685,-0.19337877532911046,0.2249495411038443,False,,0.013394825006681273,0.5461642059003325,-0.31378983285433454,-0.6780236887138548,-0.15431846827304785,-0.718658255287392,0.5034097769942558,0.6149314063262953,-0.6069909076256073,0.5355954387123284,-0.7733338062333919,-0.33925263472392275
10:36:08.097395,,-0.2294732846247071,-0.41878835830344674,0.09286103044,-2.1332490094815473,0.14218995655936273,1.0668961143860958,,0.013397996833097718,0.5461585602141703,-0.3137968750496936,-0.5296256677728052,-0.7935072532111673,-0.29973803752189776,0.6004612270666032,-0.10114337621534464,-0.7932315754163033,0.5991184914738313,-0.6000968726372682,0.5300384671182754,,-0.013504702418436817,0.28958814170522373,-0.080008083739921,0.7633442779141305,-0.504032096607261,0.40405093608790904,0.4776106507367525,0.8614989703144574,0.17235890008356822,-0.43496388317496265,0.06140985038974131,0.8983514070766178,,0.04269594805284387,0.7203709254330657,1.1770666115938742,0.9911959966889486,-0.041371972668245695,-0.12577303377648108,0.04967711890861507,-0.7643247600307831,0.642915114973062,-0.12273011042422001,-0.6435029301265257,-0.755540401907029,,0.05445249202358471,0.6513013065352852,-0.3943137505230152,0.9329542068080608,-0.3577135886791546,-0.04046525019597212,-0.2781980994560074,-0.7877421750606662,0.5496072080038216,-0.22847815094272672,-0.501501001100667,-0.8344426166231093,,0.0,0.0,0.045,1.0,0.0,0.0,0.0,1.0,0.0,0.0,0.0,1.0,,0.019037333378670685,-0.19337877532911046,0.2249495411038443,False,,0.013397996833097718,0.5461585602141703,-0.3137968750496936,-0.6760838276504606,-0.15748161331630606,-0.7197987214887199,0.5036344086379474,0.6142968271758193,-0.6074469446442435,0.5378317956623683,-0.7732004588649796,-0.3360029910366538
10:36:08.109505,,-0.22941922549458751,-0.4188115265020694,0.09286103044,-2.1399586584203534,0.14353137124388501,1.058088251426054,,0.013400911242820154,0.5461528430395177,-0.31380414789617433,-0.5334570288351934,-0.7909589677928184,-0.2996790110342182,0.5982799912219033,-0.10240322896899673,-0.7947166984531296,0.5979002011120643,-0.6032391648134616,0.527842646576904,,-0.013504952521602918,0.2895883905781145,-0.08000801926833456,0.763344439415314,-0.5040327149374338,0.40404985964231876,0.4776107466012206,0.8614987027411761,0.1723599718518002,-0.4349634944856896,0.06140852903732752,0.8983516855979773,,0.04269594805284387,0.7203709254330657,1.1770666115938742,0.9911959966889486,-0.041371972668245695,-0.12577303377648108,0.04967711890861507,-0.7643247600307831,0.642915114973062,-0.12273011042422001,-0.6435029301265257,-0.755540401907029,,0.05445249202358471,0.6513013065352852,-0.3943137505230152,0.9329542068080608,-0.3577135886791546,-0.04046525019597212,-0.2781980994560074,-0.7877421750606662,0.5496072080038216,-0.22847815094272672,-0.501501001100667,-0.8344426166231093,,0.0,0.0,0.045,1.0,0.0,0.0,0.0,1.0,0.0,0.0,0.0,1.0,,0.019037333378670685,-0.19337877532911046,0.2249495411038443,False,,0.013400911242820154,0.5461528430395177,-0.31380414789617433,-0.673991561534018,-0.16138923175914702,-0.7208945074372041,0.5039019608737756,0.6131483062335713,-0.6083847207076023,0.5402019888972093,-0.7733063238038957,-0.33193243402295647
10:36:08.121703,,-0.2293883345630906,-0.4188192492349436,0.09286232673000001,-2.1437328359484313,0.1443362200545984,1.0508610712878128,,0.013405888424433882,0.5461445923961181,-0.31381433493304667,-0.5375031954337143,-0.7881506242817788,-0.29984814213663,0.5959558835033514,-0.10347297978263381,-0.7963227532681975,0.5965960943689509,-0.6067222889421031,0.5253200589017792,,-0.013504756078160398,0.28958862315486017,-0.0800081571672302,0.7633435977856591,-0.5040333008894079,0.4040507187339269,0.4776109899773191,0.861498367740229,0.17236097188469104,-0.4349647042781292,0.06140841937941172,0.8983511073387682,,0.04269594805284387,0.7203709254330657,1.1770666115938742,0.9911959966889486,-0.041371972668245695,-0.12577303377648108,0.04967711890861507,-0.7643247600307831,0.642915114973062,-0.12273011042422001,-0.6435029301265257,-0.755540401907029,,0.05445249202358471,0.6513013065352852,-0.3943137505230152,0.9329542068080608,-0.3577135886791546,-0.04046525019597212,-0.2781980994560074,-0.7877421750606662,0.5496072080038216,-0.22847815094272672,-0.501501001100667,-0.8344426166231093,,0.0,0.0,0.045,1.0,0.0,0.0,0.0,1.0,0.0,0.0,0.0,1.0,,0.019037333378670685,-0.19337877532911046,0.2249495411038443,False,,0.013405888424433882,0.5461445923961181,-0.31381433493304667,-0.6716546059910751,-0.16615238358059936,-0.7219927116539748,0.5040281811100873,0.6117641266130034,-0.609672244764584,0.542987737336518,-0.7733938445707434,-0.32714870973649574
10:36:08.135024,,-0.2293497208987195,-0.41883469470069207,0.09286232673000001,-2.147297336947172,0.14487278592840733,1.0397058399430317,,0.013414310418637936,0.5461286831630178,-0.31383186495200266,-0.5461610596596457,-0.7806233022661437,-0.3038673343262709,0.5909108966360201,-0.10191274654063312,-0.8002737683626518,0.5937443971510532,-0.6166368883318978,0.5169395891205151,,-0.013505202624785672,0.28958863945099766,-0.08000795479678299,0.7633446009169284,-0.5040333332666156,0.40404878319622384,0.4776108424667136,0.8614984351673302,0.17236104361979962,-0.4349631057968484,0.06140720768456425,0.898351964118281,,0.04269594805284387,0.7203709254330657,1.1770666115938742,0.9911959966889486,-0.041371972668245695,-0.12577303377648108,0.04967711890861507,-0.7643247600307831,0.642915114973062,-0.12273011042422001,-0.6435029301265257,-0.755540401907029,,0.05445249202358471,0.6513013065352852,-0.3943137505230152,0.9329542068080608,-0.3577135886791546,-0.04046525019597212,-0.2781980994560074,-0.7877421750606662,0.5496072080038216,-0.22847815094272672,-0.501501001100667,-0.8344426166231093,,0.0,0.0,0.045,1.0,0.0,0.0,0.0,1.0,0.0,0.0,0.0,1.0,,0.019037333378670685,-0.19337877532911046,0.2249495411038443,False,,0.013414310418637936,0.5461286831630178,-0.31383186495200266,-0.6667495139958013,-0.1819269647351831,-0.7227362347970431,0.5045257323429574,0.6035748985570827,-0.6173743817454774,0.5485424969773679,-0.7762730971340249,-0.31064643515705026
10:36:08.147918,,-0.22930338450147414,-0.4188501401664405,0.09285973415000001,-2.1506521614165752,0.14500692739685955,1.024277250423621,,0.013417174391451195,0.5461253286348423,-0.3138395812857153,-0.5506196902593116,-0.7755278479291356,-0.30882764414013075,0.5882740621860042,-0.09802324844540092,-0.8026986174918881,0.5922428424708206,-0.6236569568686094,0.5101964481368605,,-0.01350495252160292,0.2895883905781145,-0.08000801926833458,0.7633444394153138,-0.5040327149374337,0.4040498596423187,0.47761074660122055,0.8614987027411759,0.17235997185180016,-0.43496349448568955,0.06140852903732751,0.8983516855979771,,0.04269594805284387,0.7203709254330657,1.1770666115938742,0.9911959966889486,-0.041371972668245695,-0.12577303377648108,0.04967711890861507,-0.7643247600307831,0.642915114973062,-0.12273011042422001,-0.6435029301265257,-0.755540401907029,,0.05445249202358471,0.6513013065352852,-0.3943137505230152,0.9329542068080608,-0.3577135886791546,-0.04046525019597212,-0.2781980994560074,-0.7877421750606662,0.5496072080038216,-0.22847815094272672,-0.501501001100667,-0.8344426166231093,,0.0,0.0,0.045,1.0,0.0,0.0,0.0,1.0,0.0,0.0,0.0,1.0,,0.019037333378670685,-0.19337877532911046,0.2249495411038443,False,,0.013417174391451195,0.5461253286348423,-0.3138395812857153,-0.6643942111635022,-0.19396822293986987,-0.7217732751092805,0.5051308264153938,0.5952298597234601,-0.6249354065009375,0.5508386155466312,-0.779793397370829,-0.2974879443599884
10:36:08.159752,,-0.22921071170698346,-0.4188810310979374,0.09286103044,-2.1569424572967053,0.14406793711769394,0.999611330618772,,0.01341550587025478,0.5461221091899151,-0.31384141753388545,-0.5551026482093184,-0.7707579098396149,-0.3127191941193724,0.5855958938099186,-0.0951356548051856,-0.8050010287805545,0.5907101650589435,-0.6299852788791629,0.5041627210450801,,-0.013504702418436819,0.2895881417052237,-0.080008083739921,0.7633442779141305,-0.5040320966072609,0.404050936087909,0.4776106507367525,0.8614989703144574,0.1723589000835682,-0.4349638831749626,0.0614098503897413,0.8983514070766178,,0.04269594805284387,0.7203709254330657,1.1770666115938742,0.9911959966889486,-0.041371972668245695,-0.12577303377648108,0.04967711890861507,-0.7643247600307831,0.642915114973062,-0.12273011042422001,-0.6435029301265257,-0.755540401907029,,0.05445249202358471,0.6513013065352852,-0.3943137505230152,0.9329542068080608,-0.3577135886791546,-0.04046525019597212,-0.2781980994560074,-0.7877421750606662,0.5496072080038216,-0.22847815094272672,-0.501501001100667,-0.8344426166231093,,0.0,0.0,0.045,1.0,0.0,0.0,0.0,1.0,0.0,0.0,0.0,1.0,,0.019037333378670685,-0.19337877532911046,0.2249495411038443,False,,0.01341550587025478,0.5461221091899151,-0.31384141753388545,-0.6622178652735431,-0.20358056185631435,-0.7211258237969427,0.5060837324800131,0.5881971056985954,-0.6307958628327348,0.5525818985740036,-0.7826743382033572,-0.2864858210911786
10:36:08.172158,,-0.22914892984398966,-0.4189119220294343,0.09285843786,-2.1607166348247833,0.14406793711769394,0.9847328955039246,,0.013412828359944777,0.546120464836138,-0.31384361847432424,-0.5602788434696485,-0.7655861443838419,-0.31617316946223695,0.5824695780438962,-0.09276872362406294,-0.8075414259160503,0.5889115453221125,-0.6366096287715459,0.49790699165775526,,-0.013504452315287371,0.28958789283232517,-0.08000814821154224,0.7633441164133783,-0.5040314782760971,0.4040520125329946,0.47761055487330933,0.8614992378871749,0.1723578283151037,-0.4349642718646676,0.06141117174180554,0.898351128554203,,0.04269594805284387,0.7203709254330657,1.1770666115938742,0.9911959966889486,-0.041371972668245695,-0.12577303377648108,0.04967711890861507,-0.7643247600307831,0.642915114973062,-0.12273011042422001,-0.6435029301265257,-0.755540401907029,,0.05445249202358471,0.6513013065352852,-0.3943137505230152,0.9329542068080608,-0.3577135886791546,-0.04046525019597212,-0.2781980994560074,-0.7877421750606662,0.5496072080038216,-0.22847815094272672,-0.501501001100667,-0.8344426166231093,,0.0,0.0,0.045,1.0,0.0,0.0,0.0,1.0,0.0,0.0,0.0,1.0,,0.019037333378670685,-0.19337877532911046,0.2249495411038443,False,,0.013412828359944777,0.546120464836138,-0.31384361847432424,-0.659708200067648,-0.2128386023086432,-0.7207529536053306,0.5072347069356089,0.5815558163899757,-0.6360076921727725,0.554525060609033,-0.7851704030274528,-0.27569801480289313
10:36:08.185491,,-0.22907942524812164,-0.41893509022805697,0.09285973415000001,-2.163652106235511,0.14406793711769394,0.9683390642199724,,0.013419103208732658,0.5461087831156639,-0.31385791515924105,-0.568816200699826,-0.754243123915233,-0.3279717058650118,0.5772323586830134,-0.08204132564508992,-0.812448167562486,0.5858762103982889,-0.651449561296181,0.48203997259185166,,-0.013504255873318695,0.2895881254092349,-0.08000828611232352,0.7633432747776703,-0.5040320642241446,0.4040528716227186,0.4776107982477707,0.8614989028830538,0.17235882834754074,-0.43496548165313603,0.061411062082962556,0.8983505502892581,,0.04269594805284387,0.7203709254330657,1.1770666115938742,0.9911959966889486,-0.041371972668245695,-0.12577303377648108,0.04967711890861507,-0.7643247600307831,0.642915114973062,-0.12273011042422001,-0.6435029301265257,-0.755540401907029,,0.05445249202358471,0.6513013065352852,-0.3943137505230152,0.9329542068080608,-0.3577135886791546,-0.04046525019597212,-0.2781980994560074,-0.7877421750606662,0.5496072080038216,-0.22847815094272672,-0.501501001100667,-0.8344426166231093,,0.0,0.0,0.045,1.0,0.0,0.0,0.0,1.0,0.0,0.0,0.0,1.0,,0.019037333378670685,-0.19337877532911046,0.2249495411038443,False,,0.013419103208732658,0.5461087831156639,-0.31385791515924105,-0.6548908562755277,-0.2371553822190855,-0.7175481106178356,0.5085899946126681,0.5639861394682218,-0.6505811647040036,0.5589760135699855,-0.7909974457431901,-0.24873451123870305
10:36:08.197994,,-0.22901764338512784,-0.4189737038924281,0.09285973415000001,-2.166587577646238,0.14393379564924172,0.9467782108844149,,0.013420701876642432,0.546102691917871,-0.3138647332262258,-0.572585550184441,-0.7470512784968486,-0.33772796007468053,0.574887556644315,-0.07216255814073308,-0.8150440861806894,0.5845084130579392,-0.6608380682881468,0.4707897222387934,,-0.013503612884276317,0.2895883416907247,-0.08000862638413787,0.763341430008387,-0.50403261778715,0.4040556662484209,0.477611189130791,0.8614985004590798,0.1723597566484129,-0.43496828992225894,0.061412164116411504,0.8983491152378991,,0.04269594805284387,0.7203709254330657,1.1770666115938742,0.9911959966889486,-0.041371972668245695,-0.12577303377648108,0.04967711890861507,-0.7643247600307831,0.642915114973062,-0.12273011042422001,-0.6435029301265257,-0.755540401907029,,0.05445249202358471,0.6513013065352852,-0.3943137505230152,0.9329542068080608,-0.3577135886791546,-0.04046525019597212,-0.2781980994560074,-0.7877421750606662,0.5496072080038216,-0.22847815094272672,-0.501501001100667,-0.8344426166231093,,0.0,0.0,0.045,1.0,0.0,0.0,0.0,1.0,0.0,0.0,0.0,1.0,,0.019037333378670685,-0.19337877532911046,0.2249495411038443,False,,0.013420701876642432,0.546102691917871,-0.3138647332262258,-0.6527483138763143,-0.25335119274636636,-0.7139557492349387,0.5092762640695014,0.5509546117270365,-0.6611253305328136,0.5608541036553452,-0.7951491614475262,-0.23060894488778086
10:36:08.210006,,-0.2288786341933918,-0.4190432084882961,0.09285843786,-2.1730875500557065,0.14165339068555383,0.8982013731157534,,0.013419265776555542,0.5460995827657684,-0.31386789609314003,-0.5775099323469409,-0.73811537568963,-0.34880936084226316,0.5717937948828868,-0.060749215104171445,-0.8181450904317976,0.5826955759005374,-0.6719339439519212,0.45713306683192106,,-0.01350341644184392,0.2895885742683372,-0.08000876428537557,0.7633405883720805,-0.5040332037321771,0.40405652533688313,0.47761143249770827,0.861498165459972,0.17236075668394318,-0.4349694997115599,0.06141205445718341,0.8983485369699753,,0.04269594805284387,0.7203709254330657,1.1770666115938742,0.9911959966889486,-0.041371972668245695,-0.12577303377648108,0.04967711890861507,-0.7643247600307831,0.642915114973062,-0.12273011042422001,-0.6435029301265257,-0.755540401907029,,0.05445249202358471,0.6513013065352852,-0.3943137505230152,0.9329542068080608,-0.3577135886791546,-0.04046525019597212,-0.2781980994560074,-0.7877421750606662,0.5496072080038216,-0.22847815094272672,-0.501501001100667,-0.8344426166231093,,0.0,0.0,0.045,1.0,0.0,0.0,0.0,1.0,0.0,0.0,0.0,1.0,,0.019037333378670685,-0.19337877532911046,0.2249495411038443,False,,0.013419265776555542,0.5460995827657684,-0.31386789609314003,-0.6501807734305762,-0.2709653869409898,-0.7098187944406218,0.510492287490613,0.5361455452927416,-0.6722689779213007,0.5627278083352725,-0.7994533840960765,-0.2102657850995077
10:36:08.222794,,-0.22880140686464956,-0.41908182215266726,0.09285843786,-2.1764423745251094,0.13937298572186593,0.8683603425287518,,0.013411700646456484,0.5461021248474568,-0.3138667763567652,-0.5832986151854802,-0.7278000999002455,-0.36065182670810614,0.5681123607738624,-0.04821403247881309,-0.8215374322622682,0.580526546385822,-0.6840924072501644,0.4415954113031808,,-0.01350341644184392,0.2895885742683372,-0.08000876428537557,0.7633405883720805,-0.5040332037321771,0.40405652533688313,0.47761143249770827,0.861498165459972,0.17236075668394318,-0.4349694997115599,0.06141205445718341,0.8983485369699753,,0.04269594805284387,0.7203709254330657,1.1770666115938742,0.9911959966889486,-0.041371972668245695,-0.12577303377648108,0.04967711890861507,-0.7643247600307831,0.642915114973062,-0.12273011042422001,-0.6435029301265257,-0.755540401907029,,0.05445249202358471,0.6513013065352852,-0.3943137505230152,0.9329542068080608,-0.3577135886791546,-0.04046525019597212,-0.2781980994560074,-0.7877421750606662,0.5496072080038216,-0.22847815094272672,-0.501501001100667,-0.8344426166231093,,0.0,0.0,0.045,1.0,0.0,0.0,0.0,1.0,0.0,0.0,0.0,1.0,,0.019037333378670685,-0.19337877532911046,0.2249495411038443,False,,0.013411700646456484,0.5461021248474568,-0.3138667763567652,-0.6475586826219871,-0.28861748006669363,-0.7052430097213505,0.5124356823299766,0.5200441659440677,-0.6833474496495549,0.5639835317062798,-0.8038992571631667,-0.1888612196736558
10:36:08.235263,,-0.22873190226878154,-0.41912043581703834,0.09285714157000001,-2.1791681694064993,0.1368242978212736,0.8409283719878303,,0.013386465586809337,0.5461149815653483,-0.3138536785568061,-0.5964961173406509,-0.7011904078469658,-0.3905437157872783,0.5595346858031335,-0.014438371005151385,-0.8286811623452692,0.5754244671377098,-0.7128278511577137,0.40095278678811963,,-0.013503666545011403,0.2895888231412055,-0.08000869981369457,0.7633407498754026,-0.5040338220661726,0.404055448891251,0.47761152835770365,0.8614978978838912,0.17236182845149203,-0.43496911102417724,0.061410733106590516,0.8983488154942012,,0.04269594805284387,0.7203709254330657,1.1770666115938742,0.9911959966889486,-0.041371972668245695,-0.12577303377648108,0.04967711890861507,-0.7643247600307831,0.642915114973062,-0.12273011042422001,-0.6435029301265257,-0.755540401907029,,0.05445249202358471,0.6513013065352852,-0.3943137505230152,0.9329542068080608,-0.3577135886791546,-0.04046525019597212,-0.2781980994560074,-0.7877421750606662,0.5496072080038216,-0.22847815094272672,-0.501501001100667,-0.8344426166231093,,0.0,0.0,0.045,1.0,0.0,0.0,0.0,1.0,0.0,0.0,0.0,1.0,,0.019037333378670685,-0.19337877532911046,0.2249495411038443,False,,0.013386465586809337,0.5461149815653483,-0.3138536785568061,-0.6420908868405704,-0.3283027976418773,-0.6927745420386106,0.5175913276755164,0.48096590287058866,-0.7076517630805252,0.5655249866729023,-0.8129508431242298,-0.1388971422032062
10:36:08.248618,,-0.22866239767291352,-0.4191744949471579,0.09285584528000002,-2.182522993875902,0.13427560992068122,0.81067225404085,,0.01337249435868923,0.5461220145487049,-0.31384829980732776,-0.6029955557154364,-0.6865581868161392,-0.40624403491395034,0.5552139044298231,0.0044858791629959205,-0.8316954954885387,0.5728297130170737,-0.7270610242640363,0.37848168632168566,,-0.013504255875210026,0.28958812541083023,-0.0800082861168422,0.763343274772511,-0.5040320642102045,0.4040528716203336,0.4776107982317906,0.8614989028778489,0.17235882834863137,-0.4349654816523137,0.061411062076155896,0.8983505502768437,,0.04269594805284387,0.7203709254330657,1.1770666115938742,0.9911959966889486,-0.041371972668245695,-0.12577303377648108,0.04967711890861507,-0.7643247600307831,0.642915114973062,-0.12273011042422001,-0.6435029301265257,-0.755540401907029,,0.05445249202358471,0.6513013065352852,-0.3943137505230152,0.9329542068080608,-0.3577135886791546,-0.04046525019597212,-0.2781980994560074,-0.7877421750606662,0.5496072080038216,-0.22847815094272672,-0.501501001100667,-0.8344426166231093,,0.0,0.0,0.045,1.0,0.0,0.0,0.0,1.0,0.0,0.0,0.0,1.0,,0.019037333378670685,-0.19337877532911046,0.2249495411038443,False,,0.01337249435868923,0.5461220145487049,-0.31384829980732776,-0.6392681504993605,-0.3477420389525596,-0.6858656618480358,0.5201803020088102,0.4613306373122694,-0.7187395192133788,0.5663467887779984,-0.8162410902559196,-0.11402542443980379
10:36:08.260247,,-0.2285311112140517,-0.4192671677416486,0.09285714157000001,-2.188393936697357,0.1305196488040188,0.7508578220657778,,0.013360585877782626,0.5461253074808188,-0.3138429907380958,-0.6088885995451505,-0.6704913486309829,-0.4239056790784373,0.5512398469268616,0.02663777735983741,-0.8339214950925404,0.5704290529978252,-0.7414389929241201,0.35338210943350107,,-0.013505095309357715,0.28958767655284207,-0.0800078079481871,0.763345961161434,-0.5040309246926548,0.4040492178954135,0.477610163966649,0.8614996403030036,0.17235690001693493,-0.43496146358519927,0.061410069704930584,0.8983525635765496,,0.04269594805284387,0.7203709254330657,1.1770666115938742,0.9911959966889486,-0.041371972668245695,-0.12577303377648108,0.04967711890861507,-0.7643247600307831,0.642915114973062,-0.12273011042422001,-0.6435029301265257,-0.755540401907029,,0.05445249202358471,0.6513013065352852,-0.3943137505230152,0.9329542068080608,-0.3577135886791546,-0.04046525019597212,-0.2781980994560074,-0.7877421750606662,0.5496072080038216,-0.22847815094272672,-0.501501001100667,-0.8344426166231093,,0.0,0.0,0.045,1.0,0.0,0.0,0.0,1.0,0.0,0.0,0.0,1.0,,0.019037333378670685,-0.19337877532911046,0.2249495411038443,False,,0.013360585877782626,0.5461253074808188,-0.3138429907380958,-0.6364921768427961,-0.3682095580324388,-0.6777163346057664,0.5225343863719628,0.44044301805805036,-0.7300464114717587,0.5673054943121876,-0.8187989186714112,-0.0879363798762074
10:36:08.273235,,-0.22847705208393213,-0.4193212268717682,0.09285584528000002,-2.1913294081080847,0.12917823411949653,0.7215741358660481,,0.013351850215793555,0.5461268912001007,-0.31384149634723285,-0.6137416852621049,-0.6526276695967859,-0.4442952494100065,0.5479261345529406,0.053064279349764765,-0.8348419810544765,0.568417183805613,-0.7558183029893881,0.32502399606911686,,-0.013505934743741451,0.2895872276950251,-0.08000732977979635,0.7633486475408231,-0.5040297851755642,0.40404556416334036,0.47760952969714215,0.8615003777379717,0.17235497169042724,-0.43495744551239957,0.0614090773404705,0.8983545768682437,,0.04269594805284387,0.7203709254330657,1.1770666115938742,0.9911959966889486,-0.041371972668245695,-0.12577303377648108,0.04967711890861507,-0.7643247600307831,0.642915114973062,-0.12273011042422001,-0.6435029301265257,-0.755540401907029,,0.05445249202358471,0.6513013065352852,-0.3943137505230152,0.9329542068080608,-0.3577135886791546,-0.04046525019597212,-0.2781980994560074,-0.7877421750606662,0.5496072080038216,-0.22847815094272672,-0.501501001100667,-0.8344426166231093,,0.0,0.0,0.045,1.0,0.0,0.0,0.0,1.0,0.0,0.0,0.0,1.0,,0.019037333378670685,-0.19337877532911046,0.2249495411038443,False,,0.013351850215793555,0.5461268912001007,-0.31384149634723285,-0.6339511836370599,-0.39011255811449835,-0.6677709852685522,0.5245018138078654,0.417653996798231,-0.7419319283267991,0.5683341834496937,-0.8205957171225216,-0.06015750130070663
10:36:08.285705,,-0.22841527022093833,-0.4193752860018878,0.09285584528000002,-2.19447455604815,0.12783681943497424,0.6903617636329124,,0.013337524806799055,0.5461277389349372,-0.3138440612557602,-0.6218620975960836,-0.6154615798567208,-0.48424639936056124,0.5422971391782904,0.10767296233157705,-0.8332588709529498,0.5649790654638815,-0.780777546361966,0.266805319820552,,-0.013506577735631794,0.2895870114148047,-0.08000698951264794,0.7633504922840504,-0.5040292316006535,0.40404276952157814,0.4776091387987944,0.8615007801742343,0.17235404339896931,-0.4349546372283968,0.0614079753139169,0.8983560118918743,,0.04269594805284387,0.7203709254330657,1.1770666115938742,0.9911959966889486,-0.041371972668245695,-0.12577303377648108,0.04967711890861507,-0.7643247600307831,0.642915114973062,-0.12273011042422001,-0.6435029301265257,-0.755540401907029,,0.05445249202358471,0.6513013065352852,-0.3943137505230152,0.9329542068080608,-0.3577135886791546,-0.04046525019597212,-0.2781980994560074,-0.7877421750606662,0.5496072080038216,-0.22847815094272672,-0.501501001100667,-0.8344426166231093,,0.0,0.0,0.045,1.0,0.0,0.0,0.0,1.0,0.0,0.0,0.0,1.0,,0.019037333378670685,-0.19337877532911046,0.2249495411038443,False,,0.013337524806799055,0.5461277389349372,-0.3138440612557602,-0.6288754478566425,-0.4311836135901058,-0.646990233662368,0.5278048570736316,0.3742713830324091,-0.7624585003083715,0.5709095409367325,-0.8209760186597328,-0.00778927808101354
10:36:08.297288,,-0.22836121109081875,-0.41942934513200736,0.09285454899000001,-2.1972003509295397,0.12703197062426086,0.660668382560236,,0.013334115432290385,0.5461259463604882,-0.3138486385619125,-0.624542790088371,-0.595960704694478,-0.5047545361942715,0.5404153548706787,0.13681293862501517,-0.8302008576511989,0.5638240395448134,-0.7912730617712505,0.23662078130739012,,-0.01350677417930691,0.2895867788381771,-0.08000685161392936,0.763351333908098,-0.5040286456519626,0.40404191042292154,0.47760889541527995,0.8615011151801506,0.17235304336965354,-0.43495342743350357,0.06140808497937227,0.8983565901457184,,0.04269594805284387,0.7203709254330657,1.1770666115938742,0.9911959966889486,-0.041371972668245695,-0.12577303377648108,0.04967711890861507,-0.7643247600307831,0.642915114973062,-0.12273011042422001,-0.6435029301265257,-0.755540401907029,,0.05445249202358471,0.6513013065352852,-0.3943137505230152,0.9329542068080608,-0.3577135886791546,-0.04046525019597212,-0.2781980994560074,-0.7877421750606662,0.5496072080038216,-0.22847815094272672,-0.501501001100667,-0.8344426166231093,,0.0,0.0,0.045,1.0,0.0,0.0,0.0,1.0,0.0,0.0,0.0,1.0,,0.019037333378670685,-0.19337877532911046,0.2249495411038443,False,,0.013334115432290385,0.5461259463604882,-0.3138486385619125,-0.6266809012360832,-0.4510386120401987,-0.6354803053398129,0.5289446147906568,0.35264956831793587,-0.7719170139653208,0.572266233941768,-0.8198795353062697,0.0175756956073157
10:36:08.309171,,-0.22829170649495073,-0.41949112699500113,0.09285454899000001,-2.1999261458109296,0.12662954621890418,0.624296178258204,,0.013334553860316942,0.546119594782859,-0.313855847516036,-0.6262698593327701,-0.5710944113837362,-0.5306950504551331,0.5391967186631512,0.17435774398521214,-0.8239334170279039,0.5630745615584166,-0.8021536949978172,0.19873723286577635,,-0.013506347255721439,0.28958678353807077,-0.08000704928636551,0.763371550064506,-0.5039968635097579,0.4040433574077006,0.4775729526074577,0.861520961752815,0.1723534274075998,-0.4349574094445977,0.06139047624573563,0.8983558637513385,,0.04269594805284387,0.7203709254330657,1.1770666115938742,0.9911959966889486,-0.041371972668245695,-0.12577303377648108,0.04967711890861507,-0.7643247600307831,0.642915114973062,-0.12273011042422001,-0.6435029301265257,-0.755540401907029,,0.05445249202358471,0.6513013065352852,-0.3943137505230152,0.9329542068080608,-0.3577135886791546,-0.04046525019597212,-0.2781980994560074,-0.7877421750606662,0.5496072080038216,-0.22847815094272672,-0.501501001100667,-0.8344426166231093,,0.0,0.0,0.045,1.0,0.0,0.0,0.0,1.0,0.0,0.0,0.0,1.0,,0.019037333378670685,-0.19337877532911046,0.2249495411038443,False,,0.013334553860316942,0.546119594782859,-0.313855847516036,-0.624570682540482,-0.47489634193706953,-0.6199878441757604,0.5297352408076259,0.3257043737642118,-0.7831329616082762,0.5738397312468034,-0.8175512982838772,0.04814392502636011
10:36:08.321345,,-0.22817586550183735,-0.4196146907209887,0.09285195641,-2.2039099998683453,0.12434914125521628,0.5524373448005684,,0.013331765713681415,0.5461174959459127,-0.3138605247873696,-0.6277646786703903,-0.5456925044550163,-0.5550956663454268,0.5381379664580486,0.21100481916670705,-0.8160174601960557,0.5624224722308467,-0.8109849917662084,0.16119648215673035,,-0.013505723877554669,0.2895870208202242,-0.08000738483087681,0.7633909240191623,-0.5039656670330375,0.4040456638069315,0.47753725281587267,0.8615404726104994,0.17235481162768676,-0.43496260087771643,0.06137275755652244,0.8983545599214542,,0.04269594805284387,0.7203709254330657,1.1770666115938742,0.9911959966889486,-0.041371972668245695,-0.12577303377648108,0.04967711890861507,-0.7643247600307831,0.642915114973062,-0.12273011042422001,-0.6435029301265257,-0.755540401907029,,0.05445249202358471,0.6513013065352852,-0.3943137505230152,0.9329542068080608,-0.3577135886791546,-0.04046525019597212,-0.2781980994560074,-0.7877421750606662,0.5496072080038216,-0.22847815094272672,-0.501501001100667,-0.8344426166231093,,0.0,0.0,0.045,1.0,0.0,0.0,0.0,1.0,0.0,0.0,0.0,1.0,,0.019037333378670685,-0.19337877532911046,0.2249495411038443,False,,0.013331765713681415,0.5461174959459127,-0.3138605247873696,-0.6229909719422728,-0.4967447994579459,-0.6042572739238709,0.5307015543037157,0.2990929843528024,-0.793031680937499,0.5746634746858749,-0.8147318521589909,0.0772910081415521
10:36:08.333047,,-0.22812180637171778,-0.4196687498511083,0.09285195641,-2.205377735573709,0.12193459482307616,0.5187380433989157,,0.013325229329665143,0.5461187946915023,-0.31386126991647173,-0.6300374404130354,-0.516797049712036,-0.5796323257779247,0.5365210702845308,0.249941594647382,-0.8060237840199664,0.5614249413933552,-0.8188101175938529,0.11979994368700041,,-0.013504923693782344,0.28958751167456254,-0.0800078536058856,0.7634306698944708,-0.5039033032224632,0.4040483403199354,0.47746570247649295,0.8615795557890564,0.17235765156872473,-0.4349713821304031,0.06133610761327367,0.89835280746472,,0.04269594805284387,0.7203709254330657,1.1770666115938742,0.9911959966889486,-0.041371972668245695,-0.12577303377648108,0.04967711890861507,-0.7643247600307831,0.642915114973062,-0.12273011042422001,-0.6435029301265257,-0.755540401907029,,0.05445249202358471,0.6513013065352852,-0.3943137505230152,0.9329542068080608,-0.3577135886791546,-0.04046525019597212,-0.2781980994560074,-0.7877421750606662,0.5496072080038216,-0.22847815094272672,-0.501501001100667,-0.8344426166231093,,0.0,0.0,0.045,1.0,0.0,0.0,0.0,1.0,0.0,0.0,0.0,1.0,,0.019037333378670685,-0.19337877532911046,0.2249495411038443,False,,0.013325229329665143,0.5461187946915023,-0.31386126991647173,-0.6210987974091289,-0.5192912233541341,-0.5870033298068258,0.5322543698824805,0.2702866194585432,-0.8022782740936443,0.5752752120489271,-0.8107291586522838,0.10852032857037713
10:36:08.345068,,-0.22806774724159823,-0.41973053171410213,0.09285066012000001,-2.2066357947497353,0.11871519958022266,0.48517111279833164,,0.01331212269083381,0.5461256165927537,-0.31385401043611844,-0.6330625237562698,-0.489032706289745,-0.6000657073973402,0.5343554898985675,0.28479470825554404,-0.795836782616198,0.5600857536401049,-0.8244628471487163,0.08102445458519368,,-0.01350431989762302,0.28958776995909913,-0.08000818438380758,0.7634712546558586,-0.5038403516238622,0.4040501594044326,0.47739390704481355,0.8616189709255957,0.1723594917102073,-0.4349789520835375,0.061299567222420026,0.8983516361802026,,0.04269594805284387,0.7203709254330657,1.1770666115938742,0.9911959966889486,-0.041371972668245695,-0.12577303377648108,0.04967711890861507,-0.7643247600307831,0.642915114973062,-0.12273011042422001,-0.6435029301265257,-0.755540401907029,,0.05445249202358471,0.6513013065352852,-0.3943137505230152,0.9329542068080608,-0.3577135886791546,-0.04046525019597212,-0.2781980994560074,-0.7877421750606662,0.5496072080038216,-0.22847815094272672,-0.501501001100667,-0.8344426166231093,,0.0,0.0,0.045,1.0,0.0,0.0,0.0,1.0,0.0,0.0,0.0,1.0,,0.019037333378670685,-0.19337877532911046,0.2249495411038443,False,,0.01331212269083381,0.5461256165927537,-0.31385401043611844,-0.6194563803805616,-0.5387368580035263,-0.5709959637635816,0.5344664317219359,0.2433263371992383,-0.8094059099040629,0.5749951531693415,-0.806569830488155,0.13720671404153176
10:36:08.356853,,-0.2280291335772271,-0.4197923135770959,0.09285066012000001,-2.2076841773964238,0.11549580433736917,0.4531884600109026,,0.013274142304189024,0.5461495147000646,-0.31383148070459993,-0.6402920903384192,-0.4331549345217269,-0.6343523009728396,0.5291168864055702,0.34994910504269344,-0.773027130442582,0.5568315360775936,-0.8306096716143487,0.005119946305499547,,-0.013503716058625846,0.2895880282658401,-0.08000851506032824,0.763511836934107,-0.5037773985652142,0.40405197985852653,0.4773221100469771,0.8616583831145941,0.17236133249621005,-0.43498652047279734,0.06126302616124101,0.8983504680823404,,0.04269594805284387,0.7203709254330657,1.1770666115938742,0.9911959966889486,-0.041371972668245695,-0.12577303377648108,0.04967711890861507,-0.7643247600307831,0.642915114973062,-0.12273011042422001,-0.6435029301265257,-0.755540401907029,,0.05445249202358471,0.6513013065352852,-0.3943137505230152,0.9329542068080608,-0.3577135886791546,-0.04046525019597212,-0.2781980994560074,-0.7877421750606662,0.5496072080038216,-0.22847815094272672,-0.501501001100667,-0.8344426166231093,,0.0,0.0,0.045,1.0,0.0,0.0,0.0,1.0,0.0,0.0,0.0,1.0,,0.019037333378670685,-0.19337877532911046,0.2249495411038443,False,,0.013274142304189024,0.5461495147000646,-0.31383148070459993,-0.6162574068742261,-0.5743926715205951,-0.5387948286463863,0.5400815726622716,0.18969402609083202,-0.8199561398856032,0.5731829580014592,-0.7962972029141413,0.1933185487422586
10:36:08.368911,,-0.227990519912856,-0.4198463727072155,0.09285066012000001,-2.208103530455099,0.11281297496832458,0.422104863587481,,0.013258652612031768,0.5461591245309332,-0.31382166132604516,-0.6427072454055176,-0.40693606837266905,-0.6490997095675257,0.5273467284607123,0.37960361386331265,-0.7601358591223656,0.5557272934497959,-0.8308454324357253,-0.029377588663077655,,-0.013503342754842747,0.2895885144304986,-0.0800087860926173,0.7635313648318631,-0.5037468157520089,0.4040532107078497,0.47728650134613687,0.8616776175115186,0.17236378870881014,-0.43499131841494776,0.0612439845617744,0.8983494441497923,,0.04269594805284387,0.7203709254330657,1.1770666115938742,0.9911959966889486,-0.041371972668245695,-0.12577303377648108,0.04967711890861507,-0.7643247600307831,0.642915114973062,-0.12273011042422001,-0.6435029301265257,-0.755540401907029,,0.05445249202358471,0.6513013065352852,-0.3943137505230152,0.9329542068080608,-0.3577135886791546,-0.04046525019597212,-0.2781980994560074,-0.7877421750606662,0.5496072080038216,-0.22847815094272672,-0.501501001100667,-0.8344426166231093,,0.0,0.0,0.045,1.0,0.0,0.0,0.0,1.0,0.0,0.0,0.0,1.0,,0.019037333378670685,-0.19337877532911046,0.2249495411038443,False,,0.013258652612031768,0.5461591245309332,-0.31382166132604516,-0.6153211020985274,-0.5904025323493585,-0.5223071807927963,0.5423115903308198,0.16380933165035888,-0.8240537857792538,0.5720822321179982,-0.7903109215111024,0.2193867977686018
10:36:08.380773,,-0.22792101531698797,-0.4199467682345804,0.09284936383,-2.2089422365724496,0.11120327734689783,0.3685730411863968,,0.013251324479297638,0.5461618188524001,-0.3138190878101227,-0.6435255461763626,-0.38352978808563937,-0.6624045388351432,0.5267446532507735,0.4059922526360512,-0.746800081060003,0.5553511877093058,-0.8295029791691462,-0.05924412088447385,,-0.013503415987164662,0.2895890168963412,-0.08000885472768969,0.7635518953229171,-0.5037162646130413,0.40405250636956014,0.47725074475803486,0.8616969185480939,0.17236631684606618,-0.4349945169391679,0.06122373166887102,0.8983492777889098,,0.04269594805284387,0.7203709254330657,1.1770666115938742,0.9911959966889486,-0.041371972668245695,-0.12577303377648108,0.04967711890861507,-0.7643247600307831,0.642915114973062,-0.12273011042422001,-0.6435029301265257,-0.755540401907029,,0.05445249202358471,0.6513013065352852,-0.3943137505230152,0.9329542068080608,-0.3577135886791546,-0.04046525019597212,-0.2781980994560074,-0.7877421750606662,0.5496072080038216,-0.22847815094272672,-0.501501001100667,-0.8344426166231093,,0.0,0.0,0.045,1.0,0.0,0.0,0.0,1.0,0.0,0.0,0.0,1.0,,0.019037333378670685,-0.19337877532911046,0.2249495411038443,False,,0.013251324479297638,0.5461618188524001,-0.3138190878101227,-0.6148218060548329,-0.6048629652981982,-0.5060977573652587,0.5435114050425244,0.14003696892271816,-0.8276382059352014,0.5714800953560628,-0.7839199197275246,0.24265213797990115
10:36:08.393017,,-0.2279055698512395,-0.4199853818989515,0.09284936383,-2.209990619219138,0.11133741881535007,0.34666957712626556,,0.01325221961262392,0.5461585463092453,-0.3138248819457843,-0.6429948820271628,-0.36387284099428424,-0.6739095913203961,0.5271352299231908,0.42807044363689906,-0.7340872868115433,0.5555952043175856,-0.827255855749149,-0.08343691070529652,,-0.013503862532812992,0.28958903319161283,-0.0800086523552042,0.7635528984725383,-0.503716296568371,0.40405057083404405,0.4772505972240083,0.8616969859082982,0.1723663885784225,-0.43499291795292405,0.06122252064138885,0.8983501345704813,,0.04269594805284387,0.7203709254330657,1.1770666115938742,0.9911959966889486,-0.041371972668245695,-0.12577303377648108,0.04967711890861507,-0.7643247600307831,0.642915114973062,-0.12273011042422001,-0.6435029301265257,-0.755540401907029,,0.05445249202358471,0.6513013065352852,-0.3943137505230152,0.9329542068080608,-0.3577135886791546,-0.04046525019597212,-0.2781980994560074,-0.7877421750606662,0.5496072080038216,-0.22847815094272672,-0.501501001100667,-0.8344426166231093,,0.0,0.0,0.045,1.0,0.0,0.0,0.0,1.0,0.0,0.0,0.0,1.0,,0.019037333378670685,-0.19337877532911046,0.2249495411038443,False,,0.01325221961262392,0.5461585463092453,-0.3138248819457843,-0.6143236811120341,-0.617594439123791,-0.49110439174205156,0.5436993545026781,0.11973937209366187,-0.8306945856835636,0.5718368882280432,-0.7773284965405464,0.26222696605742674
10:36:08.404858,,-0.22789012438549106,-0.42002399556332265,0.09284806754000001,-2.209990619219138,0.11227640909451567,0.32656242829847193,,0.013252589804291857,0.5461539690016578,-0.3138309233712988,-0.642426872574948,-0.34697628274288006,-0.6832972798186047,0.5275527465553461,0.44649274400574823,-0.7227256250833564,0.5558559282723197,-0.8247737197341768,-0.10379064620844901,,-0.013504112636182813,0.2895892820643907,-0.08000858788395879,0.7635530602332806,-0.5037169148266354,0.4040494943835656,0.47725069319949837,0.861696718364943,0.17236746034380487,-0.4349925287113298,0.06122119945175078,0.8983504130842811,,0.04269594805284387,0.7203709254330657,1.1770666115938742,0.9911959966889486,-0.041371972668245695,-0.12577303377648108,0.04967711890861507,-0.7643247600307831,0.642915114973062,-0.12273011042422001,-0.6435029301265257,-0.755540401907029,,0.05445249202358471,0.6513013065352852,-0.3943137505230152,0.9329542068080608,-0.3577135886791546,-0.04046525019597212,-0.2781980994560074,-0.7877421750606662,0.5496072080038216,-0.22847815094272672,-0.501501001100667,-0.8344426166231093,,0.0,0.0,0.045,1.0,0.0,0.0,0.0,1.0,0.0,0.0,0.0,1.0,,0.019037333378670685,-0.19337877532911046,0.2249495411038443,False,,0.013252589804291857,0.5461539690016578,-0.3138309233712988,-0.6135756287739892,-0.628774603176662,-0.4776687619832758,0.5437573087632889,0.10219913313039314,-0.8329965944431598,0.5725844365166675,-0.7708422896983712,0.27919388867140893
10:36:08.417227,,-0.2278746789197426,-0.42005488649481953,0.09284806754000001,-2.209990619219138,0.11388610671594242,0.3068730630741726,,0.013270850933225158,0.5461335789682122,-0.3138553147375462,-0.6380783269159351,-0.3178085656439579,-0.7013228673895435,0.5307305379151155,0.4783591359523469,-0.6996410745341187,0.5578361272313701,-0.8186392689422212,-0.13655988613517678,,-0.013504755625143715,0.2895890657830283,-0.08000824761269847,0.7635549047641681,-0.5037163604677329,0.40404669975914104,0.47725030215166475,0.861697120631798,0.1723665320459382,-0.43498971997652686,0.06122009858322398,0.8983518481211765,,0.04269594805284387,0.7203709254330657,1.1770666115938742,0.9911959966889486,-0.041371972668245695,-0.12577303377648108,0.04967711890861507,-0.7643247600307831,0.642915114973062,-0.12273011042422001,-0.6435029301265257,-0.755540401907029,,0.05445249202358471,0.6513013065352852,-0.3943137505230152,0.9329542068080608,-0.3577135886791546,-0.04046525019597212,-0.2781980994560074,-0.7877421750606662,0.5496072080038216,-0.22847815094272672,-0.501501001100667,-0.8344426166231093,,0.0,0.0,0.045,1.0,0.0,0.0,0.0,1.0,0.0,0.0,0.0,1.0,,0.019037333378670685,-0.19337877532911046,0.2249495411038443,False,,0.013270850933225158,0.5461335789682122,-0.3138553147375462,-0.6141830579113547,-0.6477524446158293,-0.45077260549957443,0.5416192725110273,0.06944272449436617,-0.8377507216704894,0.5739579557940491,-0.7586794306616049,0.30818466294041924
10:36:08.429898,,-0.2278669561868684,-0.4200780546934422,0.09284806754000001,-2.209990619219138,0.11576408727427362,0.28684108712529954,,0.013283274177320122,0.5461206502360815,-0.3138695117106972,-0.6353421248403925,-0.3036974881739868,-0.7100057887652086,0.532713338117256,0.49326430106350866,-0.6876822148989301,0.5590678704730448,-0.8151430334445233,-0.15160788644261033,,-0.01350489840963918,0.2895883517543649,-0.08000803628544374,0.7635564257647862,-0.5037145696029215,0.4040460580271315,0.47724971915180636,0.8616980579743478,0.1723634602140931,-0.4349876897189649,0.06122164010541452,0.8983527261270912,,0.04269594805284387,0.7203709254330657,1.1770666115938742,0.9911959966889486,-0.041371972668245695,-0.12577303377648108,0.04967711890861507,-0.7643247600307831,0.642915114973062,-0.12273011042422001,-0.6435029301265257,-0.755540401907029,,0.05445249202358471,0.6513013065352852,-0.3943137505230152,0.9329542068080608,-0.3577135886791546,-0.04046525019597212,-0.2781980994560074,-0.7877421750606662,0.5496072080038216,-0.22847815094272672,-0.501501001100667,-0.8344426166231093,,0.0,0.0,0.045,1.0,0.0,0.0,0.0,1.0,0.0,0.0,0.0,1.0,,0.019037333378670685,-0.19337877532911046,0.2249495411038443,False,,0.013283274177320122,0.5461206502360815,-0.3138695117106972,-0.6146249360184064,-0.6569760430347964,-0.43659897721216895,0.5400634302173173,0.052951521397876955,-0.8399569201593352,0.5749501538101156,-0.7520496095737249,0.32226340992072444
10:36:08.441817,,-0.22785923345399417,-0.4201089456249391,0.09284677125000002,-2.209990619219138,0.11670307755343923,0.2513044500302567,,0.013290192854562712,0.5461147028586945,-0.31387783142739545,-0.6338138901828042,-0.2915587855001367,-0.7164310345099698,0.533815206180074,0.505410881261275,-0.6779389107829898,0.5597510859857847,-0.8121288787504031,-0.16469792359756058,,-0.013504987536494168,0.28958715627573917,-0.08000775153221781,0.7635586263865531,-0.5037115741776768,0.4040456336415486,0.4772487966472386,0.8616995977474989,0.17235831658273676,-0.43498483895891854,0.06122461299117453,0.8983539038678677,,0.04269594805284387,0.7203709254330657,1.1770666115938742,0.9911959966889486,-0.041371972668245695,-0.12577303377648108,0.04967711890861507,-0.7643247600307831,0.642915114973062,-0.12273011042422001,-0.6435029301265257,-0.755540401907029,,0.05445249202358471,0.6513013065352852,-0.3943137505230152,0.9329542068080608,-0.3577135886791546,-0.04046525019597212,-0.2781980994560074,-0.7877421750606662,0.5496072080038216,-0.22847815094272672,-0.501501001100667,-0.8344426166231093,,0.0,0.0,0.045,1.0,0.0,0.0,0.0,1.0,0.0,0.0,0.0,1.0,,0.019037333378670685,-0.19337877532911046,0.2249495411038443,False,,0.013290192854562712,0.5461147028586945,-0.31387783142739545,-0.6148451619661152,-0.6646356130799185,-0.42452906688793696,0.5392808313461885,0.038456833386558475,-0.8412474409520911,0.5754490522621662,-0.7461773072077167,0.33478024801175976
10:36:08.453581,,-0.22785923345399417,-0.4201089456249391,0.09284677125000002,-2.2102002957484754,0.11683721902189145,0.2330517131047871,,0.013289646481632826,0.5461135837850536,-0.31387957411251943,-0.6333770528918535,-0.27904383787702136,-0.721781161719321,0.5341294386060572,0.5172661138870477,-0.6686864065005136,0.5599457578055292,-0.8090551921637079,-0.17857895830286713,,-0.013505130322812338,0.2895864422484987,-0.08000754020704884,0.7635601473880657,-0.5037097833126619,0.4040449918948028,0.47724821362577874,0.8617005350799268,0.17235524475169195,-0.4349828087076123,0.06122615452177038,0.8983547818600165,,0.04269594805284387,0.7203709254330657,1.1770666115938742,0.9911959966889486,-0.041371972668245695,-0.12577303377648108,0.04967711890861507,-0.7643247600307831,0.642915114973062,-0.12273011042422001,-0.6435029301265257,-0.755540401907029,,0.05445249202358471,0.6513013065352852,-0.3943137505230152,0.9329542068080608,-0.3577135886791546,-0.04046525019597212,-0.2781980994560074,-0.7877421750606662,0.5496072080038216,-0.22847815094272672,-0.501501001100667,-0.8344426166231093,,0.0,0.0,0.045,1.0,0.0,0.0,0.0,1.0,0.0,0.0,0.0,1.0,,0.019037333378670685,-0.19337877532911046,0.2249495411038443,False,,0.013289646481632826,0.5461135837850536,-0.31387957411251943,-0.6148483902576181,-0.6722123196428891,-0.4124221797114489,0.5392729957047382,0.023222271265083028,-0.841810763901798,0.575452946035776,-0.739994137434627,0.34822777525798976
10:36:08.465129,,-0.2278669561868684,-0.4201089456249391,0.09284677125000002,-2.209990619219138,0.11630065314808254,0.21630987860922923,,0.01329033188957255,0.5461127609934575,-0.31388056490633404,-0.632880238275148,-0.26683388678835745,-0.726816538654845,0.5344864212275209,0.5286029621226782,-0.6594718901958804,0.5601668229413348,-0.8058402976375332,-0.19192327940941106,,-0.013505076663675824,0.28958596079836046,-0.08000746677921163,0.763560827015556,-0.5037085787542328,0.4040452092437858,0.47724787412533803,0.8617011375136228,0.17235317295227798,-0.4349819882090629,0.06122758588465796,0.8983550816000159,,0.04269594805284387,0.7203709254330657,1.1770666115938742,0.9911959966889486,-0.041371972668245695,-0.12577303377648108,0.04967711890861507,-0.7643247600307831,0.642915114973062,-0.12273011042422001,-0.6435029301265257,-0.755540401907029,,0.05445249202358471,0.6513013065352852,-0.3943137505230152,0.9329542068080608,-0.3577135886791546,-0.04046525019597212,-0.2781980994560074,-0.7877421750606662,0.5496072080038216,-0.22847815094272672,-0.501501001100667,-0.8344426166231093,,0.0,0.0,0.045,1.0,0.0,0.0,0.0,1.0,0.0,0.0,0.0,1.0,,0.019037333378670685,-0.19337877532911046,0.2249495411038443,False,,0.01329033188957255,0.5461127609934575,-0.31388056490633404,-0.6147225888046911,-0.6797616005671319,-0.40005037833711654,0.5392017355304843,0.008000441582003137,-0.8421386354605797,0.5756540864218482,-0.7333895004217775,0.36161058261190765
10:36:08.476947,,-0.2278746789197426,-0.4201089456249391,0.09284677125000002,-2.2095712661604625,0.1152275214004647,0.1999088573425679,,0.013278536774289251,0.5461229678192153,-0.31387008989568843,-0.6338540929790687,-0.24539270717311984,-0.733492609424205,0.533786270603751,0.5475049351080755,-0.644445935162323,0.5597331561812477,-0.800012978206322,-0.2160509860491952,,-0.013504826561004876,0.28958571192480453,-0.08000753125014788,0.763560665262069,-0.5037079605005664,0.4040462856884006,0.4772477781530378,0.861701405042367,0.1723521011815218,-0.4349823774570891,0.06122890707873677,0.8983548030847321,,0.04269594805284387,0.7203709254330657,1.1770666115938742,0.9911959966889486,-0.041371972668245695,-0.12577303377648108,0.04967711890861507,-0.7643247600307831,0.642915114973062,-0.12273011042422001,-0.6435029301265257,-0.755540401907029,,0.05445249202358471,0.6513013065352852,-0.3943137505230152,0.9329542068080608,-0.3577135886791546,-0.04046525019597212,-0.2781980994560074,-0.7877421750606662,0.5496072080038216,-0.22847815094272672,-0.501501001100667,-0.8344426166231093,,0.0,0.0,0.045,1.0,0.0,0.0,0.0,1.0,0.0,0.0,0.0,1.0,,0.019037333378670685,-0.19337877532911046,0.2249495411038443,False,,0.013278536774289251,0.5461229678192153,-0.31387008989568843,-0.6148216331037113,-0.692090594630128,-0.37815997711577287,0.5404141024732222,-0.020472730487795632,-0.8411500847972593,0.5744100950677554,-0.7215202534446905,0.3866025951197978
10:36:08.489928,,-0.2278746789197426,-0.4201089456249391,0.09284677125000002,-2.2089422365724496,0.11402024818439464,0.18584891322577546,,0.013271173206538846,0.5461300986082994,-0.3138621910098227,-0.634738206684866,-0.23665498777488211,-0.7355962382555736,0.5331492430546917,0.5549431434347025,-0.6385843657536727,0.5593382640269566,-0.7975164727553166,-0.22607118807850973,,-0.013505076662614718,0.2895859607988321,-0.08000746677691539,0.7635608270201097,-0.5037085787572371,0.40404520924619564,0.4772478741281844,0.8617011375187618,0.17235317295330593,-0.4349819882116573,0.06122758588502319,0.8983550816053736,,0.04269594805284387,0.7203709254330657,1.1770666115938742,0.9911959966889486,-0.041371972668245695,-0.12577303377648108,0.04967711890861507,-0.7643247600307831,0.642915114973062,-0.12273011042422001,-0.6435029301265257,-0.755540401907029,,0.05445249202358471,0.6513013065352852,-0.3943137505230152,0.9329542068080608,-0.3577135886791546,-0.04046525019597212,-0.2781980994560074,-0.7877421750606662,0.5496072080038216,-0.22847815094272672,-0.501501001100667,-0.8344426166231093,,0.0,0.0,0.045,1.0,0.0,0.0,0.0,1.0,0.0,0.0,0.0,1.0,,0.019037333378670685,-0.19337877532911046,0.2249495411038443,False,,0.013271173206538846,0.5461300986082994,-0.3138621910098227,-0.6150103735908474,-0.6968506274909061,-0.3690006007328135,0.541287025277208,-0.03281011673801104,-0.8401975080337896,0.5733852079032019,-0.716465420802127,0.3973747653697117
10:36:08.501458,,-0.2278746789197426,-0.4201089456249391,0.09284677125000002,-2.2089422365724496,0.11321539937368127,0.16249264340571923,,0.013266760105644114,0.5461339851641402,-0.3138580773303765,-0.635169368593676,-0.22906953177421605,-0.7376225476577112,0.5328380962275575,0.5614043539924447,-0.6331735263945565,0.5591452730810688,-0.7952058229987173,-0.23452987583681045,,-0.013505380420820778,0.2895866911241331,-0.08000747573048257,0.763560309160769,-0.5037104015658884,0.40404391545858,0.4772483095977777,0.8617002675695575,0.17235631652792638,-0.43498241947328453,0.06122483332229197,0.8983550603877528,,0.04269594805284387,0.7203709254330657,1.1770666115938742,0.9911959966889486,-0.041371972668245695,-0.12577303377648108,0.04967711890861507,-0.7643247600307831,0.642915114973062,-0.12273011042422001,-0.6435029301265257,-0.755540401907029,,0.05445249202358471,0.6513013065352852,-0.3943137505230152,0.9329542068080608,-0.3577135886791546,-0.04046525019597212,-0.2781980994560074,-0.7877421750606662,0.5496072080038216,-0.22847815094272672,-0.501501001100667,-0.8344426166231093,,0.0,0.0,0.045,1.0,0.0,0.0,0.0,1.0,0.0,0.0,0.0,1.0,,0.019037333378670685,-0.19337877532911046,0.2249495411038443,False,,0.013266760105644114,0.5461339851641402,-0.3138580773303765,-0.6148533672884471,-0.7014267162986005,-0.36049396443854737,0.5418366602269653,-0.04358022149715318,-0.839353202131467,0.5730343535671717,-0.7114079883982339,0.40685415528790175
10:36:08.513362,,-0.2278746789197426,-0.4201089456249391,0.09284677125000002,-2.2085228835137745,0.11321539937368127,0.15408908283159245,,0.013265877620732738,0.5461347629485986,-0.3138572548966907,-0.6350898713610881,-0.222984824600316,-0.739552988833473,0.5328954890409844,0.5666161539579286,-0.6284652192712776,0.5591808768675183,-0.793236346918049,-0.24102457317415188,,-0.013504987531244137,0.289587156278495,-0.08000775152691052,0.7635586264061289,-0.5037115741747945,0.4040456336524299,0.4772487966403497,0.8616995977705171,0.17235831659054035,-0.43498483897324663,0.06122461298315615,0.898353903881393,,0.04269594805284387,0.7203709254330657,1.1770666115938742,0.9911959966889486,-0.041371972668245695,-0.12577303377648108,0.04967711890861507,-0.7643247600307831,0.642915114973062,-0.12273011042422001,-0.6435029301265257,-0.755540401907029,,0.05445249202358471,0.6513013065352852,-0.3943137505230152,0.9329542068080608,-0.3577135886791546,-0.04046525019597212,-0.2781980994560074,-0.7877421750606662,0.5496072080038216,-0.22847815094272672,-0.501501001100667,-0.8344426166231093,,0.0,0.0,0.045,1.0,0.0,0.0,0.0,1.0,0.0,0.0,0.0,1.0,,0.019037333378670685,-0.19337877532911046,0.2249495411038443,False,,0.013265877620732738,0.5461347629485986,-0.3138572548966907,-0.6148219328348141,-0.7051981940597628,-0.3531140014217967,0.5419465579755095,-0.05249378434842339,-0.8387719182848693,0.572964151761488,-0.7070642896509699,0.4144540639161453
10:36:08.526037,,-0.2278746789197426,-0.4201089456249391,0.09284677125000002,-2.207474500867086,0.1133495408421335,0.14671964566605758,,0.013266259275625567,0.5461348580576614,-0.3138569351360654,-0.6348561080700391,-0.2182577519952567,-0.7411621116463928,0.5330641913395331,0.5706579204794183,-0.6246535885638019,0.5592855173859703,-0.7916521278238839,-0.24594027436396945,,-0.013504844748625882,0.28958787030538186,-0.08000796285553508,0.7635571053945417,-0.5037133650404866,0.4040462753879275,0.4772493796558517,0.8616986604227762,0.17236138841821935,-0.43498686921948826,0.06122307145954924,0.8983530258764899,,0.04269594805284387,0.7203709254330657,1.1770666115938742,0.9911959966889486,-0.041371972668245695,-0.12577303377648108,0.04967711890861507,-0.7643247600307831,0.642915114973062,-0.12273011042422001,-0.6435029301265257,-0.755540401907029,,0.05445249202358471,0.6513013065352852,-0.3943137505230152,0.9329542068080608,-0.3577135886791546,-0.04046525019597212,-0.2781980994560074,-0.7877421750606662,0.5496072080038216,-0.22847815094272672,-0.501501001100667,-0.8344426166231093,,0.0,0.0,0.045,1.0,0.0,0.0,0.0,1.0,0.0,0.0,0.0,1.0,,0.019037333378670685,-0.19337877532911046,0.2249495411038443,False,,0.013266259275625567,0.5461348580576614,-0.3138569351360654,-0.615135647369151,-0.7079039127401069,-0.34710255784563604,0.5418683797682201,-0.059803353814249394,-0.8383329993981701,0.5727013133764406,-0.7037724129289349,0.4203779209914398
10:36:08.537758,,-0.2278746789197426,-0.4201089456249391,0.09284677125000002,-2.207264824337748,0.11415438965284687,0.14142115156122248,,0.013273594436370134,0.5461297061597985,-0.3138617237872262,-0.633477533622024,-0.21138275796699085,-0.7443275784427352,0.5340571879807101,0.5766370325881527,-0.6182820170553777,0.559901004073304,-0.7891812607267095,-0.2523961238916074,,-0.013504898408032531,0.2895883517554892,-0.08000803628353366,0.7635564257713113,-0.5037145696019609,0.40404605803075855,0.47724971914951025,0.8616980579820205,0.17236346021669433,-0.4349876897237408,0.06122164010274172,0.8983527261315997,,0.04269594805284387,0.7203709254330657,1.1770666115938742,0.9911959966889486,-0.041371972668245695,-0.12577303377648108,0.04967711890861507,-0.7643247600307831,0.642915114973062,-0.12273011042422001,-0.6435029301265257,-0.755540401907029,,0.05445249202358471,0.6513013065352852,-0.3943137505230152,0.9329542068080608,-0.3577135886791546,-0.04046525019597212,-0.2781980994560074,-0.7877421750606662,0.5496072080038216,-0.22847815094272672,-0.501501001100667,-0.8344426166231093,,0.0,0.0,0.045,1.0,0.0,0.0,0.0,1.0,0.0,0.0,0.0,1.0,,0.019037333378670685,-0.19337877532911046,0.2249495411038443,False,,0.013273594436370134,0.5461297061597985,-0.3138617237872262,-0.6162958520961551,-0.7116118258204628,-0.33732481681836224,0.5408637284030265,-0.0711360498491298,-0.8380967066573163,0.5724035726539899,-0.6989622820755993,0.42872587774546456
10:36:08.550180,,-0.2278746789197426,-0.4201089456249391,0.09284677125000002,-2.207264824337748,0.11549580433736917,0.13653954231204316,,0.013282442461960593,0.546121950961953,-0.31386994460616036,-0.6320045990028623,-0.2089178495994501,-0.746273086046906,0.5351145878470702,0.5789041935697048,-0.6152416700294852,0.5605555857472935,-0.7881771798181874,-0.2540751237357908,,-0.013505148510838783,0.28958860062894975,-0.08000797181273417,0.7635565875314542,-0.5037151878534298,0.4040449815820438,0.477249815123304,0.8616977904445636,0.17236453198456558,-0.4349873004820053,0.061220318908595306,0.8983530046427389,,0.04269594805284387,0.7203709254330657,1.1770666115938742,0.9911959966889486,-0.041371972668245695,-0.12577303377648108,0.04967711890861507,-0.7643247600307831,0.642915114973062,-0.12273011042422001,-0.6435029301265257,-0.755540401907029,,0.05445249202358471,0.6513013065352852,-0.3943137505230152,0.9329542068080608,-0.3577135886791546,-0.04046525019597212,-0.2781980994560074,-0.7877421750606662,0.5496072080038216,-0.22847815094272672,-0.501501001100667,-0.8344426166231093,,0.0,0.0,0.045,1.0,0.0,0.0,0.0,1.0,0.0,0.0,0.0,1.0,,0.019037333378670685,-0.19337877532911046,0.2249495411038443,False,,0.013282442461960593,0.546121950961953,-0.31386994460616036,-0.6166087299502917,-0.7133625818885364,-0.33302777798617617,0.5397636794409036,-0.07512779469814368,-0.8384575032881579,0.5731045668161319,-0.6967565150216503,0.4313716660484078
10:36:08.562592,,-0.22788240165261683,-0.4201166683578133,0.09284677125000002,-2.2057970886323846,0.11683721902189145,0.13096911662236166,,0.013288746516382725,0.5461156788988082,-0.3138770302971061,-0.6308041517060454,-0.2072370860174948,-0.7477559176425111,0.5359736606538483,0.5804655433366682,-0.6130187501897311,0.5610867644809756,-0.7874722491477677,-0.2550864550430426,,-0.013504952067503333,0.2895888332055834,-0.08000810971157594,0.7635557461494059,-0.5037157741638318,0.40404584067164556,0.47725005864198033,0.8616974555392348,0.1723655320147737,-0.43498851022958246,0.06122020874712242,0.8983524263853849,,0.04269594805284387,0.7203709254330657,1.1770666115938742,0.9911959966889486,-0.041371972668245695,-0.12577303377648108,0.04967711890861507,-0.7643247600307831,0.642915114973062,-0.12273011042422001,-0.6435029301265257,-0.755540401907029,,0.05445249202358471,0.6513013065352852,-0.3943137505230152,0.9329542068080608,-0.3577135886791546,-0.04046525019597212,-0.2781980994560074,-0.7877421750606662,0.5496072080038216,-0.22847815094272672,-0.501501001100667,-0.8344426166231093,,0.0,0.0,0.045,1.0,0.0,0.0,0.0,1.0,0.0,0.0,0.0,1.0,,0.019037333378670685,-0.19337877532911046,0.2249495411038443,False,,0.013288746516382725,0.5461156788988082,-0.3138770302971061,-0.6171744273068618,-0.7143233955503798,-0.32990576358685075,0.5388044237367962,-0.0781318420795084,-0.8387998618353022,0.573398220471695,-0.6954405091901382,0.4331015803910845
10:36:08.574450,,-0.22788240165261683,-0.4201321138235618,0.09284677125000002,-2.2051680590443716,0.11683721902189145,0.12945372045325684,,0.01329150095572458,0.5461143798346509,-0.31387785003379576,-0.6303716035945057,-0.20604324455160278,-0.7484502807510595,0.5362826089463029,0.5815061221561364,-0.6117610589410538,0.5612776538607591,-0.787017668969116,-0.2560675379796916,,-0.013505398614207222,0.28958884950175023,-0.08000790734158335,0.7635567492900565,-0.5037158061078724,0.40404390513160726,0.47724991110326564,0.8616975229040099,0.17236560375063106,-0.43498691123851985,0.06121899771713718,0.8983532831536724,,0.04269594805284387,0.7203709254330657,1.1770666115938742,0.9911959966889486,-0.041371972668245695,-0.12577303377648108,0.04967711890861507,-0.7643247600307831,0.642915114973062,-0.12273011042422001,-0.6435029301265257,-0.755540401907029,,0.05445249202358471,0.6513013065352852,-0.3943137505230152,0.9329542068080608,-0.3577135886791546,-0.04046525019597212,-0.2781980994560074,-0.7877421750606662,0.5496072080038216,-0.22847815094272672,-0.501501001100667,-0.8344426166231093,,0.0,0.0,0.045,1.0,0.0,0.0,0.0,1.0,0.0,0.0,0.0,1.0,,0.019037333378670685,-0.19337877532911046,0.2249495411038443,False,,0.01329150095572458,0.5461143798346509,-0.31387785003379576,-0.6180191675714344,-0.7144723812770543,-0.3279962269700784,0.5383872028973385,-0.08061856006104512,-0.8388324430600332,0.5728800295617675,-0.6950034993911754,0.43448660228288877
10:36:08.587077,,-0.22789012438549106,-0.4201321138235618,0.09284677125000002,-2.2051680590443716,0.11683721902189145,0.12883378565680487,,0.013290647015183135,0.5461137913538485,-0.31387905657238113,-0.6302663766098967,-0.2049253346388375,-0.7488457129063318,0.5363577199427719,0.5824340702753505,-0.6108117140660277,0.5613240514825841,-0.7866232649786353,-0.25717532584120273,,-0.013505344952713192,0.28958836805218463,-0.0800078339120405,0.7635574289174497,-0.5037146015465002,0.40404412249393784,0.47724957160647113,0.8616981253555301,0.1723635319557964,-0.43498609073680217,0.06122042907141092,0.8983535829048043,,0.04269594805284387,0.7203709254330657,1.1770666115938742,0.9911959966889486,-0.041371972668245695,-0.12577303377648108,0.04967711890861507,-0.7643247600307831,0.642915114973062,-0.12273011042422001,-0.6435029301265257,-0.755540401907029,,0.05445249202358471,0.6513013065352852,-0.3943137505230152,0.9329542068080608,-0.3577135886791546,-0.04046525019597212,-0.2781980994560074,-0.7877421750606662,0.5496072080038216,-0.22847815094272672,-0.501501001100667,-0.8344426166231093,,0.0,0.0,0.045,1.0,0.0,0.0,0.0,1.0,0.0,0.0,0.0,1.0,,0.019037333378670685,-0.19337877532911046,0.2249495411038443,False,,0.013290647015183135,0.5461137913538485,-0.31387905657238113,-0.6184929590119068,-0.7148039207761483,-0.32637679834164346,0.5382648927775424,-0.0827935122577208,-0.8386990756708936,0.5724835061867517,-0.6944066453966844,0.4359610601568067
10:36:08.598596,,-0.22789012438549106,-0.420139836556436,0.09284677125000002,-2.2051680590443716,0.11697136049034368,0.12855915782844263,,0.013291261599627263,0.5461124593229217,-0.3138807496643649,-0.6301160800537192,-0.2048095566971513,-0.7490038525556802,0.5364649693267495,0.5825499336926869,-0.6106070024491168,0.5613902941296587,-0.7865676196234894,-0.25720092810262757,,-0.013505094849370073,0.28958811917936705,-0.08000789838321991,0.7635572671600287,-0.5037139832915262,0.40404519894360713,0.4772494756269293,0.8616983928945382,0.17236246018921136,-0.43498647998140805,0.061221750262799496,0.8983533043930044,,0.04269594805284387,0.7203709254330657,1.1770666115938742,0.9911959966889486,-0.041371972668245695,-0.12577303377648108,0.04967711890861507,-0.7643247600307831,0.642915114973062,-0.12273011042422001,-0.6435029301265257,-0.755540401907029,,0.05445249202358471,0.6513013065352852,-0.3943137505230152,0.9329542068080608,-0.3577135886791546,-0.04046525019597212,-0.2781980994560074,-0.7877421750606662,0.5496072080038216,-0.22847815094272672,-0.501501001100667,-0.8344426166231093,,0.0,0.0,0.045,1.0,0.0,0.0,0.0,1.0,0.0,0.0,0.0,1.0,,0.019037333378670685,-0.19337877532911046,0.2249495411038443,False,,0.013291261599627263,0.5461124593229217,-0.3138807496643649,-0.6185256583586776,-0.714902065664848,-0.3260997492487504,0.5381508463631682,-0.08300947363729827,-0.8387509128728652,0.5725553916526945,-0.6942798166406627,0.4360686410358323
10:36:08.610116,,-0.22789012438549106,-0.420139836556436,0.09284677125000002,-2.2045390294563587,0.11683721902189145,0.12876490401275467,,0.013290962764128514,0.5461133809271237,-0.31387943143509267,-0.6301943052921348,-0.2048662506644936,-0.7489225306505584,0.5364091536968827,0.5824925492991762,-0.6107107742959355,0.5613558206766521,-0.7865953529926425,-0.25719135530344445,,-0.013504844746589147,0.2895878703058893,-0.08000796285404799,0.7635571054010671,-0.5037133650395258,0.4040462753915544,0.47724937965355535,0.861698660430449,0.17236138842082052,-0.43498686922426405,0.06122307145687637,0.8983530258809985,,0.04269594805284387,0.7203709254330657,1.1770666115938742,0.9911959966889486,-0.041371972668245695,-0.12577303377648108,0.04967711890861507,-0.7643247600307831,0.642915114973062,-0.12273011042422001,-0.6435029301265257,-0.755540401907029,,0.05445249202358471,0.6513013065352852,-0.3943137505230152,0.9329542068080608,-0.3577135886791546,-0.04046525019597212,-0.2781980994560074,-0.7877421750606662,0.5496072080038216,-0.22847815094272672,-0.501501001100667,-0.8344426166231093,,0.0,0.0,0.045,1.0,0.0,0.0,0.0,1.0,0.0,0.0,0.0,1.0,,0.019037333378670685,-0.19337877532911046,0.2249495411038443,False,,0.013290962764128514,0.5461133809271237,-0.31387943143509267,-0.6189635107273584,-0.7144648817692556,-0.3262270759862021,0.538142263509189,-0.083241124273702,-0.8387334615089928,0.572090094839327,-0.6947019849893148,0.43600696719047516
10:36:08.622145,,-0.2279055698512395,-0.42014755928931025,0.09284547496000001,-2.203280970280332,0.11469095552665579,0.13191907967364666,,0.013287607861537355,0.5461175179430804,-0.31387691289958697,-0.6306482907439389,-0.2052940959018114,-0.7484230538736806,0.5360850209046778,0.5820783137780354,-0.61138996310943,0.561155578911392,-0.7867904236943767,-0.25703160397010266,,-0.013504791087246656,0.28958738885576885,-0.0800078894260931,0.7635577850256217,-0.5037121604784478,0.4040464927467792,0.4772490401587082,0.8616992628691742,0.17235931662194992,-0.4349860487216002,0.06122450281487209,0.8983533256245637,,0.04269594805284387,0.7203709254330657,1.1770666115938742,0.9911959966889486,-0.041371972668245695,-0.12577303377648108,0.04967711890861507,-0.7643247600307831,0.642915114973062,-0.12273011042422001,-0.6435029301265257,-0.755540401907029,,0.05445249202358471,0.6513013065352852,-0.3943137505230152,0.9329542068080608,-0.3577135886791546,-0.04046525019597212,-0.2781980994560074,-0.7877421750606662,0.5496072080038216,-0.22847815094272672,-0.501501001100667,-0.8344426166231093,,0.0,0.0,0.045,1.0,0.0,0.0,0.0,1.0,0.0,0.0,0.0,1.0,,0.019037333378670685,-0.19337877532911046,0.2249495411038443,False,,0.013287607861537355,0.5461175179430804,-0.31387691289958697,-0.6196231572186746,-0.7135025726379832,-0.32707984021847236,0.5383844007865913,-0.08312470257493854,-0.8385896021365227,0.5711474240754527,-0.6957042206719806,0.43564464568173855
10:36:08.634691,,-0.2279055698512395,-0.42014755928931025,0.09284417867000001,-2.2030712937509946,0.11267883349987236,0.13493639079427688,,0.013276234510312589,0.5461272332408296,-0.31386688037777916,-0.6323223545741163,-0.20627821831077997,-0.7467380642208992,0.5348867861248394,0.5810291236758489,-0.6134340090584443,0.5604146375094835,-0.787308360231876,-0.2570622103190371,,-0.013504791087246656,0.28958738885576885,-0.0800078894260931,0.7635577850256217,-0.5037121604784478,0.4040464927467792,0.4772490401587082,0.8616992628691742,0.17235931662194992,-0.4349860487216002,0.06122450281487209,0.8983533256245637,,0.04269594805284387,0.7203709254330657,1.1770666115938742,0.9911959966889486,-0.041371972668245695,-0.12577303377648108,0.04967711890861507,-0.7643247600307831,0.642915114973062,-0.12273011042422001,-0.6435029301265257,-0.755540401907029,,0.05445249202358471,0.6513013065352852,-0.3943137505230152,0.9329542068080608,-0.3577135886791546,-0.04046525019597212,-0.2781980994560074,-0.7877421750606662,0.5496072080038216,-0.22847815094272672,-0.501501001100667,-0.8344426166231093,,0.0,0.0,0.045,1.0,0.0,0.0,0.0,1.0,0.0,0.0,0.0,1.0,,0.019037333378670685,-0.19337877532911046,0.2249495411038443,False,,0.013276234510312589,0.5461272332408296,-0.31386688037777916,-0.6194064019919705,-0.7125283793297896,-0.3296043352582384,0.5396691226368691,-0.08152995968127086,-0.8379201058255631,0.5701692268473579,-0.696890360332265,0.4350297443075041
10:36:08.646296,,-0.22791329258411372,-0.42014755928931025,0.09284288238,-2.2028616172216573,0.1114715602838023,0.13795909440193888,,0.013263484988813912,0.5461398939277449,-0.31385521426568874,-0.6343963738734837,-0.20766670337309148,-0.7445910160123661,0.5333957005257494,0.579576530643235,-0.6161006993894719,0.5594910789966362,-0.7880136962246937,-0.25691272270067916,,-0.013504844748625882,0.28958787030538186,-0.08000796285553505,0.7635571053945417,-0.5037133650404865,0.4040462753879275,0.47724937965585157,0.8616986604227762,0.17236138841821932,-0.43498686921948826,0.061223071459549215,0.8983530258764899,,0.04269594805284387,0.7203709254330657,1.1770666115938742,0.9911959966889486,-0.041371972668245695,-0.12577303377648108,0.04967711890861507,-0.7643247600307831,0.642915114973062,-0.12273011042422001,-0.6435029301265257,-0.755540401907029,,0.05445249202358471,0.6513013065352852,-0.3943137505230152,0.9329542068080608,-0.3577135886791546,-0.04046525019597212,-0.2781980994560074,-0.7877421750606662,0.5496072080038216,-0.22847815094272672,-0.501501001100667,-0.8344426166231093,,0.0,0.0,0.045,1.0,0.0,0.0,0.0,1.0,0.0,0.0,0.0,1.0,,0.019037333378670685,-0.19337877532911046,0.2249495411038443,False,,0.013263484988813912,0.5461398939277449,-0.31385521426568874,-0.6190924677568143,-0.7112430748526634,-0.33295315712710594,0.54127798495431,-0.07927911385978442,-0.8370979423636219,0.5689838832256853,-0.6984612448659816,0.4340613206099843
10:36:08.658316,,-0.22792101531698797,-0.42014755928931025,0.09284158609000001,-2.202022911104306,0.11026428706773224,0.14153285116200262,,0.013247412707572119,0.54615685585749,-0.3138411848629584,-0.6368806979467133,-0.21091195224563497,-0.7415518356681765,0.5315999858968867,0.5764930044356115,-0.6205298307343747,0.5583766037159303,-0.7894124170778776,-0.25503647618708547,,-0.013505094851952348,0.2895881191782071,-0.08000789838432083,0.7635572671515319,-0.5037139832964518,0.40404519893876284,0.47724947563436826,0.8616983928843319,0.17236246018503693,-0.43498647997445056,0.06122175026851033,0.8983533043893451,,0.04269594805284387,0.7203709254330657,1.1770666115938742,0.9911959966889486,-0.041371972668245695,-0.12577303377648108,0.04967711890861507,-0.7643247600307831,0.642915114973062,-0.12273011042422001,-0.6435029301265257,-0.755540401907029,,0.05445249202358471,0.6513013065352852,-0.3943137505230152,0.9329542068080608,-0.3577135886791546,-0.04046525019597212,-0.2781980994560074,-0.7877421750606662,0.5496072080038216,-0.22847815094272672,-0.501501001100667,-0.8344426166231093,,0.0,0.0,0.045,1.0,0.0,0.0,0.0,1.0,0.0,0.0,0.0,1.0,,0.019037333378670685,-0.19337877532911046,0.2249495411038443,False,,0.013247412707572119,0.54615685585749,-0.3138411848629584,-0.6193084949006302,-0.7082132198967193,-0.33895578370554114,0.5430618799366813,-0.07459542580653322,-0.8363727141701719,0.5670456619211136,-0.7020466919032263,0.4308011834758382
10:36:08.670506,,-0.2279287380498622,-0.42014755928931025,0.09284158609000001,-2.201813234574969,0.10798388210404435,0.14689034068466306,,0.013231592117386302,0.5461705580471481,-0.31382717062255155,-0.6393043736718025,-0.2135422790334616,-0.7387080701260136,0.5298378982953017,0.5738894219956726,-0.6244379335462333,0.5572806468325647,-0.7906014333320348,-0.2537472251655381,,-0.01350514851138432,0.2895886006282973,-0.08000797181234803,0.7635565875294825,-0.5037151878573947,0.4040449815808265,0.4772498151284466,0.86169779044203,0.17236453198299234,-0.43498730047982365,0.06122031891163332,0.8983530046435881,,0.04269594805284387,0.7203709254330657,1.1770666115938742,0.9911959966889486,-0.041371972668245695,-0.12577303377648108,0.04967711890861507,-0.7643247600307831,0.642915114973062,-0.12273011042422001,-0.6435029301265257,-0.755540401907029,,0.05445249202358471,0.6513013065352852,-0.3943137505230152,0.9329542068080608,-0.3577135886791546,-0.04046525019597212,-0.2781980994560074,-0.7877421750606662,0.5496072080038216,-0.22847815094272672,-0.501501001100667,-0.8344426166231093,,0.0,0.0,0.045,1.0,0.0,0.0,0.0,1.0,0.0,0.0,0.0,1.0,,0.019037333378670685,-0.19337877532911046,0.2249495411038443,False,,0.013231592117386302,0.5461705580471481,-0.31382717062255155,-0.6189269059111896,-0.7060566527945318,-0.3441126097424847,0.5448886288759391,-0.07042553841315713,-0.8355457053093602,0.5657082881317019,-0.7046447662360085,0.4283105020371323
10:36:08.682426,,-0.2279287380498622,-0.42015528202218444,0.09283899351000001,-2.201603558045631,0.10328893070821632,0.163803768946665,,0.013212451383479859,0.5461887777485999,-0.31381008985694925,-0.6424736001696334,-0.2171583388569799,-0.7348945019184369,0.5275184206462127,0.5702747896952828,-0.6296911783699425,0.555834497817467,-0.7922303453559947,-0.2518314732775197,,-0.013505005729075033,0.2895893146551572,-0.08000818314114908,0.7635550665222992,-0.5037169787270599,0.40404562330696137,0.47725039813555825,0.8616968530867457,0.17236760380985622,-0.4349893307322369,0.061218777395364174,0.8983521266333365,,0.04269594805284387,0.7203709254330657,1.1770666115938742,0.9911959966889486,-0.041371972668245695,-0.12577303377648108,0.04967711890861507,-0.7643247600307831,0.642915114973062,-0.12273011042422001,-0.6435029301265257,-0.755540401907029,,0.05445249202358471,0.6513013065352852,-0.3943137505230152,0.9329542068080608,-0.3577135886791546,-0.04046525019597212,-0.2781980994560074,-0.7877421750606662,0.5496072080038216,-0.22847815094272672,-0.501501001100667,-0.8344426166231093,,0.0,0.0,0.045,1.0,0.0,0.0,0.0,1.0,0.0,0.0,0.0,1.0,,0.019037333378670685,-0.19337877532911046,0.2249495411038443,False,,0.013212451383479859,0.5461887777485999,-0.31381008985694925,-0.6182245937472188,-0.7032760981107758,-0.35100011611418114,0.5472950707596499,-0.06464449637143532,-0.8344394493377415,0.5641510943074347,-0.7079716229588343,0.4248643593863317
10:36:08.694898,,-0.2279287380498622,-0.4201630047550587,0.0928402898,-2.2009745284576177,0.10275236483440742,0.1775076211213042,,0.01320121158359145,0.5461994631571356,-0.31380105415450593,-0.6444350190492846,-0.2223401588413378,-0.7316203660296485,0.5260741176595962,0.5654518260804995,-0.6352245706133428,0.5549320038992395,-0.7942474967846214,-0.24742955542888814,,-0.013504612844063487,0.2895897798086184,-0.08000845894080016,0.7635533837521137,-0.5037181513481199,0.40404734147865984,0.47725088516383907,0.861696183271473,0.17236960387072545,-0.43499175022507297,0.06121855707750159,0.8983509701104125,,0.04269594805284387,0.7203709254330657,1.1770666115938742,0.9911959966889486,-0.041371972668245695,-0.12577303377648108,0.04967711890861507,-0.7643247600307831,0.642915114973062,-0.12273011042422001,-0.6435029301265257,-0.755540401907029,,0.05445249202358471,0.6513013065352852,-0.3943137505230152,0.9329542068080608,-0.3577135886791546,-0.04046525019597212,-0.2781980994560074,-0.7877421750606662,0.5496072080038216,-0.22847815094272672,-0.501501001100667,-0.8344426166231093,,0.0,0.0,0.045,1.0,0.0,0.0,0.0,1.0,0.0,0.0,0.0,1.0,,0.019037333378670685,-0.19337877532911046,0.2249495411038443,False,,0.01320121158359145,0.5461994631571356,-0.31380105415450593,-0.6179647941347399,-0.6995408558919264,-0.3588343686828227,0.5486709422988018,-0.05682853005139793,-0.8341047387763378,0.5630983131629447,-0.7123293543791305,0.41893577145292543
10:36:08.706968,,-0.2279287380498622,-0.4201630047550587,0.09283640093000001,-2.2001358223402674,0.10261822336595518,0.19080087967515796,,0.013197515415491412,0.5462012113025405,-0.31379749699651627,-0.6451862666659858,-0.23001230707266393,-0.7285801396556992,0.5255191400551418,0.5585962933639418,-0.6417163037322406,0.5545848129378517,-0.7969093547168182,-0.23952278727401372,,-0.013504612844063487,0.2895897798086184,-0.08000845894080016,0.7635533837521137,-0.5037181513481199,0.40404734147865984,0.47725088516383907,0.861696183271473,0.17236960387072545,-0.43499175022507297,0.06121855707750159,0.8983509701104125,,0.04269594805284387,0.7203709254330657,1.1770666115938742,0.9911959966889486,-0.041371972668245695,-0.12577303377648108,0.04967711890861507,-0.7643247600307831,0.642915114973062,-0.12273011042422001,-0.6435029301265257,-0.755540401907029,,0.05445249202358471,0.6513013065352852,-0.3943137505230152,0.9329542068080608,-0.3577135886791546,-0.04046525019597212,-0.2781980994560074,-0.7877421750606662,0.5496072080038216,-0.22847815094272672,-0.501501001100667,-0.8344426166231093,,0.0,0.0,0.045,1.0,0.0,0.0,0.0,1.0,0.0,0.0,0.0,1.0,,0.019037333378670685,-0.19337877532911046,0.2249495411038443,False,,0.013197515415491412,0.5462012113025405,-0.31379749699651627,-0.6183058735249622,-0.6941403178588682,-0.3686015001153994,0.5489833144666719,-0.04583182316273693,-0.8345757990876365,0.5624190316852024,-0.7183791917284138,0.40940953785898826
10:36:08.719157,,-0.2279364607827364,-0.4201630047550587,0.09283769722000002,-2.1999261458109296,0.10275236483440742,0.20209836804723258,,0.013198263095385493,0.5462037671403368,-0.3137982431191103,-0.6455542708097569,-0.24457272185100815,-0.7234942067257156,0.5252469168062958,0.5455323690087467,-0.6530774155865328,0.5544144296686039,-0.8016100162111837,-0.22370968259139482,,-0.013504416402348554,0.2895900123854419,-0.08000859684159436,0.7635525423638339,-0.50371873765785,0.40404820056193325,0.4772511286750519,0.8616958483620143,0.17237060390126252,-0.4349929599698634,0.06121844691985408,0.8983503918453011,,0.04269594805284387,0.7203709254330657,1.1770666115938742,0.9911959966889486,-0.041371972668245695,-0.12577303377648108,0.04967711890861507,-0.7643247600307831,0.642915114973062,-0.12273011042422001,-0.6435029301265257,-0.755540401907029,,0.05445249202358471,0.6513013065352852,-0.3943137505230152,0.9329542068080608,-0.3577135886791546,-0.04046525019597212,-0.2781980994560074,-0.7877421750606662,0.5496072080038216,-0.22847815094272672,-0.501501001100667,-0.8344426166231093,,0.0,0.0,0.045,1.0,0.0,0.0,0.0,1.0,0.0,0.0,0.0,1.0,,0.019037333378670685,-0.19337877532911046,0.2249495411038443,False,,0.013198263095385493,0.5462037671403368,-0.3137982431191103,-0.6190872294871328,-0.6842722179583615,-0.38536026522760597,0.5487861961697248,-0.025947152806757967,-0.8355599656247221,0.5617514692277275,-0.7287648982981874,0.39158269858220507
10:36:08.731055,,-0.2279364607827364,-0.4201707274879329,0.09283769722000002,-2.1999261458109296,0.10194751602369403,0.2153871328618932,,0.013192659032768825,0.5462079359147712,-0.31379427819144823,-0.6466840055017568,-0.2526642275901898,-0.7196947860895316,0.5244097228578756,0.537893720413095,-0.660049080078357,0.5538900970412182,-0.8042581262482911,-0.2153476880843117,,-0.013504416402348554,0.2895900123854419,-0.08000859684159436,0.7635525423638339,-0.50371873765785,0.40404820056193325,0.4772511286750519,0.8616958483620143,0.17237060390126252,-0.4349929599698634,0.06121844691985408,0.8983503918453011,,0.04269594805284387,0.7203709254330657,1.1770666115938742,0.9911959966889486,-0.041371972668245695,-0.12577303377648108,0.04967711890861507,-0.7643247600307831,0.642915114973062,-0.12273011042422001,-0.6435029301265257,-0.755540401907029,,0.05445249202358471,0.6513013065352852,-0.3943137505230152,0.9329542068080608,-0.3577135886791546,-0.04046525019597212,-0.2781980994560074,-0.7877421750606662,0.5496072080038216,-0.22847815094272672,-0.501501001100667,-0.8344426166231093,,0.0,0.0,0.045,1.0,0.0,0.0,0.0,1.0,0.0,0.0,0.0,1.0,,0.019037333378670685,-0.19337877532911046,0.2249495411038443,False,,0.013192659032768825,0.5462079359147712,-0.31379427819144823,-0.6188952979500275,-0.6789822782431477,-0.3949071739119099,0.5494368226139282,-0.01493070207430991,-0.8354018506631877,0.5613268104511466,-0.7340028201358038,0.38229840687796424
10:36:08.743060,,-0.2279673517142333,-0.4201861729536813,0.09283899351000001,-2.1992971162229162,0.098996403717745,0.2522190399763108,,0.013180440270523598,0.5462162570321859,-0.3137846914212791,-0.6488135005872244,-0.26311554612932087,-0.7140106797806464,0.5228254881310311,0.5276326303042076,-0.6695202135849314,0.5528965096799766,-0.8076967356770313,-0.20477166005179284,,-0.013504362740660355,0.2895895309358558,-0.08000852341197592,0.7635532219905101,-0.5037175330918381,0.40404841793014773,0.4772507891862988,0.8616964508159561,0.17236853210580816,-0.4349921394658038,0.06121987826783908,0.8983506915987238,,0.04269594805284387,0.7203709254330657,1.1770666115938742,0.9911959966889486,-0.041371972668245695,-0.12577303377648108,0.04967711890861507,-0.7643247600307831,0.642915114973062,-0.12273011042422001,-0.6435029301265257,-0.755540401907029,,0.05445249202358471,0.6513013065352852,-0.3943137505230152,0.9329542068080608,-0.3577135886791546,-0.04046525019597212,-0.2781980994560074,-0.7877421750606662,0.5496072080038216,-0.22847815094272672,-0.501501001100667,-0.8344426166231093,,0.0,0.0,0.045,1.0,0.0,0.0,0.0,1.0,0.0,0.0,0.0,1.0,,0.019037333378670685,-0.19337877532911046,0.2249495411038443,False,,0.013180440270523598,0.5462162570321859,-0.3137846914212791,-0.6185099341639169,-0.6719898486158089,-0.40727767517732877,0.5507447798466474,-0.0010378367409089595,-0.834673055972557,0.5604691327916421,-0.7405596304499737,0.3707368135693879
10:36:08.754841,,-0.22797507444710752,-0.4202016184194298,0.09283899351000001,-2.1984584101055655,0.09872812078084053,0.2757058831017584,,0.013169097864491525,0.5462248857557634,-0.3137769836056091,-0.6506536161609738,-0.27598790986904953,-0.7074464964806606,0.5214500106716429,0.514862302653065,-0.6804459535314522,0.5520323886758743,-0.8116326034067982,-0.19108312049972223,,-0.013504559182414128,0.2895892983590364,-0.08000838551119685,0.7635540633789335,-0.5037169467830359,0.4040475588456975,0.4772505456734777,0.8616967857249307,0.172367532075395,-0.4349909297214816,0.06121998842674431,0.8983512698633771,,0.04269594805284387,0.7203709254330657,1.1770666115938742,0.9911959966889486,-0.041371972668245695,-0.12577303377648108,0.04967711890861507,-0.7643247600307831,0.642915114973062,-0.12273011042422001,-0.6435029301265257,-0.755540401907029,,0.05445249202358471,0.6513013065352852,-0.3943137505230152,0.9329542068080608,-0.3577135886791546,-0.04046525019597212,-0.2781980994560074,-0.7877421750606662,0.5496072080038216,-0.22847815094272672,-0.501501001100667,-0.8344426166231093,,0.0,0.0,0.045,1.0,0.0,0.0,0.0,1.0,0.0,0.0,0.0,1.0,,0.019037333378670685,-0.19337877532911046,0.2249495411038443,False,,0.013169097864491525,0.5462248857557634,-0.3137769836056091,-0.6186584537496095,-0.6631526857910469,-0.42129589712251403,0.5517205563110091,0.015063065508962081,-0.8338929978128752,0.559344388858969,-0.7483325593515188,0.35655607590727256
10:36:08.766634,,-0.22797507444710752,-0.420209341152304,0.09283899351000001,-2.198248733576228,0.09926468665464945,0.3019533844762466,,0.013166538970171317,0.5462259033073465,-0.3137765186714156,-0.651295855308688,-0.2919485663997603,-0.7004139800395544,0.5209685080403511,0.4990843425303121,-0.6924641742872311,0.551729573693431,-0.8158926728548375,-0.17295555467765134,,-0.01350450552082892,0.2895888169094414,-0.08000831208163724,0.7635547430070782,-0.5037157422183485,0.404047776210791,0.47725020618192787,0.8616973881763583,0.17236546027966893,-0.4349901092194792,0.06122141977717525,0.8983515696150168,,0.04269594805284387,0.7203709254330657,1.1770666115938742,0.9911959966889486,-0.041371972668245695,-0.12577303377648108,0.04967711890861507,-0.7643247600307831,0.642915114973062,-0.12273011042422001,-0.6435029301265257,-0.755540401907029,,0.05445249202358471,0.6513013065352852,-0.3943137505230152,0.9329542068080608,-0.3577135886791546,-0.04046525019597212,-0.2781980994560074,-0.7877421750606662,0.5496072080038216,-0.22847815094272672,-0.501501001100667,-0.8344426166231093,,0.0,0.0,0.045,1.0,0.0,0.0,0.0,1.0,0.0,0.0,0.0,1.0,,0.019037333378670685,-0.19337877532911046,0.2249495411038443,False,,0.013166538970171317,0.5462259033073465,-0.3137765186714156,-0.6192212723448431,-0.6525602957685059,-0.43672654632178515,0.5517728024060538,0.03410175634078966,-0.8332969727170765,0.558669661249476,-0.7569690420360624,0.33894849018457407
10:36:08.779106,,-0.2279982426457302,-0.42021706388517827,0.09283899351000001,-2.1980390570468904,0.10020367693381506,0.3277902922299494,,0.013173415806354505,0.5462173154118487,-0.3137866849796811,-0.6507165922603407,-0.32998575425678334,-0.683869372427711,0.5214028287654642,0.46055005158268214,-0.7183541885049192,0.552002723464714,-0.8240164148697346,-0.12763205440941494,,-0.013504701962651681,0.2895885843326396,-0.08000817418089466,0.7635555843950379,-0.5037151559109424,0.4040469171242501,0.47724996266649555,0.8616977230853464,0.17236446024979069,-0.4349888994754052,0.061221529938315825,0.898352147878565,,0.04269594805284387,0.7203709254330657,1.1770666115938742,0.9911959966889486,-0.041371972668245695,-0.12577303377648108,0.04967711890861507,-0.7643247600307831,0.642915114973062,-0.12273011042422001,-0.6435029301265257,-0.755540401907029,,0.05445249202358471,0.6513013065352852,-0.3943137505230152,0.9329542068080608,-0.3577135886791546,-0.04046525019597212,-0.2781980994560074,-0.7877421750606662,0.5496072080038216,-0.22847815094272672,-0.501501001100667,-0.8344426166231093,,0.0,0.0,0.045,1.0,0.0,0.0,0.0,1.0,0.0,0.0,0.0,1.0,,0.019037333378670685,-0.19337877532911046,0.2249495411038443,False,,0.013173415806354505,0.5462173154118487,-0.3137866849796811,-0.6198970405771018,-0.6289883401823131,-0.469149578491178,0.5504985836480127,0.07745935560955408,-0.8312348390377322,0.559177045742476,-0.7735461952225293,0.29824036509410584
10:36:08.791179,,-0.22801368811147865,-0.42022478661805246,0.09283899351000001,-2.1978293805175526,0.10114266721298067,0.35355831833960194,,0.013177747010545242,0.5462120370992888,-0.3137929545541262,-0.6501381999708369,-0.3498575172470269,-0.6744776041978165,0.521835894222202,0.4396216594116749,-0.7310404202760885,0.5522749500384704,-0.8272439266636362,-0.10324662395513683,,-0.013504898405995794,0.28958835175599656,-0.0800080362820466,0.7635564257778369,-0.5037145696010003,0.40404605803438565,0.4772497191472139,0.8616980579896933,0.17236346021929555,-0.43498768972851687,0.06122164010006889,0.8983527261361082,,0.04269594805284387,0.7203709254330657,1.1770666115938742,0.9911959966889486,-0.041371972668245695,-0.12577303377648108,0.04967711890861507,-0.7643247600307831,0.642915114973062,-0.12273011042422001,-0.6435029301265257,-0.755540401907029,,0.05445249202358471,0.6513013065352852,-0.3943137505230152,0.9329542068080608,-0.3577135886791546,-0.04046525019597212,-0.2781980994560074,-0.7877421750606662,0.5496072080038216,-0.22847815094272672,-0.501501001100667,-0.8344426166231093,,0.0,0.0,0.045,1.0,0.0,0.0,0.0,1.0,0.0,0.0,0.0,1.0,,0.019037333378670685,-0.19337877532911046,0.2249495411038443,False,,0.013177747010545242,0.5462120370992888,-0.3137929545541262,-0.6202835250543453,-0.6167695898622179,-0.48460666686225773,0.5496995108486147,0.09891042103515169,-0.8294860917359874,0.5595344460522063,-0.7809046046937109,0.2776854372292684
10:36:08.803036,,-0.2280291335772271,-0.4202325093509267,0.09283899351000001,-2.195942291753514,0.10261822336595518,0.41101549570370993,,0.013181879439351424,0.546208138443588,-0.31379707745196433,-0.6495393799264664,-0.372343070166896,-0.6629172135519122,0.5222836218457656,0.4151263872363253,-0.744909323993052,0.552556252590097,-0.8300787436856858,-0.07517224890065835,,-0.013505344952713183,0.28958836805218463,-0.08000783391204049,0.7635574289174502,-0.5037146015465003,0.40404412249393806,0.47724957160647125,0.8616981253555306,0.17236353195579646,-0.4349860907368023,0.06122042907141093,0.8983535829048047,,0.04269594805284387,0.7203709254330657,1.1770666115938742,0.9911959966889486,-0.041371972668245695,-0.12577303377648108,0.04967711890861507,-0.7643247600307831,0.642915114973062,-0.12273011042422001,-0.6435029301265257,-0.755540401907029,,0.05445249202358471,0.6513013065352852,-0.3943137505230152,0.9329542068080608,-0.3577135886791546,-0.04046525019597212,-0.2781980994560074,-0.7877421750606662,0.5496072080038216,-0.22847815094272672,-0.501501001100667,-0.8344426166231093,,0.0,0.0,0.045,1.0,0.0,0.0,0.0,1.0,0.0,0.0,0.0,1.0,,0.019037333378670685,-0.19337877532911046,0.2249495411038443,False,,0.013181879439351424,0.546208138443588,-0.31379707745196433,-0.6212260681583004,-0.6022989540802467,-0.5013124197089277,0.5489515371965824,0.1220490283169437,-0.8268955463034008,0.5592230163808428,-0.7888852924226254,0.25481289871036916
10:36:08.815259,,-0.22804457904297554,-0.4202325093509267,0.09283899351000001,-2.195942291753514,0.10328893070821632,0.4420856109095521,,0.013187018614976502,0.5462039757206226,-0.313801270455733,-0.6487944246469355,-0.39567910764478126,-0.6500029525475106,0.5228397155400852,0.38884991608735675,-0.7585739084709006,0.5529054407410137,-0.832005881308711,-0.04540690549575358,,-0.013505541396108949,0.28958813547557816,-0.08000769601324137,0.7635582702982848,-0.5037140152370344,0.40404326340250846,0.47724932808578896,0.8616984602618556,0.1723625319264103,-0.4349848809887847,0.06122053923483897,0.8983541611608648,,0.04269594805284387,0.7203709254330657,1.1770666115938742,0.9911959966889486,-0.041371972668245695,-0.12577303377648108,0.04967711890861507,-0.7643247600307831,0.642915114973062,-0.12273011042422001,-0.6435029301265257,-0.755540401907029,,0.05445249202358471,0.6513013065352852,-0.3943137505230152,0.9329542068080608,-0.3577135886791546,-0.04046525019597212,-0.2781980994560074,-0.7877421750606662,0.5496072080038216,-0.22847815094272672,-0.501501001100667,-0.8344426166231093,,0.0,0.0,0.045,1.0,0.0,0.0,0.0,1.0,0.0,0.0,0.0,1.0,,0.019037333378670685,-0.19337877532911046,0.2249495411038443,False,,0.013187018614976502,0.5462039757206226,-0.313801270455733,-0.6220427844588889,-0.5873064142177742,-0.5178165216766388,0.5481381959232439,0.1456078485972549,-0.8236157311494791,0.5591129514441999,-0.7961592367394476,0.23135076676297528
