AlexandreBanks6/RCL_Autocam_Public/optimizationData/Data_67.csv
System Time,q_des,q0,q1,q2,q3,q4,q5,T_des,Tx,Ty,Tz,R00,R01,R02,R10,R11,R12,R20,R21,R22,T_target,Tx,Ty,Tz,R00,R01,R02,R10,R11,R12,R20,R21,R22,worldFrame,Tx,Ty,Tz,R00,R01,R02,R10,R11,R12,R20,R21,R22,ECM_T_PSM_RCM,Tx,Ty,Tz,R00,R01,R02,R10,R11,R12,R20,R21,R22,psm3_T_cam,Tx,Ty,Tz,R00,R01,R02,R10,R11,R12,R20,R21,R22,offset,x,y,z,IK Trigered,ECM_T_PSM3,Tx,Ty,Tz,R00,R01,R02,R10,R11,R12,R20,R21,R22,solverSuccess,q_solverOutput,q0,q1,q2,q3,q4,q5
12:35:42.812445,,0.025230168300091473,-0.1522768468139589,0.055319175750000005,-2.2991031441876517,0.37264499936029216,1.5057697212477061,,0.12437442509473347,0.5467707991615344,-0.3998991131389688,-0.6372065795525758,-0.5453646373577511,-0.5445596269413983,0.5714849581662067,0.13971248364927735,-0.8086317854884999,0.5170809584239934,-0.8264731297702296,0.2226419731387716,,0.018992080613618643,0.27213038529061667,-0.10493381692524542,-0.9301398175654344,0.053830891232288805,0.3632384271088045,0.10736131955351581,-0.906105998025924,0.4092010110021388,0.3511601726321888,0.41961191056806546,0.8370259121833383,,0.08400401984927423,0.786327984879011,1.1383039398366057,0.9955170575960887,-0.04257301045794665,-0.08445902447799007,0.01842821369645415,-0.788549650781644,0.614694923675237,-0.09276954767154995,-0.6134957106880987,-0.7842300835801449,,0.13487936517240912,0.611799267186288,-0.4619595192512418,0.9968527724652212,-0.07084992053699661,-0.035564572095041797,-0.03441957004185853,-0.790944188661,0.6109194575568259,-0.07141318664319465,-0.6077726377382368,-0.7908935311343561,,0.0,0.0,0.045,1.0,0.0,0.0,0.0,1.0,0.0,0.0,0.0,1.0,,-0.019150839222606658,-0.1589250388481224,0.2593265970793276,False,,0.14251792340559744,0.537156573424725,-0.39500807178406305,-0.6249964172036264,-0.3434789803263123,-0.7010004768590589,0.17656970003632222,0.8125206963784186,-0.5555477108096237,0.7603963568506323,-0.4709907727660139,-0.4471745436153083,False,,0.0,0.0,0.0,0.0,0.0,0.0
12:35:44.690807,,-0.142546203392436,-0.15840869671609314,0.044785523210000004,-2.3940866119776203,0.034071932986866164,0.6705155602036987,,0.12440650577482452,0.5479112549470754,-0.39965973733384264,-0.6267036645529175,-0.5438219522085485,-0.5581220306814876,0.5791966222715922,0.1540747770927825,-0.8004949942460529,0.5213192779718806,-0.8249355413363475,0.218420610417114,,0.018996825703056802,0.27213211378676966,-0.1049326687485064,-0.9301272398519554,0.053696688703039924,0.36329045930531545,0.1075564001037306,-0.9060409339295116,0.4092938081078433,0.35113375371311784,0.4197695393677615,0.8369579411994776,,0.08400401984927423,0.786327984879011,1.1383039398366057,0.9955170575960887,-0.04257301045794665,-0.08445902447799007,0.01842821369645415,-0.788549650781644,0.614694923675237,-0.09276954767154995,-0.6134957106880987,-0.7842300835801449,,0.13486518876203468,0.6117950687895055,-0.4619711146891967,0.9968511175274596,-0.0708895451629217,-0.03553198377305804,-0.03447108938367495,-0.7909437372191833,0.6109171372211242,-0.07141143802611363,-0.6077686047669337,-0.7908967881959675,,0.0,0.0,0.045,1.0,0.0,0.0,0.0,1.0,0.0,0.0,0.0,1.0,,-0.019150839222606658,-0.1589250388481224,0.2593265970793276,False,,0.12465212051258616,0.5465639816401446,-0.3998473485549217,-0.6389089513907886,-0.5394280232843569,-0.5484640002117317,0.5607451545266391,0.16152599365564485,-0.8120801838786934,0.5266500009566303,-0.8263938292782008,0.19928124704370284,False,,0.0,0.0,0.0,0.0,0.0,0.0
12:35:44.735015,,-0.14255392612531023,-0.15841641944896737,0.044785523210000004,-2.3940866119776203,0.034071932986866164,0.6705155602036987,,0.12440700646857775,0.5479131764052294,-0.3996611629550286,-0.6266999011613097,-0.543830812863775,-0.5581176227860308,0.5791989925815002,0.15406685907024234,-0.8004948031866321,0.521321168644608,-0.8249311788968554,0.2184325735939225,,0.018998423809042864,0.2721334646510523,-0.10493232946968173,-0.9301232079573822,0.05365392419519052,0.36330710374027414,0.10762052863096944,-0.906017878939784,0.40932798835318707,0.35112478839706013,0.4198247689816942,0.8369340018861751,,0.08400401984927423,0.786327984879011,1.1383039398366057,0.9955170575960887,-0.04257301045794665,-0.08445902447799007,0.01842821369645415,-0.788549650781644,0.614694923675237,-0.09276954767154995,-0.6134957106880987,-0.7842300835801449,,0.13486518876203468,0.6117950687895055,-0.4619711146891967,0.9968511175274596,-0.0708895451629217,-0.03553198377305804,-0.03447108938367495,-0.7909437372191833,0.6109171372211242,-0.07141143802611363,-0.6077686047669337,-0.7908967881959675,,0.0,0.0,0.045,1.0,0.0,0.0,0.0,1.0,0.0,0.0,0.0,1.0,,-0.019150839222606658,-0.1589250388481224,0.2593265970793276,False,,0.12465154853114403,0.5465645143462509,-0.39984877601306346,-0.6389102082494389,-0.5394214985330062,-0.5484689532827401,0.5607442013780218,0.16153422995993888,-0.8120792037555046,0.5266494910427458,-0.8263964783756376,0.19927160889790901,False,,0.0,0.0,0.0,0.0,0.0,0.0
12:35:44.779025,,-0.14263115345405247,-0.15824651932573444,0.044759597410000004,-2.3970220833883475,0.034071932986866164,0.6707222051358495,,0.12439368897930968,0.5479313831619782,-0.39972418015280364,-0.6258570634776088,-0.5438298588712348,-0.5590635211630935,0.5797793842079626,0.15505989717479884,-0.7998826751065288,0.5216884144224597,-0.8247457262018602,0.21825600878130816,,0.01899896872698073,0.27213386504870835,-0.1049319933924634,-0.9301216057471894,0.05363120511406456,0.36331456493800385,0.1076529944892354,-0.906006819178482,0.4093439349928101,0.35111908526250535,0.41985154301956595,0.8369229657049202,,0.08400401984927423,0.786327984879011,1.1383039398366057,0.9955170575960887,-0.04257301045794665,-0.08445902447799007,0.01842821369645415,-0.788549650781644,0.614694923675237,-0.09276954767154995,-0.6134957106880987,-0.7842300835801449,,0.13486518876203468,0.6117950687895055,-0.4619711146891967,0.9968511175274596,-0.0708895451629217,-0.03553198377305804,-0.03447108938367495,-0.7909437372191833,0.6109171372211242,-0.07141143802611363,-0.6077686047669337,-0.7908967881959675,,0.0,0.0,0.045,1.0,0.0,0.0,0.0,1.0,0.0,0.0,0.0,1.0,,-0.019150839222606658,-0.1589250388481224,0.2593265970793276,False,,0.12464770118525234,0.5465940662864599,-0.39985622385327035,-0.6366587472857971,-0.5406767507306929,-0.5498493345670067,0.5619770766070695,0.1629588225138774,-0.8109415438445996,0.5280600390795082,-0.8252957490404219,0.20009877996419023,False,,0.0,0.0,0.0,0.0,0.0,0.0
12:35:44.887307,,-0.1430559037621348,-0.15651662716190815,0.04453015408,-2.402473673151128,0.034071932986866164,0.6734774708978581,,0.1386028886196715,0.5070272765536179,-0.4429889250438411,-0.1417844704074125,-0.7365934499952334,-0.6613072306994756,0.7721535237239419,0.33573160046583034,-0.539502760186963,0.6194159343704272,-0.5871238215851677,0.521161700794714,,0.018998051746372358,0.2721332570831041,-0.10493099894148443,-0.9301294490461648,0.05367886661619703,0.36328743997055757,0.10759146114166515,-0.9060161225781115,0.40933951661476453,0.3511171631392611,0.41982537042418966,0.8369368989605563,,0.08400401984927423,0.786327984879011,1.1383039398366057,0.9955170575960887,-0.04257301045794665,-0.08445902447799007,0.01842821369645415,-0.788549650781644,0.614694923675237,-0.09276954767154995,-0.6134957106880987,-0.7842300835801449,,0.13486518876203468,0.6117950687895055,-0.4619711146891967,0.9968511175274596,-0.0708895451629217,-0.03553198377305804,-0.03447108938367495,-0.7909437372191833,0.6109171372211242,-0.07141143802611363,-0.6077686047669337,-0.7908967881959675,,0.0,0.0,0.045,1.0,0.0,0.0,0.0,1.0,0.0,0.0,0.0,1.0,,-0.019150839222606658,-0.1589250388481224,0.2593265970793276,False,,0.12464687738629619,0.5467991637470453,-0.3998965407881077,-0.6335199773849709,-0.5413365707704704,-0.5528174702382457,0.5642812807319005,0.16558772250041026,-0.8088061216216734,0.5293761181520301,-0.8243393859955951,0.20056296324768746,False,,0.0,0.0,0.0,0.0,0.0,0.0
12:35:44.997894,,-0.144059859035784,-0.15024576806803783,0.04432793284000001,-2.404780114973842,0.034071932986866164,0.6751995119991138,,0.13765716814141862,0.4982312915883434,-0.4521082298062483,0.02117505255691352,-0.7360951841646284,-0.6765467441343972,0.7880456530044417,0.42872247514706785,-0.4417930376144182,0.6152525220834245,-0.5237947299786565,0.5891548310220087,,0.01899871586834964,0.2721335650226737,-0.1049297729069231,-0.9301333183033309,0.05368766203193758,0.36327623653493113,0.10758794049511186,-0.906005210716828,0.4093645955836685,0.35110799498937506,0.41984779623442664,0.8369294968843197,,0.08400401984927423,0.786327984879011,1.1383039398366057,0.9955170575960887,-0.04257301045794665,-0.08445902447799007,0.01842821369645415,-0.788549650781644,0.614694923675237,-0.09276954767154995,-0.6134957106880987,-0.7842300835801449,,0.13496104971220796,0.6118054067411416,-0.4619793725609127,0.996860426798291,-0.07074200214526077,-0.03556485085036658,-0.03433349123060646,-0.7909455148711337,0.6109225841996307,-0.07134774602919682,-0.60778348253117,-0.7908911034389223,,0.0,0.0,0.045,1.0,0.0,0.0,0.0,1.0,0.0,0.0,0.0,1.0,,-0.019150839222606658,-0.1589250388481224,0.2593265970793276,False,,0.12461314766466484,0.5473875233431831,-0.39965909213834366,-0.6301331266794645,-0.5415933554776354,-0.5564250892650665,0.5696518390946409,0.1645241132260803,-0.8052506432057444,0.527663742242401,-0.8243836809821307,0.20484755710795646,False,,0.0,0.0,0.0,0.0,0.0,0.0
12:35:45.025384,,-0.14006720613980994,-0.1570726639288523,0.04433052542,-2.4259574444369476,0.005231517269636931,0.6704600927064939,,0.12501579272086952,0.5471753904737928,-0.40015651029312854,-0.6084146750522986,-0.5503334254589587,-0.5718082755641212,0.5918671234540108,0.16534620846053777,-0.7888941244058032,0.5287011361395776,-0.8184092815763594,0.22512520177533824,,0.019000607113333505,0.27213495615746874,-0.10492922111067182,-0.9301407191839764,0.05374800202899771,0.3632483641503021,0.10750938544130073,-0.9060211714963734,0.4093499091320742,0.3511124518185213,0.4198056316228909,0.8369487780621683,,0.08400401984927423,0.786327984879011,1.1383039398366057,0.9955170575960887,-0.04257301045794665,-0.08445902447799007,0.01842821369645415,-0.788549650781644,0.614694923675237,-0.09276954767154995,-0.6134957106880987,-0.7842300835801449,,0.13496104971220796,0.6118054067411416,-0.4619793725609127,0.996860426798291,-0.07074200214526077,-0.03556485085036658,-0.03433349123060646,-0.7909455148711337,0.6109225841996307,-0.07134774602919682,-0.60778348253117,-0.7908911034389223,,0.0,0.0,0.045,1.0,0.0,0.0,0.0,1.0,0.0,0.0,0.0,1.0,,-0.019150839222606658,-0.1589250388481224,0.2593265970793276,False,,0.12460431222643552,0.5472244729650748,-0.39979730145218323,-0.612918169614874,-0.5449507556442292,-0.5721538178486067,0.5900368962035938,0.1659518023661979,-0.7901369883822933,0.5255357061840638,-0.8218811794987122,0.21982617749354477,False,,0.0,0.0,0.0,0.0,0.0,0.0
12:35:45.130493,,-0.13784305907203329,-0.16162135359177054,0.04434478461000001,-2.4318283872584026,-0.007646063701777053,0.6683073635924787,,0.13400817945530757,0.5001003185372207,-0.4546278158638839,-0.013602842856096833,-0.7674160373667153,-0.64100513902667,0.7861925480730872,0.3878980946837365,-0.4810783153448857,0.617831886535956,-0.5104974963044334,0.5980602530233273,,0.019002295107406163,0.27213612723418296,-0.10492853610564822,-0.9301484489898667,0.05380727381736217,0.3632198045284594,0.10743115141140855,-0.9060375042863663,0.40933430690397204,0.35111593074619657,0.41976279538148636,0.8369688077015511,,0.08400401984927423,0.786327984879011,1.1383039398366057,0.9955170575960887,-0.04257301045794665,-0.08445902447799007,0.01842821369645415,-0.788549650781644,0.614694923675237,-0.09276954767154995,-0.6134957106880987,-0.7842300835801449,,0.13496104971220796,0.6118054067411416,-0.4619793725609127,0.996860426798291,-0.07074200214526077,-0.03556485085036658,-0.03433349123060646,-0.7909455148711337,0.6109225841996307,-0.07134774602919682,-0.60778348253117,-0.7908911034389223,,0.0,0.0,0.045,1.0,0.0,0.0,0.0,1.0,0.0,0.0,0.0,1.0,,-0.019150839222606658,-0.1589250388481224,0.2593265970793276,False,,0.1247292419825797,0.5469066099276294,-0.40008175834319076,-0.6053479911342214,-0.5459104865737213,-0.5792543053604399,0.601007763339552,0.16364868652510417,-0.7823098975496844,0.5218653830590337,-0.8217060593956037,0.229032036879553,False,,0.0,0.0,0.0,0.0,0.0,0.0
12:35:45.236653,,-0.11808830837976697,-0.21503177414990723,0.044619598090000004,-2.471457251303224,-0.07350952471182148,0.6500946142387547,,0.13361061650550288,0.5000958323552753,-0.45481668204139586,-0.020008264800865563,-0.770654614008387,-0.6369388787373889,0.7858177067023193,0.38174980519263135,-0.48657745330881874,0.618134452342503,-0.5102534195308953,0.5979558902496589,,0.01900418650678261,0.2721375182840055,-0.10492798417576099,-0.9301558455207581,0.053867616608957,0.36319193666967886,0.10735259562393215,-0.9060534590326181,0.40931961781139975,0.3511203827660908,0.4197206323178982,0.836988092836628,,0.08400401984927423,0.786327984879011,1.1383039398366057,0.9955170575960887,-0.04257301045794665,-0.08445902447799007,0.01842821369645415,-0.788549650781644,0.614694923675237,-0.09276954767154995,-0.6134957106880987,-0.7842300835801449,,0.13496104971220796,0.6118054067411416,-0.4619793725609127,0.996860426798291,-0.07074200214526077,-0.03556485085036658,-0.03433349123060646,-0.7909455148711337,0.6109225841996307,-0.07134774602919682,-0.60778348253117,-0.7908911034389223,,0.0,0.0,0.045,1.0,0.0,0.0,0.0,1.0,0.0,0.0,0.0,1.0,,-0.019150839222606658,-0.1589250388481224,0.2593265970793276,False,,0.12567457660318215,0.5441602085356847,-0.4026078661983029,-0.5720213479795129,-0.5611907276733326,-0.5982111204492748,0.6239345889706911,0.17572023335819742,-0.7614643972468547,0.5324445568711131,-0.8088185005067678,0.249630581252193,False,,0.0,0.0,0.0,0.0,0.0,0.0
12:35:45.342021,,-0.09938384935839521,-0.30273885140247503,0.04511089200000001,-2.51066676228937,-0.1433972297754328,0.6303395062807671,,0.13507863290366057,0.49749379301496277,-0.4549478318542514,-0.003053826430735696,-0.7623194325760613,-0.6471937552704311,0.7868818969802487,0.3975525735086822,-0.47198393140168377,0.6170960657376583,-0.5107064068655647,0.5986413046537701,,0.01900751524697742,0.2721395128575001,-0.1049283323271328,-0.9301540169739698,0.05386655151860328,0.36319677764100994,0.10735527068910494,-0.9060539250918672,0.40931788457752694,0.351124408887489,0.41971976294576163,0.83698683981906,,0.08400401984927423,0.786327984879011,1.1383039398366057,0.9955170575960887,-0.04257301045794665,-0.08445902447799007,0.01842821369645415,-0.788549650781644,0.614694923675237,-0.09276954767154995,-0.6134957106880987,-0.7842300835801449,,0.13496104971220796,0.6118054067411416,-0.4619793725609127,0.996860426798291,-0.07074200214526077,-0.03556485085036658,-0.03433349123060646,-0.7909455148711337,0.6109225841996307,-0.07134774602919682,-0.60778348253117,-0.7908911034389223,,0.0,0.0,0.045,1.0,0.0,0.0,0.0,1.0,0.0,0.0,0.0,1.0,,-0.019150839222606658,-0.1589250388481224,0.2593265970793276,False,,0.12660395590609086,0.5387225651810073,-0.4085251900200711,-0.5306065686803463,-0.5786728421639991,-0.6193499907282703,0.6308926002395094,0.21835578299822356,-0.7445100932789719,0.5660664238729406,-0.7857852720515144,0.24921940131263487,False,,0.0,0.0,0.0,0.0,0.0,0.0
12:35:45.437592,,-0.08217760051462301,-0.4113822574770654,0.046031257900000004,-2.5586826875076984,-0.22938191105331157,0.6102699036499932,,0.13301634293302209,0.49983604225802925,-0.4547820775377951,-0.02422066714604091,-0.7684554866697029,-0.6394446999469392,0.7855759071560586,0.38096490528126886,-0.48758202903713505,0.6182910749630274,-0.5141419122686504,0.5944528918844617,,0.019010843987812304,0.27214150742803156,-0.10492868048213254,-0.9301521884076982,0.053865486426827716,0.36320161860933814,0.10735794574262798,-0.9060543911587343,0.4093161513255617,0.35112843501255325,0.419718893572887,0.8369855867884815,,0.08400401984927423,0.786327984879011,1.1383039398366057,0.9955170575960887,-0.04257301045794665,-0.08445902447799007,0.01842821369645415,-0.788549650781644,0.614694923675237,-0.09276954767154995,-0.6134957106880987,-0.7842300835801449,,0.13496104971220796,0.6118054067411416,-0.4619793725609127,0.996860426798291,-0.07074200214526077,-0.03556485085036658,-0.03433349123060646,-0.7909455148711337,0.6109225841996307,-0.07134774602919682,-0.60778348253117,-0.7908911034389223,,0.0,0.0,0.045,1.0,0.0,0.0,0.0,1.0,0.0,0.0,0.0,1.0,,-0.019150839222606658,-0.1589250388481224,0.2593265970793276,False,,0.12707702321929662,0.5334193154215415,-0.41512853887501544,-0.48685531941710203,-0.5933106474450988,-0.6410572311296003,0.6346655469714787,0.26396612337313935,-0.7263067734771242,0.6001429341770723,-0.7604632544308993,0.2480405152746218,False,,0.0,0.0,0.0,0.0,0.0,0.0
12:35:45.500047,,-0.06576679315689593,-0.48405317382351803,0.047181067130000004,-2.597472845435169,-0.30812295303477,0.5963104180789246,,0.13396385606899833,0.5307779090782747,-0.4203040966545949,-0.4294119095033476,-0.663856690521206,-0.6122905408602363,0.6877458621784869,0.19903940790621488,-0.6981324682012096,0.5853298566048534,-0.7208866821842218,0.37109479977004045,,0.019011487483322275,0.27214216059854957,-0.10492910019893012,-0.9301444807280974,0.053802161829885245,0.3632307231456599,0.10743938502186233,-0.9060387677040075,0.4093293488707567,0.35112392313912794,0.419760723130767,0.8369664938332677,,0.08400401984927423,0.786327984879011,1.1383039398366057,0.9955170575960887,-0.04257301045794665,-0.08445902447799007,0.01842821369645415,-0.788549650781644,0.614694923675237,-0.09276954767154995,-0.6134957106880987,-0.7842300835801449,,0.13496104971220796,0.6118054067411416,-0.4619793725609127,0.996860426798291,-0.07074200214526077,-0.03556485085036658,-0.03433349123060646,-0.7909455148711337,0.6109225841996307,-0.07134774602919682,-0.60778348253117,-0.7908911034389223,,0.0,0.0,0.045,1.0,0.0,0.0,0.0,1.0,0.0,0.0,0.0,1.0,,-0.019150839222606658,-0.1589250388481224,0.2593265970793276,False,,0.12782134701816147,0.5292544710736552,-0.4205370370092367,-0.4340443781256064,-0.6139971547636536,-0.6592518272706526,0.6517470411044279,0.291194183236125,-0.7003083192859199,0.6219576128878715,-0.7336303167069806,0.27377963068723093,False,,0.0,0.0,0.0,0.0,0.0,0.0
12:35:45.560964,,-0.05210527870239277,-0.5319032267122131,0.04827643218,-2.6280856187184702,-0.3660720674061329,0.5888273496754638,,0.13513701977062664,0.5275986858497389,-0.42354163051570176,-0.3956151544792057,-0.6801517559323779,-0.6171565753101047,0.701644911415017,0.20976436756570768,-0.6809503127139096,0.5926070096040098,-0.7024190337696304,0.39423905586120145,,0.01901271180871296,0.2721420791903266,-0.10492984100070091,-0.9301354863870123,0.05373850601755181,0.363263167348856,0.1075214752908698,-0.9060244671906039,0.4093394386337364,0.35112261125224664,0.41979973396931675,0.8369474738861572,,0.08400401984927423,0.786327984879011,1.1383039398366057,0.9955170575960887,-0.04257301045794665,-0.08445902447799007,0.01842821369645415,-0.788549650781644,0.614694923675237,-0.09276954767154995,-0.6134957106880987,-0.7842300835801449,,0.13496104971220796,0.6118054067411416,-0.4619793725609127,0.996860426798291,-0.07074200214526077,-0.03556485085036658,-0.03433349123060646,-0.7909455148711337,0.6109225841996307,-0.07134774602919682,-0.60778348253117,-0.7908911034389223,,0.0,0.0,0.045,1.0,0.0,0.0,0.0,1.0,0.0,0.0,0.0,1.0,,-0.019150839222606658,-0.1589250388481224,0.2593265970793276,False,,0.12840048230003268,0.5270503676039198,-0.42323664817648754,-0.4021959131912524,-0.6276548871045321,-0.666549165557989,0.6628930393502669,0.3025332024191086,-0.6848696808992234,0.631515055872162,-0.7173025889593845,0.29439043815814453,False,,0.0,0.0,0.0,0.0,0.0,0.0
12:35:45.655708,,-0.042374635280869884,-0.5680301710978354,0.049151427930000005,-2.642762975772108,-0.4009488492037125,0.5783303102739373,,0.13239257350353084,0.5009539160382561,-0.4547548686948112,-0.035314503702814144,-0.7501898202875603,-0.6602788194127855,0.784687295002145,0.38833260928214847,-0.4831807463365392,0.6188850740569211,-0.5351756890078588,0.574950647451173,,0.019013752363619955,0.27214270742578606,-0.10493050075729833,-0.9301270146169934,0.05367614286232465,0.3632940781104669,0.1076028096166362,-0.9060089045413053,0.4093525119960805,0.35112013736799064,0.4198412978761363,0.8369276626778422,,0.08400401984927423,0.786327984879011,1.1383039398366057,0.9955170575960887,-0.04257301045794665,-0.08445902447799007,0.01842821369645415,-0.788549650781644,0.614694923675237,-0.09276954767154995,-0.6134957106880987,-0.7842300835801449,,0.13496104971220796,0.6118054067411416,-0.4619793725609127,0.996860426798291,-0.07074200214526077,-0.03556485085036658,-0.03433349123060646,-0.7909455148711337,0.6109225841996307,-0.07134774602919682,-0.60778348253117,-0.7908911034389223,,0.0,0.0,0.045,1.0,0.0,0.0,0.0,1.0,0.0,0.0,0.0,1.0,,-0.019150839222606658,-0.1589250388481224,0.2593265970793276,False,,0.12889773038189176,0.5250288804016292,-0.4258371988728612,-0.37968600329022006,-0.6406468301503747,-0.6673905737450719,0.6679025984772726,0.3093359898220434,-0.6769175461960815,0.6401130039710227,-0.7027680160757843,0.31043913691430725,False,,0.0,0.0,0.0,0.0,0.0,0.0
12:35:45.723849,,-0.034157647502695,-0.6099182742076291,0.04971401779,-2.6572306562964076,-0.42965512345248946,0.5771736352197675,,0.13144335695253148,0.500938474180384,-0.45460700220846717,-0.004380055122362954,-0.7671462112994204,-0.6414573295286835,0.7868709091281684,0.39320820277798013,-0.4756274609775183,0.6171020883816022,-0.5068273865499533,0.6019227631166723,,0.019015189915599116,0.2721433107840501,-0.10493140064827264,-0.9301177811342658,0.0536147403577147,0.3633267932441128,0.10768403929367955,-0.9059934057730368,0.40936546292033016,0.3511197043090472,0.4198825956942652,0.8369071304116,,0.08400401984927423,0.786327984879011,1.1383039398366057,0.9955170575960887,-0.04257301045794665,-0.08445902447799007,0.01842821369645415,-0.788549650781644,0.614694923675237,-0.09276954767154995,-0.6134957106880987,-0.7842300835801449,,0.13496104971220796,0.6118054067411416,-0.4619793725609127,0.996860426798291,-0.07074200214526077,-0.03556485085036658,-0.03433349123060646,-0.7909455148711337,0.6109225841996307,-0.07134774602919682,-0.60778348253117,-0.7908911034389223,,0.0,0.0,0.045,1.0,0.0,0.0,0.0,1.0,0.0,0.0,0.0,1.0,,-0.019150839222606658,-0.1589250388481224,0.2593265970793276,False,,0.129311634895513,0.5229554053489911,-0.4295461670247958,-0.3584658548533555,-0.6494764132906745,-0.6705837900541095,0.6609785812351707,0.3306888155032069,-0.6736113289200433,0.6592492290875992,-0.6847081830094971,0.3107493492627768,False,,0.0,0.0,0.0,0.0,0.0,0.0
12:35:45.805824,,-0.02627273723811178,-0.6227611789774644,0.050229941210000004,-2.6761015439367988,-0.47056827133041934,0.5734554349264743,,0.13416861682995854,0.4968552983637392,-0.4548638905608002,-0.002474264868399868,-0.7579580114154585,-0.6522986516500586,0.7870756292916139,0.4008978141827738,-0.4688207507765461,0.6168515476097721,-0.5145683584467644,0.5955783514339916,,0.019015823932485545,0.27214349889726835,-0.1049317939640215,-0.9301099665834983,0.053550240587447895,0.3633563289006111,0.10776601563927499,-0.9059785867372195,0.40937670452032904,0.35111527436489876,0.4199228167934147,0.836888816988855,,0.08400401984927423,0.786327984879011,1.1383039398366057,0.9955170575960887,-0.04257301045794665,-0.08445902447799007,0.01842821369645415,-0.788549650781644,0.614694923675237,-0.09276954767154995,-0.6134957106880987,-0.7842300835801449,,0.13496104971220796,0.6118054067411416,-0.4619793725609127,0.996860426798291,-0.07074200214526077,-0.03556485085036658,-0.03433349123060646,-0.7909455148711337,0.6109225841996307,-0.07134774602919682,-0.60778348253117,-0.7908911034389223,,0.0,0.0,0.045,1.0,0.0,0.0,0.0,1.0,0.0,0.0,0.0,1.0,,-0.019150839222606658,-0.1589250388481224,0.2593265970793276,False,,0.12968435480165047,0.5223850688874695,-0.4302606852157257,-0.33787467223009326,-0.6585402044974037,-0.6724325281587179,0.6774069032397944,0.32585606856295296,-0.6594980743139196,0.6534222167239795,-0.6783381322328961,0.33600116822759263,False,,0.0,0.0,0.0,0.0,0.0,0.0
12:35:45.905027,,-0.013831414577736097,-0.6234562249361447,0.05130845449,-2.6985369325759305,-0.5108107118660881,0.5683640954913699,,0.13318354903143792,0.49828905124667117,-0.454800916326811,-0.01912453339130274,-0.7683979786228005,-0.6396864846711704,0.7859220036586495,0.3839364233002581,-0.4846848739424195,0.6180298183645663,-0.5120130558020953,0.5965582740189445,,0.01901584343594242,0.27214442861177596,-0.1049318461604416,-0.9301101609392188,0.05355260176905012,0.36335548333654283,0.10776493860072527,-0.9059769526555123,0.4093806042972241,0.35111509001372904,0.41992604111931897,0.8368872764380241,,0.08400401984927423,0.786327984879011,1.1383039398366057,0.9955170575960887,-0.04257301045794665,-0.08445902447799007,0.01842821369645415,-0.788549650781644,0.614694923675237,-0.09276954767154995,-0.6134957106880987,-0.7842300835801449,,0.13496104971220796,0.6118054067411416,-0.4619793725609127,0.996860426798291,-0.07074200214526077,-0.03556485085036658,-0.03433349123060646,-0.7909455148711337,0.6109225841996307,-0.07134774602919682,-0.60778348253117,-0.7908911034389223,,0.0,0.0,0.045,1.0,0.0,0.0,0.0,1.0,0.0,0.0,0.0,1.0,,-0.019150839222606658,-0.1589250388481224,0.2593265970793276,False,,0.13060141880371884,0.5215981718316351,-0.4297364873660726,-0.30852123288494493,-0.6769948804822686,-0.6682010031868796,0.706630281246697,0.30714006561561996,-0.6374469591415795,0.6367796278810806,-0.6688369845443891,0.3836258510856656,False,,0.0,0.0,0.0,0.0,0.0,0.0
12:35:45.984590,,-0.006502541080097037,-0.6450103723881053,0.052759003000000006,-2.7239077926257895,-0.5577602258243681,0.5646743331893888,,0.13293991324732266,0.49787788649856196,-0.4547591143890208,-0.00852231194648803,-0.7585429762522785,-0.6515672823104472,0.7866867672031714,0.39715154391380103,-0.472646359844554,0.6172935286446067,-0.5166073986551293,0.5933510724253143,,0.019015466022656427,0.27214538315896253,-0.10493165814806005,-0.9301111145247865,0.05355400382912283,0.3633528357326933,0.10776396583530455,-0.9059752514713739,0.40938462515400836,0.3511128625222474,0.41992953256339444,0.836886459070872,,0.08400401984927423,0.786327984879011,1.1383039398366057,0.9955170575960887,-0.04257301045794665,-0.08445902447799007,0.01842821369645415,-0.788549650781644,0.614694923675237,-0.09276954767154995,-0.6134957106880987,-0.7842300835801449,,0.13496104971220796,0.6118054067411416,-0.4619793725609127,0.996860426798291,-0.07074200214526077,-0.03556485085036658,-0.03433349123060646,-0.7909455148711337,0.6109225841996307,-0.07134774602919682,-0.60778348253117,-0.7908911034389223,,0.0,0.0,0.045,1.0,0.0,0.0,0.0,1.0,0.0,0.0,0.0,1.0,,-0.019150839222606658,-0.1589250388481224,0.2593265970793276,False,,0.1310909746422211,0.519999352192211,-0.43066942508027434,-0.2783303031725516,-0.6905592960859754,-0.6675777864227639,0.7280088142536278,0.30170137949863873,-0.6156130635209465,0.6265264628927512,-0.6573462833224664,0.41876061789193786,False,,0.0,0.0,0.0,0.0,0.0,0.0
12:35:46.021538,,-0.0031122613483124772,-0.6774612959255967,0.053779183230000006,-2.739423855796778,-0.5851250853886228,0.564697633562459,,0.13136028127045654,0.5222029945023442,-0.4328221662568385,-0.25528572913936304,-0.6969522981258844,-0.670139306886883,0.7473432713732737,0.29750964151317427,-0.5941094578777513,0.6134388569620256,-0.6524917680275749,0.44491264471283865,,0.019015466022656427,0.27214538315896253,-0.10493165814806005,-0.9301111145247865,0.05355400382912283,0.3633528357326933,0.10776396583530455,-0.9059752514713739,0.40938462515400836,0.3511128625222474,0.41992953256339444,0.836886459070872,,0.08400401984927423,0.786327984879011,1.1383039398366057,0.9955170575960887,-0.04257301045794665,-0.08445902447799007,0.01842821369645415,-0.788549650781644,0.614694923675237,-0.09276954767154995,-0.6134957106880987,-0.7842300835801449,,0.13496104971220796,0.6118054067411416,-0.4619793725609127,0.996860426798291,-0.07074200214526077,-0.03556485085036658,-0.03433349123060646,-0.7909455148711337,0.6109225841996307,-0.07134774602919682,-0.60778348253117,-0.7908911034389223,,0.0,0.0,0.045,1.0,0.0,0.0,0.0,1.0,0.0,0.0,0.0,1.0,,-0.019150839222606658,-0.1589250388481224,0.2593265970793276,False,,0.1310880818994431,0.5182434409362839,-0.43314661553076195,-0.25917809665713426,-0.6954356566346396,-0.6702208305434362,0.7280734181110977,0.3152812851211278,-0.6086927049771448,0.6346146957431796,-0.6457297877080771,0.4246142122130085,False,,0.0,0.0,0.0,0.0,0.0,0.0
12:35:46.093460,,-0.0010348462051460842,-0.6883040128810078,0.054092885410000006,-2.7440367394422065,-0.5937101393695655,0.5639512972602845,,0.1331693866192057,0.4973653270362295,-0.45477927147296765,-0.007704565151933032,-0.7596735431783449,-0.6502589849211459,0.7870001745013798,0.39656506506272143,-0.4726170484722251,0.61690466444226,-0.5153952434459005,0.5948078496646827,,0.01901447859537007,0.2721456776684389,-0.1049310706900846,-0.9301130611282103,0.053552196363956306,0.3633481192129581,0.10776395718912382,-0.9059746751918154,0.4093859027791663,0.35110770854815826,0.4199310063902981,0.8368878818709116,,0.08400401984927423,0.786327984879011,1.1383039398366057,0.9955170575960887,-0.04257301045794665,-0.08445902447799007,0.01842821369645415,-0.788549650781644,0.614694923675237,-0.09276954767154995,-0.6134957106880987,-0.7842300835801449,,0.13496104971220796,0.6118054067411416,-0.4619793725609127,0.996860426798291,-0.07074200214526077,-0.03556485085036658,-0.03433349123060646,-0.7909455148711337,0.6109225841996307,-0.07134774602919682,-0.60778348253117,-0.7908911034389223,,0.0,0.0,0.045,1.0,0.0,0.0,0.0,1.0,0.0,0.0,0.0,1.0,,-0.019150839222606658,-0.1589250388481224,0.2593265970793276,False,,0.13118683922097835,0.5174911553809236,-0.43436053526256446,-0.2510878027170003,-0.6994619824026408,-0.6691097447355826,0.7265603909328741,0.3205567979094053,-0.6077444673886697,0.6395818271763339,-0.6387458606421151,0.4277134693440758,False,,0.0,0.0,0.0,0.0,0.0,0.0
12:35:46.122738,,0.0029346384922053137,-0.7058655074369944,0.054779919110000005,-2.7526334771450514,-0.6069901447463362,0.5656532439695657,,0.13154333024618156,0.5191157367708958,-0.4339888267164501,-0.2386361736837067,-0.7032486293038828,-0.6696970523989257,0.7516115221180554,0.3029286118689789,-0.5859303507504227,0.6149251144887316,-0.6431761978597648,0.4562800478627976,,0.019013968004768646,0.2721458284952195,-0.10493076692148212,-0.9301173988285499,0.05358455709106759,0.36333223926786534,0.1077227521451919,-0.9059816450163658,0.4093813185983703,0.35110885708041145,0.4199118366853081,0.8368970165706731,,0.08400401984927423,0.786327984879011,1.1383039398366057,0.9955170575960887,-0.04257301045794665,-0.08445902447799007,0.01842821369645415,-0.788549650781644,0.614694923675237,-0.09276954767154995,-0.6134957106880987,-0.7842300835801449,,0.13487629073131252,0.6118122470753636,-0.461955598641991,0.9968552835093625,-0.07083603717621587,-0.035521818318304144,-0.0344349926968763,-0.790946684355069,0.6109153573005752,-0.07137068738239055,-0.6077710081477177,-0.7908986196964012,,0.0,0.0,0.045,1.0,0.0,0.0,0.0,1.0,0.0,0.0,0.0,1.0,,-0.019150839222606658,-0.1589250388481224,0.2593265970793276,False,,0.13135289721690124,0.5165073692247666,-0.4356970090047884,-0.24225906449134288,-0.7029378893812782,-0.668721817607272,0.7242595932024408,0.32759570825570516,-0.6067364284322133,0.6455684218779716,-0.6313155911306462,0.4297464799964608,False,,0.0,0.0,0.0,0.0,0.0,0.0
12:35:46.162074,,0.0032512705400485186,-0.7075567859364496,0.05486288167,-2.7561979781437924,-0.6119533790790687,0.5670665048245911,,0.13153041327598405,0.5184968389482426,-0.4341100866580707,-0.23538616087152023,-0.7039529507124573,-0.6701071544562045,0.7526808152433542,0.3041614585489859,-0.583915573947085,0.6148698607305183,-0.6418224445409949,0.45825648282228926,,0.019005477552788398,0.272144755429478,-0.10493237668553865,-0.9301212793324165,0.053647864810781834,0.36331294930023267,0.10764553465097317,-0.9059974154223592,0.4093667169087781,0.3511222456605327,0.41986971389254746,0.8369125275397993,,0.08400401984927423,0.786327984879011,1.1383039398366057,0.9955170575960887,-0.04257301045794665,-0.08445902447799007,0.01842821369645415,-0.788549650781644,0.614694923675237,-0.09276954767154995,-0.6134957106880987,-0.7842300835801449,,0.13487629073131252,0.6118122470753636,-0.461955598641991,0.9968552835093625,-0.07083603717621587,-0.035521818318304144,-0.0344349926968763,-0.790946684355069,0.6109153573005752,-0.07137068738239055,-0.6077710081477177,-0.7908986196964012,,0.0,0.0,0.045,1.0,0.0,0.0,0.0,1.0,0.0,0.0,0.0,1.0,,-0.019150839222606658,-0.1589250388481224,0.2593265970793276,False,,0.13130398124708195,0.5163735357160562,-0.4358699103661535,-0.23834685919335113,-0.7038100426732514,-0.6692101303364597,0.725569828757938,0.3289852753981722,-0.604414685598692,0.6455534046915421,-0.6296190216340873,0.43225072502853396,False,,0.0,0.0,0.0,0.0,0.0,0.0
12:35:46.263465,,0.003274438738671192,-0.7080587635732741,0.05501065873000001,-2.7656334219639875,-0.6200018671862024,0.5697678457162821,,0.1331053461872804,0.4985629848127145,-0.4548034244977763,-0.02963854696987343,-0.7719262412866715,-0.635020814262451,0.7851197624099443,0.37521274453736503,-0.49274978945717607,0.618634395428243,-0.5131717785983266,0.594933786604327,,0.018995999744810907,0.2721439768941932,-0.10493339890107231,-0.9301271045013058,0.05370936661317397,0.36328894452305216,0.10756830794627056,-0.9060126062463648,0.4093533928659814,0.35113047774329975,0.4198290664822123,0.8369294631801899,,0.08400401984927423,0.786327984879011,1.1383039398366057,0.9955170575960887,-0.04257301045794665,-0.08445902447799007,0.01842821369645415,-0.788549650781644,0.614694923675237,-0.09276954767154995,-0.6134957106880987,-0.7842300835801449,,0.13487629073131252,0.6118122470753636,-0.461955598641991,0.9968552835093625,-0.07083603717621587,-0.035521818318304144,-0.0344349926968763,-0.790946684355069,0.6109153573005752,-0.07137068738239055,-0.6077710081477177,-0.7908986196964012,,0.0,0.0,0.045,1.0,0.0,0.0,0.0,1.0,0.0,0.0,0.0,1.0,,-0.019150839222606658,-0.1589250388481224,0.2593265970793276,False,,0.13133830361386126,0.516261479230343,-0.4358268976025498,-0.22827566051353498,-0.7061853604619911,-0.6702182178113906,0.7322851549647041,0.32911305491993564,-0.5961904468369034,0.6415985307304158,-0.6268866195337358,0.44200055612423905,False,,0.0,0.0,0.0,0.0,0.0,0.0
12:35:46.359225,,0.0033902797317845595,-0.7095029146207541,0.055459175070000005,-2.8174235247103945,-0.646696019408196,0.5829520338421372,,0.1336238818500998,0.49732876597296105,-0.45482354505363076,-0.015375800288321313,-0.7679121216420478,-0.6403706412701184,0.7861643736517434,0.3864466454582853,-0.4822909576332541,0.6178261586937349,-0.5108521935445202,0.5977632256876436,,0.01898692867785572,0.2721436383232156,-0.10493468734895012,-0.9301322650398234,0.05377300869401566,0.36326632128152003,0.10749043808498054,-0.9060270442215486,0.4093418961809194,0.351140658941277,0.41978976379216887,0.8369449079617657,,0.08400401984927423,0.786327984879011,1.1383039398366057,0.9955170575960887,-0.04257301045794665,-0.08445902447799007,0.01842821369645415,-0.788549650781644,0.614694923675237,-0.09276954767154995,-0.6134957106880987,-0.7842300835801449,,0.13487629073131252,0.6118122470753636,-0.461955598641991,0.9968552835093625,-0.07083603717621587,-0.035521818318304144,-0.0344349926968763,-0.790946684355069,0.6109153573005752,-0.07137068738239055,-0.6077710081477177,-0.7908986196964012,,0.0,0.0,0.045,1.0,0.0,0.0,0.0,1.0,0.0,0.0,0.0,1.0,,-0.019150839222606658,-0.1589250388481224,0.2593265970793276,False,,0.13158904711189306,0.516032653154088,-0.4355618203143164,-0.18364981473816072,-0.7221733121020893,-0.6668871365037249,0.7509967088769532,0.33465979199993706,-0.5692159228926611,0.6342528587264108,-0.6053664434919211,0.480889571826338,False,,0.0,0.0,0.0,0.0,0.0,0.0
12:35:46.454673,,0.0033439433345392126,-0.7171638656319849,0.05587139529000001,-2.845939532700319,-0.6589028930373488,0.590102820414095,,0.1331779266493092,0.49797780553611404,-0.45477498840668273,-0.014246569619944971,-0.7605964451872561,-0.649068627205609,0.7862168534494309,0.39254611484603336,-0.47725318969218206,0.6177864474121627,-0.5171079145476261,0.5924013083257541,,0.01897805126391213,0.27214305489662005,-0.10493608276320232,-0.9301369953153443,0.053836540894109886,0.36324481246307044,0.10741278485993139,-0.9060419210738868,0.40932936356485106,0.3511519052566972,0.41974952184883874,0.8369603785803089,,0.08400401984927423,0.786327984879011,1.1383039398366057,0.9955170575960887,-0.04257301045794665,-0.08445902447799007,0.01842821369645415,-0.788549650781644,0.614694923675237,-0.09276954767154995,-0.6134957106880987,-0.7842300835801449,,0.13487629073131252,0.6118122470753636,-0.461955598641991,0.9968552835093625,-0.07083603717621587,-0.035521818318304144,-0.0344349926968763,-0.790946684355069,0.6109153573005752,-0.07137068738239055,-0.6077710081477177,-0.7908986196964012,,0.0,0.0,0.045,1.0,0.0,0.0,0.0,1.0,0.0,0.0,0.0,1.0,,-0.019150839222606658,-0.1589250388481224,0.2593265970793276,False,,0.13167201500564849,0.5155121001670794,-0.43613061960839367,-0.15925188790030742,-0.7305694776404184,-0.664008339209979,0.7548223228371451,0.34340036108235417,-0.5588554848574413,0.6363034630951846,-0.5902071080127004,0.49676299429844806,False,,0.0,0.0,0.0,0.0,0.0,0.0
12:35:46.553437,,0.0032435478071742943,-0.7317675534971434,0.05662842865000001,-2.8887135446852055,-0.6826459329533934,0.6037889525007516,,0.1338586233131965,0.4969874896962977,-0.4548428860323877,-0.013245363000057568,-0.7634931753789082,-0.645680053516313,0.7863533405858956,0.39091098614317654,-0.47836913013066873,0.6176349926197511,-0.5140688398088352,0.5951976510615608,,0.018969490738130902,0.2721425655455787,-0.10493767501403306,-0.9301378198249197,0.05386782102311011,0.36323806785888363,0.10737612019295847,-0.9060493908598629,0.40932245245901944,0.3511609387388354,0.4197293879787083,0.836966687463346,,0.08400401984927423,0.786327984879011,1.1383039398366057,0.9955170575960887,-0.04257301045794665,-0.08445902447799007,0.01842821369645415,-0.788549650781644,0.614694923675237,-0.09276954767154995,-0.6134957106880987,-0.7842300835801449,,0.13487629073131252,0.6118122470753636,-0.461955598641991,0.9968552835093625,-0.07083603717621587,-0.035521818318304144,-0.0344349926968763,-0.790946684355069,0.6109153573005752,-0.07137068738239055,-0.6077710081477177,-0.7908986196964012,,0.0,0.0,0.045,1.0,0.0,0.0,0.0,1.0,0.0,0.0,0.0,1.0,,-0.019150839222606658,-0.1589250388481224,0.2593265970793276,False,,0.13178766054815924,0.5146768542791146,-0.43704866751191895,-0.1236467008981452,-0.7410809322190004,-0.6599322277767788,0.7614597705575628,0.35558362435940294,-0.5419772171501817,0.6363100747115581,-0.5695255376090248,0.5203365745666192,False,,0.0,0.0,0.0,0.0,0.0,0.0
12:35:46.660590,,0.003428893396155682,-0.7437068985206945,0.05715342610000001,-2.8939554579186475,-0.6910968454658838,0.6082096382501823,,0.14069708922345836,0.4882492239166532,-0.4557219440058817,0.05938902290942769,-0.7241100668931005,-0.6871226637085505,0.7914215477708173,0.4536654712732483,-0.40968228409154567,0.6083788931923164,-0.5194730514651283,0.600019058963631,,0.01896987788994238,0.27214207584751265,-0.10493788913194367,-0.9301369637841972,0.053867598911809755,0.3632402927868948,0.10737655451267433,-0.9060502749753689,0.4093203814521856,0.3511630733112742,0.4197275079365807,0.8369667346663462,,0.08400401984927423,0.786327984879011,1.1383039398366057,0.9955170575960887,-0.04257301045794665,-0.08445902447799007,0.01842821369645415,-0.788549650781644,0.614694923675237,-0.09276954767154995,-0.6134957106880987,-0.7842300835801449,,0.13487629073131252,0.6118122470753636,-0.461955598641991,0.9968552835093625,-0.07083603717621587,-0.035521818318304144,-0.0344349926968763,-0.790946684355069,0.6109153573005752,-0.07137068738239055,-0.6077710081477177,-0.7908986196964012,,0.0,0.0,0.045,1.0,0.0,0.0,0.0,1.0,0.0,0.0,0.0,1.0,,-0.019150839222606658,-0.1589250388481224,0.2593265970793276,False,,0.13171018741560755,0.5138683376327242,-0.4381867282141254,-0.11721687050848859,-0.7391053803563989,-0.6633124768888483,0.7598753154220237,0.36329026201421477,-0.5390822669481192,0.6394135674823269,-0.5672243138775577,0.5190441864289183,False,,0.0,0.0,0.0,0.0,0.0,0.0
12:35:46.769181,,0.005174231025730422,-0.7496147891694762,0.05771860854000001,-2.8914393395665954,-0.6984746262307564,0.608297970407158,,0.1384418197401388,0.4914025257045109,-0.4553338878936511,0.05796852238459309,-0.7445278549682866,-0.6650698636901764,0.7913520678272713,0.4403996718626182,-0.4240401322620308,0.6086062398283881,-0.5017234319818251,0.6147129758206917,,0.018971465559400078,0.272141976479038,-0.10493884996909097,-0.930133926410397,0.0538714335022433,0.3632475017083621,0.10737613748492403,-0.9060505432880385,0.40931989691541265,0.35117124589546317,0.4197264365803502,0.8369638429444635,,0.08400401984927423,0.786327984879011,1.1383039398366057,0.9955170575960887,-0.04257301045794665,-0.08445902447799007,0.01842821369645415,-0.788549650781644,0.614694923675237,-0.09276954767154995,-0.6134957106880987,-0.7842300835801449,,0.13487629073131252,0.6118122470753636,-0.461955598641991,0.9968552835093625,-0.07083603717621587,-0.035521818318304144,-0.0344349926968763,-0.790946684355069,0.6109153573005752,-0.07137068738239055,-0.6077710081477177,-0.7908986196964012,,0.0,0.0,0.045,1.0,0.0,0.0,0.0,1.0,0.0,0.0,0.0,1.0,,-0.019150839222606658,-0.1589250388481224,0.2593265970793276,False,,0.13174454155483717,0.5132613263586363,-0.43861377175643,-0.11802979491241675,-0.7377499195564162,-0.6646758786863224,0.7605003450517772,0.36324778130991114,-0.538228831027803,0.6385203150167277,-0.5690132736307025,0.518185007254176,False,,0.0,0.0,0.0,0.0,0.0,0.0
12:35:46.856248,,0.007406100826381305,-0.7558161436674785,0.058422494010000006,-2.92897143831804,-0.7155105927241895,0.6196181823439885,,0.1347436334146774,0.4956161827854339,-0.45491246113042827,0.001565123845532422,-0.7667259009646457,-0.6419726965979946,0.7871931953945775,0.39685306261496317,-0.47205351372233173,0.6167044863723818,-0.5046177161803547,0.6041825361636172,,0.018973096443661925,0.27214233511808905,-0.10493985720898004,-0.9301242710677514,0.05380991774454157,0.36328132209691644,0.107457585142504,-0.9060354944700684,0.40933181652199235,0.3511718861576185,0.4197667940347094,0.8369433259545095,,0.08400401984927423,0.786327984879011,1.1383039398366057,0.9955170575960887,-0.04257301045794665,-0.08445902447799007,0.01842821369645415,-0.788549650781644,0.614694923675237,-0.09276954767154995,-0.6134957106880987,-0.7842300835801449,,0.13487629073131252,0.6118122470753636,-0.461955598641991,0.9968552835093625,-0.07083603717621587,-0.035521818318304144,-0.0344349926968763,-0.790946684355069,0.6109153573005752,-0.07137068738239055,-0.6077710081477177,-0.7908986196964012,,0.0,0.0,0.045,1.0,0.0,0.0,0.0,1.0,0.0,0.0,0.0,1.0,,-0.019150839222606658,-0.1589250388481224,0.2593265970793276,False,,0.13207824963808212,0.5126160087938103,-0.4389342973124081,-0.09130513970753701,-0.7484096567961825,-0.656921880498136,0.7672562796403454,0.36765483370291363,-0.525497597147065,0.6348079810584011,-0.5520080695688272,0.5406532329649509,False,,0.0,0.0,0.0,0.0,0.0,0.0
12:35:46.936906,,0.00912827025733337,-0.7640640223771503,0.05910563884000001,-2.934842381139495,-0.7269126175426289,0.6269810063351287,,0.13514496338864324,0.4940584144928571,-0.4549233283482847,0.019704538619047095,-0.750562589716527,-0.6605055110109466,0.7898697550583663,0.416705696719998,-0.44995792288294933,0.6129579930157103,-0.512847112928524,0.6010576823891622,,0.018974737156367084,0.2721431585448812,-0.10494089046846712,-0.9301147101434832,0.053749584082236665,0.3633147217460282,0.10753849402900066,-0.9060196257250535,0.40934568393316656,0.3511724321873543,0.4198087646342366,0.8369220410884143,,0.08400401984927423,0.786327984879011,1.1383039398366057,0.9955170575960887,-0.04257301045794665,-0.08445902447799007,0.01842821369645415,-0.788549650781644,0.614694923675237,-0.09276954767154995,-0.6134957106880987,-0.7842300835801449,,0.13487629073131252,0.6118122470753636,-0.461955598641991,0.9968552835093625,-0.07083603717621587,-0.035521818318304144,-0.0344349926968763,-0.790946684355069,0.6109153573005752,-0.07137068738239055,-0.6077710081477177,-0.7908986196964012,,0.0,0.0,0.045,1.0,0.0,0.0,0.0,1.0,0.0,0.0,0.0,1.0,,-0.019150839222606658,-0.1589250388481224,0.2593265970793276,False,,0.13219698296789337,0.5117540375573799,-0.4396255816064365,-0.0816177799462417,-0.7476247769839961,-0.6590870434443973,0.7697706023734905,0.3727677720269654,-0.5181673550693886,0.6330811620307465,-0.5496374996101361,0.5450750969399696,False,,0.0,0.0,0.0,0.0,0.0,0.0
12:35:47.028037,,0.012580331852111727,-0.7723891284155643,0.05962674742000001,-2.9356810872568455,-0.7336196909652404,0.6305867960778588,,0.13560444157041898,0.4947383101057832,-0.45500645902348646,0.006583007859600601,-0.7632301990058651,-0.6460931258982623,0.787328365943312,0.40228885138085935,-0.46720201651502313,0.6164987495433832,-0.5056118505139456,0.6035610560923464,,0.01897558411978547,0.2721440315882733,-0.1049414432291647,-0.9301066654239295,0.053687334145168526,0.3633445195315349,0.10761961119772542,-0.9060036198205921,0.4093597915585662,0.35116888957717673,0.4198512710610835,0.8369022045428985,,0.08400401984927423,0.786327984879011,1.1383039398366057,0.9955170575960887,-0.04257301045794665,-0.08445902447799007,0.01842821369645415,-0.788549650781644,0.614694923675237,-0.09276954767154995,-0.6134957106880987,-0.7842300835801449,,0.13487629073131252,0.6118122470753636,-0.461955598641991,0.9968552835093625,-0.07083603717621587,-0.035521818318304144,-0.0344349926968763,-0.790946684355069,0.6109153573005752,-0.07137068738239055,-0.6077710081477177,-0.7908986196964012,,0.0,0.0,0.045,1.0,0.0,0.0,0.0,1.0,0.0,0.0,0.0,1.0,,-0.019150839222606658,-0.1589250388481224,0.2593265970793276,False,,0.13238740638112403,0.5111026372253827,-0.44035431818104565,-0.07988658559763984,-0.7472455326280775,-0.6597289196396746,0.7685287564151398,0.37531944495776404,-0.5181687609260086,0.6348083836911341,-0.5484153792555213,0.5442966909613479,False,,0.0,0.0,0.0,0.0,0.0,0.0
12:35:47.107083,,0.014634578796655445,-0.7791001832832655,0.060173781800000006,-2.9358907637861833,-0.7405950473247562,0.6342596699689619,,0.1352877666315359,0.4941493395276916,-0.4549452764536964,0.01702154220365996,-0.7529448499159014,-0.657863450942618,0.78940348596568,0.41392759219691405,-0.4533277895334658,0.6136386586960129,-0.5116033633618792,0.6014229752433574,,0.018976227820075055,0.27214468459817776,-0.10494186276182506,-0.9300989495140326,0.05362401620985935,0.3633736297921071,0.10770104920461829,-0.9059879854498476,0.40937298402633343,0.35116436884027813,0.41989310655918727,0.8368831166602404,,0.08400401984927423,0.786327984879011,1.1383039398366057,0.9955170575960887,-0.04257301045794665,-0.08445902447799007,0.01842821369645415,-0.788549650781644,0.614694923675237,-0.09276954767154995,-0.6134957106880987,-0.7842300835801449,,0.13487629073131252,0.6118122470753636,-0.461955598641991,0.9968552835093625,-0.07083603717621587,-0.035521818318304144,-0.0344349926968763,-0.790946684355069,0.6109153573005752,-0.07137068738239055,-0.6077710081477177,-0.7908986196964012,,0.0,0.0,0.045,1.0,0.0,0.0,0.0,1.0,0.0,0.0,0.0,1.0,,-0.019150839222606658,-0.1589250388481224,0.2593265970793276,False,,0.1324740562603024,0.5105209649265081,-0.44088265323579895,-0.07878139132605988,-0.7458158831873954,-0.6614772564239346,0.7685403097586253,0.37717769520105066,-0.5168005210126436,0.6349325040166449,-0.549086199633745,0.5434749862826482,False,,0.0,0.0,0.0,0.0,0.0,0.0
12:35:47.176132,,0.015599920405933509,-0.7819807626453512,0.060519891230000004,-2.936729469903534,-0.7447534328467754,0.6363671397515211,,0.1381716457638191,0.5021556337586293,-0.4489222561493791,-0.0988238868757445,-0.7516141260690995,-0.6521579907324256,0.7779773693960841,0.3502802702452766,-0.5215888658555182,0.6204716368137384,-0.5589095971356018,0.5501227227986502,,0.018976281100842495,0.27214560725651943,-0.10494193493574179,-0.9300924188384707,0.05355985130990097,0.3633998276090791,0.10778237390112079,-0.9059718386144068,0.409387331842736,0.3511567345999306,0.419936149818918,0.8368647308734078,,0.08400401984927423,0.786327984879011,1.1383039398366057,0.9955170575960887,-0.04257301045794665,-0.08445902447799007,0.01842821369645415,-0.788549650781644,0.614694923675237,-0.09276954767154995,-0.6134957106880987,-0.7842300835801449,,0.13487629073131252,0.6118122470753636,-0.461955598641991,0.9968552835093625,-0.07083603717621587,-0.035521818318304144,-0.0344349926968763,-0.790946684355069,0.6109153573005752,-0.07137068738239055,-0.6077710081477177,-0.7908986196964012,,0.0,0.0,0.045,1.0,0.0,0.0,0.0,1.0,0.0,0.0,0.0,1.0,,-0.019150839222606658,-0.1589250388481224,0.2593265970793276,False,,0.13252362211853558,0.5100999927139389,-0.44113937242284695,-0.07754609209170965,-0.7449890931520783,-0.6625540390683223,0.7693678546950989,0.3779389987475295,-0.5150099196982286,0.6340817831819213,-0.5496847863186308,0.5438629679677374,False,,0.0,0.0,0.0,0.0,0.0,0.0
12:35:47.285779,,0.01676605306994141,-0.7858421290824634,0.06091655597000001,-2.959584211601341,-0.7558871747283104,0.6433873530180874,,0.15210091484793972,0.4706832773418508,-0.4480805132592666,0.1065312716797152,-0.6175136545273013,-0.7793125012641847,0.7882400625100063,0.5301940888087173,-0.3123649020721052,0.6060764737296149,-0.5810087044654592,0.543231252163243,,0.018975487280846803,0.2721456569391114,-0.10494145449559666,-0.9300939374315067,0.05355793311375813,0.36339622358790985,0.10778258240209164,-0.9059717043587435,0.4093875740618727,0.3511526483569621,0.4199366841157262,0.8368661773844108,,0.08400401984927423,0.786327984879011,1.1383039398366057,0.9955170575960887,-0.04257301045794665,-0.08445902447799007,0.01842821369645415,-0.788549650781644,0.614694923675237,-0.09276954767154995,-0.6134957106880987,-0.7842300835801449,,0.13480088157857245,0.6118082900737521,-0.46195089377017173,0.9968469330897727,-0.07093012077076886,-0.03556838423317055,-0.03448114210387153,-0.7909437478609689,0.6109165561341884,-0.07146497623820308,-0.6077638568449825,-0.7908956008754788,,0.0,0.0,0.045,1.0,0.0,0.0,0.0,1.0,0.0,0.0,0.0,1.0,,-0.019150839222606658,-0.1589250388481224,0.2593265970793276,False,,0.13273206799848702,0.5097166480857134,-0.4413931638621818,-0.05978106694919283,-0.7516988960658024,-0.656791438500739,0.7739479894442569,0.3806362935245138,-0.5060835125620203,0.6304210764795293,-0.5385766256582011,0.5590210055311137,False,,0.0,0.0,0.0,0.0,0.0,0.0
12:35:47.402838,,0.016758330337067185,-0.794082285059261,0.06138710924000001,-2.9855841012392133,-0.7668867751413931,0.6566766946410624,,0.14874944830550724,0.47394104938007797,-0.45729603795730617,0.14827054705143536,-0.6740382371859306,-0.7236631120130078,0.786017058960822,0.5243972471586548,-0.3273907607050093,0.6001608350264518,-0.520269143793583,0.6075582195285025,,0.018981377519930225,0.2721438972133529,-0.10494122913860277,-0.9300985674721527,0.05355550671819225,0.36338473028692553,0.10777820666819396,-0.9059734326162264,0.4093849011385918,0.35114172733090554,0.419933264713602,0.8368724754903452,,0.08400401984927423,0.786327984879011,1.1383039398366057,0.9955170575960887,-0.04257301045794665,-0.08445902447799007,0.01842821369645415,-0.788549650781644,0.614694923675237,-0.09276954767154995,-0.6134957106880987,-0.7842300835801449,,0.13480088157857245,0.6118082900737521,-0.46195089377017173,0.9968469330897727,-0.07093012077076886,-0.03556838423317055,-0.03448114210387153,-0.7909437478609689,0.6109165561341884,-0.07146497623820308,-0.6077638568449825,-0.7908956008754788,,0.0,0.0,0.045,1.0,0.0,0.0,0.0,1.0,0.0,0.0,0.0,1.0,,-0.019150839222606658,-0.1589250388481224,0.2593265970793276,False,,0.1330031268154989,0.5091689861282295,-0.4421061318793289,-0.040054952034387525,-0.7547596373664046,-0.6547774359429746,0.7756923917027828,0.38957864971671424,-0.4965176624646077,0.6298388002274387,-0.5277938664738677,0.5698567541414472,False,,0.0,0.0,0.0,0.0,0.0,0.0
12:35:47.441333,,0.019051982000711867,-0.7963759367229056,0.062157105500000004,-2.992922779766032,-0.7733255656271002,0.6655881684713367,,0.13308529070721106,0.5046963255755748,-0.4412385355137615,-0.03514745570329912,-0.753557127993571,-0.6564421613574694,0.7849192433470482,0.38576285471558136,-0.484859568684772,0.6186003861792215,-0.5322956648064745,0.5779229078753944,,0.018987674417196405,0.2721425774963138,-0.10494127011017614,-0.9301025353469295,0.0535552200907896,0.3633746161785995,0.10777318819458147,-0.9059744109918555,0.4093840569380292,0.3511327572134117,0.41993119027965914,0.8368772800015064,,0.08400401984927423,0.786327984879011,1.1383039398366057,0.9955170575960887,-0.04257301045794665,-0.08445902447799007,0.01842821369645415,-0.788549650781644,0.614694923675237,-0.09276954767154995,-0.6134957106880987,-0.7842300835801449,,0.13480088157857245,0.6118082900737521,-0.46195089377017173,0.9968469330897727,-0.07093012077076886,-0.03556838423317055,-0.03448114210387153,-0.7909437478609689,0.6109165561341884,-0.07146497623820308,-0.6077638568449825,-0.7908956008754788,,0.0,0.0,0.045,1.0,0.0,0.0,0.0,1.0,0.0,0.0,0.0,1.0,,-0.019150839222606658,-0.1589250388481224,0.2593265970793276,False,,0.1331706264415278,0.5085094519569247,-0.44223571194294303,-0.034755872561809176,-0.7537681095209983,-0.6562207451701049,0.7777961781468852,0.3919113502745773,-0.49136401861151424,0.6275548857132468,-0.5274837728263289,0.5726567338487654,False,,0.0,0.0,0.0,0.0,0.0,0.0
12:35:47.473266,,0.020812765096035055,-0.7963836594557799,0.06251617783,-2.997325986882123,-0.7770815267437625,0.6711424166999228,,0.133183972927221,0.5046964999639213,-0.44134873596566915,-0.0314938286620621,-0.7527189901897227,-0.6575882150434034,0.7850830921685041,0.38855121657937086,-0.4823613691889428,0.6185892636858037,-0.5314527955542766,0.578709986910715,,0.018993971335604876,0.2721412577957959,-0.10494131106041253,-0.9301065032416318,0.05355493354945219,0.3633645020697251,0.10776816970420931,-0.9059753894790405,0.40938321277398104,0.3511237871043063,0.4199291159172649,0.8368820845129349,,0.08400401984927423,0.786327984879011,1.1383039398366057,0.9955170575960887,-0.04257301045794665,-0.08445902447799007,0.01842821369645415,-0.788549650781644,0.614694923675237,-0.09276954767154995,-0.6134957106880987,-0.7842300835801449,,0.13480088157857245,0.6118082900737521,-0.46195089377017173,0.9968469330897727,-0.07093012077076886,-0.03556838423317055,-0.03448114210387153,-0.7909437478609689,0.6109165561341884,-0.07146497623820308,-0.6077638568449825,-0.7908956008754788,,0.0,0.0,0.045,1.0,0.0,0.0,0.0,1.0,0.0,0.0,0.0,1.0,,-0.019150839222606658,-0.1589250388481224,0.2593265970793276,False,,0.1333248472561876,0.5081735215390423,-0.4421718114390638,-0.03172826479998192,-0.7531311047214347,-0.6571049051056108,0.7796635553449939,0.39271453130174855,-0.48774997424013444,0.6253943217519535,-0.5277962068881507,0.5747287241080741,False,,0.0,0.0,0.0,0.0,0.0,0.0
12:35:47.505080,,0.022465429931119097,-0.7969165280241014,0.06288821306,-2.9992130756461624,-0.7817764781395906,0.6755882673888352,,0.13332596302890867,0.5042732228782925,-0.44158206138773387,-0.029708180919073172,-0.7519154377747385,-0.658589855997269,0.7849306580377962,0.39039288663262717,-0.4811208331999327,0.618870976907814,-0.5312405938015924,0.5786036168557017,,0.018999818043468744,0.2721390402698615,-0.10494103966947058,-0.9301177598085812,0.053617855400357274,0.36332638727371397,0.10768193050305075,-0.9059924457595762,0.4093681415158655,0.3511204066274681,0.4198842686113447,0.8369059960598404,,0.08400401984927423,0.786327984879011,1.1383039398366057,0.9955170575960887,-0.04257301045794665,-0.08445902447799007,0.01842821369645415,-0.788549650781644,0.614694923675237,-0.09276954767154995,-0.6134957106880987,-0.7842300835801449,,0.13480088157857245,0.6118082900737521,-0.46195089377017173,0.9968469330897727,-0.07093012077076886,-0.03556838423317055,-0.03448114210387153,-0.7909437478609689,0.6109165561341884,-0.07146497623820308,-0.6077638568449825,-0.7908956008754788,,0.0,0.0,0.045,1.0,0.0,0.0,0.0,1.0,0.0,0.0,0.0,1.0,,-0.019150839222606658,-0.1589250388481224,0.2593265970793276,False,,0.1334558788302891,0.5078514185520264,-0.4421439048966959,-0.02983748654942625,-0.7524561789092397,-0.6579661261932251,0.7821181155234072,0.39231789830638936,-0.48412593406940285,0.622415438245652,-0.5290523277425059,0.5768038286486221,False,,0.0,0.0,0.0,0.0,0.0,0.0
12:35:47.536805,,0.02416443116344849,-0.7978818696333795,0.06321876701000001,-3.0011001644102016,-0.7829837513556607,0.6792309057929492,,0.13346476692207523,0.5046639252205861,-0.44169752944974755,-0.02815006917998682,-0.751485238954719,-0.6591490796764654,0.7852143143958544,0.3914384939329688,-0.47980661305919703,0.6185839102927028,-0.5310798820334454,0.5790579460005114,,0.01900526789305723,0.272136847504462,-0.10494052802171386,-0.9301297730336716,0.05367982041013768,0.3632864724065873,0.10759579520504704,-0.9060094315259497,0.409353189405891,0.3511149797531862,0.41983969048116093,0.8369306328042718,,0.08400401984927423,0.786327984879011,1.1383039398366057,0.9955170575960887,-0.04257301045794665,-0.08445902447799007,0.01842821369645415,-0.788549650781644,0.614694923675237,-0.09276954767154995,-0.6134957106880987,-0.7842300835801449,,0.13480088157857245,0.6118082900737521,-0.46195089377017173,0.9968469330897727,-0.07093012077076886,-0.03556838423317055,-0.03448114210387153,-0.7909437478609689,0.6109165561341884,-0.07146497623820308,-0.6077638568449825,-0.7908956008754788,,0.0,0.0,0.045,1.0,0.0,0.0,0.0,1.0,0.0,0.0,0.0,1.0,,-0.019150839222606658,-0.1589250388481224,0.2593265970793276,False,,0.133596315312321,0.5074919630881108,-0.4421848306830332,-0.028176467252566506,-0.7521757833286741,-0.6583598390447738,0.7829010428577806,0.3928952163503555,-0.48238916453544733,0.6215078791015964,-0.5290226270613599,0.5778088059832012,False,,0.0,0.0,0.0,0.0,0.0,0.0
12:35:47.572373,,0.025608582210928474,-0.7991175068932553,0.06345728437,-3.0011001644102016,-0.7840568831032785,0.6814968100638974,,0.13356636909787808,0.5048915048944138,-0.4418271216000701,-0.02794638828349595,-0.7508826201891957,-0.6598441407481896,0.7852627988302538,0.39196225909826554,-0.47929940978042224,0.6185315967314722,-0.5315457441654413,0.578686258437526,,0.01900443067258102,0.2721364392732658,-0.10494000141150572,-0.9301379131812261,0.05374325352682571,0.36325625116090404,0.10751413942373766,-0.906024618699069,0.4093410301685237,0.35111842892547745,0.41979879925484115,0.8369496973279497,,0.08400401984927423,0.786327984879011,1.1383039398366057,0.9955170575960887,-0.04257301045794665,-0.08445902447799007,0.01842821369645415,-0.788549650781644,0.614694923675237,-0.09276954767154995,-0.6134957106880987,-0.7842300835801449,,0.13480088157857245,0.6118082900737521,-0.46195089377017173,0.9968469330897727,-0.07093012077076886,-0.03556838423317055,-0.03448114210387153,-0.7909437478609689,0.6109165561341884,-0.07146497623820308,-0.6077638568449825,-0.7908956008754788,,0.0,0.0,0.045,1.0,0.0,0.0,0.0,1.0,0.0,0.0,0.0,1.0,,-0.019150839222606658,-0.1589250388481224,0.2593265970793276,False,,0.1337379456826468,0.507136565653539,-0.4423153487340542,-0.02769428840717486,-0.751098561666668,-0.6596089576801415,0.782711405132977,0.3941449832472048,-0.4816768506538605,0.6217683512887907,-0.5296231517251896,0.5769778457551866,False,,0.0,0.0,0.0,0.0,0.0,0.0
12:35:47.605238,,0.02673610121056525,-0.8008010626598363,0.06360635772,-3.007809813349007,-0.7858007221931574,0.6842403921040039,,0.13368358283436074,0.504444315767974,-0.44191627495349806,-0.023124047488956922,-0.7528046423920819,-0.6578377070529315,0.7856522116566661,0.39323274383228596,-0.4776176415262753,0.6182361043701003,-0.5278761024815029,0.5823494995981543,,0.019003970940228158,0.2721350764507739,-0.10493966274276176,-0.9301450980353068,0.053805285527871866,0.36322867969243344,0.10743345607014859,-0.9060415038448384,0.4093248486573493,0.35112410201902644,0.41975441684490067,0.8369695815389495,,0.08400401984927423,0.786327984879011,1.1383039398366057,0.9955170575960887,-0.04257301045794665,-0.08445902447799007,0.01842821369645415,-0.788549650781644,0.614694923675237,-0.09276954767154995,-0.6134957106880987,-0.7842300835801449,,0.13480088157857245,0.6118082900737521,-0.46195089377017173,0.9968469330897727,-0.07093012077076886,-0.03556838423317055,-0.03448114210387153,-0.7909437478609689,0.6109165561341884,-0.07146497623820308,-0.6077638568449825,-0.7908956008754788,,0.0,0.0,0.045,1.0,0.0,0.0,0.0,1.0,0.0,0.0,0.0,1.0,,-0.019150839222606658,-0.1589250388481224,0.2593265970793276,False,,0.13382240224171776,0.5069981043444983,-0.4424302261143547,-0.025635252962655508,-0.7518473841066402,-0.6588386333674907,0.7825437320323909,0.3950191933783776,-0.4812329418478264,0.62206763399357,-0.5279065711607484,0.5782270409302419,False,,0.0,0.0,0.0,0.0,0.0,0.0
12:35:47.635934,,0.02666659661469723,-0.8018822452622277,0.06366598706000001,-3.017035580639865,-0.7862031465985141,0.6859597369617435,,0.1337219867001066,0.5036447685966076,-0.44187439744520124,-0.016749332931353663,-0.7556919627409255,-0.6547130037620472,0.7859945966615823,0.39477900292975593,-0.47577519151862563,0.618006435132476,-0.5225698004042674,0.5873575145005749,,0.019002543348387267,0.27213493777906056,-0.10493878873492585,-0.930154420502746,0.05386787340276147,0.3631955481370231,0.10735168679986179,-0.9060561757474951,0.4093138425259236,0.3511244356531072,0.4197147347391753,0.8369893500412049,,0.08400401984927423,0.786327984879011,1.1383039398366057,0.9955170575960887,-0.04257301045794665,-0.08445902447799007,0.01842821369645415,-0.788549650781644,0.614694923675237,-0.09276954767154995,-0.6134957106880987,-0.7842300835801449,,0.13480088157857245,0.6118082900737521,-0.46195089377017173,0.9968469330897727,-0.07093012077076886,-0.03556838423317055,-0.03448114210387153,-0.7909437478609689,0.6109165561341884,-0.07146497623820308,-0.6077638568449825,-0.7908956008754788,,0.0,0.0,0.045,1.0,0.0,0.0,0.0,1.0,0.0,0.0,0.0,1.0,,-0.019150839222606658,-0.1589250388481224,0.2593265970793276,False,,0.13391165636398839,0.5069151107419665,-0.4425359591991244,-0.01707962072482294,-0.7559854716956674,-0.6543655348052613,0.782524976294736,0.39727919180532745,-0.4793995256917021,0.6223848873734157,-0.5202453366860535,0.5847921353999177,False,,0.0,0.0,0.0,0.0,0.0,0.0
12:35:47.670423,,0.026041055251885048,-0.8024305592962977,0.06371783866000001,-3.019761375521255,-0.7880811271568453,0.6884957753218608,,0.1336872065932419,0.5034938615565074,-0.4419589845277017,-0.014657996077471,-0.7549964287006815,-0.655565050776969,0.7861598920973708,0.39642536462662625,-0.47413031366713654,0.6178493078481542,-0.5223287498595722,0.587737109481521,,0.019002553101514705,0.27213540263576974,-0.10493881482487846,-0.9301545171702346,0.053869054067303385,0.36319512543162025,0.10735114823562253,-0.9060553586865521,0.4093157923944123,0.35112434420855787,0.41971634700695915,0.8369885799070574,,0.08400401984927423,0.786327984879011,1.1383039398366057,0.9955170575960887,-0.04257301045794665,-0.08445902447799007,0.01842821369645415,-0.788549650781644,0.614694923675237,-0.09276954767154995,-0.6134957106880987,-0.7842300835801449,,0.13480088157857245,0.6118082900737521,-0.46195089377017173,0.9968469330897727,-0.07093012077076886,-0.03556838423317055,-0.03448114210387153,-0.7909437478609689,0.6109165561341884,-0.07146497623820308,-0.6077638568449825,-0.7908956008754788,,0.0,0.0,0.045,1.0,0.0,0.0,0.0,1.0,0.0,0.0,0.0,1.0,,-0.019150839222606658,-0.1589250388481224,0.2593265970793276,False,,0.13387848401220098,0.5068576273219264,-0.4426004393520434,-0.01597884704641994,-0.7551226507963653,-0.6553887843878148,0.7826572427607013,0.3984724305703813,-0.4781917632389222,0.622247793729543,-0.5205857319689075,0.5846350817981358,False,,0.0,0.0,0.0,0.0,0.0,0.0
12:35:47.780610,,0.025245613765839923,-0.8025309548236625,0.06378783832000001,-3.0371645274562824,-0.7899591077151765,0.6920650383427314,,0.1456840924511745,0.4842360274369548,-0.453983995998544,0.05255203452107717,-0.682127174741323,-0.7293427185809948,0.7887260809285702,0.4763073927317217,-0.38864178479953515,0.6124944513469115,-0.554827707589059,0.5630424157740834,,0.019002950031385954,0.2721353778056716,-0.10493905501483672,-0.9301537579231178,0.05387001272904085,0.3631969276996082,0.10735104396555697,-0.9060554257433158,0.4093156713112306,0.35112638738973534,0.4197160792131167,0.8369878570618344,,0.08400401984927423,0.786327984879011,1.1383039398366057,0.9955170575960887,-0.04257301045794665,-0.08445902447799007,0.01842821369645415,-0.788549650781644,0.614694923675237,-0.09276954767154995,-0.6134957106880987,-0.7842300835801449,,0.13480088157857245,0.6118082900737521,-0.46195089377017173,0.9968469330897727,-0.07093012077076886,-0.03556838423317055,-0.03448114210387153,-0.7909437478609689,0.6109165561341884,-0.07146497623820308,-0.6077638568449825,-0.7908956008754788,,0.0,0.0,0.045,1.0,0.0,0.0,0.0,1.0,0.0,0.0,0.0,1.0,,-0.019150839222606658,-0.1589250388481224,0.2593265970793276,False,,0.1339446870995494,0.5067909822244776,-0.44258461050380227,-0.0018905831659466465,-0.7607391933374491,-0.6490549325100152,0.7841633480039193,0.40164568691411334,-0.4730418436360303,0.6205515847555119,-0.5098594138618779,0.59578444823094,False,,0.0,0.0,0.0,0.0,0.0,0.0
12:35:47.888776,,0.023229980485667327,-0.8019363043923473,0.06396931892,-3.046599971276478,-0.7927760785526734,0.7003119619241467,,0.14673936411640606,0.48476000749989123,-0.4522094317137242,0.043455295970455304,-0.6739574129565172,-0.7374910458934935,0.7885794143786383,0.47636844860013666,-0.3888645116188194,0.6133955856299946,-0.5646720346353781,0.5521696739502979,,0.019002950031385954,0.2721353778056716,-0.10493905501483672,-0.9301537579231178,0.05387001272904085,0.3631969276996082,0.10735104396555697,-0.9060554257433158,0.4093156713112306,0.35112638738973534,0.4197160792131167,0.8369878570618344,,0.08400401984927423,0.786327984879011,1.1383039398366057,0.9955170575960887,-0.04257301045794665,-0.08445902447799007,0.01842821369645415,-0.788549650781644,0.614694923675237,-0.09276954767154995,-0.6134957106880987,-0.7842300835801449,,0.13480088157857245,0.6118082900737521,-0.46195089377017173,0.9968469330897727,-0.07093012077076886,-0.03556838423317055,-0.03448114210387153,-0.7909437478609689,0.6109165561341884,-0.07146497623820308,-0.6077638568449825,-0.7908956008754788,,0.0,0.0,0.045,1.0,0.0,0.0,0.0,1.0,0.0,0.0,0.0,1.0,,-0.019150839222606658,-0.1589250388481224,0.2593265970793276,False,,0.13386171448015702,0.5066532199052032,-0.4424692564853957,0.004713760119216426,-0.7584615304293025,-0.6517007651709325,0.7863088686996884,0.40545113884789896,-0.4661842307620005,0.6178156225523558,-0.5102406107571036,0.5982962273526913,False,,0.0,0.0,0.0,0.0,0.0,0.0
12:35:47.999511,,0.024705022464644205,-0.803303228111085,0.06436987253000001,-3.0505838253338937,-0.7972027470115969,0.7082725739552973,,0.14307064324663116,0.4787353764688129,-0.45619507579931573,0.154828112643977,-0.6546325725268868,-0.7399219219092873,0.7858083020988519,0.5355316679133361,-0.30937217879841694,0.5987767262407778,-0.5335372785933424,0.5973310677200593,,0.01900276620172426,0.27213608750594154,-0.10493897404727956,-0.9301542825709351,0.05387130438135461,0.3631953925205928,0.10735028827855402,-0.9060541666364829,0.40931865666759804,0.3511252286442081,0.4197186315305851,0.8369870632958627,,0.08400401984927423,0.786327984879011,1.1383039398366057,0.9955170575960887,-0.04257301045794665,-0.08445902447799007,0.01842821369645415,-0.788549650781644,0.614694923675237,-0.09276954767154995,-0.6134957106880987,-0.7842300835801449,,0.13480088157857245,0.6118082900737521,-0.46195089377017173,0.9968469330897727,-0.07093012077076886,-0.03556838423317055,-0.03448114210387153,-0.7909437478609689,0.6109165561341884,-0.07146497623820308,-0.6077638568449825,-0.7908956008754788,,0.0,0.0,0.045,1.0,0.0,0.0,0.0,1.0,0.0,0.0,0.0,1.0,,-0.019150839222606658,-0.1589250388481224,0.2593265970793276,False,,0.13399148747317885,0.5062588467629738,-0.4425490197612994,0.00763089154812846,-0.7560158970167717,-0.654508772249927,0.7881087601447224,0.40741314234117215,-0.4614099193026091,0.6154887096262036,-0.5123031279483056,0.5989316767520757,False,,0.0,0.0,0.0,0.0,0.0,0.0
12:35:48.068432,,0.02755471089523305,-0.8062301438704161,0.06482487032,-3.0547773559206473,-0.8005562837229027,0.7205799195443208,,0.1385814098865393,0.49479092900270993,-0.45356767329949377,-0.01654822662584149,-0.7413614044335779,-0.6709019482844069,0.7861601080081422,0.40495020350141014,-0.466870021805634,0.6178012955410228,-0.5351622190517933,0.5761275540428473,,0.019002959790014963,0.2721358426626137,-0.10493908109715747,-0.9301538546122982,0.05387119338310247,0.36319650500728634,0.10735050542336763,-0.9060546086980363,0.40931762119231996,0.3511262959554225,0.4197176914983123,0.8369870869422636,,0.08400401984927423,0.786327984879011,1.1383039398366057,0.9955170575960887,-0.04257301045794665,-0.08445902447799007,0.01842821369645415,-0.788549650781644,0.614694923675237,-0.09276954767154995,-0.6134957106880987,-0.7842300835801449,,0.13480088157857245,0.6118082900737521,-0.46195089377017173,0.9968469330897727,-0.07093012077076886,-0.03556838423317055,-0.03448114210387153,-0.7909437478609689,0.6109165561341884,-0.07146497623820308,-0.6077638568449825,-0.7908956008754788,,0.0,0.0,0.045,1.0,0.0,0.0,0.0,1.0,0.0,0.0,0.0,1.0,,-0.019150839222606658,-0.1589250388481224,0.2593265970793276,False,,0.1342173787402831,0.5057732035796805,-0.44280525573101615,0.010765005128733518,-0.7516335734691558,-0.6594930521988579,0.7882429975014426,0.4121919551558481,-0.45691440007373385,0.615269933894481,-0.5149220944364171,0.5969071494853235,False,,0.0,0.0,0.0,0.0,0.0,0.0
12:35:48.130709,,0.02933093945630469,-0.8082226089519661,0.06510486896,-3.0623257109768036,-0.804848810713374,0.729092483475712,,0.13902483739426025,0.4930705396207409,-0.4547814937418682,-0.010119307933647336,-0.7419362417375235,-0.6703940727686536,0.7864723431356188,0.4081339455240578,-0.46356006729844107,0.6175425921260116,-0.5319373043013288,0.5793823014236127,,0.01900234000783569,0.272134717765728,-0.10493865559281251,-0.9301547517987664,0.05386680374722877,0.3631948583529107,0.10735200821074967,-0.9060565507564962,0.40931292813459724,0.35112345978736953,0.4197140624985734,0.8369900965373779,,0.08400401984927423,0.786327984879011,1.1383039398366057,0.9955170575960887,-0.04257301045794665,-0.08445902447799007,0.01842821369645415,-0.788549650781644,0.614694923675237,-0.09276954767154995,-0.6134957106880987,-0.7842300835801449,,0.13480088157857245,0.6118082900737521,-0.46195089377017173,0.9968469330897727,-0.07093012077076886,-0.03556838423317055,-0.03448114210387153,-0.7909437478609689,0.6109165561341884,-0.07146497623820308,-0.6077638568449825,-0.7908956008754788,,0.0,0.0,0.045,1.0,0.0,0.0,0.0,1.0,0.0,0.0,0.0,1.0,,-0.019150839222606658,-0.1589250388481224,0.2593265970793276,False,,0.13437504177544815,0.5055618635747521,-0.44294845900410756,0.015386109115102964,-0.7515951013706444,-0.6594452753958808,0.7894990219262069,0.41383637157515396,-0.45324469322770244,0.613558931174391,-0.5136577276330632,0.5997509289855057,False,,0.0,0.0,0.0,0.0,0.0,0.0
12:35:48.236615,,0.03058202218192906,-0.8104313105539943,0.06552097805000001,-3.062116034447466,-0.8064585083348007,0.7339722952292138,,0.14685470293598332,0.4685346974447295,-0.45761802910790844,0.22659190195834003,-0.6361925835731549,-0.737506004432111,0.779972122679207,0.5720337992546306,-0.2538125693373073,0.5833520359184448,-0.5177222509385009,0.6258307063998844,,0.01900358376080317,0.27213556614760803,-0.10493944864034248,-0.9301459541250989,0.05380550753634977,0.3632264545824958,0.10743302172710695,-0.9060406196193419,0.4093269199154715,0.3511219671174064,0.4197562970148984,0.8369695342418673,,0.08400401984927423,0.786327984879011,1.1383039398366057,0.9955170575960887,-0.04257301045794665,-0.08445902447799007,0.01842821369645415,-0.788549650781644,0.614694923675237,-0.09276954767154995,-0.6134957106880987,-0.7842300835801449,,0.13480088157857245,0.6118082900737521,-0.46195089377017173,0.9968469330897727,-0.07093012077076886,-0.03556838423317055,-0.03448114210387153,-0.7909437478609689,0.6109165561341884,-0.07146497623820308,-0.6077638568449825,-0.7908956008754788,,0.0,0.0,0.045,1.0,0.0,0.0,0.0,1.0,0.0,0.0,0.0,1.0,,-0.019150839222606658,-0.1589250388481224,0.2593265970793276,False,,0.134467885965204,0.5050459644047076,-0.44316021559337326,0.01612294668677028,-0.7480679226587452,-0.6634262835305557,0.7891485071313304,0.41696398116277256,-0.45098300644845113,0.6139907851772112,-0.5162706862702169,0.5970593724375752,False,,0.0,0.0,0.0,0.0,0.0,0.0
12:35:48.422180,,0.03428893396155682,-0.815064950278529,0.06582560620000001,-3.0572934742726994,-0.8083364888931319,0.7349929374202263,,0.1469819222599787,0.47091403672892007,-0.457467500654671,0.19330875616502757,-0.6318664656805429,-0.7505841021086905,0.7821592203920303,0.5611003618361102,-0.270912048279728,0.5923332497384067,-0.5347066050609112,0.6026857952188464,,0.019004614499216987,0.2721357295905558,-0.10494008238168889,-0.9301373883066554,0.053741962308168446,0.36325778620419025,0.1075148949560373,-0.9060258775938541,0.40933804534822615,0.35111958805127075,0.41979624759421275,0.8369504909307073,,0.08400401984927423,0.786327984879011,1.1383039398366057,0.9955170575960887,-0.04257301045794665,-0.08445902447799007,0.01842821369645415,-0.788549650781644,0.614694923675237,-0.09276954767154995,-0.6134957106880987,-0.7842300835801449,,0.13495959514104072,0.6118018200710179,-0.46197057294573196,0.99686021179532,-0.07075887319978677,-0.03553730438407463,-0.03436396612535169,-0.7909466975047237,0.6109193396337251,-0.07133607762924418,-0.6077799795730916,-0.7908948479150733,,0.0,0.0,0.045,1.0,0.0,0.0,0.0,1.0,0.0,0.0,0.0,1.0,,-0.019150839222606658,-0.1589250388481224,0.2593265970793276,True,,0.1346606385546234,0.5046804496761498,-0.4436011099755459,0.01308937795495757,-0.7472263373496045,-0.664440718917683,0.7875610028846217,0.41713476495712787,-0.4535926086253287,0.6160976667056298,-0.5173503538563173,0.5939463582215333,True,,0.1633230297935714,-0.925,0.09935328641562956,-3.339097783013951,-0.8976854325796078,1.2272499545518332
12:35:48.477100,,0.03580258960490483,-0.8182930526199548,0.06656189892,-3.0728095374436877,-0.8157142696580045,0.7540926033350628,,0.13983442601033824,0.4936601387762199,-0.45379615818130803,-0.00017676376467907137,-0.7478226329100123,-0.6638985453080221,0.7870996378981312,0.40940575198886403,-0.4613687140011378,0.6168258496327811,-0.5226358578838323,0.588538555473495,,0.018996707929795596,0.2721355539771698,-0.10493926300878545,-0.9301252065033782,0.05367256149231777,0.36329923382963786,0.10760674261190892,-0.9060106710069598,0.40934756613087747,0.3511237190831786,0.4198379414675049,0.8369278426082055,,0.08400401984927423,0.786327984879011,1.1383039398366057,0.9955170575960887,-0.04257301045794665,-0.08445902447799007,0.01842821369645415,-0.788549650781644,0.614694923675237,-0.09276954767154995,-0.6134957106880987,-0.7842300835801449,,0.13495959514104072,0.6118018200710179,-0.46197057294573196,0.99686021179532,-0.07075887319978677,-0.03553730438407463,-0.03436396612535169,-0.7909466975047237,0.6109193396337251,-0.07133607762924418,-0.6077799795730916,-0.7908948479150733,,0.0,0.0,0.045,1.0,0.0,0.0,0.0,1.0,0.0,0.0,0.0,1.0,,-0.019150839222606658,-0.1589250388481224,0.2593265970793276,False,,0.1347689475052652,0.5039166442719215,-0.4438751428719161,0.024063677239680226,-0.7429440432951782,-0.6689208383433103,0.7898041712908668,0.42433860578636023,-0.4428838658732501,0.6128868659461153,-0.5176590539838943,0.5969914516802128,False,,0.0,0.0,0.0,0.0,0.0,0.0
12:35:48.591171,,0.036489912830710805,-0.8190498804416289,0.06669671308000001,-3.0786804802651426,-0.8187995234324058,0.7591691737944904,,0.15520912754236194,0.46526369751209484,-0.4479586151256484,0.1516712815568244,-0.5694232287466837,-0.8079313144782873,0.786031771216746,0.5650708250199529,-0.25069706290488464,0.5992911454283101,-0.5970361373275261,0.5332897652648623,,0.018989014544181573,0.27213606313829763,-0.1049386027936707,-0.9301127873873178,0.05360541303023137,0.36334095045158216,0.10769772997561383,-0.905994268890991,0.40935994862392827,0.3511287307232214,0.4198819218222472,0.8369036802584646,,0.08400401984927423,0.786327984879011,1.1383039398366057,0.9955170575960887,-0.04257301045794665,-0.08445902447799007,0.01842821369645415,-0.788549650781644,0.614694923675237,-0.09276954767154995,-0.6134957106880987,-0.7842300835801449,,0.13495959514104072,0.6118018200710179,-0.46197057294573196,0.99686021179532,-0.07075887319978677,-0.03553730438407463,-0.03436396612535169,-0.7909466975047237,0.6109193396337251,-0.07133607762924418,-0.6077799795730916,-0.7908948479150733,,0.0,0.0,0.045,1.0,0.0,0.0,0.0,1.0,0.0,0.0,0.0,1.0,,-0.019150839222606658,-0.1589250388481224,0.2593265970793276,False,,0.13484216509294308,0.5038413076329762,-0.4439259157652838,0.027217012832758902,-0.7433513592196305,-0.6683472083870698,0.7907019400167737,0.4250706882929973,-0.44057388938500175,0.6115960073988154,-0.516472329075281,0.5993385162271676,False,,0.0,0.0,0.0,0.0,0.0,0.0
12:35:48.643627,,0.04114672075386819,-0.8223783783104196,0.0673163397,-3.084970776145273,-0.8212140698645459,0.7755468276173475,,0.13975214442929831,0.49116200708317515,-0.4548123130396375,0.012726188248083614,-0.7350096268248123,-0.677937233530896,0.78760972519194,0.42507452302223653,-0.44607462454223384,0.6160429895029657,-0.5282731285540353,0.5843103085963661,,0.01898071881212974,0.27213767411608525,-0.10493779158463164,-0.9301016493162948,0.053543063849967,0.363378674997186,0.10778806579703516,-0.9059715069521272,0.40938656628261494,0.3511305369814568,0.419939005207297,0.8368742898994231,,0.08400401984927423,0.786327984879011,1.1383039398366057,0.9955170575960887,-0.04257301045794665,-0.08445902447799007,0.01842821369645415,-0.788549650781644,0.614694923675237,-0.09276954767154995,-0.6134957106880987,-0.7842300835801449,,0.13495959514104072,0.6118018200710179,-0.46197057294573196,0.99686021179532,-0.07075887319978677,-0.03553730438407463,-0.03436396612535169,-0.7909466975047237,0.6109193396337251,-0.07133607762924418,-0.6077799795730916,-0.7908948479150733,,0.0,0.0,0.045,1.0,0.0,0.0,0.0,1.0,0.0,0.0,0.0,1.0,,-0.019150839222606658,-0.1589250388481224,0.2593265970793276,False,,0.13521719745264996,0.5031506449965847,-0.4442140100848042,0.032507237864236094,-0.7375588760663324,-0.674499950943072,0.7907190287571625,0.4317468225338853,-0.4340024179578076,0.611315546217964,-0.5192317262722516,0.5972367347916319,False,,0.0,0.0,0.0,0.0,0.0,0.0
12:35:48.820128,,0.042235626089133844,-0.824146884138617,0.06744078354000001,-3.0885352771440138,-0.8237627577651383,0.7795937684073764,,0.15050972414900096,0.45546536789223807,-0.4589051690823786,0.28176180786797383,-0.5831359916983325,-0.7619466508968811,0.7695756450028344,0.6116202756819767,-0.18350467294642553,0.5730302001164013,-0.5346709769201107,0.6210984915404739,,0.018971728260201222,0.2721376048718426,-0.10493665301520727,-0.9300979373290122,0.05354495701686359,0.36338789610820144,0.10779857884869426,-0.9059618014324776,0.4094052750356151,0.35113714109744165,0.41995970093194424,0.8368611331748137,,0.08400401984927423,0.786327984879011,1.1383039398366057,0.9955170575960887,-0.04257301045794665,-0.08445902447799007,0.01842821369645415,-0.788549650781644,0.614694923675237,-0.09276954767154995,-0.6134957106880987,-0.7842300835801449,,0.13495959514104072,0.6118018200710179,-0.46197057294573196,0.99686021179532,-0.07075887319978677,-0.03553730438407463,-0.03436396612535169,-0.7909466975047237,0.6109193396337251,-0.07133607762924418,-0.6077799795730916,-0.7908948479150733,,0.0,0.0,0.045,1.0,0.0,0.0,0.0,1.0,0.0,0.0,0.0,1.0,,-0.019150839222606658,-0.1589250388481224,0.2593265970793276,True,,0.1353415771428959,0.5029976710553608,-0.4444281751963335,0.03500301457940952,-0.7374959529488885,-0.6744438511502385,0.7909363277280701,0.4329635395527877,-0.4323913723676235,0.6108964842347587,-0.5183071413765519,0.5984673698270262,True,,0.18034762060528486,-0.925,0.11478776757383047,-3.4735424816810916,-0.8652029788222456,1.3963
12:35:48.926294,,0.04581897414277401,-0.8263246948091483,0.06826392769,-3.1030029576683136,-0.8249700309812084,0.8068628107207158,,0.14845283373693682,0.45778057590253596,-0.4581551960283639,0.24284340267835672,-0.6020893773044002,-0.7606020401713356,0.7762205323384308,0.5908688529638308,-0.21989925823760811,0.5818150624999675,-0.5369938364026232,0.61084273975693,,0.018961513000323595,0.2721376173249622,-0.10493477370765694,-0.930103232582704,0.05361049712332493,0.3633646611429769,0.10772700345716173,-0.9059664095620006,0.4094139019398757,0.3511450627525626,0.41994138278298254,0.8368669939488422,,0.08400401984927423,0.786327984879011,1.1383039398366057,0.9955170575960887,-0.04257301045794665,-0.08445902447799007,0.01842821369645415,-0.788549650781644,0.614694923675237,-0.09276954767154995,-0.6134957106880987,-0.7842300835801449,,0.13495959514104072,0.6118018200710179,-0.46197057294573196,0.99686021179532,-0.07075887319978677,-0.03553730438407463,-0.03436396612535169,-0.7909466975047237,0.6109193396337251,-0.07133607762924418,-0.6077799795730916,-0.7908948479150733,,0.0,0.0,0.045,1.0,0.0,0.0,0.0,1.0,0.0,0.0,0.0,1.0,,-0.019150839222606658,-0.1589250388481224,0.2593265970793276,False,,0.13571802842713804,0.5021499788008442,-0.44461645747255374,0.044932267877796306,-0.7282595119585269,-0.6838268600642168,0.7902687158887458,0.44465116161893786,-0.42161677049007645,0.6111108311844182,-0.5214627769197503,0.5954998944552652,False,,0.0,0.0,0.0,0.0,0.0,0.0
12:35:48.983582,,0.04623600171798214,-0.8274213228772882,0.0687941103,-3.11327710760586,-0.8287259920978707,0.8129681121017036,,0.1403082627892318,0.48867969633042574,-0.454538399534241,0.03267820013981639,-0.7328219974363459,-0.679635236953637,0.7883348053574625,0.4368980025409639,-0.4331839909758067,0.6143780350058374,-0.5216244390834466,0.5919861270783683,,0.018960031773317634,0.27213774877530034,-0.10493421419691247,-0.9301124701377621,0.05368082407080285,0.3633306226483478,0.10764577418919374,-0.9059718514874727,0.409423217397714,0.35114549623505886,0.4199206505664685,0.8368772114440649,,0.08400401984927423,0.786327984879011,1.1383039398366057,0.9955170575960887,-0.04257301045794665,-0.08445902447799007,0.01842821369645415,-0.788549650781644,0.614694923675237,-0.09276954767154995,-0.6134957106880987,-0.7842300835801449,,0.13495959514104072,0.6118018200710179,-0.46197057294573196,0.99686021179532,-0.07075887319978677,-0.03553730438407463,-0.03436396612535169,-0.7909466975047237,0.6109193396337251,-0.07133607762924418,-0.6077799795730916,-0.7908948479150733,,0.0,0.0,0.045,1.0,0.0,0.0,0.0,1.0,0.0,0.0,0.0,1.0,,-0.019150839222606658,-0.1589250388481224,0.2593265970793276,False,,0.13582334844562166,0.5016305865551524,-0.4446809192753656,0.05175052164376631,-0.7293888071730154,-0.6821391731020321,0.7918373595681173,0.4461897567108064,-0.4170231372460568,0.6085355203287564,-0.5185621167970885,0.6006478598323086,False,,0.0,0.0,0.0,0.0,0.0,0.0
12:35:49.041253,,0.04771876642983325,-0.8289735921850073,0.06928151534,-3.118938373897977,-0.8308722555931064,0.8211506477782616,,0.14027592360472652,0.4883990378709771,-0.45415834731882926,0.03768811362282128,-0.7315562135509469,-0.6807386521320462,0.7885066782182698,0.4402505105899977,-0.42946094855112993,0.6138703645695429,-0.5205814003018624,0.5934291711426132,,0.018959537974476,0.2721375855945123,-0.10493424206266078,-0.9301197573079039,0.053752958819464236,0.3633013015915954,0.10756455314824256,-0.9059778669575246,0.4094312527685463,0.35115108319071614,0.419898443978726,0.8368860094258594,,0.08400401984927423,0.786327984879011,1.1383039398366057,0.9955170575960887,-0.04257301045794665,-0.08445902447799007,0.01842821369645415,-0.788549650781644,0.614694923675237,-0.09276954767154995,-0.6134957106880987,-0.7842300835801449,,0.13495959514104072,0.6118018200710179,-0.46197057294573196,0.99686021179532,-0.07075887319978677,-0.03553730438407463,-0.03436396612535169,-0.7909466975047237,0.6109193396337251,-0.07133607762924418,-0.6077799795730916,-0.7908948479150733,,0.0,0.0,0.045,1.0,0.0,0.0,0.0,1.0,0.0,0.0,0.0,1.0,,-0.019150839222606658,-0.1589250388481224,0.2593265970793276,False,,0.13597173131875556,0.5011353167173576,-0.4448128078391399,0.055549399660175414,-0.7275282802131909,-0.6838251718732142,0.7921708577209347,0.44900585330325987,-0.4133510322680837,0.607766070437527,-0.5187449712425637,0.6012687073476206,False,,0.0,0.0,0.0,0.0,0.0,0.0
12:35:49.094206,,0.049579945052521356,-0.8315452622321241,0.06988169761,-3.127535111600822,-0.8339575093675077,0.8320132763379079,,0.14072858254145265,0.48684185947920594,-0.4557734768386073,0.043663829104967626,-0.7282212158655493,-0.6839498013679028,0.7886747204297708,0.44536437670631085,-0.42384284506880865,0.6132582289565427,-0.5209073168273805,0.5937759778677346,,0.018959065966344835,0.2721370550608289,-0.10493409956210376,-0.9301270419458346,0.053820630269534625,0.3632726406595001,0.10748333168595064,-0.9059889094922202,0.4094281562619139,0.35115666746343316,0.41986595657153764,0.8368999696866335,,0.08400401984927423,0.786327984879011,1.1383039398366057,0.9955170575960887,-0.04257301045794665,-0.08445902447799007,0.01842821369645415,-0.788549650781644,0.614694923675237,-0.09276954767154995,-0.6134957106880987,-0.7842300835801449,,0.13495959514104072,0.6118018200710179,-0.46197057294573196,0.99686021179532,-0.07075887319978677,-0.03553730438407463,-0.03436396612535169,-0.7909466975047237,0.6109193396337251,-0.07133607762924418,-0.6077799795730916,-0.7908948479150733,,0.0,0.0,0.045,1.0,0.0,0.0,0.0,1.0,0.0,0.0,0.0,1.0,,-0.019150839222606658,-0.1589250388481224,0.2593265970793276,False,,0.13613076753948908,0.5006005590848455,-0.4449989546191356,0.06029502046323326,-0.7259483591763887,-0.685101080364385,0.7926715622349492,0.45196258138594797,-0.40914742996987746,0.606659958239658,-0.5183905909987754,0.6026897130635274,False,,0.0,0.0,0.0,0.0,0.0,0.0
12:35:49.277104,,0.05093914603838487,-0.8339933685532532,0.07015780738,-3.133406054422277,-0.8357013484573866,0.8402673899020321,,0.15783537344392823,0.45845996036946995,-0.4488730225195829,0.21575503742901178,-0.5550603883957804,-0.8033416017224128,0.7804307544660852,0.5924723650465346,-0.1997606921785746,0.5868369460995987,-0.5838531167083824,0.5610150949862273,,0.018957434798176125,0.27213669652261235,-0.10493309218066152,-0.9301366998083087,0.05388214190609769,0.36323881177452005,0.10740188435417897,-0.9060039614485089,0.40941623930033116,0.3511560263371905,0.41982560254141915,0.836920491172163,,0.08400401984927423,0.786327984879011,1.1383039398366057,0.9955170575960887,-0.04257301045794665,-0.08445902447799007,0.01842821369645415,-0.788549650781644,0.614694923675237,-0.09276954767154995,-0.6134957106880987,-0.7842300835801449,,0.13495959514104072,0.6118018200710179,-0.46197057294573196,0.99686021179532,-0.07075887319978677,-0.03553730438407463,-0.03436396612535169,-0.7909466975047237,0.6109193396337251,-0.07133607762924418,-0.6077799795730916,-0.7908948479150733,,0.0,0.0,0.045,1.0,0.0,0.0,0.0,1.0,0.0,0.0,0.0,1.0,,-0.019150839222606658,-0.1589250388481224,0.2593265970793276,True,,0.1362698573870571,0.5002776913786915,-0.445252801848668,0.06444136650932147,-0.7235434625652029,-0.6872642636290411,0.7921455553218926,0.4559429751327806,-0.4057356560752815,0.6069206945443382,-0.5182671716462711,0.6025333263211197,True,,0.23843362828045905,-0.8495802556430808,0.11280942658088484,-3.350819069910088,-0.8085281959408589,1.3963
12:35:49.351203,,0.05180409212029801,-0.8378624577232398,0.07048317617000001,-3.139276997243732,-0.8386524607633357,0.8467224919903029,,0.14358302114196486,0.47827396046298315,-0.4564352521718152,0.12684825822247645,-0.6852254761734194,-0.7171998091109856,0.7900572704607904,0.5069810014356118,-0.34464441613841573,0.5997658116114732,-0.5229113796679647,0.6056770263397613,,0.01895763814274801,0.27213691652280037,-0.1049332253313831,-0.930136368504351,0.053883211694179395,0.36323950144703426,0.1074015629340275,-0.9060035863838317,0.4094171536066782,0.35115700219887097,0.4198262746489153,0.8369197445690639,,0.08400401984927423,0.786327984879011,1.1383039398366057,0.9955170575960887,-0.04257301045794665,-0.08445902447799007,0.01842821369645415,-0.788549650781644,0.614694923675237,-0.09276954767154995,-0.6134957106880987,-0.7842300835801449,,0.13495959514104072,0.6118018200710179,-0.46197057294573196,0.99686021179532,-0.07075887319978677,-0.03553730438407463,-0.03436396612535169,-0.7909466975047237,0.6109193396337251,-0.07133607762924418,-0.6077799795730916,-0.7908948479150733,,0.0,0.0,0.045,1.0,0.0,0.0,0.0,1.0,0.0,0.0,0.0,1.0,,-0.019150839222606658,-0.1589250388481224,0.2593265970793276,False,,0.13636333379577273,0.4998522996380813,-0.4457029465218106,0.06930044948527414,-0.7224499607924186,-0.6879414959516339,0.7914315073241116,0.4596296734493933,-0.4029599638915619,0.6073167352509099,-0.5165332684695507,0.6036222044030018,False,,0.0,0.0,0.0,0.0,0.0,0.0
12:35:49.410076,,0.05229834702424838,-0.8377234485315037,0.07076835997000001,-3.15122855941598,-0.8421401389430936,0.8590289388314877,,0.14063469529771397,0.48547165894546085,-0.45577548261746015,0.06472690058431486,-0.7210518916081021,-0.6898511418770907,0.7886873395255808,0.4604980886267987,-0.4073251659830587,0.6113777137030835,-0.5177119662316518,0.5984911120540954,,0.018958044833100873,0.272137356523141,-0.10493349163091364,-0.930135705901338,0.05388535127242812,0.3632408807911829,0.10740092009776749,-0.9060028362593998,0.4094189822228127,0.3511589539252278,0.4198276188633352,0.8369182513662667,,0.08400401984927423,0.786327984879011,1.1383039398366057,0.9955170575960887,-0.04257301045794665,-0.08445902447799007,0.01842821369645415,-0.788549650781644,0.614694923675237,-0.09276954767154995,-0.6134957106880987,-0.7842300835801449,,0.13495959514104072,0.6118018200710179,-0.46197057294573196,0.99686021179532,-0.07075887319978677,-0.03553730438407463,-0.03436396612535169,-0.7909466975047237,0.6109193396337251,-0.07133607762924418,-0.6077799795730916,-0.7908948479150733,,0.0,0.0,0.045,1.0,0.0,0.0,0.0,1.0,0.0,0.0,0.0,1.0,,-0.019150839222606658,-0.1589250388481224,0.2593265970793276,False,,0.13647854741000617,0.49967359246042264,-0.4456647499976024,0.07596017886324136,-0.7218397712973054,-0.6878789107106847,0.7933783296765663,0.46162419857572384,-0.39680464373409524,0.6039709241566898,-0.5156068694875723,0.6077570887373832,False,,0.0,0.0,0.0,0.0,0.0,0.0
12:35:49.598041,,0.053626657078615,-0.8381250306409633,0.07125576501000001,-3.165486563410942,-0.8414694316008325,0.8861728003264674,,0.14990481850506354,0.4565293042831586,-0.45893000044422727,0.3050736106777996,-0.5947980812422246,-0.7437374097210508,0.7652062079094495,0.6180035948872745,-0.18036356639644832,0.5669122960783715,-0.5140883185377523,0.6436797723233002,,0.018958678832061517,0.2721375447674774,-0.10493388544807924,-0.9301278980629595,0.05382085211124539,0.36327041585229225,0.1074828973842037,-0.9059880251133183,0.40943022730578027,0.35115453282760656,0.4198678365149986,0.8368999222400112,,0.08400401984927423,0.786327984879011,1.1383039398366057,0.9955170575960887,-0.04257301045794665,-0.08445902447799007,0.01842821369645415,-0.788549650781644,0.614694923675237,-0.09276954767154995,-0.6134957106880987,-0.7842300835801449,,0.13485770762140503,0.6117823995727811,-0.46197004954158105,0.9968490535342793,-0.07090763496817153,-0.035553787013934475,-0.03447220616237877,-0.7909441804143151,0.6109165004082192,-0.07143970513734035,-0.6077659177446099,-0.7908963002555658,,0.0,0.0,0.045,1.0,0.0,0.0,0.0,1.0,0.0,0.0,0.0,1.0,,-0.019150839222606658,-0.1589250388481224,0.2593265970793276,True,,0.13672219966541757,0.4991005611709372,-0.4456995574158138,0.08640542553545932,-0.709156705832224,-0.6997362853327136,0.7929453781958647,0.47416315852559937,-0.3826315803679102,0.6031349182694146,-0.5217912088855234,0.6032928017919084,True,,0.17396391327363997,-0.925,0.11359617048279999,-3.508924985671658,-0.857147737325086,1.3963
12:35:49.687216,,0.05546466750268043,-0.8417701605575973,0.07171854054,-3.176389742936501,-0.8420059974746414,0.8981546113998512,,0.14453456145306978,0.471348437963916,-0.45686045630082356,0.16734929232949639,-0.6746891787338423,-0.718880189222286,0.7846371929518964,0.5326385084383496,-0.31723917596214174,0.5969411108253355,-0.5109703821436455,0.6185229007713385,,0.01897047680708946,0.27213883126808397,-0.10493544299914868,-0.9301241114679653,0.05376753260675443,0.36328800015186313,0.10755101518455554,-0.905971765187016,0.40944831318216957,0.3511436995728814,0.41990974562676453,0.8368834381973193,,0.08400401984927423,0.786327984879011,1.1383039398366057,0.9955170575960887,-0.04257301045794665,-0.08445902447799007,0.01842821369645415,-0.788549650781644,0.614694923675237,-0.09276954767154995,-0.6134957106880987,-0.7842300835801449,,0.13485770762140503,0.6117823995727811,-0.46197004954158105,0.9968490535342793,-0.07090763496817153,-0.035553787013934475,-0.03447220616237877,-0.7909441804143151,0.6109165004082192,-0.07143970513734035,-0.6077659177446099,-0.7908963002555658,,0.0,0.0,0.045,1.0,0.0,0.0,0.0,1.0,0.0,0.0,0.0,1.0,,-0.019150839222606658,-0.1589250388481224,0.2593265970793276,False,,0.13700389308215494,0.4986039208676464,-0.4460903761444862,0.09372459068318428,-0.7071799138418408,-0.7007940286274682,0.7910503803751529,0.4803001672220242,-0.37888130737055636,0.6045287394405628,-0.5188528874595792,0.604430876416205,False,,0.0,0.0,0.0,0.0,0.0,0.0
12:35:49.848160,,0.05541060837256086,-0.8419168924822076,0.07210613125000001,-3.19547030710623,-0.8452253927174949,0.9143202278035255,,0.15020936858597328,0.4526617710197721,-0.4587915476161763,0.2682981879619032,-0.571506853017218,-0.7754972593702155,0.7720029234342932,0.6090737448209587,-0.1817708986022748,0.5762183340933056,-0.5499173486298917,0.6046183433626591,,0.018982284600810206,0.2721405825798463,-0.10493702661042284,-0.9301204203830503,0.053715394386326484,0.3633051637116153,0.1076185940597814,-0.9059546855373782,0.4094683479252218,0.351132772304435,0.4199532666213419,0.8368661852739722,,0.08400401984927423,0.786327984879011,1.1383039398366057,0.9955170575960887,-0.04257301045794665,-0.08445902447799007,0.01842821369645415,-0.788549650781644,0.614694923675237,-0.09276954767154995,-0.6134957106880987,-0.7842300835801449,,0.13485770762140503,0.6117823995727811,-0.46197004954158105,0.9968490535342793,-0.07090763496817153,-0.035553787013934475,-0.03447220616237877,-0.7909441804143151,0.6109165004082192,-0.07143970513734035,-0.6077659177446099,-0.7908963002555658,,0.0,0.0,0.045,1.0,0.0,0.0,0.0,1.0,0.0,0.0,0.0,1.0,,-0.019150839222606658,-0.1589250388481224,0.2593265970793276,True,,0.13713360597130084,0.49834348682433954,-0.4460801307274406,0.1040744290977384,-0.7070018987312993,-0.6995118500771217,0.7929206351813852,0.4835479462521081,-0.3707536243638315,0.6003710348705446,-0.5160714086884741,0.6109213710640391,True,,0.1777097123038459,-0.9249915130251731,0.11759077508173273,-3.4535550599557046,-0.8711054940475795,1.3963
12:35:50.019385,,0.05533338104381861,-0.8452222221523756,0.07278538721000001,-3.214970224334634,-0.8448229683121382,0.9402913038539743,,0.15032833284868313,0.45249228183786633,-0.4590221977243012,0.2990439444776365,-0.5921482859069709,-0.7482867944636553,0.7664309187392808,0.6162009288584308,-0.18132860247205657,0.568468438940737,-0.5192849148313897,0.6381119111541786,,0.018994866817397222,0.27214135454035215,-0.10493903836316243,-0.93011501544789,0.053662814528512334,0.36332677912711403,0.10768704100053796,-0.9059393720456766,0.40948424076350787,0.3511261130912264,0.419993029192148,0.8368490283145962,,0.08400401984927423,0.786327984879011,1.1383039398366057,0.9955170575960887,-0.04257301045794665,-0.08445902447799007,0.01842821369645415,-0.788549650781644,0.614694923675237,-0.09276954767154995,-0.6134957106880987,-0.7842300835801449,,0.13485770762140503,0.6117823995727811,-0.46197004954158105,0.9968490535342793,-0.07090763496817153,-0.035553787013934475,-0.03447220616237877,-0.7909441804143151,0.6109165004082192,-0.07143970513734035,-0.6077659177446099,-0.7908963002555658,,0.0,0.0,0.045,1.0,0.0,0.0,0.0,1.0,0.0,0.0,0.0,1.0,,-0.019150839222606658,-0.1589250388481224,0.2593265970793276,True,,0.13726440143285623,0.4975137268822011,-0.4464225893937598,0.11894045973662817,-0.6960972690352922,-0.7080266655142641,0.7906490122219494,0.497747557816957,-0.35654103292567974,0.6006057829475965,-0.5173934293445008,0.6095709415326831,True,,0.1759849851715032,-0.925,0.11767455847280767,-3.4997451879308747,-0.8592770967383196,1.3963
12:35:50.194487,,0.05572724042040406,-0.8462339001588991,0.07344649511000001,-3.232373376269661,-0.845896100059756,0.9601909090017786,,0.15181510467762785,0.45419188020054524,-0.45752192288558,0.24229705221431752,-0.5605289746068676,-0.7918960835326985,0.7760141038820773,0.6018634378238176,-0.1885802555597813,0.5823179965142322,-0.5688300896023959,0.5808081267497741,,0.019007061915838112,0.27214261614766644,-0.10494083596677091,-0.9301104653966594,0.05361045680185204,0.3633461715298394,0.107755053334846,-0.9059231717440964,0.40950220348882865,0.35111731646943767,0.4200346713104744,0.8368318255519968,,0.08400401984927423,0.786327984879011,1.1383039398366057,0.9955170575960887,-0.04257301045794665,-0.08445902447799007,0.01842821369645415,-0.788549650781644,0.614694923675237,-0.09276954767154995,-0.6134957106880987,-0.7842300835801449,,0.13485770762140503,0.6117823995727811,-0.46197004954158105,0.9968490535342793,-0.07090763496817153,-0.035553787013934475,-0.03447220616237877,-0.7909441804143151,0.6109165004082192,-0.07143970513734035,-0.6077659177446099,-0.7908963002555658,,0.0,0.0,0.045,1.0,0.0,0.0,0.0,1.0,0.0,0.0,0.0,1.0,,-0.019150839222606658,-0.1589250388481224,0.2593265970793276,True,,0.1374232013529184,0.49685060940445713,-0.44652722388120375,0.1301964186561968,-0.6907388709171821,-0.7112866544320631,0.7905863841046427,0.5052615183158418,-0.34595370698623407,0.5983494479294245,-0.5172916105188903,0.6118719864884534,True,,0.19488456387257974,-0.91537455394692,0.11623946676258028,-3.4092392129149336,-0.8684034658480208,1.396017869022355
12:35:50.411390,,0.05663080016668833,-0.8483653744321851,0.07411667704000001,-3.2520829700274034,-0.8468350903389217,0.9786448983723671,,0.15144201406841376,0.4537467892981103,-0.45922107490168407,0.2877531047162469,-0.5932098470027712,-0.7518645011869556,0.7685576058088623,0.6114484250180301,-0.18828178376125423,0.5714169732161535,-0.5236725130861072,0.6318621224274888,,0.019016787980277054,0.2721431112909893,-0.1049410998211334,-0.9301237242272686,0.05368303266119078,0.36330149393125666,0.10765996425422372,-0.9059372287168449,0.4094960995912072,0.351111343572327,0.4199950660280786,0.8368542016299463,,0.08400401984927423,0.786327984879011,1.1383039398366057,0.9955170575960887,-0.04257301045794665,-0.08445902447799007,0.01842821369645415,-0.788549650781644,0.614694923675237,-0.09276954767154995,-0.6134957106880987,-0.7842300835801449,,0.13485770762140503,0.6117823995727811,-0.46197004954158105,0.9968490535342793,-0.07090763496817153,-0.035553787013934475,-0.03447220616237877,-0.7909441804143151,0.6109165004082192,-0.07143970513734035,-0.6077659177446099,-0.7908963002555658,,0.0,0.0,0.045,1.0,0.0,0.0,0.0,1.0,0.0,0.0,0.0,1.0,,-0.019150839222606658,-0.1589250388481224,0.2593265970793276,True,,0.13762959762354443,0.49615284665343345,-0.4467603615942033,0.1429818830289972,-0.6876772429058038,-0.711797858043247,0.7898375159250068,0.5126701443556098,-0.3366393047815612,0.5964166996009558,-0.5140713303383788,0.6164558279075906,True,,0.18933637319610944,-0.925,0.11654813675160662,-3.4811177806492557,-0.8611651298249735,1.3963
