AlexandreBanks6/RCL_Autocam_Public/optimizationData/Data_2.csv
System Time,q_des,q0,q1,q2,q3,q4,q5,T_des,Tx,Ty,Tz,R00,R01,R02,R10,R11,R12,R20,R21,R22,T_target,Tx,Ty,Tz,R00,R01,R02,R10,R11,R12,R20,R21,R22,worldFrame,Tx,Ty,Tz,R00,R01,R02,R10,R11,R12,R20,R21,R22,ECM_T_PSM_RCM,Tx,Ty,Tz,R00,R01,R02,R10,R11,R12,R20,R21,R22,psm3_T_cam,Tx,Ty,Tz,R00,R01,R02,R10,R11,R12,R20,R21,R22,offset,x,y,z,IK Trigered,ECM_T_PSM3,Tx,Ty,Tz,R00,R01,R02,R10,R11,R12,R20,R21,R22
17:16:28.475681,,0.19657444258051068,-0.942304697114252,0.09154788867000001,-3.3000988952457315,-0.8414694316008325,1.15990845378204,,0.14507715231645402,0.2093836904314328,-0.04902866853556486,0.898033078590451,-0.4354841734723607,-0.06237086188639931,-0.286677616747478,-0.6868288462799099,0.6678937639878025,-0.3336952708884912,-0.5819103630052512,-0.7416385882717766,,0.025215008879022456,0.2852751781945183,-0.0923809460796844,-0.9796338208169058,-0.13559865696486154,0.14808977459972186,0.1934213202594701,-0.8352764302994554,0.5146858049871615,0.053905194376368905,0.5328473413798035,0.8444927121081159,,-0.009084490935341787,0.632707139023764,1.166697337397314,0.9982009152604525,-0.03986583265566421,-0.0447844633758785,0.002457458368363665,-0.7191031012166331,0.6948990507397378,-0.05990737576928725,-0.6937589244163217,-0.7177114051770015,,0.15076744904080705,0.6703056740334401,-0.3868685822823448,0.9761873458624083,-0.21655293229251413,0.012770798472315173,-0.17754802853327337,-0.7637604121296481,0.6206019097839595,-0.12463933304561063,-0.6080911612407005,-0.7840217957932557,,0.0,0.0,0.045,1.0,0.0,0.0,0.0,1.0,0.0,0.0,0.0,1.0,,-0.007552247689981291,-0.19895363962927348,0.22517962125698898,True,,0.14466230946272746,0.5363198029585308,-0.3869055778821073,0.3321034840532834,-0.6052170511426062,-0.7234774335706116,0.6901426253069584,0.6787505422813233,-0.2509997173050778,0.6429700091093595,-0.4159447347413569,0.6431015044507767
17:16:29.167647,,-0.12506965889806593,-0.8132501080530862,0.06309691575000001,-3.44666278925277,-1.0962040801916153,0.695868136771408,,0.12990444592715747,0.5749776332903751,-0.38192063142839106,-0.21088032398635603,-0.714152380802993,-0.6674697490889204,0.693214684781457,0.3721652655404941,-0.6172085676078376,0.6891900244190672,-0.5928569744201297,0.4165785857706263,,0.025215846470344874,0.28527625177981475,-0.09238242705750252,-0.9796334732310918,-0.13558888080091164,0.14810101872968828,0.19342217023623165,-0.8352459604878376,0.5147349296193949,0.05390844466984294,0.5328975878274674,0.8444607976107433,,-0.009084490935341787,0.632707139023764,1.166697337397314,0.9982009152604525,-0.03986583265566421,-0.0447844633758785,0.002457458368363665,-0.7191031012166331,0.6948990507397378,-0.05990737576928725,-0.6937589244163217,-0.7177114051770015,,0.15076744904080705,0.6703056740334401,-0.3868685822823448,0.9761873458624083,-0.21655293229251413,0.012770798472315173,-0.17754802853327337,-0.7637604121296481,0.6206019097839595,-0.12463933304561063,-0.6080911612407005,-0.7840217957932557,,0.0,0.0,0.045,1.0,0.0,0.0,0.0,1.0,0.0,0.0,0.0,1.0,,-0.007552247689981291,-0.19895363962927348,0.22517962125698898,False,,0.12820877570630604,0.571075319595905,-0.367249349737727,0.3771421963716742,-0.8163587703681162,-0.4374038428717867,0.8623318436559618,0.4818082865762408,-0.15570666781925802,0.33785729995496505,-0.31846370755476083,0.8856823989656883
17:16:29.232262,,-0.22730319668704999,-0.7736556566069371,0.047400140140000005,-3.4823077992401754,-1.1640796632284431,0.5728040439556704,,0.12547803576433497,0.5902975353369603,-0.3657369010181688,-0.4021265540653703,-0.6517458308318902,-0.643056456704044,0.6451503110628525,0.29666528353023686,-0.7041099244318524,0.6496732337498717,-0.6980093706685988,0.30117703731827095,,0.02521574602683115,0.2852761533240442,-0.09238274986997677,-0.979633208749118,-0.1355875659689897,0.1481039727950908,0.1934235923235888,-0.8352364245151935,0.5147498689488813,0.053908150921008646,0.5329128686801036,0.8444511733348457,,-0.009084490935341787,0.632707139023764,1.166697337397314,0.9982009152604525,-0.03986583265566421,-0.0447844633758785,0.002457458368363665,-0.7191031012166331,0.6948990507397378,-0.05990737576928725,-0.6937589244163217,-0.7177114051770015,,0.15076744904080705,0.6703056740334401,-0.3868685822823448,0.9761873458624083,-0.21655293229251413,0.012770798472315173,-0.17754802853327337,-0.7637604121296481,0.6206019097839595,-0.12463933304561063,-0.6080911612407005,-0.7840217957932557,,0.0,0.0,0.045,1.0,0.0,0.0,0.0,1.0,0.0,0.0,0.0,1.0,,-0.007552247689981291,-0.19895363962927348,0.22517962125698898,False,,0.12625948886153787,0.5876329915407543,-0.36533133908660403,0.41093791237759336,-0.8374881655045762,-0.36019939590527505,0.8754839657003602,0.47272256346790775,-0.10030555213895333,0.25427909464270904,-0.27412944137416095,0.9274670837283523
17:16:29.293155,,-0.27346969380916414,-0.7563335667700516,0.039325549730000006,-3.493420655295072,-1.1829936102802074,0.5281797784539817,,0.12138801640595416,0.5932843168191403,-0.36872925068742857,-0.38040250317807917,-0.6844720497175203,-0.621925999401334,0.6523187742651253,0.2781144626229887,-0.7050762812782533,0.6555716225685001,-0.6739067879428302,0.3406985307386597,,0.02521513310248282,0.2852767238464225,-0.09238251064242513,-0.9796334232529135,-0.1355875865651392,0.14810253571694382,0.19342345319033338,-0.8352305044814896,0.5147595271678738,0.0539047537075779,0.5329221419903727,0.8444455380749478,,-0.009084490935341787,0.632707139023764,1.166697337397314,0.9982009152604525,-0.03986583265566421,-0.0447844633758785,0.002457458368363665,-0.7191031012166331,0.6948990507397378,-0.05990737576928725,-0.6937589244163217,-0.7177114051770015,,0.15074836819766263,0.6702971447214574,-0.38687168972668706,0.9761816402683998,-0.2165791124587687,0.012762963976611759,-0.17756223457201964,-0.7637493267696935,0.6206114877382072,-0.12466378005133386,-0.6080957604731445,-0.7840143417297294,,0.0,0.0,0.045,1.0,0.0,0.0,0.0,1.0,0.0,0.0,0.0,1.0,,-0.007552247689981291,-0.19895363962927348,0.22517962125698898,False,,0.12620189190616454,0.598208702324699,-0.36513764432781676,0.43412432296044373,-0.8388222229673442,-0.32850167498851474,0.874469148626328,0.4799991834599487,-0.07003207821082916,0.21642499928354314,-0.2568619515107401,0.9419034757082134
17:16:29.398788,,-0.3116277169407074,-0.7449193675819478,0.031830400950000004,-3.494259361412423,-1.1799083565058062,0.5299913723995759,,0.12670815777843103,0.5803556807033741,-0.381655138112467,-0.20004451441788842,-0.7389739844889884,-0.6433503264161601,0.6977103632721773,0.35355715061553766,-0.6230550459078464,0.6878825780857643,-0.5735109340693433,0.4448626386526431,,0.02520989818387824,0.2852731898463026,-0.09238544216028381,-0.9796326114846299,-0.13559124058288533,0.14810456055725513,0.19342784459340864,-0.8352276868462931,0.5147624490249828,0.053903750487435426,0.5329256284580842,0.8444434019404756,,-0.009084490935341787,0.632707139023764,1.166697337397314,0.9982009152604525,-0.03986583265566421,-0.0447844633758785,0.002457458368363665,-0.7191031012166331,0.6948990507397378,-0.05990737576928725,-0.6937589244163217,-0.7177114051770015,,0.15074836819766263,0.6702971447214574,-0.38687168972668706,0.9761816402683998,-0.2165791124587687,0.012762963976611759,-0.17756223457201964,-0.7637493267696935,0.6206114877382072,-0.12466378005133386,-0.6080957604731445,-0.7840143417297294,,0.0,0.0,0.045,1.0,0.0,0.0,0.0,1.0,0.0,0.0,0.0,1.0,,-0.007552247689981291,-0.19895363962927348,0.22517962125698898,False,,0.12680451100553297,0.606060240489825,-0.36569033767983156,0.45057947798367204,-0.8188910782529885,-0.355521498615231,0.8667126031445843,0.4967139831324623,-0.045656133334117846,0.2139798999212315,-0.2875632468142308,0.9335523453515384
17:16:29.509685,,-0.3464109058062146,-0.7362544612970678,0.019724348640000004,-3.4783239451827592,-1.1725305757409337,0.5401664052060828,,0.1390245219975806,0.5694842820474268,-0.3788630940737921,-0.1460108867632259,-0.6651999182945598,-0.7322498819716715,0.7061632654424342,0.44829530834775744,-0.5480554342884189,0.6928306167356454,-0.5971100277288097,0.4042837509712769,,0.025204463034192784,0.28527021287029447,-0.09238852635180998,-0.9796318594242923,-0.1355929516292721,0.1481079720298051,0.19343232257623844,-0.8352152227739972,0.5147809904597881,0.05390135891683711,0.532944727926321,0.844431501302429,,-0.009084490935341787,0.632707139023764,1.166697337397314,0.9982009152604525,-0.03986583265566421,-0.0447844633758785,0.002457458368363665,-0.7191031012166331,0.6948990507397378,-0.05990737576928725,-0.6937589244163217,-0.7177114051770015,,0.15074836819766263,0.6702971447214574,-0.38687168972668706,0.9761816402683998,-0.2165791124587687,0.012762963976611759,-0.17756223457201964,-0.7637493267696935,0.6206114877382072,-0.12466378005133386,-0.6080957604731445,-0.7840143417297294,,0.0,0.0,0.045,1.0,0.0,0.0,0.0,1.0,0.0,0.0,0.0,1.0,,-0.007552247689981291,-0.19895363962927348,0.22517962125698898,False,,0.1292216783153647,0.6169227885439712,-0.3671744848183712,0.4598910239614776,-0.7931638126124396,-0.3992385407770174,0.8606093956786458,0.5088864958728041,-0.019646943475624984,0.21875034662669585,-0.3345529863570149,0.9166365611136746
17:16:29.621643,,-0.3424414211088632,-0.7279602461901508,0.010127913770000002,-3.451695025956874,-1.1567018824635706,0.5469539769239125,,0.14277554731718553,0.559695667804561,-0.38363795187956273,-0.10007620964671411,-0.6700809787007658,-0.7355108661645798,0.7121170320160372,0.4680336900481108,-0.5232913124566653,0.694891419558061,-0.576138826120383,0.43033704007581086,,0.025199145715081486,0.2852668323544291,-0.09239128089314416,-0.9796311962644498,-0.13559713569026294,0.14810852786994594,0.19343611728686627,-0.8352150355950261,0.5147798682686651,0.05389979373047589,0.532943956751851,0.8444320879308272,,-0.009084490935341787,0.632707139023764,1.166697337397314,0.9982009152604525,-0.03986583265566421,-0.0447844633758785,0.002457458368363665,-0.7191031012166331,0.6948990507397378,-0.05990737576928725,-0.6937589244163217,-0.7177114051770015,,0.15074836819766263,0.6702971447214574,-0.38687168972668706,0.9761816402683998,-0.2165791124587687,0.012762963976611759,-0.17756223457201964,-0.7637493267696935,0.6206114877382072,-0.12466378005133386,-0.6080957604731445,-0.7840143417297294,,0.0,0.0,0.045,1.0,0.0,0.0,0.0,1.0,0.0,0.0,0.0,1.0,,-0.007552247689981291,-0.19895363962927348,0.22517962125698898,False,,0.13288027598236107,0.6258282899577163,-0.3684515350062272,0.45303735304708415,-0.7821401241242758,-0.4278013358779449,0.8622136099722022,0.5063847002685444,-0.012736801507442302,0.22659401475501317,-0.3630858873170356,0.9037830441585006
17:16:29.725398,,-0.32065559167067587,-0.7133102219277468,0.0029918373200000003,-3.4217112822615854,-1.1368489451326407,0.5556971971103071,,0.07412562330334996,0.4938374772011991,-0.3020677879670457,0.7881266571824167,-0.6003910063704374,0.1355987157312447,-0.4168990016405158,-0.35862494942336276,0.8352145640984906,-0.4528262301033483,-0.7147858316451048,-0.532944293721028,,0.025194509040753606,0.2852637515035016,-0.09239440072048884,-0.979630573258078,-0.13559871572626075,0.14811120200014552,0.19343888574134233,-0.8352145640677922,0.5147795930091689,0.053901181319958906,0.5329442937014396,0.8444317867003092,,-0.009084490935341787,0.632707139023764,1.166697337397314,0.9982009152604525,-0.03986583265566421,-0.0447844633758785,0.002457458368363665,-0.7191031012166331,0.6948990507397378,-0.05990737576928725,-0.6937589244163217,-0.7177114051770015,,0.15074836819766263,0.6702971447214574,-0.38687168972668706,0.9761816402683998,-0.2165791124587687,0.012762963976611759,-0.17756223457201964,-0.7637493267696935,0.6206114877382072,-0.12466378005133386,-0.6080957604731445,-0.7840143417297294,,0.0,0.0,0.045,1.0,0.0,0.0,0.0,1.0,0.0,0.0,0.0,1.0,,-0.007552247689981291,-0.19895363962927348,0.22517962125698898,True,,0.13652229081430794,0.632915820704889,-0.36916791948337285,0.4367823646467163,-0.7798296060358123,-0.4484271975289331,0.8692746499628652,0.4941669937706323,-0.012671432422339896,0.23147947828168514,-0.38427173694890127,0.8937295358869557
17:16:29.827231,,-0.30237588295738643,-0.7042205653347846,0.0005055531000000001,-3.390888832448947,-1.1190081298284942,0.5632559481302685,,0.07475068439331749,0.4949083645798521,-0.30212089550269466,0.7881232900537943,-0.600395069489142,0.13560029575156254,-0.41690221542105177,-0.35862231157936286,0.8352140925621966,-0.45282913162891997,-0.714783742239989,-0.532944630686524,,0.0251898723753773,0.2852606706585793,-0.09239752054540942,-0.97962995026041,-0.13560029574881285,0.14811387613949384,0.19344165419070478,-0.8352140925452602,0.5147793177636467,0.05390256892017883,0.532944630675717,0.8444314854724292,,-0.009084490935341787,0.632707139023764,1.166697337397314,0.9982009152604525,-0.03986583265566421,-0.0447844633758785,0.002457458368363665,-0.7191031012166331,0.6948990507397378,-0.05990737576928725,-0.6937589244163217,-0.7177114051770015,,0.15074836819766263,0.6702971447214574,-0.38687168972668706,0.9761816402683998,-0.2165791124587687,0.012762963976611759,-0.17756223457201964,-0.7637493267696935,0.6206114877382072,-0.12466378005133386,-0.6080957604731445,-0.7840143417297294,,0.0,0.0,0.045,1.0,0.0,0.0,0.0,1.0,0.0,0.0,0.0,1.0,,-0.007552247689981291,-0.19895363962927348,0.22517962125698898,True,,0.13777729456276858,0.6350606032189919,-0.36927106695940215,0.4205987222588903,-0.7760002005718697,-0.47002170539945004,0.8751500805619897,0.48360942154874276,-0.015305681351499845,0.23918413686223455,-0.40490198332646987,0.882522142822354
17:16:29.929556,,-0.28432013349744956,-0.7000811805142002,0.00039536845000000004,-3.354405116344191,-1.0925822605434052,0.5703211658595008,,0.07487431074902802,0.4948344973176897,-0.30204929956085896,0.7881218083019056,-0.600396953285639,0.1356005669761628,-0.41690362967883265,-0.35862174070105,0.8352136317476888,-0.45283040847490513,-0.7147824463302601,-0.5329452838505839,,0.02518964729862644,0.28526091856253794,-0.09239736029150387,-0.9796300889501143,-0.13560056697325135,0.1481127105186545,0.19344131410647525,-0.8352136317297562,0.5147801932151334,0.05390126879220881,0.5329452838391412,0.8444311562307883,,-0.009084490935341787,0.632707139023764,1.166697337397314,0.9982009152604525,-0.03986583265566421,-0.0447844633758785,0.002457458368363665,-0.7191031012166331,0.6948990507397378,-0.05990737576928725,-0.6937589244163217,-0.7177114051770015,,0.15074836819766263,0.6702971447214574,-0.38687168972668706,0.9761816402683998,-0.2165791124587687,0.012762963976611759,-0.17756223457201964,-0.7637493267696935,0.6206114877382072,-0.12466378005133386,-0.6080957604731445,-0.7840143417297294,,0.0,0.0,0.045,1.0,0.0,0.0,0.0,1.0,0.0,0.0,0.0,1.0,,-0.007552247689981291,-0.19895363962927348,0.22517962125698898,True,,0.13802481439075354,0.6349125493644597,-0.3691281365700656,0.40039039389196474,-0.768000803942214,-0.49986227865598165,0.8785950521843514,0.4767063116894462,-0.028667519471019753,0.2603041812115475,-0.42769832538783387,0.8656303343253565
17:16:30.043014,,-0.26726833931116184,-0.6943200217900287,0.00037462781000000006,-3.3110020747712907,-1.063741844826176,0.571409858017459,,0.07493776795164847,0.4947378741105008,-0.3019486937775622,0.7881218083019056,-0.600396953285639,0.1356005669761628,-0.41690362967883265,-0.35862174070105,0.8352136317476888,-0.45283040847490513,-0.7147824463302601,-0.5329452838505839,,0.02518964729862644,0.28526091856253794,-0.09239736029150387,-0.9796300889501143,-0.13560056697325135,0.1481127105186545,0.19344131410647525,-0.8352136317297562,0.5147801932151334,0.05390126879220881,0.5329452838391412,0.8444311562307883,,-0.009084490935341787,0.632707139023764,1.166697337397314,0.9982009152604525,-0.03986583265566421,-0.0447844633758785,0.002457458368363665,-0.7191031012166331,0.6948990507397378,-0.05990737576928725,-0.6937589244163217,-0.7177114051770015,,0.15074836819766263,0.6702971447214574,-0.38687168972668706,0.9761816402683998,-0.2165791124587687,0.012762963976611759,-0.17756223457201964,-0.7637493267696935,0.6206114877382072,-0.12466378005133386,-0.6080957604731445,-0.7840143417297294,,0.0,0.0,0.045,1.0,0.0,0.0,0.0,1.0,0.0,0.0,0.0,1.0,,-0.007552247689981291,-0.19895363962927348,0.22517962125698898,True,,0.13815172879599444,0.6347193029500819,-0.36892692500347213,0.37629187481595466,-0.7596209438504292,-0.5304530578772048,0.8823767551086324,0.4684035788258229,-0.044825766999818106,0.2825167021460052,-0.45119187604271477,0.8465283243941699
17:16:30.145673,,-0.2505872363028369,-0.6870143164910124,0.00035907233000000003,-3.258373265907534,-1.0312796094607366,0.569905313893152,,0.07495818122485025,0.49464853392711455,-0.3018328547622169,0.788121097732659,-0.6003980882049208,0.13559967178627252,-0.4169043078790851,-0.35862289316680107,0.8352127983744827,-0.45283102077985965,-0.7147809148099504,-0.5329468176496797,,0.025189650008613788,0.2852614402488935,-0.09239730255226938,-0.9796303170755299,-0.13559967178303764,0.14811202122419653,0.19344029083458827,-0.8352127983545578,0.5147819298488114,0.05390079499055918,0.5329468176369656,0.8444302184445464,,-0.009084490935341787,0.632707139023764,1.166697337397314,0.9982009152604525,-0.03986583265566421,-0.0447844633758785,0.002457458368363665,-0.7191031012166331,0.6948990507397378,-0.05990737576928725,-0.6937589244163217,-0.7177114051770015,,0.15074836819766263,0.6702971447214574,-0.38687168972668706,0.9761816402683998,-0.2165791124587687,0.012762963976611759,-0.17756223457201964,-0.7637493267696935,0.6206114877382072,-0.12466378005133386,-0.6080957604731445,-0.7840143417297294,,0.0,0.0,0.045,1.0,0.0,0.0,0.0,1.0,0.0,0.0,0.0,1.0,,-0.007552247689981291,-0.19895363962927348,0.22517962125698898,True,,0.13819241387797765,0.6345399717241069,-0.36869554245087577,0.3460738153856318,-0.7485990687197859,-0.5655372212474625,0.8866727230218465,0.4579948571930211,-0.0636568380754843,0.30666658858352336,-0.47941646310552777,0.8222624023691771
17:16:30.248849,,-0.23524988881462702,-0.6823729540336034,0.0018912871100000002,-3.20448639786775,-0.9925127250780423,0.5680986026970095,,0.07469494981540997,0.49379768805984137,-0.3016151606003156,0.7881181342091177,-0.6004018557870575,0.1356002142262193,-0.416907136386543,-0.35862175138268765,0.8352118767505562,-0.4528335744627506,-0.7147783229803988,-0.5329481239638781,,0.025189199856341556,0.2852619360563835,-0.09239698204222078,-0.9796305944643483,-0.13560021422427831,0.14810968997040486,0.19343961064115872,-0.835211876738601,0.5147836807447891,0.05389819473596979,0.5329481239562496,0.8444295599676089,,-0.009084490935341787,0.632707139023764,1.166697337397314,0.9982009152604525,-0.03986583265566421,-0.0447844633758785,0.002457458368363665,-0.7191031012166331,0.6948990507397378,-0.05990737576928725,-0.6937589244163217,-0.7177114051770015,,0.15074836819766263,0.6702971447214574,-0.38687168972668706,0.9761816402683998,-0.2165791124587687,0.012762963976611759,-0.17756223457201964,-0.7637493267696935,0.6206114877382072,-0.12466378005133386,-0.6080957604731445,-0.7840143417297294,,0.0,0.0,0.045,1.0,0.0,0.0,0.0,1.0,0.0,0.0,0.0,1.0,,-0.007552247689981291,-0.19895363962927348,0.22517962125698898,True,,0.13766648528956107,0.632837641330362,-0.36826067711582255,0.3119022378391512,-0.7346204698695272,-0.6025361062041052,0.8877258711219046,0.45133954651247593,-0.09074905781752457,0.33861448842568065,-0.5065820555473592,0.7929154111414578
17:16:30.316230,,-0.22158837436012385,-0.6783262420075098,0.00786977659,-3.1480834114759144,-0.956026245659036,0.5630391755172498,,0.12772817526486618,0.5898536726368585,-0.3632266775009701,-0.38978053362583953,-0.655252348827887,-0.6470822938095991,0.6494607632324197,0.3025707352920641,-0.6976042339080106,0.6528949782529487,-0.6921671109640768,0.30762450791789187,,0.025189197146362176,0.2852614143700908,-0.09239703978138239,-0.9796303663380864,-0.13560110941148704,0.14811037926510429,0.19344063391570485,-0.835212710114549,0.5147819441130129,0.053898668536146284,0.5329465901578289,0.8444304977560595,,-0.009084490935341787,0.632707139023764,1.166697337397314,0.9982009152604525,-0.03986583265566421,-0.0447844633758785,0.002457458368363665,-0.7191031012166331,0.6948990507397378,-0.05990737576928725,-0.6937589244163217,-0.7177114051770015,,0.15074836819766263,0.6702971447214574,-0.38687168972668706,0.9761816402683998,-0.2165791124587687,0.012762963976611759,-0.17756223457201964,-0.7637493267696935,0.6206114877382072,-0.12466378005133386,-0.6080957604731445,-0.7840143417297294,,0.0,0.0,0.045,1.0,0.0,0.0,0.0,1.0,0.0,0.0,0.0,1.0,,-0.007552247689981291,-0.19895363962927348,0.22517962125698898,False,,0.13573260434577153,0.6270590697450763,-0.36681562621456454,0.27399872423426913,-0.7206389288465807,-0.6368706566869335,0.8886194487887955,0.4429609352214065,-0.11891629451876809,0.36780453280552483,-0.533352738906092,0.7617444988636806
17:16:30.396409,,-0.21239832223979668,-0.6746733893580016,0.01336086103,-3.107196488255067,-0.929063810500138,0.5564694227158928,,0.12784556708169062,0.591036230045769,-0.36020765415722344,-0.44567896289622716,-0.6116745929659433,-0.6536240925422585,0.629073389275577,0.3054752417507316,-0.7148087489550409,0.6368963282490191,-0.7297527451111641,0.24864432039690473,,0.025189652721244155,0.28526196193453257,-0.09239724480838502,-0.9796305452157666,-0.13559877658854266,0.14811133192329962,0.19343926755421906,-0.835211964992141,0.5147836664835018,0.053900321190978,0.5329483514354844,0.8444292806705913,,-0.009084490935341787,0.632707139023764,1.166697337397314,0.9982009152604525,-0.03986583265566421,-0.0447844633758785,0.002457458368363665,-0.7191031012166331,0.6948990507397378,-0.05990737576928725,-0.6937589244163217,-0.7177114051770015,,0.15074836819766263,0.6702971447214574,-0.38687168972668706,0.9761816402683998,-0.2165791124587687,0.012762963976611759,-0.17756223457201964,-0.7637493267696935,0.6206114877382072,-0.12466378005133386,-0.6080957604731445,-0.7840143417297294,,0.0,0.0,0.045,1.0,0.0,0.0,0.0,1.0,0.0,0.0,0.0,1.0,,-0.007552247689981291,-0.19895363962927348,0.22517962125698898,False,,0.1340410208236002,0.6217974125768935,-0.3654455958690876,0.24486828723431892,-0.7118296473417322,-0.6582841902038029,0.888613031323381,0.43635055857317734,-0.1412978081753158,0.3878226430589157,-0.5503605574514054,0.7393895146217422
17:16:30.523451,,-0.20201124652396474,-0.6705340045374173,0.02073545484,-3.0598095926247515,-0.8959308677924375,0.5507675920437157,,0.12765345875412387,0.5787268869402249,-0.38154960192673254,-0.18051186053373205,-0.7444864549304147,-0.6427716442344007,0.7013383819350655,0.3607546080729975,-0.6148012579515458,0.6895940416153225,-0.5617793438524082,0.45701644017409565,,0.025199674513907408,0.28526389695032595,-0.09239620268547616,-0.9796335565223776,-0.13558836188939966,0.14810094711124544,0.19342537418757344,-0.8352096399022737,0.5147926587612655,0.053895445405859006,0.5329546444250624,0.8444256198328189,,-0.009084490935341787,0.632707139023764,1.166697337397314,0.9982009152604525,-0.03986583265566421,-0.0447844633758785,0.002457458368363665,-0.7191031012166331,0.6948990507397378,-0.05990737576928725,-0.6937589244163217,-0.7177114051770015,,0.1508434106384044,0.6703014625515811,-0.38688693769892124,0.9761974239991171,-0.21650751603966378,0.012770468895969292,-0.17751024728435766,-0.7637587240557298,0.6206147948106059,-0.12461421061233098,-0.6081094530815147,-0.7840116016911785,,0.0,0.0,0.045,1.0,0.0,0.0,0.0,1.0,0.0,0.0,0.0,1.0,,-0.007552247689981291,-0.19895363962927348,0.22517962125698898,False,,0.13192358217805272,0.6147168536703298,-0.3635992567340553,0.2087396352188744,-0.6999578871558279,-0.6829983315477723,0.8870979703273576,0.4295080981089465,-0.1690561584205622,0.411685505853405,-0.570597712812788,0.7105865847333743
17:16:30.648304,,-0.1841408426530092,-0.6648269049433654,0.03578149287,-2.977826069653719,-0.8389207437002402,0.5362022431162358,,0.12970399408191818,0.5857991091891928,-0.36862701562886596,-0.32386443987640806,-0.6575609671805898,-0.680239221909519,0.6688196645507146,0.34941473300328474,-0.6561932647250454,0.6691726839118664,-0.6674750323426117,0.3266266987026919,,0.02520923805475673,0.285264762709142,-0.09239501325889973,-0.9796361608141573,-0.1355811752146059,0.14809029894252718,0.19341387041104613,-0.8352088933618264,0.5147981919840963,0.053889390849032354,0.5329576424678624,0.8444241139245021,,-0.009084490935341787,0.632707139023764,1.166697337397314,0.9982009152604525,-0.03986583265566421,-0.0447844633758785,0.002457458368363665,-0.7191031012166331,0.6948990507397378,-0.05990737576928725,-0.6937589244163217,-0.7177114051770015,,0.1508434106384044,0.6703014625515811,-0.38688693769892124,0.9761974239991171,-0.21650751603966378,0.012770468895969292,-0.17751024728435766,-0.7637587240557298,0.6206147948106059,-0.12461421061233098,-0.6081094530815147,-0.7840116016911785,,0.0,0.0,0.045,1.0,0.0,0.0,0.0,1.0,0.0,0.0,0.0,1.0,,-0.007552247689981291,-0.19895363962927348,0.22517962125698898,False,,0.12819248210922388,0.6015441448121974,-0.3601696412392586,0.14629279687754992,-0.6833347367663979,-0.7152985775954974,0.882331383597953,0.4170934510109635,-0.2180008776172404,0.44731392455396013,-0.5992384255470964,0.663945451259342
17:16:30.744024,,-0.16754468970630074,-0.660031087828472,0.052224931520000004,-2.9023425190921546,-0.7841910245717307,0.5195551661539926,,0.12609073074145485,0.5803248652983123,-0.3819804166073033,-0.24017968234425685,-0.7530951882459002,-0.6125041694795915,0.6898178428024805,0.31152749270885327,-0.6535303857035786,0.6829824770375478,-0.5794810253385417,0.44467592394039945,,0.025218579170089964,0.2852663980489992,-0.09239360587093291,-0.9796391317196986,-0.13557336470086578,0.14807779568850804,0.1934010031658952,-0.835206852510858,0.5148063370648596,0.05388156240038784,0.5329628274949375,0.844421340878297,,-0.009084490935341787,0.632707139023764,1.166697337397314,0.9982009152604525,-0.03986583265566421,-0.0447844633758785,0.002457458368363665,-0.7191031012166331,0.6948990507397378,-0.05990737576928725,-0.6937589244163217,-0.7177114051770015,,0.1508434106384044,0.6703014625515811,-0.38688693769892124,0.9761974239991171,-0.21650751603966378,0.012770468895969292,-0.17751024728435766,-0.7637587240557298,0.6206147948106059,-0.12461421061233098,-0.6081094530815147,-0.7840116016911785,,0.0,0.0,0.045,1.0,0.0,0.0,0.0,1.0,0.0,0.0,0.0,1.0,,-0.007552247689981291,-0.19895363962927348,0.22517962125698898,False,,0.12386345113465047,0.5844112272001655,-0.35565547203427317,0.07405647733318005,-0.6694422737221072,-0.7391635003967495,0.8717535935693298,0.4034192136371973,-0.27802627603754476,0.48431530046443905,-0.6237787910967483,0.6134645136549624
17:16:30.817561,,-0.15533504903215178,-0.6575598133087202,0.06507246171,-2.854955623461839,-0.7506556574586735,0.5119962273359753,,0.13804721927073038,0.5794448106030592,-0.36295137463626403,-0.3487275161543021,-0.6026115433956851,-0.71780808524502,0.6623654808689409,0.3833862835118525,-0.6436512466920475,0.6630694452544985,-0.6999101980834688,0.2654517383417401,,0.025227239672811333,0.2852677336888293,-0.09239183320045041,-0.9796420623889635,-0.1355681582646946,0.1480631741673572,0.19338916206451923,-0.8352050961618341,0.5148136350396916,0.053870781280556446,0.5329669044992534,0.8444194556701085,,-0.009084490935341787,0.632707139023764,1.166697337397314,0.9982009152604525,-0.03986583265566421,-0.0447844633758785,0.002457458368363665,-0.7191031012166331,0.6948990507397378,-0.05990737576928725,-0.6937589244163217,-0.7177114051770015,,0.1508434106384044,0.6703014625515811,-0.38688693769892124,0.9761974239991171,-0.21650751603966378,0.012770468895969292,-0.17751024728435766,-0.7637587240557298,0.6206147948106059,-0.12461421061233098,-0.6081094530815147,-0.7840116016911785,,0.0,0.0,0.045,1.0,0.0,0.0,0.0,1.0,0.0,0.0,0.0,1.0,,-0.007552247689981291,-0.19895363962927348,0.22517962125698898,False,,0.12135865917778534,0.5731515377257614,-0.3526886640856059,0.03363018603758272,-0.6614944637783402,-0.7491956253060239,0.8638410358378319,0.39624152486872277,-0.311080887828763,0.5026407020822126,-0.63672421687911,0.5847517389884231
17:16:30.907785,,-0.1495429993764834,-0.656972885610279,0.07297723813000001,-2.8276976746479408,-0.7304002957223868,0.5028329163128286,,0.13550042067697848,0.5805647182928648,-0.36582716345656535,-0.26189776649132296,-0.6505766058675173,-0.7128531684749375,0.6851239089488985,0.39488929656760113,-0.612101031564992,0.6797166978186121,-0.6487006423260628,0.342304962500276,,0.02523680320871051,0.28526859943812455,-0.09239064377510824,-0.9796446664332098,-0.13556097174026258,0.14805252584863463,0.19337765814055194,-0.8352043495809747,0.5148191679740147,0.053864726875764685,0.5329699028296219,0.84441794972439,,-0.009084490935341787,0.632707139023764,1.166697337397314,0.9982009152604525,-0.03986583265566421,-0.0447844633758785,0.002457458368363665,-0.7191031012166331,0.6948990507397378,-0.05990737576928725,-0.6937589244163217,-0.7177114051770015,,0.1508434106384044,0.6703014625515811,-0.38688693769892124,0.9761974239991171,-0.21650751603966378,0.012770468895969292,-0.17751024728435766,-0.7637587240557298,0.6206147948106059,-0.12461421061233098,-0.6081094530815147,-0.7840116016911785,,0.0,0.0,0.045,1.0,0.0,0.0,0.0,1.0,0.0,0.0,0.0,1.0,,-0.007552247689981291,-0.19895363962927348,0.22517962125698898,False,,0.11961961051929328,0.5654571139520389,-0.35071051549422644,0.006877886337262051,-0.6579210139958555,-0.7530555318316157,0.8589337953726338,0.3895000907004676,-0.3324491156719933,0.5120404572358463,-0.6445382988519714,0.5677895309590628
17:16:31.023659,,-0.142167789481599,-0.6568802128157883,0.0815496039,-2.794149429953912,-0.7063889728694379,0.49472799488991714,,0.12259529926768625,0.5830261027506007,-0.382385020013522,-0.2747318111451257,-0.752637012414344,-0.598381115585151,0.6820333855627938,0.28612604156150523,-0.6730247761547102,0.6777557767534504,-0.5930172138179078,0.4347156440628436,,0.025236572761728884,0.28526780395625023,-0.0923905989832402,-0.9796443489648856,-0.13556303320376567,0.14805273894839044,0.19337936462306304,-0.8352055557169478,0.5148165702246625,0.0538643743071982,0.5329674883785118,0.8444194961346848,,-0.009084490935341787,0.632707139023764,1.166697337397314,0.9982009152604525,-0.03986583265566421,-0.0447844633758785,0.002457458368363665,-0.7191031012166331,0.6948990507397378,-0.05990737576928725,-0.6937589244163217,-0.7177114051770015,,0.1508434106384044,0.6703014625515811,-0.38688693769892124,0.9761974239991171,-0.21650751603966378,0.012770468895969292,-0.17751024728435766,-0.7637587240557298,0.6206147948106059,-0.12461421061233098,-0.6081094530815147,-0.7840116016911785,,0.0,0.0,0.045,1.0,0.0,0.0,0.0,1.0,0.0,0.0,0.0,1.0,,-0.007552247689981291,-0.19895363962927348,0.22517962125698898,False,,0.11783769222541834,0.5568676256098315,-0.34863716262034755,-0.02692391231581648,-0.6528719710688528,-0.756989624987213,0.8501161164884162,0.38344052265473055,-0.3609376041269745,0.5259065424885527,-0.6532469326211476,0.544693265598904
17:16:31.146189,,-0.1323367505327112,-0.6567720945555492,0.08984974877000002,-2.7566173312024675,-0.6794265377105398,0.4847830415300993,,0.12501820508690048,0.5811351809675263,-0.38215506964155727,-0.2605035090895758,-0.7324069181254044,-0.6290612275717399,0.6853577965501396,0.31863261791803177,-0.6547961098743942,0.680016626605523,-0.6017087011841765,0.41895587650646005,,0.025236344988769952,0.2852675301626033,-0.09239049646851391,-0.9796442595439439,-0.13556419956857937,0.1480522626584556,0.19338004779124898,-0.8352059283753762,0.5148157090292022,0.053863547963462224,0.5329666077178911,0.8444201046865426,,-0.009084490935341787,0.632707139023764,1.166697337397314,0.9982009152604525,-0.03986583265566421,-0.0447844633758785,0.002457458368363665,-0.7191031012166331,0.6948990507397378,-0.05990737576928725,-0.6937589244163217,-0.7177114051770015,,0.1508434106384044,0.6703014625515811,-0.38688693769892124,0.9761974239991171,-0.21650751603966378,0.012770468895969292,-0.17751024728435766,-0.7637587240557298,0.6206147948106059,-0.12461421061233098,-0.6081094530815147,-0.7840116016911785,,0.0,0.0,0.045,1.0,0.0,0.0,0.0,1.0,0.0,0.0,0.0,1.0,,-0.007552247689981291,-0.19895363962927348,0.22517962125698898,False,,0.11641024043540354,0.5477598157998365,-0.34651835663455216,-0.06749084115461493,-0.6487096190904175,-0.7580374769493975,0.8384149830976294,0.37497573490038355,-0.39554205130847886,0.5408375934396984,-0.6622454441787298,0.5185804365639651
17:16:31.263199,,-0.12294590735765419,-0.6567952627541719,0.09650230905000001,-2.7071336702787754,-0.6310014675992852,0.46409858806452786,,0.1291853777233327,0.5773645983981185,-0.3818702365464438,-0.21526017749352575,-0.7172503728518457,-0.662732946690705,0.6948644213814854,0.36434485209703404,-0.6200131165133244,0.6861679764340727,-0.5939736790416557,0.41996282778609256,,0.025235996702585344,0.285267138169848,-0.09239078138447746,-0.9796438520831182,-0.1355637891436451,0.14805533079690686,0.19338243742385644,-0.8351948555483432,0.5148327738112689,0.05386236905644278,0.5329840627703742,0.8444091619949584,,-0.009084490935341787,0.632707139023764,1.166697337397314,0.9982009152604525,-0.03986583265566421,-0.0447844633758785,0.002457458368363665,-0.7191031012166331,0.6948990507397378,-0.05990737576928725,-0.6937589244163217,-0.7177114051770015,,0.1508434106384044,0.6703014625515811,-0.38688693769892124,0.9761974239991171,-0.21650751603966378,0.012770468895969292,-0.17751024728435766,-0.7637587240557298,0.6206147948106059,-0.12461421061233098,-0.6081094530815147,-0.7840116016911785,,0.0,0.0,0.045,1.0,0.0,0.0,0.0,1.0,0.0,0.0,0.0,1.0,,-0.007552247689981291,-0.19895363962927348,0.22517962125698898,False,,0.11561866601959844,0.5412820661497114,-0.3452853751078985,-0.11783412481910452,-0.6476105220144177,-0.752805240951688,0.8176091275167909,0.36697447034186353,-0.4436722356859176,0.5635871127246855,-0.6677801658431629,0.48625015833121377
17:16:31.375046,,-0.11600317050372635,-0.6570501129390213,0.09947599831000001,-2.664779011352564,-0.5906248855951642,0.44625323877874756,,0.12581556755466938,0.5805472756472522,-0.3821157514306471,-0.25744057529512493,-0.751680102134801,-0.6072078509425995,0.6862033045039321,0.3002092577048789,-0.6625703181370034,0.6803303426127628,-0.5872405177122068,0.4385193260022869,,0.02523633173347061,0.28526756755319327,-0.0923913738522826,-0.9796437131638938,-0.13555987953645374,0.14805982774047632,0.19338277760141523,-0.8351826645338807,0.5148524220213668,0.05386366918098818,0.5330041596405868,0.8443963934197088,,-0.009084490935341787,0.632707139023764,1.166697337397314,0.9982009152604525,-0.03986583265566421,-0.0447844633758785,0.002457458368363665,-0.7191031012166331,0.6948990507397378,-0.05990737576928725,-0.6937589244163217,-0.7177114051770015,,0.1508434106384044,0.6703014625515811,-0.38688693769892124,0.9761974239991171,-0.21650751603966378,0.012770468895969292,-0.17751024728435766,-0.7637587240557298,0.6206147948106059,-0.12461421061233098,-0.6081094530815147,-0.7840116016911785,,0.0,0.0,0.045,1.0,0.0,0.0,0.0,1.0,0.0,0.0,0.0,1.0,,-0.007552247689981291,-0.19895363962927348,0.22517962125698898,False,,0.11547677215352344,0.5375376271793204,-0.3448523734399541,-0.17024427966912598,-0.6454649690499943,-0.7445749518814279,0.7947874102938026,0.3567326398017599,-0.4909733150982226,0.5825202637491774,-0.6753641961411324,0.452275739889098
17:16:31.485073,,-0.10918399737578612,-0.6585174321851239,0.10005284736000002,-2.6274565891304573,-0.5534676988338968,0.4286618461210413,,0.13435876466910507,0.5718388019833079,-0.3821591323043022,-0.18024299663669466,-0.7157747335446645,-0.6746695435414951,0.7010504906297667,0.3876416050316617,-0.5985500778015497,0.689957007175946,-0.580861874172804,0.4319245436199127,,0.025235988793272643,0.2852682189258497,-0.09239154333801725,-0.9796437623258804,-0.13555767884219153,0.14806151699730696,0.19338312058894672,-0.8351699242252446,0.5148729595866467,0.053861542680352724,0.5330246819324121,0.8443835744752357,,-0.009084490935341787,0.632707139023764,1.166697337397314,0.9982009152604525,-0.03986583265566421,-0.0447844633758785,0.002457458368363665,-0.7191031012166331,0.6948990507397378,-0.05990737576928725,-0.6937589244163217,-0.7177114051770015,,0.1508434106384044,0.6703014625515811,-0.38688693769892124,0.9761974239991171,-0.21650751603966378,0.012770468895969292,-0.17751024728435766,-0.7637587240557298,0.6206147948106059,-0.12461421061233098,-0.6081094530815147,-0.7840116016911785,,0.0,0.0,0.045,1.0,0.0,0.0,0.0,1.0,0.0,0.0,0.0,1.0,,-0.007552247689981291,-0.19895363962927348,0.22517962125698898,False,,0.11597539501065773,0.5364411798610014,-0.3452477514714849,-0.21347918259142046,-0.645821329817156,-0.7330357757662985,0.7727605430199134,0.3474433989783897,-0.5311536761219975,0.597718814955383,-0.6798513767431404,0.4248933087126567
17:16:31.676247,,-0.10247294250808502,-0.661961771047028,0.09824452281000001,-2.592440608731065,-0.5191274829101262,0.41125822469087436,,0.13864890860041523,0.569353659211633,-0.3827056146203826,-0.15763302063096038,-0.6948612095427246,-0.7016549937680063,0.7045139170029358,0.4187566404852467,-0.5729773266008794,0.691962406172431,-0.5846458547893174,0.4235295183593801,,0.0252363264891554,0.28526916998587604,-0.09239207810357201,-0.9796438520453299,-0.13555287394458204,0.14806532428493352,0.19338243739635597,-0.8351568991261518,0.5148943440057249,0.05386236902404806,0.5330463121979229,0.8443698674134235,,-0.009084490935341787,0.632707139023764,1.166697337397314,0.9982009152604525,-0.03986583265566421,-0.0447844633758785,0.002457458368363665,-0.7191031012166331,0.6948990507397378,-0.05990737576928725,-0.6937589244163217,-0.7177114051770015,,0.15088565264351783,0.6702965332723854,-0.38689064635854553,0.9762193597536646,-0.2164083948632542,0.01277373378677231,-0.17743282585267844,-0.7637672404541342,0.6206264534476515,-0.12455261519566159,-0.6081340387133307,-0.7840023195157875,,0.0,0.0,0.045,1.0,0.0,0.0,0.0,1.0,0.0,0.0,0.0,1.0,,-0.007552247689981291,-0.19895363962927348,0.22517962125698898,True,,0.11699833640146745,0.5375482020331801,-0.3465058069242104,-0.25428328024163827,-0.6465859563135123,-0.719212496059192,0.7495626081041742,0.33816759483247466,-0.5690330169131554,0.6111431173805532,-0.6837903764337139,0.39866629049246094
17:16:31.748939,,-0.09028647003255874,-0.6718005327287901,0.08930919584000001,-2.5341505335751897,-0.46748301755601807,0.3848092830732114,,0.1311350023824298,0.5811902378298949,-0.3752734764359526,-0.34612315947346006,-0.678029808866536,-0.6484399253319613,0.6631319834406724,0.3121153820184641,-0.6803234237078042,0.6636676359550387,-0.6654769467050515,0.3415928898410693,,0.025231382420819865,0.28527140261903117,-0.09239449962740531,-0.9796409941583339,-0.135554667891723,0.1480825918568483,0.19339426016480998,-0.8351444967630114,0.5149100203876095,0.053871904863138254,0.5330652877209575,0.8443572800226192,,-0.009084490935341787,0.632707139023764,1.166697337397314,0.9982009152604525,-0.03986583265566421,-0.0447844633758785,0.002457458368363665,-0.7191031012166331,0.6948990507397378,-0.05990737576928725,-0.6937589244163217,-0.7177114051770015,,0.15088565264351783,0.6702965332723854,-0.38689064635854553,0.9762193597536646,-0.2164083948632542,0.01277373378677231,-0.17743282585267844,-0.7637672404541342,0.6206264534476515,-0.12455261519566159,-0.6081340387133307,-0.7840023195157875,,0.0,0.0,0.045,1.0,0.0,0.0,0.0,1.0,0.0,0.0,0.0,1.0,,-0.007552247689981291,-0.19895363962927348,0.22517962125698898,False,,0.1199014466553111,0.5449397413640251,-0.3505229395039964,-0.3201619433383493,-0.6450525764549938,-0.6938324752031906,0.708700882835643,0.3229397600818207,-0.6272582961000007,0.6286806730811692,-0.6925439227710185,0.35375630924004425
17:16:31.854047,,-0.08454847950700993,-0.6768512000285329,0.08517791961000001,-2.510247409230695,-0.44803250463044486,0.3736430118855768,,0.12954728163789303,0.5768106956993585,-0.3819552601396107,-0.22254305556148035,-0.7243103943863007,-0.652571100344876,0.6933593150598425,0.3529686270398788,-0.6282244889729545,0.6853666527057661,-0.5922732485175616,0.42365664216361476,,0.025226781292143133,0.28527298388517797,-0.09239675165039696,-0.9796380863277337,-0.1355586625678538,0.14809817011346696,0.19340573977992057,-0.835144835240911,0.5149051593862894,0.053883567145506385,0.5330637413529955,0.84435751196897,,-0.009084490935341787,0.632707139023764,1.166697337397314,0.9982009152604525,-0.03986583265566421,-0.0447844633758785,0.002457458368363665,-0.7191031012166331,0.6948990507397378,-0.05990737576928725,-0.6937589244163217,-0.7177114051770015,,0.15088565264351783,0.6702965332723854,-0.38689064635854553,0.9762193597536646,-0.2164083948632542,0.01277373378677231,-0.17743282585267844,-0.7637672404541342,0.6206264534476515,-0.12455261519566159,-0.6081340387133307,-0.7840023195157875,,0.0,0.0,0.045,1.0,0.0,0.0,0.0,1.0,0.0,0.0,0.0,1.0,,-0.007552247689981291,-0.19895363962927348,0.22517962125698898,False,,0.12109047885671767,0.5480072126153502,-0.35213689187084524,-0.34323222268395603,-0.6445041257448123,-0.683232078586293,0.6934782339684711,0.316707843986255,-0.6471352876868549,0.6334663213805464,-0.6959242584186106,0.33824524567406
17:16:31.969027,,-0.07605347334536297,-0.6847052193616192,0.08122682769,-2.477747547183354,-0.4273747184888016,0.3596606820224308,,0.12768534027714445,0.578700583330026,-0.38197830841312036,-0.23675439919876515,-0.7231319035060061,-0.6488663996477337,0.6905925115823425,0.34451040748938305,-0.6359202482056159,0.6833954473117481,-0.5986591929163706,0.4178251229046623,,0.025222180162325365,0.2852745651475523,-0.09239900367581624,-0.9796351783673157,-0.13556265728432326,0.14811374833550883,0.19341721934474,-0.8351451737826691,0.5149002982706535,0.05389522944500813,0.5330621951032285,0.8443577438417565,,-0.009084490935341787,0.632707139023764,1.166697337397314,0.9982009152604525,-0.03986583265566421,-0.0447844633758785,0.002457458368363665,-0.7191031012166331,0.6948990507397378,-0.05990737576928725,-0.6937589244163217,-0.7177114051770015,,0.15088565264351783,0.6702965332723854,-0.38689064635854553,0.9762193597536646,-0.2164083948632542,0.01277373378677231,-0.17743282585267844,-0.7637672404541342,0.6206264534476515,-0.12455261519566159,-0.6081340387133307,-0.7840023195157875,,0.0,0.0,0.045,1.0,0.0,0.0,0.0,1.0,0.0,0.0,0.0,1.0,,-0.007552247689981291,-0.19895363962927348,0.22517962125698898,False,,0.12275492984165218,0.5515617436874026,-0.3545052151926237,-0.37967896068545776,-0.6420805615031218,-0.6660153446825728,0.6699198650469802,0.3056696645716162,-0.6765895584297111,0.6380056905923696,-0.7030637301841928,0.31408618255383697
17:16:32.067652,,-0.06833074047113846,-0.6960730821524778,0.07844887822,-2.4672637207164705,-0.4205335035977379,0.3491676266225173,,0.12726051175057643,0.5790567808294608,-0.3819904722390439,-0.2393894434292834,-0.735958178802189,-0.6332916022092696,0.6898951652814076,0.3300196700067425,-0.6443071304354631,0.683181787883692,-0.5911451399299555,0.4287307642813102,,0.02521661835754286,0.28527575601370053,-0.09240051403302976,-0.9796323686731404,-0.1355713476939041,0.14812437715296065,0.19342938492974998,-0.835151662181324,0.5148852040757358,0.05390263878691454,0.5330498194492445,0.8443650837709817,,-0.009084490935341787,0.632707139023764,1.166697337397314,0.9982009152604525,-0.03986583265566421,-0.0447844633758785,0.002457458368363665,-0.7191031012166331,0.6948990507397378,-0.05990737576928725,-0.6937589244163217,-0.7177114051770015,,0.15088565264351783,0.6702965332723854,-0.38689064635854553,0.9762193597536646,-0.2164083948632542,0.01277373378677231,-0.17743282585267844,-0.7637672404541342,0.6206264534476515,-0.12455261519566159,-0.6081340387133307,-0.7840023195157875,,0.0,0.0,0.045,1.0,0.0,0.0,0.0,1.0,0.0,0.0,0.0,1.0,,-0.007552247689981291,-0.19895363962927348,0.22517962125698898,False,,0.12387370147059748,0.5536583349308144,-0.35660165319165127,-0.39078579164457333,-0.6471859045231318,-0.6545508918604417,0.6555827457105781,0.30347210679844294,-0.6914592858020594,0.6461406414824125,-0.6993247352853251,0.30569132477518274
17:16:32.138499,,-0.0638978918013336,-0.7078965861829155,0.07707610711000001,-2.4838281665341473,-0.426435728209636,0.34816373870091444,,0.1303718228806288,0.5846124005951949,-0.36947299307892645,-0.36964493521992875,-0.6471319543652954,-0.6667704668816764,0.6558966862169587,0.3265591141729074,-0.6805576257454022,0.6581505594283633,-0.6888972191771136,0.30374078180937975,,0.025211564369664704,0.28527731135713336,-0.09240250331082747,-0.9796295097513174,-0.13557678036582682,0.1481383134863692,0.19344120736575293,-0.8351519125696619,0.5148803568759167,0.0539121747829673,0.533048045892139,0.8443655949014612,,-0.009084490935341787,0.632707139023764,1.166697337397314,0.9982009152604525,-0.03986583265566421,-0.0447844633758785,0.002457458368363665,-0.7191031012166331,0.6948990507397378,-0.05990737576928725,-0.6937589244163217,-0.7177114051770015,,0.15088565264351783,0.6702965332723854,-0.38689064635854553,0.9762193597536646,-0.2164083948632542,0.01277373378677231,-0.17743282585267844,-0.7637672404541342,0.6206264534476515,-0.12455261519566159,-0.6081340387133307,-0.7840023195157875,,0.0,0.0,0.045,1.0,0.0,0.0,0.0,1.0,0.0,0.0,0.0,1.0,,-0.007552247689981291,-0.19895363962927348,0.22517962125698898,False,,0.12442052888857714,0.5545933134534831,-0.35823740018003725,-0.3765179363169138,-0.6580845434893519,-0.6520421591063452,0.6503867308501858,0.313448742320053,-0.6919154473430879,0.6597206560095423,-0.684598144577086,0.30999038126359796
17:16:32.252042,,-0.06351175515762236,-0.7143450681328929,0.07645648049,-2.5024893776452,-0.43502078219057866,0.34969049665239726,,0.1286389909386979,0.5777700996268296,-0.38193663063540756,-0.22680082176802274,-0.7205418845478329,-0.6552715313956561,0.6926012575264756,0.35369790729866796,-0.6286503705918643,0.6847370921149918,-0.5964203073209375,0.4188292393053579,,0.025211619339974786,0.2852776499786426,-0.09240271945231167,-0.9796295095413546,-0.13557496015354084,0.14813997925334138,0.19344120730798628,-0.8351455860573642,0.5148906181337741,0.053912174775678307,0.5330584203502625,0.8443590451595158,,-0.009084490935341787,0.632707139023764,1.166697337397314,0.9982009152604525,-0.03986583265566421,-0.0447844633758785,0.002457458368363665,-0.7191031012166331,0.6948990507397378,-0.05990737576928725,-0.6937589244163217,-0.7177114051770015,,0.15088565264351783,0.6702965332723854,-0.38689064635854553,0.9762193597536646,-0.2164083948632542,0.01277373378677231,-0.17743282585267844,-0.7637672404541342,0.6206264534476515,-0.12455261519566159,-0.6081340387133307,-0.7840023195157875,,0.0,0.0,0.045,1.0,0.0,0.0,0.0,1.0,0.0,0.0,0.0,1.0,,-0.007552247689981291,-0.19895363962927348,0.22517962125698898,False,,0.12452042470143646,0.5550689883015908,-0.3590208864579273,-0.3594314201489812,-0.6661316396042094,-0.6535118154462811,0.6516810534496233,0.3220732802516149,-0.6867172684029096,0.6679227940297259,-0.6727090313546952,0.3183421121205172
17:16:32.346244,,-0.06357353702061616,-0.7195810810216171,0.07508889454,-2.5326827978698265,-0.4529957389631773,0.35632046555894237,,0.1279732256857692,0.5783530296089471,-0.3821099473351787,-0.2524832188673064,-0.7281488902972169,-0.6372216394233139,0.6872319215294272,0.32864939706718305,-0.6478440088774063,0.6811494037444175,-0.6014887923862832,0.4174287033881548,,0.025211446529447182,0.28527771481963093,-0.09240283307352262,-0.9796294199969766,-0.13557430643314214,0.1481411688753777,0.1934418904684382,-0.8351396321820219,0.5149000182317705,0.05391134845825558,0.5330679142456927,0.8443531040467388,,-0.009084490935341787,0.632707139023764,1.166697337397314,0.9982009152604525,-0.03986583265566421,-0.0447844633758785,0.002457458368363665,-0.7191031012166331,0.6948990507397378,-0.05990737576928725,-0.6937589244163217,-0.7177114051770015,,0.15088565264351783,0.6702965332723854,-0.38689064635854553,0.9762193597536646,-0.2164083948632542,0.01277373378677231,-0.17743282585267844,-0.7637672404541342,0.6206264534476515,-0.12455261519566159,-0.6081340387133307,-0.7840023195157875,,0.0,0.0,0.045,1.0,0.0,0.0,0.0,1.0,0.0,0.0,0.0,1.0,,-0.007552247689981291,-0.19895363962927348,0.22517962125698898,False,,0.12475287375692483,0.5562953633907771,-0.35968215106059737,-0.3318983203569303,-0.6756474188418157,-0.6582887439085076,0.6587001057008474,0.3335373763650603,-0.6744382768772875,0.6752463814741557,-0.657459796474206,0.33434853121578795
17:16:32.431005,,-0.06357353702061616,-0.7224230467193318,0.07446278647000001,-2.555118186508958,-0.4686902907720881,0.3617947252298903,,0.12693178776597563,0.5793167659038474,-0.3820971559214642,-0.253844437979322,-0.72945011573031,-0.6351893654399449,0.6869382151880281,0.3263569356227896,-0.6493127436645528,0.6809397108564377,-0.6011602774900715,0.41824326766465897,,0.025211279129792624,0.2852788230240019,-0.09240283124423279,-0.97962978671131,-0.13557186250442815,0.14814097957795258,0.19344052705997833,-0.8351320109114844,0.5149128912612111,0.053909574511330875,0.5330804753442977,0.8443452867920721,,-0.009084490935341787,0.632707139023764,1.166697337397314,0.9982009152604525,-0.03986583265566421,-0.0447844633758785,0.002457458368363665,-0.7191031012166331,0.6948990507397378,-0.05990737576928725,-0.6937589244163217,-0.7177114051770015,,0.15088565264351783,0.6702965332723854,-0.38689064635854553,0.9762193597536646,-0.2164083948632542,0.01277373378677231,-0.17743282585267844,-0.7637672404541342,0.6206264534476515,-0.12455261519566159,-0.6081340387133307,-0.7840023195157875,,0.0,0.0,0.045,1.0,0.0,0.0,0.0,1.0,0.0,0.0,0.0,1.0,,-0.007552247689981291,-0.19895363962927348,0.22517962125698898,False,,0.12486726253424033,0.5569267403855334,-0.3599343049483468,-0.3096195498162062,-0.6813633244741977,-0.6632343133712844,0.6677024233760644,0.3408107282556056,-0.6618319434143494,0.6769853825521941,-0.6477592666781025,0.34942627869595955
17:16:32.527406,,-0.06356581428774194,-0.7285240056899691,0.07379130825,-2.579860016970804,-0.4825068620226677,0.3661794610657758,,0.1271082688296314,0.5792026576826187,-0.38206164681249516,-0.24903791009141155,-0.7286322935788379,-0.6380243726468015,0.6879883047917178,0.3305736855390676,-0.6460596960799649,0.6816540264731962,-0.5998466630591189,0.4189651166979412,,0.025212067000971436,0.28527927823650695,-0.09240368655474414,-0.9796295991693256,-0.1355665128988222,0.1481471184672502,0.19344052429285413,-0.8351199069262243,0.514932524040956,0.05391300113146843,0.5331007984746764,0.8443322371395103,,-0.009084490935341787,0.632707139023764,1.166697337397314,0.9982009152604525,-0.03986583265566421,-0.0447844633758785,0.002457458368363665,-0.7191031012166331,0.6948990507397378,-0.05990737576928725,-0.6937589244163217,-0.7177114051770015,,0.15088565264351783,0.6702965332723854,-0.38689064635854553,0.9762193597536646,-0.2164083948632542,0.01277373378677231,-0.17743282585267844,-0.7637672404541342,0.6206264534476515,-0.12455261519566159,-0.6081340387133307,-0.7840023195157875,,0.0,0.0,0.045,1.0,0.0,0.0,0.0,1.0,0.0,0.0,0.0,1.0,,-0.007552247689981291,-0.19895363962927348,0.22517962125698898,False,,0.12499744612851574,0.5575924389594591,-0.3606614544284216,-0.2826195717030237,-0.6910006683393003,-0.6653151539270995,0.6724099158245839,0.3519366385626952,-0.6511570528973537,0.684098737603846,-0.6313942340501942,0.3651715191755693
17:16:32.609804,,-0.06358898248636462,-0.7372429711049686,0.07298371958000001,-2.589295460791,-0.4913601989405148,0.36639567028462705,,0.12771087062422945,0.5784967256176088,-0.38206513987483937,-0.24755128337565005,-0.7289867100300323,-0.6381980403437941,0.6882901399659682,0.3312723385399185,-0.6453799818276998,0.6818907869480983,-0.5990300612806374,0.41974747212749197,,0.02521189418989542,0.28527934307187597,-0.0924038001823797,-0.9796295098830694,-0.13556585913290548,0.1481483080321942,0.19344120746188437,-0.8351139527937843,0.5149419239815466,0.05391217479320316,0.5331102922057366,0.844326295766257,,-0.009084490935341787,0.632707139023764,1.166697337397314,0.9982009152604525,-0.03986583265566421,-0.0447844633758785,0.002457458368363665,-0.7191031012166331,0.6948990507397378,-0.05990737576928725,-0.6937589244163217,-0.7177114051770015,,0.15088565264351783,0.6702965332723854,-0.38689064635854553,0.9762193597536646,-0.2164083948632542,0.01277373378677231,-0.17743282585267844,-0.7637672404541342,0.6206264534476515,-0.12455261519566159,-0.6081340387133307,-0.7840023195157875,,0.0,0.0,0.045,1.0,0.0,0.0,0.0,1.0,0.0,0.0,0.0,1.0,,-0.007552247689981291,-0.19895363962927348,0.22517962125698898,False,,0.1250456252412677,0.5581664492461603,-0.3616300364425776,-0.2736715416288829,-0.6933971149347393,-0.6665615712765403,0.672424152104248,0.35758365130904585,-0.6480584016764026,0.6877133465109961,-0.6255672412432338,0.3683964979664925
17:16:32.771486,,-0.06363531888360996,-0.7408881010216025,0.07244187036000001,-2.5970534923764936,-0.4983355553000307,0.3653157107362651,,0.12923447424537687,0.579622356621494,-0.3820177237853948,-0.24090948738033438,-0.7321447919043513,-0.6371237105754891,0.689745674900883,0.3326769109018413,-0.6430995077811323,0.6827983031947796,-0.5943820965003432,0.42484867954859773,,0.02521189418989542,0.28527934307187597,-0.0924038001823797,-0.9796295098830694,-0.13556585913290548,0.1481483080321942,0.19344120746188437,-0.8351139527937843,0.5149419239815466,0.05391217479320316,0.5331102922057366,0.844326295766257,,-0.009084490935341787,0.632707139023764,1.166697337397314,0.9982009152604525,-0.03986583265566421,-0.0447844633758785,0.002457458368363665,-0.7191031012166331,0.6948990507397378,-0.05990737576928725,-0.6937589244163217,-0.7177114051770015,,0.15079358666998116,0.6703176914276994,-0.38687787526448214,0.9761727268087521,-0.2166196923959394,0.012756029987969444,-0.17758889208656156,-0.7637386129220312,0.620617044995865,-0.12469560073327753,-0.6080947623505899,-0.7840100555219598,,0.0,0.0,0.045,1.0,0.0,0.0,0.0,1.0,0.0,0.0,0.0,1.0,,-0.007552247689981291,-0.19895363962927348,0.22517962125698898,True,,0.12512096131857955,0.5587163148391712,-0.36216581997359787,-0.2644902704951892,-0.6972410317012754,-0.6662580885254024,0.6744826415859353,0.3600472179358341,-0.6445457059479371,0.6892880841945843,-0.6198555836392918,0.3750479868210899
17:16:32.856034,,-0.06365076434935842,-0.7460855002459557,0.07153835623,-2.595166403612455,-0.5024939408220498,0.36205041228290724,,0.12767767766787627,0.5786476773403894,-0.38204923616566333,-0.24757041994387485,-0.7276795927994518,-0.6396806213979269,0.6882760142250809,0.3325873890955155,-0.6447183546767262,0.6818980975272259,-0.599890022285629,0.418505610178523,,0.025217135948557273,0.2852804931989655,-0.09240190689644424,-0.9796313934955456,-0.1355590965423975,0.1481420401331264,0.1934322894890782,-0.8351138866662985,0.514945381096231,0.05390994428868679,0.5331121152946519,0.8443252869984843,,-0.009084490935341787,0.632707139023764,1.166697337397314,0.9982009152604525,-0.03986583265566421,-0.0447844633758785,0.002457458368363665,-0.7191031012166331,0.6948990507397378,-0.05990737576928725,-0.6937589244163217,-0.7177114051770015,,0.15079358666998116,0.6703176914276994,-0.38687787526448214,0.9761727268087521,-0.2166196923959394,0.012756029987969444,-0.17758889208656156,-0.7637386129220312,0.620617044995865,-0.12469560073327753,-0.6080947623505899,-0.7840100555219598,,0.0,0.0,0.045,1.0,0.0,0.0,0.0,1.0,0.0,0.0,0.0,1.0,,-0.007552247689981291,-0.19895363962927348,0.22517962125698898,False,,0.12519560538821806,0.5595111755147413,-0.36290340234152274,-0.26496316679025295,-0.697170742196421,-0.6661437355929819,0.6742763603557008,0.35988917843332396,-0.6448497259920769,0.6893082837961185,-0.6200263990120736,0.37472837418344934
17:16:32.944184,,-0.06361215068498728,-0.7485413292999591,0.07118706164000001,-2.597472845435169,-0.5055791945964511,0.36065210820161436,,0.1280680896416474,0.5783576873304136,-0.38209148210896177,-0.2515319738116237,-0.7294433983217641,-0.6361163374691969,0.6874340823236289,0.3280075918469423,-0.6479547840325284,0.6812973276112999,-0.6002693964675915,0.41893985612989243,,0.025222147212049115,0.2852808478565648,-0.0923999688144739,-0.9796329594999713,-0.13555439556397936,0.14813598559395466,0.19342507797825587,-0.8351150269548655,0.5149462405791118,0.0539073612200946,0.5331115242805572,0.8443258250277719,,-0.009084490935341787,0.632707139023764,1.166697337397314,0.9982009152604525,-0.03986583265566421,-0.0447844633758785,0.002457458368363665,-0.7191031012166331,0.6948990507397378,-0.05990737576928725,-0.6937589244163217,-0.7177114051770015,,0.15079358666998116,0.6703176914276994,-0.38687787526448214,0.9761727268087521,-0.2166196923959394,0.012756029987969444,-0.17758889208656156,-0.7637386129220312,0.620617044995865,-0.12469560073327753,-0.6080947623505899,-0.7840100555219598,,0.0,0.0,0.045,1.0,0.0,0.0,0.0,1.0,0.0,0.0,0.0,1.0,,-0.007552247689981291,-0.19895363962927348,0.22517962125698898,False,,0.12522027693266535,0.5597267198072463,-0.36317712833577276,-0.2629179889395016,-0.6982408992943748,-0.6658331454986232,0.6745088663965476,0.3604222134776669,-0.6443086350378235,0.6898636968593522,-0.6185106907600237,0.3762081939180828
17:16:32.991371,,-0.0635194778904966,-0.7508890400937233,0.07055058325,-2.597472845435169,-0.5089327313077568,0.35973417813299574,,0.13026926733188357,0.5831275676944534,-0.36751297423865276,-0.2725901941947619,-0.6909343328760297,-0.6695553253331781,0.6827410797073729,0.35142056787645487,-0.640599877110042,0.6779079613847832,-0.631754170644362,0.3759354515931976,,0.025227386274846726,0.28528147630827855,-0.09239813325275045,-0.9796346149234901,-0.13554852804448606,0.14813040717276213,0.19341718327274435,-0.835115794498074,0.5149479611913985,0.05390560452339577,0.5331118138489463,0.8443257543603319,,-0.009084490935341787,0.632707139023764,1.166697337397314,0.9982009152604525,-0.03986583265566421,-0.0447844633758785,0.002457458368363665,-0.7191031012166331,0.6948990507397378,-0.05990737576928725,-0.6937589244163217,-0.7177114051770015,,0.15079358666998116,0.6703176914276994,-0.38687787526448214,0.9761727268087521,-0.2166196923959394,0.012756029987969444,-0.17758889208656156,-0.7637386129220312,0.620617044995865,-0.12469560073327753,-0.6080947623505899,-0.7840100555219598,,0.0,0.0,0.045,1.0,0.0,0.0,0.0,1.0,0.0,0.0,0.0,1.0,,-0.007552247689981291,-0.19895363962927348,0.22517962125698898,False,,0.1253347784159964,0.5604056796913429,-0.3635569535702429,-0.26120539124886205,-0.6986739638096674,-0.6660528776884133,0.6755838315503496,0.36052395719077074,-0.6431243758708389,0.6894622760748247,-0.6179621093448973,0.37784203218240214
17:16:33.087797,,-0.06346541876037702,-0.7533603146134752,0.07031465847000001,-2.5978921984938443,-0.511347277739897,0.35785819628254445,,0.1285973555021901,0.5778988292243863,-0.38195961345134133,-0.23178531259938187,-0.7215189808694659,-0.6524461120340089,0.6915798070200513,0.3494546177649971,-0.6321383081611405,0.6841000945660769,-0.5977389316146369,0.41798950973305204,,0.025232853105354957,0.28528237854720323,-0.09239640021493058,-0.9796363597198579,-0.13554149402954582,0.1481253048191803,0.19340860538027996,-0.8351161892499989,0.514950542901089,0.05390467416088908,0.5331129839588507,0.8443250749887804,,-0.009084490935341787,0.632707139023764,1.166697337397314,0.9982009152604525,-0.03986583265566421,-0.0447844633758785,0.002457458368363665,-0.7191031012166331,0.6948990507397378,-0.05990737576928725,-0.6937589244163217,-0.7177114051770015,,0.15079358666998116,0.6703176914276994,-0.38687787526448214,0.9761727268087521,-0.2166196923959394,0.012756029987969444,-0.17758889208656156,-0.7637386129220312,0.620617044995865,-0.12469560073327753,-0.6080947623505899,-0.7840100555219598,,0.0,0.0,0.045,1.0,0.0,0.0,0.0,1.0,0.0,0.0,0.0,1.0,,-0.007552247689981291,-0.19895363962927348,0.22517962125698898,False,,0.12534964447918584,0.5605985714189764,-0.363854329504349,-0.26020592380425955,-0.6995679205776738,-0.6655055234299726,0.6756750920892224,0.36044318351405097,-0.6430737760074482,0.6897507137708473,-0.6169971117897443,0.3788911676137636
17:16:33.192672,,-0.0633341323015152,-0.7581329635297459,0.06942021837000001,-2.5995696107285458,-0.5141642485773937,0.35095115817291134,,0.12671512470589352,0.5795727711352591,-0.3820711968109761,-0.2528346913002956,-0.7276913233622578,-0.6376048594375439,0.6871576638156471,0.3288644741573531,-0.64781363268816,0.6810939464820595,-0.6019248254894406,0.4168903219373175,,0.025238097530873648,0.2852840503617081,-0.09239444920934119,-0.9796384712440925,-0.13553383641885988,0.14811834728075443,0.1933986640492749,-0.8351152892469131,0.5149557363182389,0.05390196990418952,0.5331163407819062,0.8443231281854225,,-0.009084490935341787,0.632707139023764,1.166697337397314,0.9982009152604525,-0.03986583265566421,-0.0447844633758785,0.002457458368363665,-0.7191031012166331,0.6948990507397378,-0.05990737576928725,-0.6937589244163217,-0.7177114051770015,,0.15079358666998116,0.6703176914276994,-0.38687787526448214,0.9761727268087521,-0.2166196923959394,0.012756029987969444,-0.17758889208656156,-0.7637386129220312,0.620617044995865,-0.12469560073327753,-0.6080947623505899,-0.7840100555219598,,0.0,0.0,0.045,1.0,0.0,0.0,0.0,1.0,0.0,0.0,0.0,1.0,,-0.007552247689981291,-0.19895363962927348,0.22517962125698898,False,,0.12547956459789036,0.5613831530019844,-0.36450569591253523,-0.25829799433780176,-0.7041251614307472,-0.6614301952293932,0.6744055432658641,0.358797536665832,-0.6453227803935063,0.6917075316442228,-0.6127577700222618,0.38218922792773913
17:16:33.273313,,-0.06309472758241425,-0.7600868149469246,0.06893281333000001,-2.6006179933752342,-0.518993341441674,0.35119432982692145,,0.12828637067916787,0.5780917504699702,-0.38201236505615416,-0.24016370657434413,-0.732701806542469,-0.6367648362887789,0.6898810476340419,0.33265178960505254,-0.642967282984067,0.6829242521391587,-0.5937093982429107,0.4255862031107354,,0.025238322615490236,0.2852838024679313,-0.0923946094571998,-0.9796383325601185,-0.13553356496282618,0.14811951289275166,0.19339900416414466,-0.8351157502193679,0.5149548610083677,0.05390327002544282,0.5331156876854194,0.8443234575543632,,-0.009084490935341787,0.632707139023764,1.166697337397314,0.9982009152604525,-0.03986583265566421,-0.0447844633758785,0.002457458368363665,-0.7191031012166331,0.6948990507397378,-0.05990737576928725,-0.6937589244163217,-0.7177114051770015,,0.15079358666998116,0.6703176914276994,-0.38687787526448214,0.9761727268087521,-0.2166196923959394,0.012756029987969444,-0.17758889208656156,-0.7637386129220312,0.620617044995865,-0.12469560073327753,-0.6080947623505899,-0.7840100555219598,,0.0,0.0,0.045,1.0,0.0,0.0,0.0,1.0,0.0,0.0,0.0,1.0,,-0.007552247689981291,-0.19895363962927348,0.22517962125698898,False,,0.12556473332480442,0.5618452023005065,-0.36476140950830266,-0.2558204669066021,-0.7039527984817158,-0.6625755400114383,0.6764669680600135,0.35927474934417497,-0.6428950891143694,0.6906144581714032,-0.6126761885314633,0.38429098112130866
17:16:33.350843,,-0.06297888658930087,-0.7617008661176377,0.06860744454,-2.6006179933752342,-0.5206030390631007,0.3512524264969081,,0.12772752878294144,0.5784625981445126,-0.3820227062507527,-0.2437438388829526,-0.7266824109439258,-0.6422784556804978,0.6891422822317087,0.33620203752294087,-0.6419120693723521,0.682401535642376,-0.5990833527900328,0.4188403998694254,,0.02523877278618305,0.2852833066800087,-0.0923949299507474,-0.9796380551966777,-0.13553302205483214,0.148121844118231,0.19339968439179356,-0.8351166721706789,0.5149531103911846,0.053905870268977064,0.533114381495271,0.8443241162937897,,-0.009084490935341787,0.632707139023764,1.166697337397314,0.9982009152604525,-0.03986583265566421,-0.0447844633758785,0.002457458368363665,-0.7191031012166331,0.6948990507397378,-0.05990737576928725,-0.6937589244163217,-0.7177114051770015,,0.15079358666998116,0.6703176914276994,-0.38687787526448214,0.9761727268087521,-0.2166196923959394,0.012756029987969444,-0.17758889208656156,-0.7637386129220312,0.620617044995865,-0.12469560073327753,-0.6080947623505899,-0.7840100555219598,,0.0,0.0,0.045,1.0,0.0,0.0,0.0,1.0,0.0,0.0,0.0,1.0,,-0.007552247689981291,-0.19895363962927348,0.22517962125698898,False,,0.1256151768934717,0.5621376548585675,-0.3649787840028469,-0.2553540611308941,-0.7035948356294314,-0.6631354392124986,0.6765479391510344,0.3599511218798428,-0.6424313783494164,0.6907077453557677,-0.6126903762366733,0.3841006552617632
17:16:33.431460,,-0.06291710472630709,-0.7654155006301396,0.06807337306000001,-2.599359934199208,-0.5235541513690498,0.3484085066383993,,0.12830474009504278,0.578264015315706,-0.3818790176938936,-0.22300688270418387,-0.7381933235915158,-0.6366620353621489,0.6932540259659351,0.33905569535459007,-0.6359560448094179,0.6853223954815608,-0.5831910942843069,0.43614373983686616,,0.02523877546927986,0.28528382836198835,-0.09239487222717749,-0.9796382832863139,-0.13553212701140666,0.1481211545722735,0.1933986610965832,-0.8351158384200918,0.5149548468265653,0.053905396484103175,0.5331159150990396,0.8443231782097544,,-0.009084490935341787,0.632707139023764,1.166697337397314,0.9982009152604525,-0.03986583265566421,-0.0447844633758785,0.002457458368363665,-0.7191031012166331,0.6948990507397378,-0.05990737576928725,-0.6937589244163217,-0.7177114051770015,,0.15079358666998116,0.6703176914276994,-0.38687787526448214,0.9761727268087521,-0.2166196923959394,0.012756029987969444,-0.17758889208656156,-0.7637386129220312,0.620617044995865,-0.12469560073327753,-0.6080947623505899,-0.7840100555219598,,0.0,0.0,0.045,1.0,0.0,0.0,0.0,1.0,0.0,0.0,0.0,1.0,,-0.007552247689981291,-0.19895363962927348,0.22517962125698898,False,,0.1256611255590725,0.5625538964500809,-0.3653862835246708,-0.25565981495115414,-0.7038226047994594,-0.6627758293664956,0.6764390522838128,0.3595640496193881,-0.6427627110891574,0.6907012867835987,-0.6126560496678464,0.3841670173776904
17:16:33.508957,,-0.06269314547295457,-0.7695394399849755,0.06766893058000001,-2.598730904611195,-0.5269076880803555,0.34755945821383083,,0.12826368560206425,0.5782591270742443,-0.38192666495584027,-0.22932135400546844,-0.7336120100202653,-0.6397070699555578,0.6919376938635107,0.3393631075684604,-0.6372243788747606,0.6845684366138605,-0.5887665921020859,0.4297905950768945,,0.025238325298467923,0.28528432414985033,-0.09239455173363237,-0.9796385606526283,-0.13553266991504925,0.14811882333987414,0.19339798085616466,-0.8351149164727317,0.5149565974380218,0.053902796241467044,0.5331172212842917,0.8443225194716236,,-0.009084490935341787,0.632707139023764,1.166697337397314,0.9982009152604525,-0.03986583265566421,-0.0447844633758785,0.002457458368363665,-0.7191031012166331,0.6948990507397378,-0.05990737576928725,-0.6937589244163217,-0.7177114051770015,,0.15079358666998116,0.6703176914276994,-0.38687787526448214,0.9761727268087521,-0.2166196923959394,0.012756029987969444,-0.17758889208656156,-0.7637386129220312,0.620617044995865,-0.12469560073327753,-0.6080947623505899,-0.7840100555219598,,0.0,0.0,0.045,1.0,0.0,0.0,0.0,1.0,0.0,0.0,0.0,1.0,,-0.007552247689981291,-0.19895363962927348,0.22517962125698898,False,,0.1256938579610542,0.5628814994077851,-0.36587723668564465,-0.2551899911532024,-0.7034995242341199,-0.6632996968321302,0.6762710831407442,0.3604298640444103,-0.6424544615866348,0.6910394276181883,-0.6125183527922207,0.3837782914259634
17:16:33.589672,,-0.062330177027866016,-0.7727134831962817,0.06727485842,-2.59558575667113,-0.5281149612964255,0.3448649853653246,,0.12839915955148135,0.5779786447173103,-0.3820245914371959,-0.241141308802312,-0.7288265433870307,-0.6408297268726078,0.6896960737177393,0.3358524306734684,-0.6415001720257433,0.6827665743776877,-0.5966699376248447,0.4216809106982689,,0.025238097532182854,0.28528405036138577,-0.09239444920696877,-0.9796384712509487,-0.1355338364159899,0.14811834727829823,0.193398664045373,-0.8351152892542435,0.5149557363193976,0.053901969904223475,0.5331163407823397,0.8443231281922101,,-0.009084490935341787,0.632707139023764,1.166697337397314,0.9982009152604525,-0.03986583265566421,-0.0447844633758785,0.002457458368363665,-0.7191031012166331,0.6948990507397378,-0.05990737576928725,-0.6937589244163217,-0.7177114051770015,,0.15079358666998116,0.6703176914276994,-0.38687787526448214,0.9761727268087521,-0.2166196923959394,0.012756029987969444,-0.17758889208656156,-0.7637386129220312,0.620617044995865,-0.12469560073327753,-0.6080947623505899,-0.7840100555219598,,0.0,0.0,0.045,1.0,0.0,0.0,0.0,1.0,0.0,0.0,0.0,1.0,,-0.007552247689981291,-0.19895363962927348,0.22517962125698898,False,,0.1257508072782848,0.5632170806028165,-0.36630471382740937,-0.256832382557449,-0.7033407573518039,-0.6628339960485246,0.6749775631684053,0.3603184026576242,-0.6438757162104345,0.6916953205632563,-0.6127662097032192,0.38219779664048936
17:16:33.696617,,-0.06202126771289704,-0.7748372347366935,0.06685097159,-2.590763196496363,-0.5287856686386867,0.33811009050921004,,0.12870936827313856,0.5779744805925914,-0.3820988754107445,-0.249523482337263,-0.7247541501704884,-0.64223784813178,0.6878644668061681,0.3341601031617853,-0.6443442408839949,0.6816014283052463,-0.6025516137772421,0.41515183447347276,,0.025237875129158403,0.2852848199373642,-0.09239351686197435,-0.9796388380209782,-0.1355332128312101,0.14811649211583933,0.1933973006226846,-0.8351139945275473,0.5149583480556914,0.0539001960006691,0.5331185274777435,0.8443218607303709,,-0.009084490935341787,0.632707139023764,1.166697337397314,0.9982009152604525,-0.03986583265566421,-0.0447844633758785,0.002457458368363665,-0.7191031012166331,0.6948990507397378,-0.05990737576928725,-0.6937589244163217,-0.7177114051770015,,0.15079358666998116,0.6703176914276994,-0.38687787526448214,0.9761727268087521,-0.2166196923959394,0.012756029987969444,-0.17758889208656156,-0.7637386129220312,0.620617044995865,-0.12469560073327753,-0.6080947623505899,-0.7840100555219598,,0.0,0.0,0.045,1.0,0.0,0.0,0.0,1.0,0.0,0.0,0.0,1.0,,-0.007552247689981291,-0.19895363962927348,0.22517962125698898,False,,0.12580700067998396,0.5635946989347104,-0.3666067618821494,-0.2602862083231458,-0.7048033440008711,-0.6599267656656684,0.6747373844758483,0.3561158499656588,-0.6464603339679302,0.6906377862146347,-0.6135419689706862,0.38286512058964367
17:16:33.775779,,-0.06167374473355693,-0.7779340506192576,0.06647764007000001,-2.5947470505537793,-0.534822034719037,0.33593431589091477,,0.12812905592169824,0.5783766416535534,-0.3819335823820683,-0.23100977783607424,-0.7389287559855734,-0.632944528471288,0.6917755949927632,0.3327073164079573,-0.6408996550014863,0.6841644602846133,-0.585909664697749,0.4343142365813437,,0.025236836270474683,0.28528558850367575,-0.09239233632686374,-0.979640224737568,-0.13554995461719344,0.14809199170611903,0.1933979678625145,-0.8351178696151175,0.5149518113418365,0.053872574013668836,0.533108198943578,0.8443301440291927,,-0.009084490935341787,0.632707139023764,1.166697337397314,0.9982009152604525,-0.03986583265566421,-0.0447844633758785,0.002457458368363665,-0.7191031012166331,0.6948990507397378,-0.05990737576928725,-0.6937589244163217,-0.7177114051770015,,0.15077339768054138,0.6703251940584412,-0.3868879512632608,0.9761831043703253,-0.21657391383623675,0.012739175309602946,-0.17753745512159463,-0.7637230165473092,0.6206509534551818,-0.12468760472020576,-0.6081306552390964,-0.7839834866804307,,0.0,0.0,0.045,1.0,0.0,0.0,0.0,1.0,0.0,0.0,0.0,1.0,,-0.007552247689981291,-0.19895363962927348,0.22517962125698898,False,,0.12588274367433464,0.5639814443827433,-0.3669794640818824,-0.2558232139535878,-0.7076309243687285,-0.6586447890020204,0.6764894527667583,0.35566746325065013,-0.6448741550722744,0.6905914157429045,-0.6105400318258473,0.3877168632395355
17:16:33.881788,,-0.061449785480204425,-0.7806756207896073,0.06623264126,-2.5934889913777535,-0.5354927420612982,0.33462107091476756,,0.1282458090503114,0.578128438007224,-0.38208156894539436,-0.24743633566746584,-0.7284014180704855,-0.6389105054265138,0.6883272937958509,0.33193312299130767,-0.6450007275010766,0.6818950039464563,-0.5993761556936876,0.41924626125789033,,0.025235865714092892,0.28528339736708597,-0.09239256684353438,-0.9796418470143495,-0.13557180003893787,0.14806125398136605,0.19339938564524378,-0.8351239270175715,0.5149414534418555,0.053837956205400356,0.5330931530933132,0.8443418507421465,,-0.009084490935341787,0.632707139023764,1.166697337397314,0.9982009152604525,-0.03986583265566421,-0.0447844633758785,0.002457458368363665,-0.7191031012166331,0.6948990507397378,-0.05990737576928725,-0.6937589244163217,-0.7177114051770015,,0.15077339768054138,0.6703251940584412,-0.3868879512632608,0.9761831043703253,-0.21657391383623675,0.012739175309602946,-0.17753745512159463,-0.7637230165473092,0.6206509534551818,-0.12468760472020576,-0.6081306552390964,-0.7839834866804307,,0.0,0.0,0.045,1.0,0.0,0.0,0.0,1.0,0.0,0.0,0.0,1.0,,-0.007552247689981291,-0.19895363962927348,0.22517962125698898,False,,0.1259551873419703,0.5641545430911813,-0.36731213001489627,-0.25684316991001066,-0.7074567634714155,-0.6584348972291238,0.6752395039799877,0.35605931108793265,-0.6459670109629801,0.6914356067888299,-0.6105134681611343,0.3862513519179269
17:16:33.925914,,-0.061333944487091056,-0.7837801594050455,0.06581134701000001,-2.592440608731065,-0.537773147024986,0.33191940808355214,,0.1301267868385235,0.5837643449203884,-0.36982913109871673,-0.25965210914286097,-0.7063579216734646,-0.6585129222018408,0.6856641053166974,0.34533738328253744,-0.6407861003391248,0.6800334674837087,-0.617900136103492,0.3946566924624106,,0.025235575770592177,0.28528150592460744,-0.09239316264863319,-0.9796435092615009,-0.13559104062663183,0.1480326337571606,0.19339977761399987,-0.8351297004245053,0.5149319427664344,0.053806291213481273,0.5330792149053892,0.8443526691230311,,-0.009084490935341787,0.632707139023764,1.166697337397314,0.9982009152604525,-0.03986583265566421,-0.0447844633758785,0.002457458368363665,-0.7191031012166331,0.6948990507397378,-0.05990737576928725,-0.6937589244163217,-0.7177114051770015,,0.15077339768054138,0.6703251940584412,-0.3868879512632608,0.9761831043703253,-0.21657391383623675,0.012739175309602946,-0.17753745512159463,-0.7637230165473092,0.6206509534551818,-0.12468760472020576,-0.6081306552390964,-0.7839834866804307,,0.0,0.0,0.045,1.0,0.0,0.0,0.0,1.0,0.0,0.0,0.0,1.0,,-0.007552247689981291,-0.19895363962927348,0.22517962125698898,False,,0.12600165208937864,0.564514998020922,-0.367669143466718,-0.25707092724820396,-0.7080596880552785,-0.6576975114099266,0.6749715749249372,0.35550626550574915,-0.646551365499684,0.6916125442811885,-0.6101366841431661,0.38652983747142206
17:16:33.967868,,-0.06131849902134261,-0.7845833236239649,0.06573616219,-2.592230932201727,-0.5384438543672472,0.33143274283600754,,0.1300883916325429,0.5836858087718353,-0.36991733481597056,-0.2600492500275486,-0.7058818164288223,-0.6588666396132499,0.6856571612083876,0.34545563575036226,-0.6407297878294473,0.6798887003354039,-0.6183779305274888,0.3941574434065348,,0.025234602505918916,0.2852787931247761,-0.0923934509403085,-0.9796449023589574,-0.1356137801542663,0.14800258482720485,0.19340221991745113,-0.8351365921821078,0.5149198490353741,0.05377214719783395,0.5330626344360303,0.8443653126194897,,-0.009084490935341787,0.632707139023764,1.166697337397314,0.9982009152604525,-0.03986583265566421,-0.0447844633758785,0.002457458368363665,-0.7191031012166331,0.6948990507397378,-0.05990737576928725,-0.6937589244163217,-0.7177114051770015,,0.15077339768054138,0.6703251940584412,-0.3868879512632608,0.9761831043703253,-0.21657391383623675,0.012739175309602946,-0.17753745512159463,-0.7637230165473092,0.6206509534551818,-0.12468760472020576,-0.6081306552390964,-0.7839834866804307,,0.0,0.0,0.045,1.0,0.0,0.0,0.0,1.0,0.0,0.0,0.0,1.0,,-0.007552247689981291,-0.19895363962927348,0.22517962125698898,False,,0.1260048841926541,0.5645896322123805,-0.36778308810637794,-0.2570111546051233,-0.7080912977458174,-0.6576868407267898,0.6749257399860791,0.3555674547399166,-0.646565565611115,0.6916794864044943,-0.6100643402022624,0.3865242410260879
17:16:34.010134,,-0.06130305355559416,-0.7853787651100099,0.06548079306,-2.593069638319078,-0.5400535519886739,0.3310086679976426,,0.13005259716721027,0.583619003235861,-0.36997650405564825,-0.2586714036971912,-0.7063218292421188,-0.6589374617104358,0.6859046502872163,0.3460200771032686,-0.6401600713538919,0.6801646239137231,-0.6175593734836476,0.3949639282248299,,0.02523408209521432,0.2852761062324827,-0.09239471637083096,-0.9796462460448214,-0.13563508137293248,0.1479741773109276,0.19340431978655512,-0.8351435725324587,0.5149077414306571,0.05374012967780952,0.5330462811035066,0.8443776764597299,,-0.009084490935341787,0.632707139023764,1.166697337397314,0.9982009152604525,-0.03986583265566421,-0.0447844633758785,0.002457458368363665,-0.7191031012166331,0.6948990507397378,-0.05990737576928725,-0.6937589244163217,-0.7177114051770015,,0.15077339768054138,0.6703251940584412,-0.3868879512632608,0.9761831043703253,-0.21657391383623675,0.012739175309602946,-0.17753745512159463,-0.7637230165473092,0.6206509534551818,-0.12468760472020576,-0.6081306552390964,-0.7839834866804307,,0.0,0.0,0.045,1.0,0.0,0.0,0.0,1.0,0.0,0.0,0.0,1.0,,-0.007552247689981291,-0.19895363962927348,0.22517962125698898,False,,0.12604826155174478,0.5648349314228482,-0.3678881489481959,-0.2558204139307693,-0.7085782808699647,-0.6576265929048608,0.6754800943050104,0.35563177531093715,-0.6459509908552549,0.6915797553529053,-0.6094611228524399,0.38765265601754767
17:16:34.057654,,-0.06132622175421683,-0.7860197519385705,0.06515672056,-2.5947470505537793,-0.5416632496101007,0.3303090665830769,,0.12965798402195752,0.582554307977227,-0.3708901044700239,-0.2683916422205686,-0.696676787491518,-0.6652874417547988,0.6834808218904181,0.34896008938140743,-0.641155848547698,0.6788371619866909,-0.6267920785949824,0.3825072518481667,,0.025234153080302198,0.28527366821042327,-0.09239606970111379,-0.9796467096815547,-0.1356392899339224,0.14796725044051742,0.19340404706365552,-0.8351449211367654,0.5149056566454354,0.0537326600505203,0.5330430974061001,0.8443801617270552,,-0.009084490935341787,0.632707139023764,1.166697337397314,0.9982009152604525,-0.03986583265566421,-0.0447844633758785,0.002457458368363665,-0.7191031012166331,0.6948990507397378,-0.05990737576928725,-0.6937589244163217,-0.7177114051770015,,0.15077339768054138,0.6703251940584412,-0.3868879512632608,0.9761831043703253,-0.21657391383623675,0.012739175309602946,-0.17753745512159463,-0.7637230165473092,0.6206509534551818,-0.12468760472020576,-0.6081306552390964,-0.7839834866804307,,0.0,0.0,0.045,1.0,0.0,0.0,0.0,1.0,0.0,0.0,0.0,1.0,,-0.007552247689981291,-0.19895363962927348,0.22517962125698898,False,,0.12610869654213233,0.5651497146969835,-0.3679827353662658,-0.2539837978817809,-0.7097022488835599,-0.657126280362583,0.6760546271340596,0.35560996922111104,-0.6453616745059998,0.6916952880742895,-0.6081646715488971,0.38947831869777766
17:16:34.101615,,-0.06131849902134261,-0.7866144023698859,0.06470690793,-2.5947470505537793,-0.5419315325470051,0.3303072690873996,,0.12957142155151044,0.5824153142080492,-0.3709196732918894,-0.2682867306655128,-0.6958685856083643,-0.6661750083215562,0.6834714637022568,0.3498400996287388,-0.6406860877188212,0.6788880529612413,-0.6271991838763575,0.38174886416507636,,0.025234833716121625,0.2852739678952611,-0.09239643495810473,-0.9796467503394384,-0.1356366857036805,0.14796936841995856,0.19340302068796086,-0.8351446366829964,0.5149065035113659,0.05373561284709254,0.5330442057286141,0.8443792741422544,,-0.009084490935341787,0.632707139023764,1.166697337397314,0.9982009152604525,-0.03986583265566421,-0.0447844633758785,0.002457458368363665,-0.7191031012166331,0.6948990507397378,-0.05990737576928725,-0.6937589244163217,-0.7177114051770015,,0.15077339768054138,0.6703251940584412,-0.3868879512632608,0.9761831043703253,-0.21657391383623675,0.012739175309602946,-0.17753745512159463,-0.7637230165473092,0.6206509534551818,-0.12468760472020576,-0.6081306552390964,-0.7839834866804307,,0.0,0.0,0.045,1.0,0.0,0.0,0.0,1.0,0.0,0.0,0.0,1.0,,-0.007552247689981291,-0.19895363962927348,0.22517962125698898,False,,0.12619337087440924,0.5655782571096564,-0.368102172690493,-0.25393568810648787,-0.7095926228957703,-0.6572632469853962,0.6758580354702683,0.3559319706125107,-0.6453900744403841,0.6919050384237379,-0.608104219544476,0.3892000462179442
17:16:34.173128,,-0.06130305355559416,-0.7868383616232384,0.06433876157,-2.594537374024442,-0.5421998154839096,0.33044323487982286,,0.1294332505982788,0.582150334834781,-0.37088548114102293,-0.2681569832663901,-0.6945728124024787,-0.667578040828771,0.6837362973918393,0.350954422629339,-0.6397934579735916,0.6786726073405107,-0.6280124214601324,0.38079376378482616,,0.025234603269114433,0.285273172427717,-0.09239639017093569,-0.9796464327066945,-0.13563874715205967,0.1479695817399082,0.19340472756686486,-0.8351458428674543,0.5149039060448193,0.05373526034226062,0.5330417913976773,0.8443808207104899,,-0.009084490935341787,0.632707139023764,1.166697337397314,0.9982009152604525,-0.03986583265566421,-0.0447844633758785,0.002457458368363665,-0.7191031012166331,0.6948990507397378,-0.05990737576928725,-0.6937589244163217,-0.7177114051770015,,0.15077339768054138,0.6703251940584412,-0.3868879512632608,0.9761831043703253,-0.21657391383623675,0.012739175309602946,-0.17753745512159463,-0.7637230165473092,0.6206509534551818,-0.12468760472020576,-0.6081306552390964,-0.7839834866804307,,0.0,0.0,0.045,1.0,0.0,0.0,0.0,1.0,0.0,0.0,0.0,1.0,,-0.007552247689981291,-0.19895363962927348,0.22517962125698898,False,,0.12625005562616942,0.5658598338247519,-0.3681594308764159,-0.25400716721377714,-0.7093456582095315,-0.6575021643943987,0.6759396115747857,0.3560410030179366,-0.6452444851946505,0.6917991041539157,-0.6083284814549358,0.3890378620938735
17:16:34.271242,,-0.061310776288468385,-0.7868615298218611,0.06388506007000001,-2.5934889913777535,-0.5427363813577185,0.3307840481087194,,0.12792851026192786,0.5783608204831763,-0.38203131373774685,-0.24233780284058412,-0.7247201171008445,-0.6450218145022204,0.6894155718523896,0.33914599367441833,-0.6400673122899142,0.6826262217362009,-0.5998005892327299,0.4174454390147644,,0.025235058813225995,0.28527372000331064,-0.09239659518832899,-0.9796466118627479,-0.13563641431040407,0.14797053406882196,0.1934033609367733,-0.8351450975625854,0.5149056282167612,0.053736912992431746,0.5330435527271236,0.8443796036450949,,-0.009084490935341787,0.632707139023764,1.166697337397314,0.9982009152604525,-0.03986583265566421,-0.0447844633758785,0.002457458368363665,-0.7191031012166331,0.6948990507397378,-0.05990737576928725,-0.6937589244163217,-0.7177114051770015,,0.15077339768054138,0.6703251940584412,-0.3868879512632608,0.9761831043703253,-0.21657391383623675,0.012739175309602946,-0.17753745512159463,-0.7637230165473092,0.6206509534551818,-0.12468760472020576,-0.6081306552390964,-0.7839834866804307,,0.0,0.0,0.045,1.0,0.0,0.0,0.0,1.0,0.0,0.0,0.0,1.0,,-0.007552247689981291,-0.19895363962927348,0.22517962125698898,False,,0.1263430599720791,0.5663371818236865,-0.36822562003398357,-0.25449080087792975,-0.7086576087270816,-0.6580568561011462,0.6762975365803375,0.35598317615772607,-0.6449012484931507,0.6912713463495193,-0.6091636659272055,0.3886689514615891
17:16:34.345078,,-0.061310776288468385,-0.786892420753358,0.06356746902,-2.592440608731065,-0.5428705228261708,0.3313342025132825,,0.12837822689697737,0.5778101467562189,-0.38205150423045925,-0.24246737974717816,-0.7325279312594014,-0.6360915026026992,0.6894276597081381,0.3311946890328378,-0.6442046103419334,0.6825679979224764,-0.5947376798902724,0.4247211088830395,,0.025235056133325974,0.28527319832468784,-0.09239665291794674,-0.9796463837901244,-0.13563730932949844,0.14797122354388342,0.19340438448470595,-0.8351459310818312,0.5149038918204455,0.05373738681134389,0.5330420190450308,0.8443805416655293,,-0.009084490935341787,0.632707139023764,1.166697337397314,0.9982009152604525,-0.03986583265566421,-0.0447844633758785,0.002457458368363665,-0.7191031012166331,0.6948990507397378,-0.05990737576928725,-0.6937589244163217,-0.7177114051770015,,0.15077339768054138,0.6703251940584412,-0.3868879512632608,0.9761831043703253,-0.21657391383623675,0.012739175309602946,-0.17753745512159463,-0.7637230165473092,0.6206509534551818,-0.12468760472020576,-0.6081306552390964,-0.7839834866804307,,0.0,0.0,0.045,1.0,0.0,0.0,0.0,1.0,0.0,0.0,0.0,1.0,,-0.007552247689981291,-0.19895363962927348,0.22517962125698898,False,,0.12640985304225413,0.5666878589644933,-0.36827576827824926,-0.2553395273654929,-0.7075411461672371,-0.6589288673636324,0.6766066100297256,0.3560701731001809,-0.6445289187402613,0.6906556457662891,-0.6104093366821645,0.38780822665641135
17:16:34.437987,,-0.061279885356971486,-0.7876338031092835,0.06332895166000001,-2.5916019026137143,-0.5436753716368841,0.33174209989055203,,0.128103527327523,0.5782158109463507,-0.38206532158519274,-0.24595826133365445,-0.725560648118443,-0.6427023257960649,0.6886470400686971,0.3358124849196327,-0.6426470486796965,0.6821068742406486,-0.6006594050491901,0.41705933779212456,,0.02523528122770364,0.28527295043334744,-0.09239681315292042,-0.9796462453017274,-0.13563703793719517,0.1479723891910618,0.19340472472880077,-0.8351463919515584,0.5149030165185772,0.05373868695701434,0.5330413660373622,0.8443808711560311,,-0.009084490935341787,0.632707139023764,1.166697337397314,0.9982009152604525,-0.03986583265566421,-0.0447844633758785,0.002457458368363665,-0.7191031012166331,0.6948990507397378,-0.05990737576928725,-0.6937589244163217,-0.7177114051770015,,0.15077339768054138,0.6703251940584412,-0.3868879512632608,0.9761831043703253,-0.21657391383623675,0.012739175309602946,-0.17753745512159463,-0.7637230165473092,0.6206509534551818,-0.12468760472020576,-0.6081306552390964,-0.7839834866804307,,0.0,0.0,0.045,1.0,0.0,0.0,0.0,1.0,0.0,0.0,0.0,1.0,,-0.007552247689981291,-0.19895363962927348,0.22517962125698898,False,,0.12644012398694157,0.5668848041719946,-0.36836207971633517,-0.2559225351813972,-0.7066097395336938,-0.6597016992417498,0.676816907315018,0.35629025955786314,-0.6441864054112947,0.6902336777924277,-0.6113590818335131,0.3870627121033786
17:16:34.535153,,-0.06117948982960657,-0.7900664639646643,0.06308654543,-2.590972873025701,-0.544748503384502,0.3323548447042951,,0.12812146339215197,0.5782407373635181,-0.3820335320987921,-0.2418493719197595,-0.7249709588612762,-0.6449232435800247,0.6895059927313679,0.33924336880633216,-0.6399182937754335,0.6827081128048418,-0.5994422787297317,0.41782602501730143,,0.025234600591739695,0.285272650748426,-0.09239644789582063,-0.9796462046491526,-0.1356396421653281,0.1479702712072413,0.1934057511082951,-0.835146676398351,0.5149021696501155,0.05373573416376665,0.5330402577155142,0.8443817587441308,,-0.009084490935341787,0.632707139023764,1.166697337397314,0.9982009152604525,-0.03986583265566421,-0.0447844633758785,0.002457458368363665,-0.7191031012166331,0.6948990507397378,-0.05990737576928725,-0.6937589244163217,-0.7177114051770015,,0.15077339768054138,0.6703251940584412,-0.3868879512632608,0.9761831043703253,-0.21657391383623675,0.012739175309602946,-0.17753745512159463,-0.7637230165473092,0.6206509534551818,-0.12468760472020576,-0.6081306552390964,-0.7839834866804307,,0.0,0.0,0.045,1.0,0.0,0.0,0.0,1.0,0.0,0.0,0.0,1.0,,-0.007552247689981291,-0.19895363962927348,0.22517962125698898,False,,0.12646665165815943,0.5671037079358111,-0.3686268589516672,-0.2559735519936857,-0.7055268696317768,-0.660839902629466,0.6762303968925548,0.35782191710599964,-0.6439533569732557,0.6907893969932326,-0.6117150577402631,0.3855057679666452
17:16:34.620085,,-0.06097869877487673,-0.7932713981074674,0.06287395387000001,-2.59013416690835,-0.545955776600572,0.3326222825499482,,0.12789644735295838,0.578572317624786,-0.3819984104196464,-0.23850696966330062,-0.7259566505420971,-0.6450591964740362,0.6901315034063197,0.3406209150327982,-0.6385106892201201,0.6832517350348716,-0.5974649226322155,0.4197650923980207,,0.025234375497389838,0.2852728986398123,-0.09239628766088923,-0.9796463431353688,-0.13563991355789135,0.14796910556090564,0.1934054108636155,-0.8351462155307943,0.5149030449533735,0.05373443401732955,0.5330409107222328,0.8443814292523476,,-0.009084490935341787,0.632707139023764,1.166697337397314,0.9982009152604525,-0.03986583265566421,-0.0447844633758785,0.002457458368363665,-0.7191031012166331,0.6948990507397378,-0.05990737576928725,-0.6937589244163217,-0.7177114051770015,,0.15077339768054138,0.6703251940584412,-0.3868879512632608,0.9761831043703253,-0.21657391383623675,0.012739175309602946,-0.17753745512159463,-0.7637230165473092,0.6206509534551818,-0.12468760472020576,-0.6081306552390964,-0.7839834866804307,,0.0,0.0,0.045,1.0,0.0,0.0,0.0,1.0,0.0,0.0,0.0,1.0,,-0.007552247689981291,-0.19895363962927348,0.22517962125698898,False,,0.1264809561239968,0.5672687112315762,-0.36899588767757296,-0.25642454614331106,-0.7043606135888761,-0.6619082853083945,0.6749806150112411,0.35967508988107416,-0.6442321003164062,0.6918436394838386,-0.6119721854330826,0.38320023846810564
17:16:34.716665,,-0.06080879865164379,-0.794908617476803,0.0626756215,-2.590763196496363,-0.5482361815642599,0.3314360158878378,,0.12818423312166263,0.5781475862607703,-0.3820708813544518,-0.24629615758861714,-0.7261272527132931,-0.6419325631436134,0.6885775677451559,0.3350087696244541,-0.6431407757815355,0.682055082786756,-0.6004234648493975,0.4174835648297984,,0.025234147725926775,0.28527262485188903,-0.09239618515104403,-0.9796462535598045,-0.1356410799779797,0.1479686293941745,0.19340609418148408,-0.8351465881840756,0.5149021838700093,0.05373360769431135,0.533040030056889,0.8443820377869538,,-0.009084490935341787,0.632707139023764,1.166697337397314,0.9982009152604525,-0.03986583265566421,-0.0447844633758785,0.002457458368363665,-0.7191031012166331,0.6948990507397378,-0.05990737576928725,-0.6937589244163217,-0.7177114051770015,,0.15077339768054138,0.6703251940584412,-0.3868879512632608,0.9761831043703253,-0.21657391383623675,0.012739175309602946,-0.17753745512159463,-0.7637230165473092,0.6206509534551818,-0.12468760472020576,-0.6081306552390964,-0.7839834866804307,,0.0,0.0,0.045,1.0,0.0,0.0,0.0,1.0,0.0,0.0,0.0,1.0,,-0.007552247689981291,-0.19895363962927348,0.22517962125698898,False,,0.12651342237191093,0.567457750220224,-0.3691997730428771,-0.2552066929176804,-0.705178596326406,-0.6615078919961127,0.6752927462503272,0.3596506897383174,-0.6439185416125583,0.6919893429466325,-0.6110438025656366,0.3844167277765308
17:16:34.805417,,-0.060523057535297485,-0.796561282311887,0.06247858542,-2.5905535199670258,-0.5497117377172345,0.32997961513655827,,0.12784648139898053,0.5786436813750698,-0.3820236163045898,-0.24208758616079873,-0.7218239156770844,-0.6483547141676689,0.6894638878028324,0.3421839223537879,-0.6383962019767823,0.6826662054347215,-0.601564957456116,0.414833043426124,,0.025233925311625514,0.2852733944218903,-0.09239596718658986,-0.9796466201161226,-0.1356404563552577,0.14796677427727967,0.193404730383429,-0.8351452938023616,0.5149047955693449,0.05373183372637804,0.5330422167471665,0.844380770271858,,-0.009084490935341787,0.632707139023764,1.166697337397314,0.9982009152604525,-0.03986583265566421,-0.0447844633758785,0.002457458368363665,-0.7191031012166331,0.6948990507397378,-0.05990737576928725,-0.6937589244163217,-0.7177114051770015,,0.15077339768054138,0.6703251940584412,-0.3868879512632608,0.9761831043703253,-0.21657391383623675,0.012739175309602946,-0.17753745512159463,-0.7637230165473092,0.6206509534551818,-0.12468760472020576,-0.6081306552390964,-0.7839834866804307,,0.0,0.0,0.045,1.0,0.0,0.0,0.0,1.0,0.0,0.0,0.0,1.0,,-0.007552247689981291,-0.19895363962927348,0.22517962125698898,False,,0.12655104484396892,0.5676233081124267,-0.36937236228425396,-0.25494579267177436,-0.7057746209439141,-0.660972637278152,0.6752198727366051,0.3593587508952329,-0.6441579089140963,0.6921566053000751,-0.6105272087192288,0.3849360481339515
17:16:34.852021,,-0.06045355293942946,-0.7984610745989463,0.06227766047,-2.589924490379013,-0.5515897182755656,0.3292782162263152,,0.1292418910934353,0.5823559693269726,-0.3713626542841938,-0.26063143665778715,-0.6943845799293595,-0.6707468295728461,0.6854986227447908,0.35612128191811604,-0.6350348579251323,0.6798256338508374,-0.625306075231422,0.3831832718660647,,0.02523415575868584,0.2852741898893177,-0.09239601197381372,-0.9796469377509475,-0.13563839491121293,0.1479665609589402,0.19340302349982086,-0.8351440876176214,0.5149073930323522,0.05373218623165871,0.5330446310808836,0.8443792237019607,,-0.009084490935341787,0.632707139023764,1.166697337397314,0.9982009152604525,-0.03986583265566421,-0.0447844633758785,0.002457458368363665,-0.7191031012166331,0.6948990507397378,-0.05990737576928725,-0.6937589244163217,-0.7177114051770015,,0.15077339768054138,0.6703251940584412,-0.3868879512632608,0.9761831043703253,-0.21657391383623675,0.012739175309602946,-0.17753745512159463,-0.7637230165473092,0.6206509534551818,-0.12468760472020576,-0.6081306552390964,-0.7839834866804307,,0.0,0.0,0.045,1.0,0.0,0.0,0.0,1.0,0.0,0.0,0.0,1.0,,-0.007552247689981291,-0.19895363962927348,0.22517962125698898,False,,0.12656627634527998,0.5678008637419542,-0.36957928015359226,-0.2546904474630616,-0.7055872092435383,-0.6612710988112068,0.6753928909271479,0.35960809960935,-0.6438372912315826,0.6920818006970962,-0.6105970069098499,0.3849598372513653
17:16:34.897385,,-0.06038404834356144,-0.7993182979479853,0.06221543855000001,-2.589924490379013,-0.5522604256178267,0.3292048408430718,,0.129275422741132,0.5823070527001377,-0.3714195844813292,-0.260382507909715,-0.6943398491976869,-0.6708897997367237,0.685552608233065,0.3563306721972266,-0.6348590972777463,0.679866583176059,-0.6252364559649467,0.38322422054575883,,0.025232167433476362,0.2852763738546331,-0.09239482512700387,-0.9796472800517149,-0.1356327034118691,0.1479695114571313,0.1934000738245412,-0.8351417244110909,0.5149123337624849,0.0537365611137908,0.533049781710165,0.8443756936854627,,-0.009084490935341787,0.632707139023764,1.166697337397314,0.9982009152604525,-0.03986583265566421,-0.0447844633758785,0.002457458368363665,-0.7191031012166331,0.6948990507397378,-0.05990737576928725,-0.6937589244163217,-0.7177114051770015,,0.15081464050825377,0.67030826002629,-0.3868893235323445,0.9762013528042216,-0.21649100722564224,0.012750002887639805,-0.1774796685453977,-0.7637390286874045,0.6206477771752962,-0.12462698759186819,-0.6081400659799082,-0.7839858251994926,,0.0,0.0,0.045,1.0,0.0,0.0,0.0,1.0,0.0,0.0,0.0,1.0,,-0.007552247689981291,-0.19895363962927348,0.22517962125698898,False,,0.12657634885902272,0.5678724109367423,-0.3697104892412422,-0.2546149201822718,-0.7054671009784981,-0.6614283119564581,0.675261792855637,0.3599055307710237,-0.643808605122531,0.6922374979224737,-0.6105605443831282,0.3847376614169869
17:16:34.941533,,-0.06036088014493877,-0.8003145304887601,0.061991180380000004,-2.5888761077323243,-0.5534676988338968,0.3287834622482228,,0.1292703949185937,0.5822852796174285,-0.3714837643766295,-0.26027962752304856,-0.6944804581615481,-0.6707841744765525,0.6855872310273735,0.35625529725741584,-0.6348640105000832,0.6798710643560895,-0.6251232329771125,0.38340093824032434,,0.025230181776557684,0.2852790795016089,-0.09239358057169755,-0.9796478503928906,-0.135626116849921,0.14797177241002643,0.1933961005893947,-0.8351385276233986,0.5149190108523893,0.053740462212096995,0.5330564659476498,0.8443712255957072,,-0.009084490935341787,0.632707139023764,1.166697337397314,0.9982009152604525,-0.03986583265566421,-0.0447844633758785,0.002457458368363665,-0.7191031012166331,0.6948990507397378,-0.05990737576928725,-0.6937589244163217,-0.7177114051770015,,0.15081464050825377,0.67030826002629,-0.3868893235323445,0.9762013528042216,-0.21649100722564224,0.012750002887639805,-0.1774796685453977,-0.7637390286874045,0.6206477771752962,-0.12462698759186819,-0.6081400659799082,-0.7839858251994926,,0.0,0.0,0.045,1.0,0.0,0.0,0.0,1.0,0.0,0.0,0.0,1.0,,-0.007552247689981291,-0.19895363962927348,0.22517962125698898,False,,0.12659651523110205,0.5680348315699641,-0.3698162485673523,-0.2551598245282992,-0.7050705702208729,-0.6616411073649376,0.6754012050117181,0.3597003186733473,-0.6437770522587861,0.6919007704977694,-0.6111392408892639,0.3844244425500122
17:16:34.994494,,-0.06035315741206455,-0.8008087853927105,0.06180581091000001,-2.5867793424389474,-0.5534676988338968,0.32899010718037347,,0.1292875060339842,0.5822836785409281,-0.3714696796650383,-0.2609269862501414,-0.6943091982498983,-0.6707099559958853,0.685362778648947,0.3560601843135099,-0.6352157167366251,0.6798492255559413,-0.6254245616956637,0.3829479705374789,,0.025227965683228375,0.28528098967889864,-0.09239229120484728,-0.9796481031488956,-0.13562159174285893,0.14797424668945058,0.1933938342695869,-0.8351365370686289,0.5149230905221986,0.05374401079827068,0.5330607358824677,0.8443683041168489,,-0.009084490935341787,0.632707139023764,1.166697337397314,0.9982009152604525,-0.03986583265566421,-0.0447844633758785,0.002457458368363665,-0.7191031012166331,0.6948990507397378,-0.05990737576928725,-0.6937589244163217,-0.7177114051770015,,0.15081464050825377,0.67030826002629,-0.3868893235323445,0.9762013528042216,-0.21649100722564224,0.012750002887639805,-0.1774796685453977,-0.7637390286874045,0.6206477771752962,-0.12462698759186819,-0.6081400659799082,-0.7839858251994926,,0.0,0.0,0.045,1.0,0.0,0.0,0.0,1.0,0.0,0.0,0.0,1.0,,-0.007552247689981291,-0.19895363962927348,0.22517962125698898,False,,0.12662663549429712,0.568259063512744,-0.3699125818768152,-0.2566305715744595,-0.7035527721610577,-0.6626871407518462,0.6755083873813914,0.3598157643576955,-0.6436000577199164,0.691251884851505,-0.612818172465682,0.3829160732916071
17:16:35.067985,,-0.06034543467919032,-0.8010095764474404,0.06156858984000001,-2.584472900616233,-0.5534676988338968,0.32940339704467486,,0.12825555053686455,0.5780895911120896,-0.38204653961430873,-0.2427798278673294,-0.7271383374865796,-0.6421275522339495,0.68932099048007,0.3364347837362998,-0.6415981673726049,0.6825646689247001,-0.5983990929551637,0.41955214012819964,,0.025226657976267147,0.2852834733312847,-0.09239146964291205,-0.9796484860192743,-0.13561329596278604,0.1479793150555187,0.19338985839171463,-0.8351338892675568,0.5149288781512684,0.05375133856401368,0.5330669947023554,0.844363886394736,,-0.009084490935341787,0.632707139023764,1.166697337397314,0.9982009152604525,-0.03986583265566421,-0.0447844633758785,0.002457458368363665,-0.7191031012166331,0.6948990507397378,-0.05990737576928725,-0.6937589244163217,-0.7177114051770015,,0.15081464050825377,0.67030826002629,-0.3868893235323445,0.9762013528042216,-0.21649100722564224,0.012750002887639805,-0.1774796685453977,-0.7637390286874045,0.6206477771752962,-0.12462698759186819,-0.6081400659799082,-0.7839858251994926,,0.0,0.0,0.045,1.0,0.0,0.0,0.0,1.0,0.0,0.0,0.0,1.0,,-0.007552247689981291,-0.19895363962927348,0.22517962125698898,False,,0.12666218759966086,0.5684883071819796,-0.36996638142564175,-0.25837448301963767,-0.7019698352972902,-0.6636874089938956,0.6756347456998418,0.35973620179240856,-0.6435118922934382,0.6904783247339812,-0.6146773262880834,0.38132855599848287
