AlexandreBanks6/RCL_Autocam_Public/dataCollection/ParticipantData/Pilot04/optimizationData/Data_9.csv
System Time,q_des,q0,q1,q2,q3,q4,q5,T_des,Tx,Ty,Tz,R00,R01,R02,R10,R11,R12,R20,R21,R22,T_target,Tx,Ty,Tz,R00,R01,R02,R10,R11,R12,R20,R21,R22,worldFrame,Tx,Ty,Tz,R00,R01,R02,R10,R11,R12,R20,R21,R22,ECM_T_PSM_RCM,Tx,Ty,Tz,R00,R01,R02,R10,R11,R12,R20,R21,R22,psm3_T_cam,Tx,Ty,Tz,R00,R01,R02,R10,R11,R12,R20,R21,R22,offset,x,y,z,IK Trigered,ECM_T_PSM3,Tx,Ty,Tz,R00,R01,R02,R10,R11,R12,R20,R21,R22
15:53:19.074437,,-0.14986735415720084,-0.4787244881403031,0.027530607020000004,-3.228599198741583,-0.3176469972948783,0.5777174447328728,,0.12927653418243087,0.4962129058120572,-0.4074859006187605,0.5320783810169621,-0.3471909078402178,-0.7722377030211967,0.6760798961134971,0.7232807889851759,0.14064449635924098,0.5097142047515759,-0.5969282819552671,0.6195708641280686,,0.013896897807285029,0.2856869732924782,-0.07745508521506793,0.13429798544713312,0.7722377030211967,0.6209774401195166,-0.9170178971119396,-0.14064449635924098,0.3732255377385796,0.37555589128815176,-0.6195708641280686,0.6892675219697795,,0.030391278827471595,0.7540910713450895,1.2033428329483908,0.992106297613451,-0.10820197047696511,-0.06338318247479297,-0.04398874283783835,-0.7736207938306751,0.6321201292921647,-0.11743119150923001,-0.624342214604858,-0.7722737301779884,,0.0,0.0,0.0,1.0,0.0,0.0,0.0,1.0,0.0,0.0,0.0,1.0,,0.0,0.0,0.045,1.0,0.0,0.0,0.0,1.0,0.0,0.0,0.0,1.0,,-0.004532675332162834,-0.1840998204509654,0.22948081799119216,True,,0.1204266512571284,0.5444389148163531,-0.41200241409141025,0.1577569119392789,-0.7706791676759871,-0.6173867323206993,0.677957232489281,0.5391106523750356,-0.4997336244553081,0.7179740577840247,-0.339725367033449,0.6075359473670102
15:53:26.621881,,0.011414199188103826,-0.6390406998763297,0.07407908463000001,-3.1577285318254478,-0.5943808467118267,0.7288494593773169,,0.1336789181937745,0.47206181567924865,-0.40536809422646103,0.5321566873680069,-0.34721288635127945,-0.772173861019086,0.6760447786795432,0.7233092145014943,0.14066711569289675,0.5096790336178612,-0.5968810532835205,0.6196452944399065,,0.013864817101946283,0.2856605430615731,-0.07747106061784975,0.13421165901645432,0.7721738542069803,0.621075479969399,-0.9170792968342547,-0.14066711445193364,0.3730660914446484,0.37543678064099045,-0.6196452889734053,0.6892654945309717,,0.030391278827471595,0.7540910713450895,1.2033428329483908,0.992106297613451,-0.10820197047696511,-0.06338318247479297,-0.04398874283783835,-0.7736207938306751,0.6321201292921647,-0.11743119150923001,-0.624342214604858,-0.7722737301779884,,0.13044454677121256,0.6078453069522213,-0.44675695999754295,0.9947083720837134,-0.09479354541833812,-0.03961613627791575,-0.05182787475433221,-0.795927983948235,0.6031687291020212,-0.08870809379655376,-0.5979237644676115,-0.7966291772084814,,0.0,0.0,0.045,1.0,0.0,0.0,0.0,1.0,0.0,0.0,0.0,1.0,,-0.004532675332162834,-0.1840998204509654,0.22948081799119216,True,,0.12927339549548156,0.49616667077835774,-0.40773928920569463,0.11033121677874341,-0.7773048104707054,-0.6193740826214983,0.7675360070937296,0.46255237748450045,-0.4437722117235941,0.6314392293948295,-0.4264299821805883,0.6476433971551991
15:53:26.709384,,0.01142192192097805,-0.6390406998763297,0.07407908463000001,-3.1577285318254478,-0.5943808467118267,0.7288494593773169,,0.13367237111481522,0.47205664245262025,-0.40537291703464184,0.5321836980273947,-0.34722134134764066,-0.7721514434789537,0.6760326635961502,0.7233191800383416,0.14067409690399812,0.5096669003427445,-0.5968640581417232,0.6196716443356213,,0.013854442177684882,0.285651312433001,-0.07747654703856865,0.13418282465658776,0.7721514373098712,0.6211095808700225,-0.917100543836822,-0.14067409578008633,0.3730112267636405,0.37539518654671156,-0.6196716393847719,0.6892644610603424,,0.030391278827471595,0.7540910713450895,1.2033428329483908,0.992106297613451,-0.10820197047696511,-0.06338318247479297,-0.04398874283783835,-0.7736207938306751,0.6321201292921647,-0.11743119150923001,-0.624342214604858,-0.7722737301779884,,0.13044454677121256,0.6078453069522213,-0.44675695999754295,0.9947083720837134,-0.09479354541833812,-0.03961613627791575,-0.05182787475433221,-0.795927983948235,0.6031687291020212,-0.08870809379655376,-0.5979237644676115,-0.7966291772084814,,0.0,0.0,0.045,1.0,0.0,0.0,0.0,1.0,0.0,0.0,0.0,1.0,,-0.004532675332162834,-0.1840998204509654,0.22948081799119216,True,,0.1292741509805449,0.49616663704139385,-0.40773936416750156,0.11033155379679521,-0.7773095674610969,-0.6193680525908868,0.7675360539328714,0.4625491005826793,-0.4437755462655767,0.6314391135730676,-0.4264248654611936,0.6476468790679546
15:53:26.782934,,0.012263699804268521,-0.6396430730405193,0.07441482374000001,-3.186034863286034,-0.6028317592243171,0.7481485802415949,,0.13379368549019877,0.4719099172806935,-0.405348008124331,0.5321965200816425,-0.34722472252504344,-0.7721410856057308,0.6760269121960656,0.7233237957420928,0.1406780028998999,0.5096611403664625,-0.5968564974771221,0.6196836639929274,,0.013849015669786111,0.28564701249517777,-0.07747916938217121,0.13416844865647715,0.7721410804319947,0.6211255637094757,-0.9171105801857685,-0.14067800195728608,0.37298508023192645,0.3753758086177438,-0.6196836598407331,0.6892642095959699,,0.030391278827471595,0.7540910713450895,1.2033428329483908,0.992106297613451,-0.10820197047696511,-0.06338318247479297,-0.04398874283783835,-0.7736207938306751,0.6321201292921647,-0.11743119150923001,-0.624342214604858,-0.7722737301779884,,0.13044454677121256,0.6078453069522213,-0.44675695999754295,0.9947083720837134,-0.09479354541833812,-0.03961613627791575,-0.05182787475433221,-0.795927983948235,0.6031687291020212,-0.08870809379655376,-0.5979237644676115,-0.7966291772084814,,0.0,0.0,0.045,1.0,0.0,0.0,0.0,1.0,0.0,0.0,0.0,1.0,,-0.004532675332162834,-0.1840998204509654,0.22948081799119216,True,,0.12952381170956032,0.49587809206472827,-0.4076850609563949,0.13300900457194464,-0.7743053442765503,-0.6186758751782337,0.7713010449609051,0.47287638763183193,-0.42600776995553197,0.6224173059491489,-0.42052247959537487,0.6601193387638037
15:53:26.845614,,0.014958933577372876,-0.6413729652043455,0.07566963246000001,-3.2225185793907904,-0.6076608520885973,0.7945424534092523,,0.13401751064440698,0.47128031638722656,-0.4052856804362526,0.532204213201559,-0.3472267512530532,-0.7721348707737269,0.6760234613052593,0.7233265652072233,0.1406803462832576,0.5096576843483929,-0.596851960941548,0.6196908757637656,,0.013845759761112415,0.28564443253013533,-0.07748074279424592,0.13415982287560535,0.7721348663722201,0.6211351532939223,-0.9171166018807073,-0.14068034548131803,0.37296939224173015,0.37536418193521714,-0.6196908722312562,0.6892640585381588,,0.030391278827471595,0.7540910713450895,1.2033428329483908,0.992106297613451,-0.10820197047696511,-0.06338318247479297,-0.04398874283783835,-0.7736207938306751,0.6321201292921647,-0.11743119150923001,-0.624342214604858,-0.7722737301779884,,0.13044454677121256,0.6078453069522213,-0.44675695999754295,0.9947083720837134,-0.09479354541833812,-0.03961613627791575,-0.05182787475433221,-0.795927983948235,0.6031687291020212,-0.08870809379655376,-0.5979237644676115,-0.7966291772084814,,0.0,0.0,0.045,1.0,0.0,0.0,0.0,1.0,0.0,0.0,0.0,1.0,,-0.004532675332162834,-0.1840998204509654,0.22948081799119216,True,,0.129975681225611,0.4946218334672573,-0.4075577143436835,0.16233034810477592,-0.7571568828913411,-0.6327419005996446,0.7715215305404173,0.49715600940659543,-0.3969766116832089,0.6151450121692887,-0.42373264802370053,0.6648663452168928
15:53:26.931180,,0.018202481384547168,-0.6437901805939779,0.07753369748000001,-3.2562765006141574,-0.6087339838362151,0.8448877452272537,,0.13424534137985794,0.4703231034482076,-0.4052030045931012,0.5322355310876266,-0.34723554340605606,-0.7721093295922365,0.6760094123059086,0.7233379371792216,0.1406893852112821,0.5096436146187766,-0.5968330637898754,0.619720646780062,,0.013832927322765799,0.2856338603448795,-0.07748713319965583,0.1341252848737572,0.7721093295903947,0.621174364500205,-0.9171411572035326,-0.14068938521094648,0.3729056109091949,0.3753165406908246,-0.6197206467785836,0.6892632401596908,,0.030391278827471595,0.7540910713450895,1.2033428329483908,0.992106297613451,-0.10820197047696511,-0.06338318247479297,-0.04398874283783835,-0.7736207938306751,0.6321201292921647,-0.11743119150923001,-0.624342214604858,-0.7722737301779884,,0.13044454677121256,0.6078453069522213,-0.44675695999754295,0.9947083720837134,-0.09479354541833812,-0.03961613627791575,-0.05182787475433221,-0.795927983948235,0.6031687291020212,-0.08870809379655376,-0.5979237644676115,-0.7966291772084814,,0.0,0.0,0.045,1.0,0.0,0.0,0.0,1.0,0.0,0.0,0.0,1.0,,-0.004532675332162834,-0.1840998204509654,0.22948081799119216,True,,0.13044813401799057,0.492719380808319,-0.4073813577444448,0.18953689975778126,-0.7359722392262202,-0.6499389407617858,0.7689398549548372,0.5228860590398983,-0.36786093666460173,0.6105794486323978,-0.430040733361466,0.6650245894383828
15:53:27.007856,,0.022426816266747977,-0.6477982789557003,0.08170775128,-3.307856926831226,-0.6087339838362151,0.9230684112242529,,0.13456684797861473,0.46821876840732807,-0.4049227379785243,0.532212397379613,-0.3472234740330041,-0.7721307034148406,0.6760197900578835,0.7233285211488946,0.1406879310482896,0.5096540076616095,-0.5968514970853344,0.6196943463526636,,0.013832140417314136,0.2856356155812475,-0.07748749577492303,0.13414761602814224,0.7721307005505442,0.6211429714341867,-0.9171208548990988,-0.1406879305263936,0.37295607823729826,0.37535815856846805,-0.6196943440538453,0.6892642202556014,,0.030391278827471595,0.7540910713450895,1.2033428329483908,0.992106297613451,-0.10820197047696511,-0.06338318247479297,-0.04398874283783835,-0.7736207938306751,0.6321201292921647,-0.11743119150923001,-0.624342214604858,-0.7722737301779884,,0.13044454677121256,0.6078453069522213,-0.44675695999754295,0.9947083720837134,-0.09479354541833812,-0.03961613627791575,-0.05182787475433221,-0.795927983948235,0.6031687291020212,-0.08870809379655376,-0.5979237644676115,-0.7966291772084814,,0.0,0.0,0.045,1.0,0.0,0.0,0.0,1.0,0.0,0.0,0.0,1.0,,-0.004532675332162834,-0.1840998204509654,0.22948081799119216,True,,0.13108862117845224,0.4885087300949281,-0.40682453850627054,0.2308351693236955,-0.7006076181204199,-0.675177080501799,0.7634505906574394,0.5606124557397375,-0.3207130650507834,0.6032066977646285,-0.441432486232145,0.6642883710187913
15:53:27.068328,,0.02597927338889125,-0.6507097492492829,0.08633161771,-3.3550341459322035,-0.6088681253046674,0.993533434339789,,0.13485541717429483,0.46591850705411475,-0.40453235422066236,0.5321876238517785,-0.34720937324871126,-0.7721541194264491,0.6760309026693205,0.723318224114977,0.1406874738534298,0.5096651367860092,-0.5968721787714628,0.6196652729930132,,0.013830779805744101,0.2856381277202859,-0.07748756829432767,0.13417004583706132,0.7721541149734005,0.6211090161925144,-0.9170991430339036,-0.14068747304207863,0.3730096315665609,0.37540318207557594,-0.6196652694193749,0.6892658364004798,,0.030391278827471595,0.7540910713450895,1.2033428329483908,0.992106297613451,-0.10820197047696511,-0.06338318247479297,-0.04398874283783835,-0.7736207938306751,0.6321201292921647,-0.11743119150923001,-0.624342214604858,-0.7722737301779884,,0.13044454677121256,0.6078453069522213,-0.44675695999754295,0.9947083720837134,-0.09479354541833812,-0.03961613627791575,-0.05182787475433221,-0.795927983948235,0.6031687291020212,-0.08870809379655376,-0.5979237644676115,-0.7966291772084814,,0.0,0.0,0.045,1.0,0.0,0.0,0.0,1.0,0.0,0.0,0.0,1.0,,-0.004532675332162834,-0.1840998204509654,0.22948081799119216,True,,0.13166349069958316,0.4839056243842599,-0.4060482048418878,0.26798313101488513,-0.667556701312499,-0.6946604148965407,0.7586772969623541,0.590625126591026,-0.2749012893989964,0.5937960934237905,-0.4533541776272828,0.6647376844007983
15:53:27.124462,,0.0287671799564863,-0.6528026098581978,0.08935586228,-3.3904694793902714,-0.6084657008993107,1.0469882863662754,,0.1350851260809975,0.4644041343666179,-0.4043094750018175,0.5321628783067021,-0.34719544741547453,-0.7721774357272393,0.6760420019422729,0.7233079684162574,0.14068686660605623,0.5096762526959737,-0.5968927073767236,0.6196363557105692,,0.0138294005707774,0.2856401739238361,-0.07748762151433672,0.1341912856171913,0.7721774312222288,0.6210754397874028,-0.917078269445552,-0.14068686578526585,0.3730611770714561,0.37544658063009057,-0.6196363520955085,0.6892681949623196,,0.030391278827471595,0.7540910713450895,1.2033428329483908,0.992106297613451,-0.10820197047696511,-0.06338318247479297,-0.04398874283783835,-0.7736207938306751,0.6321201292921647,-0.11743119150923001,-0.624342214604858,-0.7722737301779884,,0.13044454677121256,0.6078453069522213,-0.44675695999754295,0.9947083720837134,-0.09479354541833812,-0.03961613627791575,-0.05182787475433221,-0.795927983948235,0.6031687291020212,-0.08870809379655376,-0.5979237644676115,-0.7966291772084814,,0.0,0.0,0.045,1.0,0.0,0.0,0.0,1.0,0.0,0.0,0.0,1.0,,-0.004532675332162834,-0.1840998204509654,0.22948081799119216,True,,0.13212067372133263,0.480874738682373,-0.40560687536296797,0.2955719147411992,-0.641744505323535,-0.7076731117566024,0.7546666080683538,0.6110571139854102,-0.23892993557615838,0.58576066262837,-0.46343628832329575,0.6649144702759144
15:53:27.180032,,0.031122613483124773,-0.6545479474877726,0.09155955528000001,-3.419404840438871,-0.6075267106201451,1.091009948149236,,0.13527906347289959,0.4632913267022415,-0.4041754716709115,0.5321386487699,-0.3471820234886276,-0.7722001690311179,0.6760528690054115,0.7232979658171341,0.14068607235383204,0.5096871361873838,-0.5969126361630636,0.6196082052345381,,0.013828231140487436,0.28564243373081305,-0.07748779086703367,0.13421367844757365,0.7722001659973572,0.6210423369576177,-0.9170570252748333,-0.14068607180111542,0.3731137008175914,0.37549046999118235,-0.619608202800269,0.6892695946514511,,0.030391278827471595,0.7540910713450895,1.2033428329483908,0.992106297613451,-0.10820197047696511,-0.06338318247479297,-0.04398874283783835,-0.7736207938306751,0.6321201292921647,-0.11743119150923001,-0.624342214604858,-0.7722737301779884,,0.13044454677121256,0.6078453069522213,-0.44675695999754295,0.9947083720837134,-0.09479354541833812,-0.03961613627791575,-0.05182787475433221,-0.795927983948235,0.6031687291020212,-0.08870809379655376,-0.5979237644676115,-0.7966291772084814,,0.0,0.0,0.045,1.0,0.0,0.0,0.0,1.0,0.0,0.0,0.0,1.0,,-0.004532675332162834,-0.1840998204509654,0.22948081799119216,True,,0.13250619427332558,0.47864674043754857,-0.40534306267224374,0.31795934233949774,-0.619997752158983,-0.7172897907657979,0.7508796017926824,0.6265823622059896,-0.20874474121286157,0.5788624018112566,-0.47222593182730876,0.6647713810620409
15:53:27.237508,,0.033740619927486885,-0.65666397629531,0.09373861877,-3.4523240555448873,-0.606319437404075,1.1399240041554395,,0.135497151619901,0.4621789435897304,-0.4040834231232495,0.5321144180902099,-0.34716859946311784,-0.7722229015040506,0.6760637358277324,0.7232879635393998,0.14068527605146827,0.5096980195754809,-0.5969325634825471,0.6195800541455379,,0.013827061687559213,0.285644693525153,-0.07748796028083221,0.13423606953063177,0.7722229014948396,0.6210092334418248,-0.9170357802232103,-0.1406852760497902,0.3731662241807882,0.3755343598174731,-0.6195800541381475,0.6892709924890174,,0.030391278827471595,0.7540910713450895,1.2033428329483908,0.992106297613451,-0.10820197047696511,-0.06338318247479297,-0.04398874283783835,-0.7736207938306751,0.6321201292921647,-0.11743119150923001,-0.624342214604858,-0.7722737301779884,,0.13044454677121256,0.6078453069522213,-0.44675695999754295,0.9947083720837134,-0.09479354541833812,-0.03961613627791575,-0.05182787475433221,-0.795927983948235,0.6031687291020212,-0.08870809379655376,-0.5979237644676115,-0.7966291772084814,,0.0,0.0,0.045,1.0,0.0,0.0,0.0,1.0,0.0,0.0,0.0,1.0,,-0.004532675332162834,-0.1840998204509654,0.22948081799119216,True,,0.13294001648695208,0.4764195909913199,-0.4051631595819163,0.34316204874906403,-0.5957565665580141,-0.7261638394338787,0.7462839414599546,0.6423868233572381,-0.17435437446761173,0.5703508455480193,-0.48209260788774144,0.6650463370342372
15:53:27.285783,,0.03572536227616258,-0.6583398093290168,0.09528638903000002,-3.476017503360045,-0.6041731739088394,1.1787876313651817,,0.13565615124983138,0.4613786523293807,-0.40404119059738386,0.5321138425776428,-0.34716774722963634,-0.7722236812095022,0.6760639939208171,0.7232876288047696,0.14068575671263694,0.5096982780636883,-0.5969334647190366,0.6195789732047384,,0.013826889052971086,0.28564541174747593,-0.07748788296340309,0.13423729085439318,0.7722236812048967,0.6210079998828544,-0.9170344710108064,-0.1406857567117979,0.3731692602887216,0.375537120282504,-0.6195789732010433,0.6892704601570687,,0.030391278827471595,0.7540910713450895,1.2033428329483908,0.992106297613451,-0.10820197047696511,-0.06338318247479297,-0.04398874283783835,-0.7736207938306751,0.6321201292921647,-0.11743119150923001,-0.624342214604858,-0.7722737301779884,,0.13044454677121256,0.6078453069522213,-0.44675695999754295,0.9947083720837134,-0.09479354541833812,-0.03961613627791575,-0.05182787475433221,-0.795927983948235,0.6031687291020212,-0.08870809379655376,-0.5979237644676115,-0.7966291772084814,,0.0,0.0,0.045,1.0,0.0,0.0,0.0,1.0,0.0,0.0,0.0,1.0,,-0.004532675332162834,-0.1840998204509654,0.22948081799119216,True,,0.133258067527056,0.4748183647507788,-0.4050789393934379,0.361417082692214,-0.5751742091711761,-0.7338612412728728,0.7419889398989102,0.6540518416999301,-0.14720258637884434,0.5646504276151226,-0.4913153951111666,0.6631584102767734
15:53:27.336891,,0.03752475903585689,-0.6598225740408679,0.096573605,-3.497404509352488,-0.6032341836296737,1.2077930947451943,,0.13580105543265505,0.4607212212431447,-0.4040170720508466,0.5321143597396564,-0.3471682493464821,-0.7722230991135621,0.6760637619955111,0.7232878815577711,0.1406855717838494,0.5096980457833172,-0.5969328664409178,0.6195797407011441,,0.013827098877368988,0.2856456253619294,-0.077487999037362,0.13423844566469106,0.7722230991071145,0.6210084740921274,-0.9170341011720781,-0.14068557178267477,0.37317023884951217,0.3755376106015852,-0.619579740695971,0.6892695031162097,,0.030391278827471595,0.7540910713450895,1.2033428329483908,0.992106297613451,-0.10820197047696511,-0.06338318247479297,-0.04398874283783835,-0.7736207938306751,0.6321201292921647,-0.11743119150923001,-0.624342214604858,-0.7722737301779884,,0.13044454677121256,0.6078453069522213,-0.44675695999754295,0.9947083720837134,-0.09479354541833812,-0.03961613627791575,-0.05182787475433221,-0.795927983948235,0.6031687291020212,-0.08870809379655376,-0.5979237644676115,-0.7966291772084814,,0.0,0.0,0.045,1.0,0.0,0.0,0.0,1.0,0.0,0.0,0.0,1.0,,-0.004532675332162834,-0.1840998204509654,0.22948081799119216,True,,0.13354775629317617,0.47350326029989126,-0.4050304672644617,0.3773374912128493,-0.56150675240766,-0.7364282617647123,0.7387681424978905,0.6620302963762714,-0.12624388424855648,0.5584246138516903,-0.4964131884635511,0.6646321516177511
15:53:27.385683,,0.03920059206956361,-0.6609500930405047,0.09767934037,-3.5143883082288396,-0.6013562030713426,1.233085240581366,,0.1359321302323782,0.4601405956243648,-0.4039909725456924,0.5321164867518903,-0.3471706079102309,-0.7722205731072347,0.6760628081168109,0.7232889745552324,0.14068453635013542,0.5096970904449403,-0.5969301703634028,0.6195831241261187,,0.013827900987330999,0.2856455479833781,-0.07748842457522882,0.13424068876472595,0.7722205730971026,0.6210111302861753,-0.9170343008797497,-0.14068453634828954,0.373170138430467,0.3755363210978654,-0.6195831241179893,0.6892671643261643,,0.030391278827471595,0.7540910713450895,1.2033428329483908,0.992106297613451,-0.10820197047696511,-0.06338318247479297,-0.04398874283783835,-0.7736207938306751,0.6321201292921647,-0.11743119150923001,-0.624342214604858,-0.7722737301779884,,0.13044454677121256,0.6078453069522213,-0.44675695999754295,0.9947083720837134,-0.09479354541833812,-0.03961613627791575,-0.05182787475433221,-0.795927983948235,0.6031687291020212,-0.08870809379655376,-0.5979237644676115,-0.7966291772084814,,0.0,0.0,0.045,1.0,0.0,0.0,0.0,1.0,0.0,0.0,0.0,1.0,,-0.004532675332162834,-0.1840998204509654,0.22948081799119216,True,,0.13380949531364117,0.47234192594865715,-0.40497731828541544,0.39044565937894005,-0.5484757690465545,-0.7394095738093573,0.7354557187877673,0.6689356882269402,-0.10784215650068713,0.553766261860104,-0.5016964976807599,0.6645626768336799
15:53:27.410990,,0.04065246584991782,-0.6615756344033168,0.09858415079,-3.5286463122238025,-0.5996123639814636,1.25252154792543,,0.13604587244335314,0.4596769133385987,-0.4039531421086703,0.5321170330889927,-0.3471712850802026,-0.7722198922019095,0.6760625631058466,0.7232892682996522,0.14068420355287595,0.5096968450592185,-0.5969294206003878,0.6195840483407916,,0.013828092217378012,0.28564529567951913,-0.07748852126987935,0.13424065550592928,0.7722198921917773,0.621011984172944,-0.9170347705729063,-0.14068420355103006,0.3731691096611133,0.37553518602574926,-0.6195840483326622,0.6892669519729447,,0.030391278827471595,0.7540910713450895,1.2033428329483908,0.992106297613451,-0.10820197047696511,-0.06338318247479297,-0.04398874283783835,-0.7736207938306751,0.6321201292921647,-0.11743119150923001,-0.624342214604858,-0.7722737301779884,,0.13044454677121256,0.6078453069522213,-0.44675695999754295,0.9947083720837134,-0.09479354541833812,-0.03961613627791575,-0.05182787475433221,-0.795927983948235,0.6031687291020212,-0.08870809379655376,-0.5979237644676115,-0.7966291772084814,,0.0,0.0,0.045,1.0,0.0,0.0,0.0,1.0,0.0,0.0,0.0,1.0,,-0.004532675332162834,-0.1840998204509654,0.22948081799119216,True,,0.1340368940458695,0.47141476209740873,-0.4049014174634464,0.4012753496190763,-0.5390063172171633,-0.7405742932266006,0.7327625876959611,0.6740262593483756,-0.09352856131661455,0.5495790060229806,-0.5051344293441375,0.6654337866609762
15:53:27.461062,,0.041417016404466045,-0.6618150391224178,0.09905470406000001,-3.5336785489279063,-0.5990757981076547,1.2609975851349615,,0.13610094799370642,0.459439801879464,-0.4039235085905661,0.5321165159240582,-0.347170782970471,-0.7722204743028455,0.6760627950342366,0.723289015545404,0.1406843884795185,0.5096970773423537,-0.5969300188824738,0.6195832808474032,,0.013827882391729183,0.2856450820653958,-0.07748840519776984,0.1342395006943674,0.7722204742881078,0.6210115099620996,-0.9170351404037076,-0.14068438847683357,0.37316813109573277,0.37553469570721354,-0.6195832808355786,0.6892679090099447,,0.030391278827471595,0.7540910713450895,1.2033428329483908,0.992106297613451,-0.10820197047696511,-0.06338318247479297,-0.04398874283783835,-0.7736207938306751,0.6321201292921647,-0.11743119150923001,-0.624342214604858,-0.7722737301779884,,0.13044454677121256,0.6078453069522213,-0.44675695999754295,0.9947083720837134,-0.09479354541833812,-0.03961613627791575,-0.05182787475433221,-0.795927983948235,0.6031687291020212,-0.08870809379655376,-0.5979237644676115,-0.7966291772084814,,0.0,0.0,0.045,1.0,0.0,0.0,0.0,1.0,0.0,0.0,0.0,1.0,,-0.004532675332162834,-0.1840998204509654,0.22948081799119216,True,,0.13414716474657976,0.47094078145689217,-0.40484238546082263,0.4050612285198014,-0.5346989256619495,-0.7416349911148924,0.7318969896926483,0.6757773089096994,-0.08747471201212656,0.5479527330243633,-0.5073678031356759,0.665075721036642
15:53:27.522447,,0.042197012424762724,-0.6620235529100219,0.09983118177000001,-3.544581728453466,-0.5976002419546802,1.2748526818152806,,0.13617158948048844,0.4590497668183227,-0.4038642362316234,0.5321165159240582,-0.347170782970471,-0.7722204743028455,0.6760627950342366,0.723289015545404,0.1406843884795185,0.5096970773423537,-0.5969300188824738,0.6195832808474032,,0.013827882391729183,0.2856450820653958,-0.07748840519776984,0.1342395006943674,0.7722204742881078,0.6210115099620996,-0.9170351404037076,-0.14068438847683357,0.37316813109573277,0.3755346957072136,-0.6195832808355786,0.6892679090099447,,0.030391278827471595,0.7540910713450895,1.2033428329483908,0.992106297613451,-0.10820197047696511,-0.06338318247479297,-0.04398874283783835,-0.7736207938306751,0.6321201292921647,-0.11743119150923001,-0.624342214604858,-0.7722737301779884,,0.13044454677121256,0.6078453069522213,-0.44675695999754295,0.9947083720837134,-0.09479354541833812,-0.03961613627791575,-0.05182787475433221,-0.795927983948235,0.6031687291020212,-0.08870809379655376,-0.5979237644676115,-0.7966291772084814,,0.0,0.0,0.045,1.0,0.0,0.0,0.0,1.0,0.0,0.0,0.0,1.0,,-0.004532675332162834,-0.1840998204509654,0.22948081799119216,True,,0.1342884477201438,0.47016071133460957,-0.4047238407429372,0.4133032210672223,-0.5279128773242937,-0.7419490827615086,0.7298192518633516,0.6793126735410395,-0.07679942171750248,0.5445588187377711,-0.5097472761297603,0.6660430972641433
15:53:27.580642,,0.042173844226140046,-0.6621007802387641,0.10049228967000001,-3.5521300835096223,-0.5947832711171833,1.2896122273466386,,0.13618473848180415,0.45871478442536917,-0.403803532555303,0.5321159987600721,-0.34717028085905594,-0.7722210564027734,0.676063026961858,0.7232887627914694,0.14068457340716334,0.509697309624782,-0.5969306171640301,0.6195825133534913,,0.013827672567364849,0.28564486845086945,-0.0774882891238156,0.13423834588402017,0.7722210563889567,0.6210110357538438,-0.9170355102398053,-0.14068457340464618,0.3731671525327334,0.3755342053898124,-0.6195825133424057,0.6892688660506621,,0.030391278827471595,0.7540910713450895,1.2033428329483908,0.992106297613451,-0.10820197047696511,-0.06338318247479297,-0.04398874283783835,-0.7736207938306751,0.6321201292921647,-0.11743119150923001,-0.624342214604858,-0.7722737301779884,,0.13038898187117376,0.6078368031503771,-0.4467577075583673,0.9947004240876782,-0.0948709536253383,-0.039630398408449036,-0.05187981086493344,-0.7959148226484885,0.6031816312795377,-0.08876683808952657,-0.5979290068617213,-0.7966186987567789,,0.0,0.0,0.045,1.0,0.0,0.0,0.0,1.0,0.0,0.0,0.0,1.0,,-0.004532675332162834,-0.1840998204509654,0.22948081799119216,True,,0.13431486532165074,0.46949098882701384,-0.40460266842580705,0.4195079952072908,-0.5181979340624776,-0.7453079518497976,0.7270879585040428,0.6833756391335741,-0.06588502437734153,0.5434667814646847,-0.5142651426765766,0.6634570223249259
15:53:27.630994,,0.042197012424762724,-0.6621316711702611,0.10088247296000001,-3.556113937567038,-0.5941125637749223,1.2937496197288452,,0.1361806059871581,0.4585293989920375,-0.40376034984623205,0.5321122528094595,-0.34717343419472035,-0.7722222199596993,0.6760647068625091,0.7232881690802211,0.14067955289768042,0.509698992097249,-0.5969295025863823,0.6195822030990099,,0.013832808607439868,0.28564810766122706,-0.07748711672494778,0.13424419094868728,0.7722222199143872,0.6210083253465073,-0.9170346170470364,-0.14067955288942569,0.37317124007467656,0.37553429699106444,-0.6195822030626543,0.6892690949941828,,0.030391278827471595,0.7540910713450895,1.2033428329483908,0.992106297613451,-0.10820197047696511,-0.06338318247479297,-0.04398874283783835,-0.7736207938306751,0.6321201292921647,-0.11743119150923001,-0.624342214604858,-0.7722737301779884,,0.13038898187117376,0.6078368031503771,-0.4467577075583673,0.9947004240876782,-0.0948709536253383,-0.039630398408449036,-0.05187981086493344,-0.7959148226484885,0.6031816312795377,-0.08876683808952657,-0.5979290068617213,-0.7966186987567789,,0.0,0.0,0.045,1.0,0.0,0.0,0.0,1.0,0.0,0.0,0.0,1.0,,-0.004532675332162834,-0.1840998204509654,0.22948081799119216,True,,0.13430128394096005,0.46911620057102293,-0.40451752349597764,0.42255912811871743,-0.5161362095863643,-0.7450148967620513,0.7261985694429794,0.6846449080485627,-0.06242585699968739,0.542290900700463,-0.5146501365364591,0.6641203324552597
15:53:27.679840,,0.042359189815121434,-0.662201175766129,0.10126098964000001,-3.558839732448428,-0.5941125637749223,1.2979514000159087,,0.13620025594516422,0.4583460892898559,-0.4037212612364208,0.5321084776518712,-0.3471764124885622,-0.7722234823045592,0.6760663998430385,0.7232875343496682,0.14067468022942262,0.5097006876729526,-0.5969285394969397,0.6195817361089414,,0.01383796322521349,0.2856518127780063,-0.07748596370497925,0.13425122405586187,0.7722234822367627,0.62100523520019,-0.917032884296442,-0.14067468021707225,0.3731773349081977,0.3755360139625273,-0.619581736054546,0.6892685792847253,,0.030391278827471595,0.7540910713450895,1.2033428329483908,0.992106297613451,-0.10820197047696511,-0.06338318247479297,-0.04398874283783835,-0.7736207938306751,0.6321201292921647,-0.11743119150923001,-0.624342214604858,-0.7722737301779884,,0.13038898187117376,0.6078368031503771,-0.4467577075583673,0.9947004240876782,-0.0948709536253383,-0.039630398408449036,-0.05187981086493344,-0.7959148226484885,0.6031816312795377,-0.08876683808952657,-0.5979290068617213,-0.7966186987567789,,0.0,0.0,0.045,1.0,0.0,0.0,0.0,1.0,0.0,0.0,0.0,1.0,,-0.004532675332162834,-0.1840998204509654,0.22948081799119216,True,,0.1343352335757454,0.46874512078630054,-0.4044405716797843,0.42449966317890664,-0.5140085405589427,-0.7453826240216903,0.7259024384877684,0.6852506959074758,-0.05913656699396597,0.5411706623224382,-0.515971611613261,0.6640087426011103
15:53:27.728202,,0.04262176273284507,-0.6623865213551104,0.10165246922000001,-3.5617752038591552,-0.5926370076219477,1.3049872139352556,,0.136222013005097,0.4581480564906707,-0.40369409683779933,0.532105248834155,-0.3471800679823409,-0.7722240637010214,0.6760678478013356,0.7232871933352629,0.14066947475009717,0.5097021378534841,-0.5969268266320213,0.6195821933485602,,0.013843309080036819,0.28565526558374216,-0.07748490737724223,0.13425822390851622,0.7722240636445449,0.6210029989420074,-0.9170316212340507,-0.14066947473980934,0.37318240096098443,0.3755365958512027,-0.6195821933032472,0.6892678512536026,,0.030391278827471595,0.7540910713450895,1.2033428329483908,0.992106297613451,-0.10820197047696511,-0.06338318247479297,-0.04398874283783835,-0.7736207938306751,0.6321201292921647,-0.11743119150923001,-0.624342214604858,-0.7722737301779884,,0.13038898187117376,0.6078368031503771,-0.4467577075583673,0.9947004240876782,-0.0948709536253383,-0.039630398408449036,-0.05187981086493344,-0.7959148226484885,0.6031816312795377,-0.08876683808952657,-0.5979290068617213,-0.7966186987567789,,0.0,0.0,0.045,1.0,0.0,0.0,0.0,1.0,0.0,0.0,0.0,1.0,,-0.004532675332162834,-0.1840998204509654,0.22948081799119216,True,,0.13437331172433606,0.4683447955328989,-0.4043872283381375,0.42702952958778645,-0.5092992118350708,-0.7471680491590962,0.7245370450464534,0.687096957935498,-0.05425717234742197,0.5410100287567574,-0.5181815157065717,0.6624168367158647
15:53:27.782845,,0.042977008445059396,-0.6624483032181042,0.10203228219,-3.564710675269883,-0.5919663002796866,1.310020067690115,,0.13625219319298942,0.4579610083436484,-0.4036585194139406,0.5321025955596372,-0.3471845756856153,-0.7722238653426197,0.6760690376481651,0.7232871870113357,0.14066378865476759,0.5097033295282473,-0.5969242125355853,0.6195837315138208,,0.013848827579323984,0.2856580001868164,-0.07748392836822904,0.13426400244673736,0.7722238652952904,0.6210019962872941,-0.9170316673569223,-0.14066378864614637,0.3731844309530025,0.3755344173161583,-0.6195837314758469,0.6892676555438388,,0.030391278827471595,0.7540910713450895,1.2033428329483908,0.992106297613451,-0.10820197047696511,-0.06338318247479297,-0.04398874283783835,-0.7736207938306751,0.6321201292921647,-0.11743119150923001,-0.624342214604858,-0.7722737301779884,,0.13038898187117376,0.6078368031503771,-0.4467577075583673,0.9947004240876782,-0.0948709536253383,-0.039630398408449036,-0.05187981086493344,-0.7959148226484885,0.6031816312795377,-0.08876683808952657,-0.5979290068617213,-0.7966186987567789,,0.0,0.0,0.045,1.0,0.0,0.0,0.0,1.0,0.0,0.0,0.0,1.0,,-0.004532675332162834,-0.1840998204509654,0.22948081799119216,True,,0.13442818434638595,0.4679670832910039,-0.4043168140838178,0.429311220637522,-0.5065003047371296,-0.7477628749382493,0.723806325220269,0.6881480938316602,-0.05056287696505413,0.5401817096180243,-0.5195282882163855,0.6620378224369821
15:53:27.826062,,0.043285917760028374,-0.662510085081098,0.10237450275000001,-3.5779202966181565,-0.591698017342782,1.3236604307077355,,0.13630649516618304,0.45778982689681225,-0.4036418751255876,0.5320993959143004,-0.34718840625215336,-0.7722243478625407,0.6760704725000642,0.7232868869190752,0.1406584353121167,0.5097047665866747,-0.5969223481953099,0.6195843454638124,,0.013854154846518453,0.2856609870802803,-0.07748285266172757,0.13426981424427264,0.7722243478505664,0.6210001397250756,-0.9170312437911214,-0.1406584353099356,0.373187489683211,0.37553337383341123,-0.6195843454542049,0.6892676722249254,,0.030391278827471595,0.7540910713450895,1.2033428329483908,0.992106297613451,-0.10820197047696511,-0.06338318247479297,-0.04398874283783835,-0.7736207938306751,0.6321201292921647,-0.11743119150923001,-0.624342214604858,-0.7722737301779884,,0.13038898187117376,0.6078368031503771,-0.4467577075583673,0.9947004240876782,-0.0948709536253383,-0.039630398408449036,-0.05187981086493344,-0.7959148226484885,0.6031816312795377,-0.08876683808952657,-0.5979290068617213,-0.7966186987567789,,0.0,0.0,0.045,1.0,0.0,0.0,0.0,1.0,0.0,0.0,0.0,1.0,,-0.004532675332162834,-0.1840998204509654,0.22948081799119216,True,,0.134531386234991,0.46762090373575693,-0.4042845060513646,0.43870843583575436,-0.5007573404486845,-0.7461749086596964,0.7222279303243719,0.6905654811713274,-0.03880892776136938,0.5347164902880029,-0.5218825559466166,0.6646178396738284
15:53:27.866734,,0.043285917760028374,-0.6624869168824753,0.10257672399000001,-3.5844202690276252,-0.5863323586046929,1.3467717313781045,,0.13631097995150135,0.45766948066065233,-0.4036395830425928,0.5320988495518707,-0.3471877290908789,-0.7722250287800145,0.6760707175100219,0.7232865931887732,0.14065876808383626,0.5097050119736513,-0.5969230979632945,0.6195834212491836,,0.013853963608625557,0.28566123937752363,-0.07748275596507,0.1342698474925259,0.7722250287708035,0.620999285805072,-0.9170307741030013,-0.1406587680821585,0.3731885184270861,0.3755345089050111,-0.6195834212417932,0.689267884584746,,0.030391278827471595,0.7540910713450895,1.2033428329483908,0.992106297613451,-0.10820197047696511,-0.06338318247479297,-0.04398874283783835,-0.7736207938306751,0.6321201292921647,-0.11743119150923001,-0.624342214604858,-0.7722737301779884,,0.13038898187117376,0.6078368031503771,-0.4467577075583673,0.9947004240876782,-0.0948709536253383,-0.039630398408449036,-0.05187981086493344,-0.7959148226484885,0.6031816312795377,-0.08876683808952657,-0.5979290068617213,-0.7966186987567789,,0.0,0.0,0.045,1.0,0.0,0.0,0.0,1.0,0.0,0.0,0.0,1.0,,-0.004532675332162834,-0.1840998204509654,0.22948081799119216,True,,0.13454044150131206,0.46738001054581024,-0.4042801618352999,0.4448973143502891,-0.4832697128796352,-0.7540005068281685,0.7178726316792369,0.6958141430704984,-0.022395602001167803,0.5354673326822346,-0.5313125849406382,0.6564919441347855
15:53:27.907758,,0.04327819502715415,-0.6624869168824753,0.10284635231000001,-3.5898718587904046,-0.5835153877671961,1.3511301486578795,,0.13631832975979236,0.45752604571390243,-0.4036216584117208,0.532099942276011,-0.3471890834127365,-0.7722236669442926,0.676070227490046,0.7232871806493337,0.14065810253908503,0.5097045211997078,-0.5969215984259257,0.6195852696773985,,0.013854346085469201,0.2856607347829935,-0.07748294935628211,0.13426978099563885,0.7722236669350813,0.6210009936488535,-0.9170317134845505,-0.14065810253740724,0.3731864609418586,0.3755322387640192,-0.6195852696700079,0.6892674598680624,,0.030391278827471595,0.7540910713450895,1.2033428329483908,0.992106297613451,-0.10820197047696511,-0.06338318247479297,-0.04398874283783835,-0.7736207938306751,0.6321201292921647,-0.11743119150923001,-0.624342214604858,-0.7722737301779884,,0.13038898187117376,0.6078368031503771,-0.4467577075583673,0.9947004240876782,-0.0948709536253383,-0.039630398408449036,-0.05187981086493344,-0.7959148226484885,0.6031816312795377,-0.08876683808952657,-0.5979290068617213,-0.7966186987567789,,0.0,0.0,0.045,1.0,0.0,0.0,0.0,1.0,0.0,0.0,0.0,1.0,,-0.004532675332162834,-0.1840998204509654,0.22948081799119216,True,,0.13455496972558734,0.46709354208740417,-0.40424383267597064,0.44957739409133124,-0.48057099814335036,-0.752948658585399,0.7153363302508824,0.6985295666229316,-0.018718418116390023,0.5349524290488346,-0.5301961526615253,0.6578129964949524
15:53:27.946456,,0.04330908595865105,-0.6624869168824753,0.10313023982000001,-3.5932266832598074,-0.5843202365779095,1.3540866668650073,,0.13633134101483418,0.4573903689559323,-0.40358840406499596,0.5320999714426565,-0.34718925847906734,-0.7722235681378026,0.6760702144105676,0.723287221632978,0.14065795466057596,0.5097045081001083,-0.5969214469418928,0.619585426396735,,0.013854327504596808,0.2856602688640425,-0.07748292997871735,0.13426859295555216,0.7722235681276702,0.6210013733862942,-0.9170325530438673,-0.14065795465873038,0.37318445361888686,0.37553061336905785,-0.6195854263886054,0.6892682045497727,,0.030391278827471595,0.7540910713450895,1.2033428329483908,0.992106297613451,-0.10820197047696511,-0.06338318247479297,-0.04398874283783835,-0.7736207938306751,0.6321201292921647,-0.11743119150923001,-0.624342214604858,-0.7722737301779884,,0.13038898187117376,0.6078368031503771,-0.4467577075583673,0.9947004240876782,-0.0948709536253383,-0.039630398408449036,-0.05187981086493344,-0.7959148226484885,0.6031816312795377,-0.08876683808952657,-0.5979290068617213,-0.7966186987567789,,0.0,0.0,0.045,1.0,0.0,0.0,0.0,1.0,0.0,0.0,0.0,1.0,,-0.004532675332162834,-0.1840998204509654,0.22948081799119216,True,,0.1345810261315493,0.4668226315692461,-0.40417731906858845,0.4516784498489802,-0.4798449328827865,-0.7521538528311457,0.7155190251750159,0.6984127039511451,-0.015881422236229403,0.5329344261300987,-0.5310070953823163,0.6587961460869501
15:53:27.984741,,0.0433554223558964,-0.6624946396153496,0.10337523863,-3.5972105373172227,-0.5844543780463617,1.3609739325221903,,0.13634499296402042,0.457270480875824,-0.40356374895861624,0.532100000604349,-0.34718943354897697,-0.7722234693330632,0.6760702013333091,0.7232872626157052,0.14065780677594436,0.5097044950027326,-0.5969212954567968,0.6195855831151891,,0.013854308922436172,0.2856598029444455,-0.07748291060342,0.1342674049180166,0.7722234693192462,0.6210017531161599,-0.9170333925960865,-0.14065780677342765,0.3731824462935209,0.3755289879683177,-0.6195855831041033,0.6892689492275529,,0.030391278827471595,0.7540910713450895,1.2033428329483908,0.992106297613451,-0.10820197047696511,-0.06338318247479297,-0.04398874283783835,-0.7736207938306751,0.6321201292921647,-0.11743119150923001,-0.624342214604858,-0.7722737301779884,,0.13038898187117376,0.6078368031503771,-0.4467577075583673,0.9947004240876782,-0.0948709536253383,-0.039630398408449036,-0.05187981086493344,-0.7959148226484885,0.6031816312795377,-0.08876683808952657,-0.5979290068617213,-0.7966186987567789,,0.0,0.0,0.045,1.0,0.0,0.0,0.0,1.0,0.0,0.0,0.0,1.0,,-0.004532675332162834,-0.1840998204509654,0.22948081799119216,True,,0.13460836392681705,0.46658329840650853,-0.404128003939766,0.4544174529059841,-0.4760950510337612,-0.7528866321536053,0.7151678492782987,0.6988770029614486,-0.010289902345320345,0.531074124631478,-0.5337644022532636,0.6580697812801661
15:53:28.024151,,0.04339403602026752,-0.6625178078139723,0.10362023744000001,-3.600775038315964,-0.5824422560195783,1.3638804427898792,,0.13635180852449214,0.4571423468645265,-0.4035456977466455,0.5321005469587192,-0.3471901107134398,-0.7722227884160253,0.6760699563261587,0.7232875563446451,0.14065747399316414,0.5097042496187155,-0.5969205456840811,0.6195865073263306,,0.013854500159874366,0.28565955064688187,-0.07748300730002164,0.1342673716691568,0.7722227884031296,0.6210026070336203,-0.9170338622822705,-0.14065747399081524,0.37318141755021256,0.3755278528941888,-0.6195865073159839,0.6892687368648474,,0.030391278827471595,0.7540910713450895,1.2033428329483908,0.992106297613451,-0.10820197047696511,-0.06338318247479297,-0.04398874283783835,-0.7736207938306751,0.6321201292921647,-0.11743119150923001,-0.624342214604858,-0.7722737301779884,,0.13038898187117376,0.6078368031503771,-0.4467577075583673,0.9947004240876782,-0.0948709536253383,-0.039630398408449036,-0.05187981086493344,-0.7959148226484885,0.6031816312795377,-0.08876683808952657,-0.5979290068617213,-0.7966186987567789,,0.0,0.0,0.045,1.0,0.0,0.0,0.0,1.0,0.0,0.0,0.0,1.0,,-0.004532675332162834,-0.1840998204509654,0.22948081799119216,True,,0.13462190935246318,0.4663272311001461,-0.40409166156649595,0.45752381030008415,-0.4742375768424349,-0.752177295402559,0.7133772936805025,0.7007358426872811,-0.007881347247020443,0.5308152219648328,-0.5329802993394426,0.6589136518895807
15:53:28.065583,,0.04342492695176442,-0.6625255305468465,0.10384708819,-3.6041298627853666,-0.5823081145511261,1.3638124598936676,,0.1363620786230832,0.4570305332473862,-0.4035227110527202,0.5320989662332163,-0.3471884293455715,-0.7722246335504311,0.6760706651856444,0.7232867571260412,0.14065817658968624,0.5097049595687516,-0.5969224920328018,0.6195840481293615,,0.013853889284250603,0.2856593757016662,-0.07748267846012497,0.13426509532815667,0.7722246335320089,0.621000804745987,-0.9170341323237301,-0.14065817658633067,0.3731804891268564,0.37552800732045566,-0.6195840481145807,0.6892708632984312,,0.030391278827471595,0.7540910713450895,1.2033428329483908,0.992106297613451,-0.10820197047696511,-0.06338318247479297,-0.04398874283783835,-0.7736207938306751,0.6321201292921647,-0.11743119150923001,-0.624342214604858,-0.7722737301779884,,0.13038898187117376,0.6078368031503771,-0.4467577075583673,0.9947004240876782,-0.0948709536253383,-0.039630398408449036,-0.05187981086493344,-0.7959148226484885,0.6031816312795377,-0.08876683808952657,-0.5979290068617213,-0.7966186987567789,,0.0,0.0,0.045,1.0,0.0,0.0,0.0,1.0,0.0,0.0,0.0,1.0,,-0.004532675332162834,-0.1840998204509654,0.22948081799119216,True,,0.1346427744294361,0.46610388771354216,-0.40404639819407223,0.4598987381682178,-0.4753755040572606,-0.7500075204780192,0.7129047409869137,0.7012228182654816,-0.007306806566274915,0.5293958640843943,-0.5313235260047506,0.6613889398865214
15:53:28.109270,,0.04345581788326132,-0.6626182033413371,0.10405579088000001,-3.6066459811374187,-0.5819056901457694,1.363608511205033,,0.13636888812528025,0.45692521834451516,-0.40350771744377534,0.5320984198743102,-0.34718775218137415,-0.7722253144662555,0.6760709101937209,0.7232864633966969,0.14065850936552926,0.5097052049538991,-0.5969232418011077,0.619583123915234,,0.013853698046354985,0.2856596279989705,-0.07748258176332973,0.13426512857946893,0.7722253144478332,0.620999950825901,-0.917033662639828,-0.14065850936217367,0.37318151787257764,0.37552914239138396,-0.619583123900453,0.6892710756624241,,0.030391278827471595,0.7540910713450895,1.2033428329483908,0.992106297613451,-0.10820197047696511,-0.06338318247479297,-0.04398874283783835,-0.7736207938306751,0.6321201292921647,-0.11743119150923001,-0.624342214604858,-0.7722737301779884,,0.13038898187117376,0.6078368031503771,-0.4467577075583673,0.9947004240876782,-0.0948709536253383,-0.039630398408449036,-0.05187981086493344,-0.7959148226484885,0.6031816312795377,-0.08876683808952657,-0.5979290068617213,-0.7966186987567789,,0.0,0.0,0.045,1.0,0.0,0.0,0.0,1.0,0.0,0.0,0.0,1.0,,-0.004532675332162834,-0.1840998204509654,0.22948081799119216,True,,0.1346564791297731,0.46589305719075147,-0.40401665092616756,0.4617773657116177,-0.4762007320407262,-0.7483278207579318,0.7122925612596247,0.7018469607439779,-0.007081727800822724,0.5285839306019837,-0.52975815850095,0.6632912797640562
15:53:28.133928,,0.04348670881475821,-0.6627417670673248,0.10423727148,-3.608113716842783,-0.5817715486773172,1.363540528308821,,0.1363736148676415,0.4568338778239164,-0.4034964695235316,0.5321000006088487,-0.347189433545522,-0.7722234693315161,0.6760702013312914,0.7232872626164791,0.14065780678166304,0.5097044950007118,-0.5969212954578685,0.619585583115819,,0.013854308921842593,0.2856598029448132,-0.07748291060578097,0.13426740491333927,0.7722234693130938,0.6210017531152182,-0.9170333925900442,-0.14065780677830747,0.373182446290548,0.3755289879688635,-0.6195855831010381,0.6892689492213584,,0.030391278827471595,0.7540910713450895,1.2033428329483908,0.992106297613451,-0.10820197047696511,-0.06338318247479297,-0.04398874283783835,-0.7736207938306751,0.6321201292921647,-0.11743119150923001,-0.624342214604858,-0.7722737301779884,,0.13038898187117376,0.6078368031503771,-0.4467577075583673,0.9947004240876782,-0.0948709536253383,-0.039630398408449036,-0.05187981086493344,-0.7959148226484885,0.6031816312795377,-0.08876683808952657,-0.5979290068617213,-0.7966186987567789,,0.0,0.0,0.045,1.0,0.0,0.0,0.0,1.0,0.0,0.0,0.0,1.0,,-0.004532675332162834,-0.1840998204509654,0.22948081799119216,True,,0.13466560773489258,0.46571009230321203,-0.4039934450671381,0.46284588752997957,-0.47669107464960525,-0.747354871360313,0.7119667020273789,0.7021788665571677,-0.006946550564758902,0.5280881551415851,-0.5288766006450804,0.6643887730006138
15:53:28.161186,,0.04351759974625511,-0.662818994396067,0.10435264129,-3.608952422960133,-0.5816374072088649,1.3634725454126095,,0.1363767172788552,0.45677589184743156,-0.4034887370626229,0.5320983615414218,-0.3471874020479858,-0.7722255120779841,0.6760709363523799,0.7232863814293966,0.14065880512213172,0.5097052311528211,-0.5969235447676192,0.6195828104761377,,0.013853735209542082,0.2856605598375626,-0.07748262051620422,0.13426750465282922,0.7722255120623251,0.6209991913632633,-0.9170319835305321,-0.14065880511927947,0.3731855325222551,0.37553239319106024,-0.619582810463574,0.6892695863025575,,0.030391278827471595,0.7540910713450895,1.2033428329483908,0.992106297613451,-0.10820197047696511,-0.06338318247479297,-0.04398874283783835,-0.7736207938306751,0.6321201292921647,-0.11743119150923001,-0.624342214604858,-0.7722737301779884,,0.13038898187117376,0.6078368031503771,-0.4467577075583673,0.9947004240876782,-0.0948709536253383,-0.039630398408449036,-0.05187981086493344,-0.7959148226484885,0.6031816312795377,-0.08876683808952657,-0.5979290068617213,-0.7966186987567789,,0.0,0.0,0.045,1.0,0.0,0.0,0.0,1.0,0.0,0.0,0.0,1.0,,-0.004532675332162834,-0.1840998204509654,0.22948081799119216,True,,0.13467206964391792,0.4655935182002655,-0.40397869999404806,0.4634745051989257,-0.47697676797775157,-0.7467827969631526,0.7117399301211155,0.7024090957902326,-0.006908981280741411,0.5278424527278958,-0.5283129990456852,0.6650321196284833
15:53:28.208035,,0.04353304521200356,-0.6629039444576834,0.10443041869000001,-3.6095814525481464,-0.5816374072088649,1.36354142705666,,0.13637856148915362,0.45673641272571325,-0.40348565328752983,0.5320972688262072,-0.34718604771283834,-0.7722268739050913,0.6760714263661367,0.7232857939711227,0.14065947067588463,0.5097057219209417,-0.596925044300456,0.6195809620444694,,0.01385335273363129,0.28566106443283135,-0.07748242712548446,0.1342675711391138,0.7722268738912744,0.6209974835252785,-0.9170310441512545,-0.14065947067336793,0.37318759000931934,0.37553466333679353,-0.6195809620333839,0.6892700110134804,,0.030391278827471595,0.7540910713450895,1.2033428329483908,0.992106297613451,-0.10820197047696511,-0.06338318247479297,-0.04398874283783835,-0.7736207938306751,0.6321201292921647,-0.11743119150923001,-0.624342214604858,-0.7722737301779884,,0.13038898187117376,0.6078368031503771,-0.4467577075583673,0.9947004240876782,-0.0948709536253383,-0.039630398408449036,-0.05187981086493344,-0.7959148226484885,0.6031816312795377,-0.08876683808952657,-0.5979290068617213,-0.7966186987567789,,0.0,0.0,0.045,1.0,0.0,0.0,0.0,1.0,0.0,0.0,0.0,1.0,,-0.004532675332162834,-0.1840998204509654,0.22948081799119216,True,,0.13467592945722393,0.46551415852239186,-0.40397301234149025,0.463916339714885,-0.47713766478545405,-0.7464055724528235,0.711621641800129,0.7025300622577692,-0.006793419299879588,0.5276137495054808,-0.5280067807018947,0.6654566634015989
15:53:28.231102,,0.04350987701338089,-0.6632051310397782,0.10461189929,-3.6112588647828474,-0.5815032657404127,1.3636112074485487,,0.1363788912249928,0.4566409772540968,-0.4034868894607595,0.532098878725137,-0.34718790415263895,-0.7722249299715401,0.6760707044276152,0.7232866341736922,0.1406586202137634,0.5097049988711118,-0.5969229464811934,0.6195835779699219,,0.013853945028478358,0.2856607734585577,-0.0774827365879206,0.13426865945068295,0.7722249299595655,0.6209996655451978,-0.9170316136639342,-0.14065862021158226,0.37318651110414175,0.37553288351251535,-0.6195835779603143,0.6892686292670351,,0.030391278827471595,0.7540910713450895,1.2033428329483908,0.992106297613451,-0.10820197047696511,-0.06338318247479297,-0.04398874283783835,-0.7736207938306751,0.6321201292921647,-0.11743119150923001,-0.624342214604858,-0.7722737301779884,,0.13038898187117376,0.6078368031503771,-0.4467577075583673,0.9947004240876782,-0.0948709536253383,-0.039630398408449036,-0.05187981086493344,-0.7959148226484885,0.6031816312795377,-0.08876683808952657,-0.5979290068617213,-0.7966186987567789,,0.0,0.0,0.045,1.0,0.0,0.0,0.0,1.0,0.0,0.0,0.0,1.0,,-0.004532675332162834,-0.1840998204509654,0.22948081799119216,True,,0.13467629794375569,0.4653234467318038,-0.40397476975706836,0.46514167931347117,-0.4775283580212244,-0.7453924372107604,0.7111556109041925,0.7030036977881503,-0.006595299513430464,0.5271630822097929,-0.5270222653567309,0.6665932917254199
15:53:28.258024,,0.04350987701338089,-0.663297803834269,0.10463523251000001,-3.6112588647828474,-0.5815032657404127,1.3636112074485487,,0.13637804617202687,0.4566275875072402,-0.40349033272968904,0.5320983615369221,-0.34718740205144105,-0.772225512079531,0.6760709363543977,0.7232863814286228,0.14065880511641263,0.509705231154842,-0.5969235447665472,0.6195828104755079,,0.013853735210401468,0.2856605598368402,-0.07748262051412663,0.13426750465750675,0.7722255120684776,0.620999191364205,-0.9170319835365743,-0.14065880511439927,0.373185532525228,0.37553239319051424,-0.6195828104666393,0.6892695863087519,,0.030391278827471595,0.7540910713450895,1.2033428329483908,0.992106297613451,-0.10820197047696511,-0.06338318247479297,-0.04398874283783835,-0.7736207938306751,0.6321201292921647,-0.11743119150923001,-0.624342214604858,-0.7722737301779884,,0.13038898187117376,0.6078368031503771,-0.4467577075583673,0.9947004240876782,-0.0948709536253383,-0.039630398408449036,-0.05187981086493344,-0.7959148226484885,0.6031816312795377,-0.08876683808952657,-0.5979290068617213,-0.7966186987567789,,0.0,0.0,0.045,1.0,0.0,0.0,0.0,1.0,0.0,0.0,0.0,1.0,,-0.004532675332162834,-0.1840998204509654,0.22948081799119216,True,,0.13467472742916212,0.46529690951971875,-0.4039818913303555,0.46514855722752535,-0.47751907094281504,-0.7453940948217008,0.7111018262507417,0.7030576050225374,-0.0066480615847071545,0.527229563294787,-0.5269587658497437,0.666590914041066
15:53:28.281420,,0.04350987701338089,-0.663506317621873,0.10470912104,-3.611678217841523,-0.5815032657404127,1.3636112074485487,,0.136377225832342,0.45658730422222504,-0.4034959311179852,0.5320967516306249,-0.3471855456143688,-0.7722274560131815,0.6760716582951547,0.7232855412252324,0.140659655568192,0.5097059542071063,-0.5969256425811977,0.6195801945469589,,0.01385314291591721,0.2856608508101274,-0.07748231104939421,0.13426641635466302,0.7722274560058124,0.6209970093414154,-0.9170314140322058,-0.14065965556684973,0.3731866114356503,0.3755341730099727,-0.6195801945410464,0.6892709680634386,,0.030391278827471595,0.7540910713450895,1.2033428329483908,0.992106297613451,-0.10820197047696511,-0.06338318247479297,-0.04398874283783835,-0.7736207938306751,0.6321201292921647,-0.11743119150923001,-0.624342214604858,-0.7722737301779884,,0.13038898187117376,0.6078368031503771,-0.4467577075583673,0.9947004240876782,-0.0948709536253383,-0.039630398408449036,-0.05187981086493344,-0.7959148226484885,0.6031816312795377,-0.08876683808952657,-0.5979290068617213,-0.7966186987567789,,0.0,0.0,0.045,1.0,0.0,0.0,0.0,1.0,0.0,0.0,0.0,1.0,,-0.004532675332162834,-0.1840998204509654,0.22948081799119216,True,,0.13467337773456078,0.46521618379642715,-0.4039938030406054,0.46545403014891934,-0.47763629776010313,-0.7451282526385317,0.7109324034472381,0.7032285753922041,-0.006684944321774244,0.5271884516440615,-0.5266242852488611,0.666887695672415
15:53:28.307809,,0.04350987701338089,-0.6636376040807348,0.10479597247000001,-3.612516923958874,-0.5815032657404127,1.3636112074485487,,0.13637831727011104,0.45654194108249535,-0.4034954579756088,0.532096780802274,-0.34718572067772374,-0.7722273572059892,0.6760716452135519,0.7232855822099488,0.14065950769662477,0.5097059411053574,-0.5969254910997731,0.6195803512678535,,0.01385312433492737,0.28566038489116236,-0.07748229167175422,0.134265228319363,0.7722273571976991,0.6209973890752971,-0.9170322535914847,-0.14065950769511476,0.3731846041122548,0.37553254761179045,-0.6195803512612021,0.6892717127474282,,0.030391278827471595,0.7540910713450895,1.2033428329483908,0.992106297613451,-0.10820197047696511,-0.06338318247479297,-0.04398874283783835,-0.7736207938306751,0.6321201292921647,-0.11743119150923001,-0.624342214604858,-0.7722737301779884,,0.13038898187117376,0.6078368031503771,-0.4467577075583673,0.9947004240876782,-0.0948709536253383,-0.039630398408449036,-0.05187981086493344,-0.7959148226484885,0.6031816312795377,-0.08876683808952657,-0.5979290068617213,-0.7966186987567789,,0.0,0.0,0.045,1.0,0.0,0.0,0.0,1.0,0.0,0.0,0.0,1.0,,-0.004532675332162834,-0.1840998204509654,0.22948081799119216,True,,0.13467559450620353,0.4651259005158398,-0.403992851841754,0.4660435229334986,-0.4778991381349778,-0.7445910612554916,0.7107593743436751,0.7034042943899678,-0.006596242592532053,0.5269008887013964,-0.5261509407038985,0.6674883078242507
15:53:28.332796,,0.04348670881475821,-0.6637766132724708,0.10491393486000002,-3.6127266004882115,-0.5815032657404127,1.3636800890925989,,0.13637675011583755,0.4564819070700698,-0.4034908382478005,0.5320989078979499,-0.34718807921452244,-0.7722248311632691,0.6760706913454109,0.7232866751584678,0.14065847234328732,0.5097049857687751,-0.5969227949991017,0.6195837346904074,,0.013853926446707413,0.28566030754032445,-0.0774827172124084,0.13426747140751394,0.7722248311457679,0.6210000452805104,-0.9170324532171962,-0.14065847234009954,0.3731845037780556,0.37553125811702626,-0.6195837346763656,0.6892693739433109,,0.030391278827471595,0.7540910713450895,1.2033428329483908,0.992106297613451,-0.10820197047696511,-0.06338318247479297,-0.04398874283783835,-0.7736207938306751,0.6321201292921647,-0.11743119150923001,-0.624342214604858,-0.7722737301779884,,0.13038898187117376,0.6078368031503771,-0.4467577075583673,0.9947004240876782,-0.0948709536253383,-0.039630398408449036,-0.05187981086493344,-0.7959148226484885,0.6031816312795377,-0.08876683808952657,-0.5979290068617213,-0.7966186987567789,,0.0,0.0,0.045,1.0,0.0,0.0,0.0,1.0,0.0,0.0,0.0,1.0,,-0.004532675332162834,-0.1840998204509654,0.22948081799119216,True,,0.13467204962249812,0.4650057493620593,-0.4039826624149874,0.4661988486042992,-0.4778834255391718,-0.7445039053994094,0.7106492008804434,0.7035158064215239,-0.006574450780102881,0.5269120864508736,-0.5260161040405699,0.667585733402061
15:53:28.358721,,0.04344037241751287,-0.6638692860669615,0.10499300855000002,-3.6139846596642378,-0.5815032657404127,1.363748970736649,,0.1363764977532611,0.4564413355890693,-0.40348904378197264,0.5320994250910058,-0.34718858131101615,-0.772224249052738,0.6760704594160949,0.723286927904518,0.14065828744640407,0.509704753482574,-0.5969221967138505,0.6195845021847947,,0.01385413626524731,0.28566052116237883,-0.07748283328641639,0.13426862619669194,0.7722242490343155,0.6210005194642979,-0.9170320833449174,-0.14065828744304848,0.37318548235690624,0.3755317484416212,-0.6195845021700136,0.6892684168996885,,0.030391278827471595,0.7540910713450895,1.2033428329483908,0.992106297613451,-0.10820197047696511,-0.06338318247479297,-0.04398874283783835,-0.7736207938306751,0.6321201292921647,-0.11743119150923001,-0.624342214604858,-0.7722737301779884,,0.13038898187117376,0.6078368031503771,-0.4467577075583673,0.9947004240876782,-0.0948709536253383,-0.039630398408449036,-0.05187981086493344,-0.7959148226484885,0.6031816312795377,-0.08876683808952657,-0.5979290068617213,-0.7966186987567789,,0.0,0.0,0.045,1.0,0.0,0.0,0.0,1.0,0.0,0.0,0.0,1.0,,-0.004532675332162834,-0.1840998204509654,0.22948081799119216,True,,0.1346714253059377,0.4649243641189871,-0.40397883844769356,0.4670748823013961,-0.4781973474686641,-0.7437528831521064,0.7104393751944094,0.7037301124743482,-0.006310544367855497,0.5264189856915443,-0.5254438368377491,0.668424884211166
15:53:28.384717,,0.04340175875314174,-0.6640005725258233,0.10508115627,-3.6139846596642378,-0.5815032657404127,1.363748970736649,,0.1363732998771669,0.4563958311159666,-0.4034868859413825,0.5320999714471559,-0.34718925847561216,-0.7722235681362557,0.6760702144085496,0.7232872216337519,0.14065795466629477,0.5097045080980875,-0.5969214469429645,0.6195854263973648,,0.013854327502681892,0.28566026886481827,-0.0774829299829361,0.13426859295007382,0.7722235681169122,0.6210013733816488,-0.9170325530323559,-0.14065795466277142,0.3731844536136881,0.375530613367364,-0.6195854263818448,0.6892682045394672,,0.030391278827471595,0.7540910713450895,1.2033428329483908,0.992106297613451,-0.10820197047696511,-0.06338318247479297,-0.04398874283783835,-0.7736207938306751,0.6321201292921647,-0.11743119150923001,-0.624342214604858,-0.7722737301779884,,0.13038898187117376,0.6078368031503771,-0.4467577075583673,0.9947004240876782,-0.0948709536253383,-0.039630398408449036,-0.05187981086493344,-0.7959148226484885,0.6031816312795377,-0.08876683808952657,-0.5979290068617213,-0.7966186987567789,,0.0,0.0,0.045,1.0,0.0,0.0,0.0,1.0,0.0,0.0,0.0,1.0,,-0.004532675332162834,-0.1840998204509654,0.22948081799119216,True,,0.1346649438583694,0.46483355588942515,-0.40397428281704517,0.4670848278475343,-0.478151790657088,-0.7437759263958866,0.7103543921653441,0.7038153964893288,-0.0063659403055094654,0.5265248342918342,-0.5253710619704792,0.6683987179206488
15:53:28.410295,,0.04337086782164485,-0.6640855225874398,0.10513430416000001,-3.6144040127229125,-0.5815032657404127,1.363748970736649,,0.1363717930821809,0.456368043741615,-0.40348641970530624,0.5320994542627578,-0.34718875637345786,-0.7722241502446857,0.6760704463343458,0.7232869688890431,0.14065813957456882,0.5097047403806969,-0.5969220452313286,0.6195846589048942,,0.013854117683743459,0.2856600552437781,-0.07748281391123149,0.13426743815246311,0.7722241502216579,0.621000899199649,-0.9170329228970849,-0.14065813957037437,0.37318347503043303,0.375530123046292,-0.6195846588864181,0.6892691615746329,,0.030391278827471595,0.7540910713450895,1.2033428329483908,0.992106297613451,-0.10820197047696511,-0.06338318247479297,-0.04398874283783835,-0.7736207938306751,0.6321201292921647,-0.11743119150923001,-0.624342214604858,-0.7722737301779884,,0.13038898187117376,0.6078368031503771,-0.4467577075583673,0.9947004240876782,-0.0948709536253383,-0.039630398408449036,-0.05187981086493344,-0.7959148226484885,0.6031816312795377,-0.08876683808952657,-0.5979290068617213,-0.7966186987567789,,0.0,0.0,0.045,1.0,0.0,0.0,0.0,1.0,0.0,0.0,0.0,1.0,,-0.004532675332162834,-0.1840998204509654,0.22948081799119216,True,,0.13466204986052915,0.4647782234225447,-0.40397358537793027,0.46738076978447896,-0.4782549963143271,-0.7435236206981263,0.7102495149516005,0.7039216701732331,-0.006317338960573182,0.5264036878163797,-0.5251346882095197,0.6686798312289719
15:53:28.435941,,0.04330908595865105,-0.6642399772449243,0.10520819269000001,-3.6152427188402636,-0.5815032657404127,1.363748970736649,,0.13636899108845463,0.4563288298409909,-0.4034888904697173,0.5320999714516556,-0.3471892584721574,-0.7722235681347086,0.676070214406532,0.7232872216345259,0.1406579546720135,0.5097045080960666,-0.5969214469440363,0.6195854263979947,,0.01385432750314382,0.28566026886513257,-0.07748292998315598,0.13426859294619742,0.7722235681153651,0.6210013733844106,-0.9170325530317827,-0.14065795466849013,0.37318445361294095,0.3755306133701495,-0.6195854263824746,0.6892682045373832,,0.030391278827471595,0.7540910713450895,1.2033428329483908,0.992106297613451,-0.10820197047696511,-0.06338318247479297,-0.04398874283783835,-0.7736207938306751,0.6321201292921647,-0.11743119150923001,-0.624342214604858,-0.7722737301779884,,0.13038898187117376,0.6078368031503771,-0.4467577075583673,0.9947004240876782,-0.0948709536253383,-0.039630398408449036,-0.05187981086493344,-0.7959148226484885,0.6031816312795377,-0.08876683808952657,-0.5979290068617213,-0.7966186987567789,,0.0,0.0,0.045,1.0,0.0,0.0,0.0,1.0,0.0,0.0,0.0,1.0,,-0.004532675332162834,-0.1840998204509654,0.22948081799119216,True,,0.13465632628072274,0.4646995533400459,-0.4039782918733973,0.4679712680313068,-0.4784627291930329,-0.7430183773436061,0.7100486466396966,0.7041252273378988,-0.006211572384473452,0.5261499897389585,-0.5246723558560206,0.6692421888211972
15:53:28.461391,,0.04325502682853148,-0.6643712637037861,0.10528078493000001,-3.6152427188402636,-0.5815032657404127,1.3638178523806994,,0.13636454269700693,0.45629069104318704,-0.40348802106389287,0.5320978735236832,-0.34718707500957535,-0.7722259953782118,0.6760711551977012,0.7232861696688564,0.14065884215149788,0.5097054503350147,-0.5969239915701577,0.6195821997013231,,0.013853506810441077,0.28565988029685974,-0.07748248506487114,0.13426516182264697,0.7722259953653161,0.6209990969151136,-0.917033192960089,-0.14065884214914898,0.37318254661932715,0.3755302774700915,-0.6195821996909765,0.6892712880252074,,0.030391278827471595,0.7540910713450895,1.2033428329483908,0.992106297613451,-0.10820197047696511,-0.06338318247479297,-0.04398874283783835,-0.7736207938306751,0.6321201292921647,-0.11743119150923001,-0.624342214604858,-0.7722737301779884,,0.13038898187117376,0.6078368031503771,-0.4467577075583673,0.9947004240876782,-0.0948709536253383,-0.039630398408449036,-0.05187981086493344,-0.7959148226484885,0.6031816312795377,-0.08876683808952657,-0.5979290068617213,-0.7966186987567789,,0.0,0.0,0.045,1.0,0.0,0.0,0.0,1.0,0.0,0.0,0.0,1.0,,-0.004532675332162834,-0.1840998204509654,0.22948081799119216,True,,0.13464787396778707,0.4646238018720311,-0.4039774981180173,0.4679812794472191,-0.47835305104120895,-0.7430826876240021,0.7099601174877318,0.7042144971678566,-0.0062107612600219575,0.5262605378172961,-0.5246525522078298,0.6691707897077253
15:53:28.486805,,0.04320869043128613,-0.6644562137654025,0.10532615508000001,-3.615662071898939,-0.5815032657404127,1.3638178523806994,,0.13636203574447842,0.45626677369034907,-0.403488313558367,0.5320968099779693,-0.3471858957377472,-0.7722272583974532,0.6760716321301334,0.7232856231952957,0.14065935983037298,0.5097059280017904,-0.5969253396194294,0.6195805079891253,,0.013853105754362854,0.28565991897248144,-0.07748227229439693,0.1342640402796615,0.7722272583900844,0.6209977688108314,-0.9170330931479886,-0.14065935982903077,0.373182596787196,0.37553092221564016,-0.6195805079832132,0.689272457427431,,0.030391278827471595,0.7540910713450895,1.2033428329483908,0.992106297613451,-0.10820197047696511,-0.06338318247479297,-0.04398874283783835,-0.7736207938306751,0.6321201292921647,-0.11743119150923001,-0.624342214604858,-0.7722737301779884,,0.13038898187117376,0.6078368031503771,-0.4467577075583673,0.9947004240876782,-0.0948709536253383,-0.039630398408449036,-0.05187981086493344,-0.7959148226484885,0.6031816312795377,-0.08876683808952657,-0.5979290068617213,-0.7966186987567789,,0.0,0.0,0.045,1.0,0.0,0.0,0.0,1.0,0.0,0.0,0.0,1.0,,-0.004532675332162834,-0.1840998204509654,0.22948081799119216,True,,0.13464306535082585,0.46457600873095906,-0.40397855809283056,0.4682770628073666,-0.47844310273115587,-0.7428383336214485,0.7098516211704416,0.7043243545513646,-0.006154633010984956,0.526143771577885,-0.5244229219196932,0.6694425521245343
15:53:28.512838,,0.043131463102543885,-0.6646183911557613,0.10540004361000001,-3.616291101486952,-0.5815032657404127,1.3638867340247496,,0.13635767296110618,0.4562275884707348,-0.40349077445847126,0.5320967808067736,-0.3471857206742685,-0.7722273572044422,0.6760716452115341,0.7232855822107226,0.1406595077023439,0.5097059411033364,-0.596925491100845,0.6195803512684833,,0.013853124335123498,0.2856603848918315,-0.07748229167169073,0.13426522831548604,0.7722273571961521,0.6209973890780591,-0.9170322535909116,-0.14065950770083385,0.3731846041115074,0.37553254761457605,-0.6195803512618319,0.6892717127453445,,0.030391278827471595,0.7540910713450895,1.2033428329483908,0.992106297613451,-0.10820197047696511,-0.06338318247479297,-0.04398874283783835,-0.7736207938306751,0.6321201292921647,-0.11743119150923001,-0.624342214604858,-0.7722737301779884,,0.13038898187117376,0.6078368031503771,-0.4467577075583673,0.9947004240876782,-0.0948709536253383,-0.039630398408449036,-0.05187981086493344,-0.7959148226484885,0.6031816312795377,-0.08876683808952657,-0.5979290068617213,-0.7966186987567789,,0.0,0.0,0.045,1.0,0.0,0.0,0.0,1.0,0.0,0.0,0.0,1.0,,-0.004532675332162834,-0.1840998204509654,0.22948081799119216,True,,0.13463430588823752,0.464497195292536,-0.40398348480744467,0.4687231937400229,-0.47851694379445286,-0.7425093279897359,0.7096669071906149,0.7045114777475467,-0.006038092453354571,0.5259956734505142,-0.5241041043758239,0.6698085094172479
15:53:28.538685,,0.043069681239550094,-0.6647419548817489,0.10543115457,-3.616291101486952,-0.5815032657404127,1.3638867340247496,,0.1363530341378324,0.45621018108880823,-0.4034953037656196,0.5320978151706757,-0.3471867248911229,-0.7722261929965657,0.6760711813653418,0.7232860876979599,0.14065913788250756,0.5097054765429391,-0.5969242945315216,0.6195818862589355,,0.013853543971783,0.28566081213416916,-0.077482523816954,0.13426753790939344,0.7722261929882757,0.6209983374415051,-0.9170315138508964,-0.14065913788099754,0.37318656127121896,0.3755335282589457,-0.6195818862522842,0.689269798671013,,0.030391278827471595,0.7540910713450895,1.2033428329483908,0.992106297613451,-0.10820197047696511,-0.06338318247479297,-0.04398874283783835,-0.7736207938306751,0.6321201292921647,-0.11743119150923001,-0.624342214604858,-0.7722737301779884,,0.13038898187117376,0.6078368031503771,-0.4467577075583673,0.9947004240876782,-0.0948709536253383,-0.039630398408449036,-0.05187981086493344,-0.7959148226484885,0.6031816312795377,-0.08876683808952657,-0.5979290068617213,-0.7966186987567789,,0.0,0.0,0.045,1.0,0.0,0.0,0.0,1.0,0.0,0.0,0.0,1.0,,-0.004532675332162834,-0.1840998204509654,0.22948081799119216,True,,0.13462478905725125,0.46446189596427057,-0.40399207335295806,0.4687326471336366,-0.4784527618821062,-0.7425447192987629,0.7095810656445638,0.7045975976545342,-0.00607755363486745,0.5261030476910578,-0.5240469254053914,0.6697689177495003
15:53:28.562605,,0.04300017664368207,-0.664919577737856,0.10547133956000002,-3.61733948413364,-0.5815032657404127,1.3638867340247496,,0.13634997720868602,0.45618658235168774,-0.40350415164747844,0.5320988787206377,-0.3471879041560938,-0.7722249299730871,0.6760707044296329,0.7232866341729183,0.1406586202080449,0.5097049988731325,-0.5969229464801217,0.6195835779692921,,0.013853945027750635,0.2856607734585982,-0.07748273658741735,0.13426865945455935,0.7722249299611127,0.6209996655424361,-0.9170316136645075,-0.14065862020586378,0.37318651110488893,0.37553288350972996,-0.6195835779596846,0.689268629269119,,0.030391278827471595,0.7540910713450895,1.2033428329483908,0.992106297613451,-0.10820197047696511,-0.06338318247479297,-0.04398874283783835,-0.7736207938306751,0.6321201292921647,-0.11743119150923001,-0.624342214604858,-0.7722737301779884,,0.13038898187117376,0.6078368031503771,-0.4467577075583673,0.9947004240876782,-0.0948709536253383,-0.039630398408449036,-0.05187981086493344,-0.7959148226484885,0.6031816312795377,-0.08876683808952657,-0.5979290068617213,-0.7966186987567789,,0.0,0.0,0.045,1.0,0.0,0.0,0.0,1.0,0.0,0.0,0.0,1.0,,-0.004532675332162834,-0.1840998204509654,0.22948081799119216,True,,0.13461846991163007,0.4644146569260589,-0.40400929413110703,0.4694686190587557,-0.47871968803120124,-0.7419074578479276,0.7093404327071489,0.7048410080909507,-0.005941703473528903,0.5257712109329494,-0.5234755138539355,0.6704759653779234
15:53:28.588080,,0.04296156297931095,-0.6650354187309694,0.10550374681000001,-3.617549160662978,-0.5815032657404127,1.3638867340247496,,0.13634722677137012,0.45616889569670965,-0.4035085613610686,0.5320994250730078,-0.34718858132483643,-0.772224249058926,0.6760704594241659,0.7232869279014223,0.1406582874235285,0.5097047534906574,-0.596922196709563,0.6195845021822755,,0.013854136264720946,0.2856605211607135,-0.0774828332836791,0.13426862621299973,0.7722242490451091,0.6210005194569539,-0.9170320833526789,-0.14065828742101183,0.37318548236212123,0.3755317484327188,-0.6195845021711897,0.6892684169121344,,0.030391278827471595,0.7540910713450895,1.2033428329483908,0.992106297613451,-0.10820197047696511,-0.06338318247479297,-0.04398874283783835,-0.7736207938306751,0.6321201292921647,-0.11743119150923001,-0.624342214604858,-0.7722737301779884,,0.13038898187117376,0.6078368031503771,-0.4467577075583673,0.9947004240876782,-0.0948709536253383,-0.039630398408449036,-0.05187981086493344,-0.7959148226484885,0.6031816312795377,-0.08876683808952657,-0.5979290068617213,-0.7966186987567789,,0.0,0.0,0.045,1.0,0.0,0.0,0.0,1.0,0.0,0.0,0.0,1.0,,-0.004532675332162834,-0.1840998204509654,0.22948081799119216,True,,0.13461288334172294,0.46437948433238735,-0.4040178736090133,0.4696217999298295,-0.4787442565886959,-0.741794649356548,0.7092400548590954,0.7049419577738647,-0.005948172275435759,0.5257698256976474,-0.5233170864335387,0.6706007138622636
15:53:28.615397,,0.04289205838344293,-0.6651898733884539,0.10554782067000001,-3.6181781902509913,-0.5815032657404127,1.3638867340247496,,0.13634327944525207,0.4561434377742437,-0.40351420352861866,0.5320994250730078,-0.34718858132483643,-0.772224249058926,0.6760704594241659,0.7232869279014223,0.1406582874235285,0.5097047534906574,-0.596922196709563,0.6195845021822755,,0.013854136264720946,0.2856605211607135,-0.0774828332836791,0.13426862621299973,0.7722242490451091,0.6210005194569539,-0.9170320833526789,-0.14065828742101183,0.37318548236212123,0.3755317484327188,-0.6195845021711897,0.6892684169121344,,0.030391278827471595,0.7540910713450895,1.2033428329483908,0.992106297613451,-0.10820197047696511,-0.06338318247479297,-0.04398874283783835,-0.7736207938306751,0.6321201292921647,-0.11743119150923001,-0.624342214604858,-0.7722737301779884,,0.13038898187117376,0.6078368031503771,-0.4467577075583673,0.9947004240876782,-0.0948709536253383,-0.039630398408449036,-0.05187981086493344,-0.7959148226484885,0.6031816312795377,-0.08876683808952657,-0.5979290068617213,-0.7966186987567789,,0.0,0.0,0.045,1.0,0.0,0.0,0.0,1.0,0.0,0.0,0.0,1.0,,-0.004532675332162834,-0.1840998204509654,0.22948081799119216,True,,0.13460498868948684,0.4643285684874555,-0.40402915794411337,0.4700667530546744,-0.478876038293893,-0.7414276685021822,0.7090614334078158,0.7051221909453115,-0.005880432818892889,0.5256131004134975,-0.522953569434639,0.6710070289417845
15:53:28.638503,,0.042853444719071807,-0.6652902689158189,0.10557504276000002,-3.6185975433096664,-0.5815032657404127,1.3638867340247496,,0.13634096138929153,0.4561278359654302,-0.4035178811810499,0.5320978443451565,-0.3471868999520148,-0.7722260941880605,0.6760711682824292,0.7232861286830929,0.14065899001434512,0.5097054634398859,-0.5969241430502992,0.6195820429799408,,0.01385352538918323,0.28566034621562986,-0.0774825044438412,0.13426634986701985,0.7722260941696384,0.6209987171719279,-0.9170323533986766,-0.14065899001098958,0.37318455394276634,0.3755319028601434,-0.6195820429651601,0.6892705433439376,,0.030391278827471595,0.7540910713450895,1.2033428329483908,0.992106297613451,-0.10820197047696511,-0.06338318247479297,-0.04398874283783835,-0.7736207938306751,0.6321201292921647,-0.11743119150923001,-0.624342214604858,-0.7722737301779884,,0.13038898187117376,0.6078368031503771,-0.4467577075583673,0.9947004240876782,-0.0948709536253383,-0.039630398408449036,-0.05187981086493344,-0.7959148226484885,0.6031816312795377,-0.08876683808952657,-0.5979290068617213,-0.7966186987567789,,0.0,0.0,0.045,1.0,0.0,0.0,0.0,1.0,0.0,0.0,0.0,1.0,,-0.004532675332162834,-0.1840998204509654,0.22948081799119216,True,,0.1346006774580876,0.4642976487164887,-0.4040372232651756,0.47036305287376917,-0.47897053040484555,-0.7411786758231573,0.7089455997255731,0.7052390064543154,-0.005837842501956236,0.5255042674622306,-0.5227094554138381,0.6712824220102546
15:53:28.665631,,0.04278394012320379,-0.6654447235733033,0.10561133888000002,-3.6188072198390038,-0.5815032657404127,1.36402449731285,,0.13633599286510983,0.45610661604939257,-0.40352413341687976,0.53209841987431,-0.34718775218137427,-0.7722253144662555,0.6760709101937209,0.7232864633966969,0.14065850936552898,0.5097052049538993,-0.5969232418011076,0.619583123915234,,0.013853698047410504,0.28565962799891714,-0.0774825817611886,0.13426512858026995,0.7722253144524387,0.6209999508296046,-0.9170336626452973,-0.14065850936301227,0.37318151787480347,0.3755291423936236,-0.6195831239041483,0.6892710756665349,,0.030391278827471595,0.7540910713450895,1.2033428329483908,0.992106297613451,-0.10820197047696511,-0.06338318247479297,-0.04398874283783835,-0.7736207938306751,0.6321201292921647,-0.11743119150923001,-0.624342214604858,-0.7722737301779884,,0.13038898187117376,0.6078368031503771,-0.4467577075583673,0.9947004240876782,-0.0948709536253383,-0.039630398408449036,-0.05187981086493344,-0.7959148226484885,0.6031816312795377,-0.08876683808952657,-0.5979290068617213,-0.7966186987567789,,0.0,0.0,0.045,1.0,0.0,0.0,0.0,1.0,0.0,0.0,0.0,1.0,,-0.004532675332162834,-0.1840998204509654,0.22948081799119216,True,,0.13459068860837675,0.46425585260055957,-0.4040494828745174,0.47051910115659057,-0.4788631539227014,-0.7411490101605733,0.7088156788018322,0.705370275660473,-0.0057539290373451735,0.5255398262087205,-0.5226307052115022,0.6713158995872479
15:53:28.693233,,0.04272988099308421,-0.6655219509020456,0.10563207952,-3.619645925956355,-0.5815032657404127,1.36402449731285,,0.13636726105599672,0.4560803502034021,-0.40353192261010773,0.5320970865031145,-0.34718566712539844,-0.7722271706418967,0.676071508126379,0.7232856677896057,0.14065972653843617,0.509705803807079,-0.5969254185514605,0.6195805341136399,,0.013850215269353199,0.2856583362706273,-0.07748301450561858,0.13426402806636228,0.7722271706285846,0.6209978805727832,-0.9170329101795096,-0.1406597265360114,0.3731829081617173,0.3755313733639538,-0.6195805341029591,0.6892721881416639,,0.030391278827471595,0.7540910713450895,1.2033428329483908,0.992106297613451,-0.10820197047696511,-0.06338318247479297,-0.04398874283783835,-0.7736207938306751,0.6321201292921647,-0.11743119150923001,-0.624342214604858,-0.7722737301779884,,0.13035492527242107,0.6078485718357751,-0.4467529528228371,0.99469837488403,-0.09489147085224463,-0.039632710764815754,-0.05189507192754288,-0.7959154111324186,0.6031795419537607,-0.0887808792066461,-0.5979249677688756,-0.7966201657037587,,0.0,0.0,0.045,1.0,0.0,0.0,0.0,1.0,0.0,0.0,0.0,1.0,,-0.004532675332162834,-0.1840998204509654,0.22948081799119216,True,,0.13465642006098347,0.46420480129866903,-0.4040650299357905,0.4710215013059289,-0.4790875530092976,-0.7406847250072547,0.7087009507959424,0.7054864767301199,-0.005638571791660607,0.5252444265753197,-0.5222680803021432,0.6718291037526418
15:53:28.716611,,0.04263720819859352,-0.6656300691622847,0.10566707935000001,-3.6200652790150305,-0.5815032657404127,1.36402449731285,,0.13636027593348915,0.4560603852941475,-0.403535202596747,0.532096270308311,-0.3471840841744647,-0.7722284447104517,0.6760718741370062,0.7232851249241407,0.14066075879343956,0.5097061703813882,-0.5969269970100267,0.6195787117999866,,0.013846942309748254,0.2856572581648749,-0.07748356332338227,0.1342640823436111,0.7722284446992356,0.620996284498369,-0.9170317878426058,-0.14066075879139656,0.3731852770318977,0.3755340946566286,-0.6195787117909876,0.6892723435745831,,0.030391278827471595,0.7540910713450895,1.2033428329483908,0.992106297613451,-0.10820197047696511,-0.06338318247479297,-0.04398874283783835,-0.7736207938306751,0.6321201292921647,-0.11743119150923001,-0.624342214604858,-0.7722737301779884,,0.13035492527242107,0.6078485718357751,-0.4467529528228371,0.99469837488403,-0.09489147085224463,-0.039632710764815754,-0.05189507192754288,-0.7959154111324186,0.6031795419537607,-0.0887808792066461,-0.5979249677688756,-0.7966201657037587,,0.0,0.0,0.045,1.0,0.0,0.0,0.0,1.0,0.0,0.0,0.0,1.0,,-0.004532675332162834,-0.1840998204509654,0.22948081799119216,True,,0.13464552529494722,0.4641661095854378,-0.40407132354992165,0.47131840104181844,-0.47913580718174975,-0.7404646130070478,0.7085680367651526,0.7056204891741288,-0.005573377112750466,0.5251574069878109,-0.5220427219432875,0.6720722389385553
15:53:28.743163,,0.04249819900685748,-0.6656764055595301,0.10568393112,-3.620694308603043,-0.5815032657404127,1.36402449731285,,0.13635146631728007,0.4560501284795923,-0.40353622022972846,0.5320949660838499,-0.34718217418475006,-0.7722302020748584,0.6760724589956245,0.7232843702961544,0.14066182805901878,0.5097067561410544,-0.5969290222577934,0.6195762787022422,,0.013843440946005833,0.2856555005192825,-0.07748397669441939,0.13426179380491038,0.772230202060303,0.6209945939478816,-0.9170318749252392,-0.1406618280563675,0.37318466000258427,0.3755347002045101,-0.6195762786905641,0.689274200727522,,0.030391278827471595,0.7540910713450895,1.2033428329483908,0.992106297613451,-0.10820197047696511,-0.06338318247479297,-0.04398874283783835,-0.7736207938306751,0.6321201292921647,-0.11743119150923001,-0.624342214604858,-0.7722737301779884,,0.13035492527242107,0.6078485718357751,-0.4467529528228371,0.99469837488403,-0.09489147085224463,-0.039632710764815754,-0.05189507192754288,-0.7959154111324186,0.6031795419537607,-0.0887808792066461,-0.5979249677688756,-0.7966201657037587,,0.0,0.0,0.045,1.0,0.0,0.0,0.0,1.0,0.0,0.0,0.0,1.0,,-0.004532675332162834,-0.1840998204509654,0.22948081799119216,True,,0.13463113503478838,0.4641475193380846,-0.4040733225749979,0.47175513500302013,-0.4792196677544418,-0.7401321521428486,0.708435618996279,0.7057547138429351,-0.0054090318760157685,0.5249438697000293,-0.5217842407794617,0.6724396922688008
15:53:28.766541,,0.042243348822008066,-0.6658076920183919,0.10570337547000001,-3.6209039851323808,-0.5815032657404127,1.36402449731285,,0.13633407242651804,0.456037200935692,-0.4035416555680154,0.5320952425931865,-0.34718194558375576,-0.7722301143249829,0.6760723349996134,0.7232844148858464,0.14066219474830272,0.5097066319539786,-0.5969291011869977,0.6195763048230739,,0.013840550461389307,0.2856539178175051,-0.07748471890247773,0.13426178160417845,0.772230114310398,0.6209947057059733,-0.9170316919633665,-0.14066219474564606,0.3731849713833211,0.37553515134738596,-0.6195763048113722,0.6892739314532419,,0.030391278827471595,0.7540910713450895,1.2033428329483908,0.992106297613451,-0.10820197047696511,-0.06338318247479297,-0.04398874283783835,-0.7736207938306751,0.6321201292921647,-0.11743119150923001,-0.624342214604858,-0.7722737301779884,,0.13035492527242107,0.6078485718357751,-0.4467529528228371,0.99469837488403,-0.09489147085224463,-0.039632710764815754,-0.05189507192754288,-0.7959154111324186,0.6031795419537607,-0.0887808792066461,-0.5979249677688756,-0.7966201657037587,,0.0,0.0,0.045,1.0,0.0,0.0,0.0,1.0,0.0,0.0,0.0,1.0,,-0.004532675332162834,-0.1840998204509654,0.22948081799119216,True,,0.1345992513391116,0.4641233037889005,-0.4040834469947845,0.47191031009654777,-0.4790614125512388,-0.7401356782570288,0.7082759728925186,0.7059156404380149,-0.005315525199204085,0.5250198143382174,-0.5217118664448788,0.6724365568310995
15:53:28.793930,,0.04208889416452358,-0.6659003648128826,0.10571504208000002,-3.621533014720394,-0.5815032657404127,1.36402449731285,,0.13632390297293717,0.4560286940394245,-0.40354650362379807,0.5320939092080325,-0.3471798605133789,-0.7722319704840153,0.6760729329330951,0.7232836192733222,0.14066341189565554,0.5097072308089782,-0.5969312779079305,0.6195737149978591,,0.013837067681843045,0.28565262609047537,-0.07748515164833206,0.13426068108275824,0.7722319704794096,0.6209926354416405,-0.9170309394974288,-0.14066341189481663,0.37318636168360253,0.3755373823039849,-0.6195737149941639,0.6892750439183719,,0.030391278827471595,0.7540910713450895,1.2033428329483908,0.992106297613451,-0.10820197047696511,-0.06338318247479297,-0.04398874283783835,-0.7736207938306751,0.6321201292921647,-0.11743119150923001,-0.624342214604858,-0.7722737301779884,,0.13035492527242107,0.6078485718357751,-0.4467529528228371,0.99469837488403,-0.09489147085224463,-0.039632710764815754,-0.05189507192754288,-0.7959154111324186,0.6031795419537607,-0.0887808792066461,-0.5979249677688756,-0.7966201657037587,,0.0,0.0,0.045,1.0,0.0,0.0,0.0,1.0,0.0,0.0,0.0,1.0,,-0.004532675332162834,-0.1840998204509654,0.22948081799119216,True,,0.1345821075068461,0.4641077703812348,-0.4040931117834038,0.4723502938536426,-0.47912754532020596,-0.7398121350801239,0.708112953534578,0.7060802446518,-0.0051704109112299945,0.5248440196219388,-0.5214283109190452,0.672793632281993
15:53:28.818324,,0.04194988497278754,-0.6660316512717444,0.1057383753,-3.6219523677790693,-0.5815032657404127,1.36402449731285,,0.136315420165426,0.4560145326926987,-0.4035524022480793,0.5320939092080323,-0.347179860513379,-0.7722319704840153,0.6760729329330951,0.7232836192733221,0.14066341189565537,0.5097072308089782,-0.5969312779079304,0.6195737149978591,,0.013837067681843042,0.2856526260904753,-0.07748515164833207,0.1342606810827584,0.7722319704794096,0.6209926354416404,-0.9170309394974285,-0.14066341189481646,0.37318636168360253,0.3755373823039848,-0.6195737149941639,0.6892750439183717,,0.030391278827471595,0.7540910713450895,1.2033428329483908,0.992106297613451,-0.10820197047696511,-0.06338318247479297,-0.04398874283783835,-0.7736207938306751,0.6321201292921647,-0.11743119150923001,-0.624342214604858,-0.7722737301779884,,0.13035492527242107,0.6078485718357751,-0.4467529528228371,0.99469837488403,-0.09489147085224463,-0.039632710764815754,-0.05189507192754288,-0.7959154111324186,0.6031795419537607,-0.0887808792066461,-0.5979249677688756,-0.7966201657037587,,0.0,0.0,0.045,1.0,0.0,0.0,0.0,1.0,0.0,0.0,0.0,1.0,,-0.004532675332162834,-0.1840998204509654,0.22948081799119216,True,,0.13456514189182375,0.4640794476877833,-0.40410490903196633,0.4726487670196128,-0.4791344378733643,-0.7396170181104647,0.7079556184662591,0.7062385406273689,-0.005095685879353218,0.5247875620828839,-0.5212075538365686,0.6730086927423774
15:53:28.846213,,0.04190354857554219,-0.6661474922648578,0.10576559739000001,-3.622371720837745,-0.5815032657404127,1.36402449731285,,0.13631262033622055,0.45599907118501976,-0.4035573734188477,0.5320933336814339,-0.34717900826824205,-0.7722327501923615,0.6760731910173269,0.7232832845589875,0.14066389254251394,0.5097074892910908,-0.5969321791421893,0.61957263405119,,0.013836895022322125,0.2856533443079071,-0.07748507434050918,0.13426190233545726,0.7722327501785446,0.620991401790042,-0.9170296302248444,-0.14066389253999717,0.3731893977451622,0.3755401427745973,-0.6195726340401045,0.6892745115537477,,0.030391278827471595,0.7540910713450895,1.2033428329483908,0.992106297613451,-0.10820197047696511,-0.06338318247479297,-0.04398874283783835,-0.7736207938306751,0.6321201292921647,-0.11743119150923001,-0.624342214604858,-0.7722737301779884,,0.13035492527242107,0.6078485718357751,-0.4467529528228371,0.99469837488403,-0.09489147085224463,-0.039632710764815754,-0.05189507192754288,-0.7959154111324186,0.6031795419537607,-0.0887808792066461,-0.5979249677688756,-0.7966201657037587,,0.0,0.0,0.045,1.0,0.0,0.0,0.0,1.0,0.0,0.0,0.0,1.0,,-0.004532675332162834,-0.1840998204509654,0.22948081799119216,True,,0.13455959403814008,0.4640478809552567,-0.40411509622805947,0.47294551364156506,-0.4792203907716841,-0.7393715968272994,0.7078287577826985,0.7063659501181051,-0.005059068051372184,0.5246913290517752,-0.5209558153839737,0.6732785810015799
15:53:28.870358,,0.04188810310979374,-0.6662169968607258,0.10578374545000001,-3.6230007504257573,-0.5815032657404127,1.36402449731285,,0.13631264637883514,0.45598900134968456,-0.4035609137716192,0.5320932753473713,-0.3471786581307608,-0.7722329478004879,0.6760732171761319,0.7232832025893601,0.14066418829678543,0.5097075154902283,-0.5969324821037998,0.6195723206068648,,0.013836932184303192,0.2856542761458121,-0.07748511310403194,0.1342642783673451,0.772232947786671,0.6209906423380475,-0.9170279510756949,-0.14066418829426863,0.3731934123770718,0.3755433935840501,-0.6195723205957794,0.6892730221408291,,0.030391278827471595,0.7540910713450895,1.2033428329483908,0.992106297613451,-0.10820197047696511,-0.06338318247479297,-0.04398874283783835,-0.7736207938306751,0.6321201292921647,-0.11743119150923001,-0.624342214604858,-0.7722737301779884,,0.13035492527242107,0.6078485718357751,-0.4467529528228371,0.99469837488403,-0.09489147085224463,-0.039632710764815754,-0.05189507192754288,-0.7959154111324186,0.6031795419537607,-0.0887808792066461,-0.5979249677688756,-0.7966201657037587,,0.0,0.0,0.045,1.0,0.0,0.0,0.0,1.0,0.0,0.0,0.0,1.0,,-0.004532675332162834,-0.1840998204509654,0.22948081799119216,True,,0.13455957833212864,0.46402685528859333,-0.40412218675395023,0.4733826225387163,-0.4794048475290397,-0.7389721813735787,0.7077113141285913,0.7064842397170887,-0.0049714068179101956,0.5244555162573364,-0.520625595987198,0.6737175968239404
15:53:28.897833,,0.04188038037691952,-0.6663328378538391,0.10580448609000001,-3.6230007504257573,-0.5815032657404127,1.3640933789569,,0.13631111345555352,0.45597659615079345,-0.4035663600525728,0.5320927289877219,-0.34717798095207736,-0.7722336287034112,0.676073462180552,0.7232829088596032,0.14066452106623337,0.5097077608724442,-0.596933231855649,0.6195713963804086,,0.013836740945393285,0.285654528444301,-0.07748501641293214,0.13426431159587465,0.7722336286914364,0.620989788417434,-0.9170274813758355,-0.14066452106405214,0.37319444112191635,0.3755445286542789,-0.6195713963708012,0.68927323447669,,0.030391278827471595,0.7540910713450895,1.2033428329483908,0.992106297613451,-0.10820197047696511,-0.06338318247479297,-0.04398874283783835,-0.7736207938306751,0.6321201292921647,-0.11743119150923001,-0.624342214604858,-0.7722737301779884,,0.13035492527242107,0.6078485718357751,-0.4467529528228371,0.99469837488403,-0.09489147085224463,-0.039632710764815754,-0.05189507192754288,-0.7959154111324186,0.6031795419537607,-0.0887808792066461,-0.5979249677688756,-0.7966201657037587,,0.0,0.0,0.045,1.0,0.0,0.0,0.0,1.0,0.0,0.0,0.0,1.0,,-0.004532675332162834,-0.1840998204509654,0.22948081799119216,True,,0.13455659818452217,0.4640018441715867,-0.404133319262058,0.47339105447020413,-0.47933589781875957,-0.7390115064123643,0.7076425396209611,0.7065530253881626,-0.004985823265111267,0.5245406997234672,-0.5205957350738846,0.6736743537915758
15:53:28.923782,,0.04183404397967417,-0.6664177879154556,0.10581874528000002,-3.6232104269550955,-0.5815032657404127,1.3641622606009502,,0.13630808537951766,0.4559678310295753,-0.4035705601834413,0.5320927289877219,-0.34717798095207736,-0.7722336287034112,0.676073462180552,0.7232829088596032,0.14066452106623337,0.5097077608724442,-0.596933231855649,0.6195713963804086,,0.013836740945393281,0.285654528444301,-0.07748501641293214,0.13426431159587465,0.7722336286914364,0.6209897884174339,-0.9170274813758355,-0.14066452106405214,0.3731944411219163,0.3755445286542789,-0.6195713963708012,0.68927323447669,,0.030391278827471595,0.7540910713450895,1.2033428329483908,0.992106297613451,-0.10820197047696511,-0.06338318247479297,-0.04398874283783835,-0.7736207938306751,0.6321201292921647,-0.11743119150923001,-0.624342214604858,-0.7722737301779884,,0.13035492527242107,0.6078485718357751,-0.4467529528228371,0.99469837488403,-0.09489147085224463,-0.039632710764815754,-0.05189507192754288,-0.7959154111324186,0.6031795419537607,-0.0887808792066461,-0.5979249677688756,-0.7966201657037587,,0.0,0.0,0.045,1.0,0.0,0.0,0.0,1.0,0.0,0.0,0.0,1.0,,-0.004532675332162834,-0.1840998204509654,0.22948081799119216,True,,0.13455054203245048,0.4639843139291503,-0.404141719523795,0.4735414182555146,-0.479305811933877,-0.7389346817161602,0.7075580546054002,0.7066380718382206,-0.004922884498268776,0.524518945853796,-0.5205079961683285,0.6737590825846089
15:53:28.950084,,0.04173364845230925,-0.6665336289085689,0.10583689334000002,-3.6238394565431085,-0.5815032657404127,1.3641622606009502,,0.13630242946454113,0.4559561517118354,-0.4035764617253331,0.5320916945976929,-0.3471769767336801,-0.77223479290059,0.6760739260317098,0.7232824033695398,0.1406648908436379,0.5097082254390504,-0.596934428393977,0.6195698613697491,,0.013836321303612495,0.28565410120290474,-0.07748478426876171,0.13426200203081423,0.7722347928849307,0.620988840018957,-0.91702822112703,-0.14066489084078548,0.3731924839821791,0.3755435479764188,-0.6195698613571855,0.6892751485659158,,0.030391278827471595,0.7540910713450895,1.2033428329483908,0.992106297613451,-0.10820197047696511,-0.06338318247479297,-0.04398874283783835,-0.7736207938306751,0.6321201292921647,-0.11743119150923001,-0.624342214604858,-0.7722737301779884,,0.13035492527242107,0.6078485718357751,-0.4467529528228371,0.99469837488403,-0.09489147085224463,-0.039632710764815754,-0.05189507192754288,-0.7959154111324186,0.6031795419537607,-0.0887808792066461,-0.5979249677688756,-0.7966201657037587,,0.0,0.0,0.045,1.0,0.0,0.0,0.0,1.0,0.0,0.0,0.0,1.0,,-0.004532675332162834,-0.1840998204509654,0.22948081799119216,True,,0.13453946939371547,0.4639614398505645,-0.40415399267840124,0.47398211202312013,-0.4794143850278409,-0.7385816169594799,0.7073939299106013,0.7068030854520825,-0.004819369362430326,0.52434224072426,-0.5201838577116686,0.6741468451075544
15:53:28.978826,,0.04162553019207011,-0.6666340244359339,0.10585763398,-3.624049133072446,-0.5813691242719604,1.3640942777047387,,0.1362951505624524,0.4559431203217028,-0.4035806863273289,0.5320912065832405,-0.34717664968186474,-0.7722352761901434,0.6760741448713828,0.7232821916119826,0.1406649278725718,0.5097084446163509,-0.5969348751854286,0.6195692505879687,,0.01383609290303135,0.28565342166383917,-0.07748464881428502,0.13425965922853617,0.7722352761772475,0.6209887455484913,-0.9170294305774052,-0.14066492787022278,0.3731894980954669,0.37554143223527126,-0.6195692505776222,0.6892768503148542,,0.030391278827471595,0.7540910713450895,1.2033428329483908,0.992106297613451,-0.10820197047696511,-0.06338318247479297,-0.04398874283783835,-0.7736207938306751,0.6321201292921647,-0.11743119150923001,-0.624342214604858,-0.7722737301779884,,0.13035492527242107,0.6078485718357751,-0.4467529528228371,0.99469837488403,-0.09489147085224463,-0.039632710764815754,-0.05189507192754288,-0.7959154111324186,0.6031795419537607,-0.0887808792066461,-0.5979249677688756,-0.7966201657037587,,0.0,0.0,0.045,1.0,0.0,0.0,0.0,1.0,0.0,0.0,0.0,1.0,,-0.004532675332162834,-0.1840998204509654,0.22948081799119216,True,,0.13452506508023834,0.46393606234884965,-0.4041626720080454,0.4741764547008478,-0.4793698655267836,-0.7384857627823087,0.7071930954239948,0.7070038179734721,-0.004850479931125751,0.524437427718468,-0.5199520491312319,0.6742516229214948
15:53:29.003251,,0.041540580130453635,-0.6667653108947957,0.10587318946000002,-3.624468486131122,-0.5813691242719604,1.3640942777047387,,0.13628990763600854,0.4559323609539705,-0.4035881706266622,0.5320917821139308,-0.3471775019288989,-0.7722344964848635,0.6760738867868872,0.7232825263267061,0.14066444723287103,0.5097081861336863,-0.5969339739576458,0.6195703315390757,,0.01383626556246712,0.2856527034463334,-0.07748472612199343,0.13425843798163478,0.7722344964793368,0.6209899791975094,-0.917030739848415,-0.14066444723186433,0.37318646203166217,0.3755386717629581,-0.6195703315346416,0.6892773826829472,,0.030391278827471595,0.7540910713450895,1.2033428329483908,0.992106297613451,-0.10820197047696511,-0.06338318247479297,-0.04398874283783835,-0.7736207938306751,0.6321201292921647,-0.11743119150923001,-0.624342214604858,-0.7722737301779884,,0.13035492527242107,0.6078485718357751,-0.4467529528228371,0.99469837488403,-0.09489147085224463,-0.039632710764815754,-0.05189507192754288,-0.7959154111324186,0.6031795419537607,-0.0887808792066461,-0.5979249677688756,-0.7966201657037587,,0.0,0.0,0.045,1.0,0.0,0.0,0.0,1.0,0.0,0.0,0.0,1.0,,-0.004532675332162834,-0.1840998204509654,0.22948081799119216,True,,0.1345145274222333,0.4639151873317372,-0.404177395751582,0.4744741186914335,-0.4794216060380163,-0.7382609527503923,0.7070481327889475,0.7071491077568798,-0.004803885751347825,0.524363660651318,-0.519706708694989,0.6744981010542369
15:53:29.025853,,0.04150968919895674,-0.6668734291550349,0.10588226349000002,-3.624468486131122,-0.5813691242719604,1.3640942777047387,,0.13628711187834627,0.455925584627651,-0.4035945960194206,0.5320923284697153,-0.34717817911175475,-0.7722338155845825,0.676073641784864,0.7232828200552989,0.14066411445925242,0.5097079407537497,-0.5969332242064439,0.6195712557656878,,0.01383645680137868,0.285652451147761,-0.0774848228132368,0.13425840475016804,0.7722338155799768,0.6209908331181728,-0.9170312095431219,-0.14066411445841348,0.3731854332842874,0.3755375366935921,-0.6195712557619927,0.6892771703427356,,0.030391278827471595,0.7540910713450895,1.2033428329483908,0.992106297613451,-0.10820197047696511,-0.06338318247479297,-0.04398874283783835,-0.7736207938306751,0.6321201292921647,-0.11743119150923001,-0.624342214604858,-0.7722737301779884,,0.13035492527242107,0.6078485718357751,-0.4467529528228371,0.99469837488403,-0.09489147085224463,-0.039632710764815754,-0.05189507192754288,-0.7959154111324186,0.6031795419537607,-0.0887808792066461,-0.5979249677688756,-0.7966201657037587,,0.0,0.0,0.045,1.0,0.0,0.0,0.0,1.0,0.0,0.0,0.0,1.0,,-0.004532675332162834,-0.1840998204509654,0.22948081799119216,True,,0.13450885020754075,0.46390183539775964,-0.40419000659073057,0.47448207004835385,-0.47938495836519185,-0.7382796400388083,0.706978405370653,0.7072184973203257,-0.004850916155642593,0.5244504738697429,-0.5196460898930961,0.6744773100087345
15:53:29.053501,,0.041486521000334065,-0.6669506564837772,0.10589263381000001,-3.624887839189797,-0.5813691242719604,1.3640942777047387,,0.1362860389201931,0.4559187629901057,-0.4035992822333724,0.5320923284697153,-0.34717817911175475,-0.7722338155845825,0.676073641784864,0.7232828200552989,0.14066411445925242,0.5097079407537497,-0.5969332242064439,0.6195712557656878,,0.01383645680137868,0.285652451147761,-0.0774848228132368,0.13425840475016804,0.7722338155799768,0.6209908331181728,-0.9170312095431219,-0.14066411445841348,0.3731854332842874,0.3755375366935921,-0.6195712557619927,0.6892771703427356,,0.030391278827471595,0.7540910713450895,1.2033428329483908,0.992106297613451,-0.10820197047696511,-0.06338318247479297,-0.04398874283783835,-0.7736207938306751,0.6321201292921647,-0.11743119150923001,-0.624342214604858,-0.7722737301779884,,0.13035492527242107,0.6078485718357751,-0.4467529528228371,0.99469837488403,-0.09489147085224463,-0.039632710764815754,-0.05189507192754288,-0.7959154111324186,0.6031795419537607,-0.0887808792066461,-0.5979249677688756,-0.7966201657037587,,0.0,0.0,0.045,1.0,0.0,0.0,0.0,1.0,0.0,0.0,0.0,1.0,,-0.004532675332162834,-0.1840998204509654,0.22948081799119216,True,,0.1345067042912344,0.4638881921226692,-0.4041993790186342,0.47477541985669863,-0.47949371532219975,-0.7380203775414396,0.7068791251358765,0.7073180475909062,-0.004804372937910584,0.5243187991547067,-0.5194102006301973,0.6747613210123002
15:53:29.078762,,0.041432461870214495,-0.6670587747440162,0.10591078187000001,-3.6250975157191343,-0.5813691242719604,1.3640942777047387,,0.136282338214069,0.4559076301070474,-0.4036045897444297,0.5320923284697153,-0.34717817911175475,-0.7722338155845825,0.676073641784864,0.7232828200552989,0.14066411445925242,0.5097079407537497,-0.5969332242064439,0.6195712557656878,,0.01383645680137868,0.285652451147761,-0.0774848228132368,0.13425840475016804,0.7722338155799768,0.6209908331181728,-0.9170312095431219,-0.14066411445841348,0.3731854332842874,0.3755375366935921,-0.6195712557619927,0.6892771703427356,,0.030391278827471595,0.7540910713450895,1.2033428329483908,0.992106297613451,-0.10820197047696511,-0.06338318247479297,-0.04398874283783835,-0.7736207938306751,0.6321201292921647,-0.11743119150923001,-0.624342214604858,-0.7722737301779884,,0.13035492527242107,0.6078485718357751,-0.4467529528228371,0.99469837488403,-0.09489147085224463,-0.039632710764815754,-0.05189507192754288,-0.7959154111324186,0.6031795419537607,-0.0887808792066461,-0.5979249677688756,-0.7966201657037587,,0.0,0.0,0.045,1.0,0.0,0.0,0.0,1.0,0.0,0.0,0.0,1.0,,-0.004532675332162834,-0.1840998204509654,0.22948081799119216,True,,0.13449930287898615,0.46386592635655244,-0.40420999404074887,0.47492728918997484,-0.4795055958161121,-0.7379149365365208,0.7067793555385573,0.7074177710400912,-0.004799979288595213,0.5243157565505386,-0.519263402135857,0.6748766603129285
15:53:29.103799,,0.041378402740094924,-0.6671360020727585,0.10592115219,-3.6253071922484725,-0.5813691242719604,1.3640942777047387,,0.13627894928861609,0.4559008198571053,-0.40360879655237913,0.5320928748202811,-0.347178856297374,-0.7722331346850743,0.676073396784798,0.7232831137830741,0.14066378167860333,0.5097076953758435,-0.5969324744527711,0.6195721799906273,,0.013836648039830653,0.28565219884888404,-0.07748491950429837,0.13425837152139625,0.7722331346823108,0.6209916870361453,-0.9170316792382418,-0.14066378167809995,0.37318440453795665,0.37553640162140906,-0.6195721799884101,0.6892769580034546,,0.030391278827471595,0.7540910713450895,1.2033428329483908,0.992106297613451,-0.10820197047696511,-0.06338318247479297,-0.04398874283783835,-0.7736207938306751,0.6321201292921647,-0.11743119150923001,-0.624342214604858,-0.7722737301779884,,0.13035492527242107,0.6078485718357751,-0.4467529528228371,0.99469837488403,-0.09489147085224463,-0.039632710764815754,-0.05189507192754288,-0.7959154111324186,0.6031795419537607,-0.0887808792066461,-0.5979249677688756,-0.7966201657037587,,0.0,0.0,0.045,1.0,0.0,0.0,0.0,1.0,0.0,0.0,0.0,1.0,,-0.004532675332162834,-0.1840998204509654,0.22948081799119216,True,,0.13449243932905217,0.4638525065745446,-0.4042181677107205,0.4750769117578892,-0.4795205501585899,-0.737808897947287,0.7066974314651224,0.7074997623902144,-0.004777716859408476,0.5242906334040169,-0.5191378701206391,0.6749927433176013
15:53:29.128386,,0.041308898144226905,-0.6672518430658718,0.10593800396000001,-3.6255168687778103,-0.5813691242719604,1.3641631593487888,,0.1362747094159802,0.45589015628551255,-0.4036147575736462,0.5320928748202811,-0.347178856297374,-0.7722331346850743,0.676073396784798,0.7232831137830741,0.14066378167860333,0.5097076953758435,-0.5969324744527711,0.6195721799906273,,0.013836648039830653,0.28565219884888404,-0.07748491950429837,0.13425837152139625,0.7722331346823108,0.6209916870361453,-0.9170316792382418,-0.14066378167809995,0.37318440453795665,0.37553640162140906,-0.6195721799884101,0.6892769580034546,,0.030391278827471595,0.7540910713450895,1.2033428329483908,0.992106297613451,-0.10820197047696511,-0.06338318247479297,-0.04398874283783835,-0.7736207938306751,0.6321201292921647,-0.11743119150923001,-0.624342214604858,-0.7722737301779884,,0.13035492527242107,0.6078485718357751,-0.4467529528228371,0.99469837488403,-0.09489147085224463,-0.039632710764815754,-0.05189507192754288,-0.7959154111324186,0.6031795419537607,-0.0887808792066461,-0.5979249677688756,-0.7966201657037587,,0.0,0.0,0.045,1.0,0.0,0.0,0.0,1.0,0.0,0.0,0.0,1.0,,-0.004532675332162834,-0.1840998204509654,0.22948081799119216,True,,0.1344839595837804,0.4638311794313592,-0.4042300897532546,0.475229322991067,-0.4794743575270212,-0.7377407614084384,0.7065913697659989,0.7076060402069412,-0.004725255004998041,0.5242954574871515,-0.5190356753988141,0.6750675824846245
