AlexandreBanks6/RCL_Autocam_Public/dataCollection/ParticipantData/P07/optimizationData/Data_54.csv
System Time,q_des,q0,q1,q2,q3,q4,q5,T_des,Tx,Ty,Tz,R00,R01,R02,R10,R11,R12,R20,R21,R22,T_target,Tx,Ty,Tz,R00,R01,R02,R10,R11,R12,R20,R21,R22,worldFrame,Tx,Ty,Tz,R00,R01,R02,R10,R11,R12,R20,R21,R22,ECM_T_PSM_RCM,Tx,Ty,Tz,R00,R01,R02,R10,R11,R12,R20,R21,R22,psm3_T_cam,Tx,Ty,Tz,R00,R01,R02,R10,R11,R12,R20,R21,R22,offset,x,y,z,IK Trigered,ECM_T_PSM3,Tx,Ty,Tz,R00,R01,R02,R10,R11,R12,R20,R21,R22,solverSuccess,q_solverOutput,q0,q1,q2,q3,q4,q5
16:27:33.588860,,-0.5450473180641432,-0.8495932889591867,0.17873246520000002,-3.3663566785164387,-0.7882152686252976,0.7420159140010428,,0.11953254784573675,0.4748366275273414,-0.4386325590408111,0.27746039696107644,-0.6603953270298699,-0.6977777154332983,0.7475997503274324,0.6045783097641148,-0.274917588875515,0.603415562799438,-0.44537970250099757,0.6614579194261418,,0.002323499209812126,0.2430732469457684,-0.11806845702401988,0.9279257271163371,-0.3649907535192561,-0.07573370980655292,0.3724620069207795,0.916025815878767,0.14889176620681607,0.015029915374434707,-0.16636842996520004,0.9859491098199503,,0.05370437762837789,0.6983360494392399,1.1604850546924563,0.9922960697440881,-0.07638153270694843,-0.0975416394765502,0.004867504973505216,-0.7626859202048828,0.6467507205381096,-0.1237934463764897,-0.6422429825093992,-0.7564384535781234,,0.0,0.0,0.0,1.0,0.0,0.0,0.0,1.0,0.0,0.0,0.0,1.0,,0.0,0.0,0.045,1.0,0.0,0.0,0.0,1.0,0.0,0.0,0.0,1.0,,-0.0031823361860085927,-0.18649200154343593,0.22944396511176599,True,,0.11953254784573675,0.4748366275273414,-0.4386325590408111,0.11798186912747594,-0.5272567848893207,-0.8414752291929717,0.6441901777484004,0.68552750949938,-0.3392212384448563,0.7557111177226863,-0.5020481217052348,0.4205334588859419,False,,0.0,0.0,0.0,0.0,0.0,0.0
16:27:35.384912,,-0.5564229035878759,-0.8518483269584604,0.18036838318,-3.5722590303260393,-0.9938541397625646,0.7300992420247395,,0.11970886330980149,0.47478270779332565,-0.43825310256531913,0.1644401014496071,-0.6201368618993606,-0.7670656592162474,0.7600894650472716,0.5752963679847038,-0.3021557447869568,0.6286680031299472,-0.5333520052434614,0.565961288732174,,0.002315913776805675,0.24307150406919553,-0.11806201368270955,0.9279279034119624,-0.36498760765054744,-0.0757222040405092,0.37245717222705127,0.9160257819112297,0.14890406839402143,0.01501535147277979,-0.16637551799827044,0.9859481355957315,,0.05370437762837789,0.6983360494392399,1.1604850546924563,0.9922960697440881,-0.07638153270694843,-0.0975416394765502,0.004867504973505216,-0.7626859202048828,0.6467507205381096,-0.1237934463764897,-0.6422429825093992,-0.7564384535781234,,0.18007101773957546,0.6877910364996829,-0.4288753624282575,0.9930733029488626,0.005199667939279035,-0.11738133762893511,0.08420736826944675,-0.7282149573168625,0.6801559343776502,-0.08194226076555734,-0.6853290737983628,-0.7236086832724632,,0.0,0.0,0.045,1.0,0.0,0.0,0.0,1.0,0.0,0.0,0.0,1.0,,-0.0031823361860085927,-0.18649200154343593,0.22944396511176599,False,,0.11970886330980149,0.47478270779332565,-0.43825310256531913,0.2772514126004073,-0.6602128096071764,-0.6980334520935778,0.742832383758534,0.6080739335126634,-0.28008238256279444,0.6093699236512196,-0.44086861695184826,0.6590168121802901,False,,0.0,0.0,0.0,0.0,0.0,0.0
16:27:35.403144,,-0.5564306263207501,-0.8518483269584604,0.18036838318,-3.5722590303260393,-0.9938541397625646,0.7300992420247395,,0.1197072492286787,0.4747832671249955,-0.4382554213463189,0.16446080248480854,-0.6201571463543344,-0.7670448215532788,0.7600881347759976,0.5752964241559493,-0.30215898418899084,0.6286641963869086,-0.5333283586863036,0.5659878002237997,,0.0023130118258409636,0.24307056526425028,-0.11805974372858032,0.9279291022753282,-0.3649850310766164,-0.0757199321329545,0.37245429510321804,0.9160264728643066,0.1489070144508218,0.015012631061303496,-0.1663773661995335,0.9859478651565903,,0.05370437762837789,0.6983360494392399,1.1604850546924563,0.9922960697440881,-0.07638153270694843,-0.0975416394765502,0.004867504973505216,-0.7626859202048828,0.6467507205381096,-0.1237934463764897,-0.6422429825093992,-0.7564384535781234,,0.18007101773957546,0.6877910364996829,-0.4288753624282575,0.9930733029488626,0.005199667939279035,-0.11738133762893511,0.08420736826944675,-0.7282149573168625,0.6801559343776502,-0.08194226076555734,-0.6853290737983628,-0.7236086832724632,,0.0,0.0,0.045,1.0,0.0,0.0,0.0,1.0,0.0,0.0,0.0,1.0,,-0.0031823361860085927,-0.18649200154343593,0.22944396511176599,False,,0.1197072492286787,0.4747832671249955,-0.4382554213463189,0.27724927413105127,-0.6602019024229812,-0.6980446175072779,0.7428258095175942,0.6080824454844656,-0.280081338557504,0.609378910619933,-0.4408732102665219,0.6590054292348093,False,,0.0,0.0,0.0,0.0,0.0,0.0
16:27:35.415604,,-0.5564074581221274,-0.8518560496913345,0.18036838318,-3.571839677267364,-0.9935858568256601,0.7299632762323164,,0.1197072492286787,0.4747832671249955,-0.4382554213463189,0.16446418032440194,-0.6201564518461657,-0.7670446588196784,0.760087917679783,0.5752980107418585,-0.30215650950074163,0.6286635752033308,-0.5333274548249272,0.5659893418983535,,0.0023118409556750616,0.24307036424595793,-0.11805870038258677,0.927929346624167,-0.3649848887779938,-0.07571762365789185,0.372453805685028,0.9160262916392755,0.14890935347174275,0.01500967019697769,-0.1663786761708018,0.9859476891860265,,0.05370437762837789,0.6983360494392399,1.1604850546924563,0.9922960697440881,-0.07638153270694843,-0.0975416394765502,0.004867504973505216,-0.7626859202048828,0.6467507205381096,-0.1237934463764897,-0.6422429825093992,-0.7564384535781234,,0.18007101773957546,0.6877910364996829,-0.4288753624282575,0.9930733029488626,0.005199667939279035,-0.11738133762893511,0.08420736826944675,-0.7282149573168625,0.6801559343776502,-0.08194226076555734,-0.6853290737983628,-0.7236086832724632,,0.0,0.0,0.045,1.0,0.0,0.0,0.0,1.0,0.0,0.0,0.0,1.0,,-0.0031823361860085927,-0.18649200154343593,0.22944396511176599,False,,0.1197072492286787,0.4747832671249955,-0.4382554213463189,0.27724927413105127,-0.6602019024229812,-0.6980446175072779,0.7428258095175942,0.6080824454844656,-0.280081338557504,0.609378910619933,-0.4408732102665219,0.6590054292348093,False,,0.0,0.0,0.0,0.0,0.0,0.0
16:27:35.429693,,-0.5563688444577564,-0.8518560496913345,0.18036708689000003,-3.569113882385974,-0.9927810080149468,0.7296931421431472,,0.11968656393951649,0.4747808548682612,-0.4382580710492711,0.16540767220250432,-0.6208924987901769,-0.7662459180463144,0.7600269214079288,0.5753748525980332,-0.3021636274156397,0.6284897618193432,-0.5323873438990466,0.5670664293928741,,0.002311362516566496,0.24307045834289834,-0.11805814768193146,0.9279292091605307,-0.36498572018978315,-0.0757153005589036,0.3724542713447704,0.9160257615403513,0.14891144968041584,0.015006613149406881,-0.16637977084499236,0.9859475509933677,,0.05370437762837789,0.6983360494392399,1.1604850546924563,0.9922960697440881,-0.07638153270694843,-0.0975416394765502,0.004867504973505216,-0.7626859202048828,0.6467507205381096,-0.1237934463764897,-0.6422429825093992,-0.7564384535781234,,0.18007101773957546,0.6877910364996829,-0.4288753624282575,0.9930733029488626,0.005199667939279035,-0.11738133762893511,0.08420736826944675,-0.7282149573168625,0.6801559343776502,-0.08194226076555734,-0.6853290737983628,-0.7236086832724632,,0.0,0.0,0.045,1.0,0.0,0.0,0.0,1.0,0.0,0.0,0.0,1.0,,-0.0031823361860085927,-0.18649200154343593,0.22944396511176599,False,,0.11968656393951649,0.4747808548682612,-0.4382580710492711,0.2755108060294593,-0.658845731433176,-0.7000114984293336,0.7426323572849857,0.608261420819104,-0.2802056849110497,0.6104023080512909,-0.4426514951012911,0.6568627529478654,False,,0.0,0.0,0.0,0.0,0.0,0.0
16:27:35.441506,,-0.5562838943961399,-0.8518637724242087,0.18036708689000003,-3.5653397048578963,-0.9915737347988768,0.7285302429248413,,0.11966298682418271,0.4747766839010443,-0.4382601719159975,0.1665448470780557,-0.6215379722123556,-0.7654759062242914,0.7599524568172834,0.5755629624192463,-0.3019926152550032,0.6282794579557112,-0.5314299816432402,0.5681963545479181,,0.002308776508769348,0.24307019060786994,-0.11805571696365164,0.9279295114988882,-0.36498629549404754,-0.07570882220688437,0.3724538560128973,0.9160249052404131,0.14891775612533023,0.01499822654668682,-0.16638322346261722,0.9859470960044613,,0.05370437762837789,0.6983360494392399,1.1604850546924563,0.9922960697440881,-0.07638153270694843,-0.0975416394765502,0.004867504973505216,-0.7626859202048828,0.6467507205381096,-0.1237934463764897,-0.6422429825093992,-0.7564384535781234,,0.18007101773957546,0.6877910364996829,-0.4288753624282575,0.9930733029488626,0.005199667939279035,-0.11738133762893511,0.08420736826944675,-0.7282149573168625,0.6801559343776502,-0.08194226076555734,-0.6853290737983628,-0.7236086832724632,,0.0,0.0,0.045,1.0,0.0,0.0,0.0,1.0,0.0,0.0,0.0,1.0,,-0.0031823361860085927,-0.18649200154343593,0.22944396511176599,False,,0.11966298682418271,0.4747766839010443,-0.4382601719159975,0.27342349282533623,-0.6577110331932485,-0.7018944296595202,0.742453864302554,0.6082387509410307,-0.28072741447158334,0.611556909006348,-0.44436676143650167,0.6546268619427689,False,,0.0,0.0,0.0,0.0,0.0,0.0
16:27:35.454873,,-0.5559363714167997,-0.8518714951570829,0.18036579060000002,-3.5529687896269726,-0.9891591883667367,0.7251023381834255,,0.11963312916733748,0.4747740508987482,-0.43825650704590746,0.16789453436686283,-0.6225040944846553,-0.7643952365625873,0.7598627325429288,0.5757076067593375,-0.3019426753737031,0.628028703979466,-0.5301409283098933,0.5696758228225917,,0.0023092246733149207,0.24307062002448593,-0.11805586357972875,0.927928943340691,-0.36498812907964595,-0.075706946187339,0.3724553746246019,0.916024062511595,0.14891914172612444,0.014995665484412266,-0.16638384083238908,0.9859470307709164,,0.05370437762837789,0.6983360494392399,1.1604850546924563,0.9922960697440881,-0.07638153270694843,-0.0975416394765502,0.004867504973505216,-0.7626859202048828,0.6467507205381096,-0.1237934463764897,-0.6422429825093992,-0.7564384535781234,,0.18007101773957546,0.6877910364996829,-0.4288753624282575,0.9930733029488626,0.005199667939279035,-0.11738133762893511,0.08420736826944675,-0.7282149573168625,0.6801559343776502,-0.08194226076555734,-0.6853290737983628,-0.7236086832724632,,0.0,0.0,0.045,1.0,0.0,0.0,0.0,1.0,0.0,0.0,0.0,1.0,,-0.0031823361860085927,-0.18649200154343593,0.22944396511176599,False,,0.11963312916733748,0.4747740508987482,-0.43825650704590746,0.2704457042446238,-0.6560606812748647,-0.7045874704682092,0.7425381243134058,0.6079704817604361,-0.28108544474787733,0.6127774922406651,-0.4471647076784384,0.6515730728092577,False,,0.0,0.0,0.0,0.0,0.0,0.0
16:27:35.468730,,-0.555704689430573,-0.8518869406228314,0.18036579060000002,-3.5454204345708162,-0.9880860566191187,0.7226297889803267,,0.11956471501608981,0.4747736628103092,-0.4382448510474166,0.17107832562564554,-0.6249084020748032,-0.7617228469183801,0.7596452961257991,0.5760001076522177,-0.3019319460715955,0.627432251781077,-0.5269851658262783,0.5732498621229467,,0.002308526682583362,0.243068735907565,-0.11805596994146622,0.9279046227002374,-0.3650434967070748,-0.07573798605949175,0.37251439350747895,0.9160086910509708,0.14886601491874601,0.015034082952779158,-0.1663469545254888,0.9859526626156094,,0.05370437762837789,0.6983360494392399,1.1604850546924563,0.9922960697440881,-0.07638153270694843,-0.0975416394765502,0.004867504973505216,-0.7626859202048828,0.6467507205381096,-0.1237934463764897,-0.6422429825093992,-0.7564384535781234,,0.18007101773957546,0.6877910364996829,-0.4288753624282575,0.9930733029488626,0.005199667939279035,-0.11738133762893511,0.08420736826944675,-0.7282149573168625,0.6801559343776502,-0.08194226076555734,-0.6853290737983628,-0.7236086832724632,,0.0,0.0,0.045,1.0,0.0,0.0,0.0,1.0,0.0,0.0,0.0,1.0,,-0.0031823361860085927,-0.18649200154343593,0.22944396511176599,False,,0.11956471501608981,0.4747736628103092,-0.4382448510474166,0.26256811897740484,-0.6521187184306058,-0.7111955848914503,0.7433391326887927,0.6066494173351463,-0.28182160715672766,0.6152275324708257,-0.45466213996697813,0.6440321589567616,False,,0.0,0.0,0.0,0.0,0.0,0.0
16:27:35.482356,,-0.5554112255813525,-0.8519023860885799,0.18036449431,-3.535984990750621,-0.9868787834030487,0.7198137303048154,,0.11952274427680555,0.4747756261501597,-0.4382359291720692,0.17303303396609895,-0.6264747045595965,-0.7599927721389547,0.7595077694128708,0.5761443250136552,-0.3020027565371632,0.6270626103970578,-0.5249639619074111,0.5755044060131094,,0.00230782879850285,0.24306685172630313,-0.11805607629607015,0.9278803007353513,-0.36509886539031805,-0.07576902266827083,0.37257341017243034,0.9159933175218267,0.1488128861556436,0.01507250270819449,-0.16631007048338636,0.9859582947143612,,0.05370437762837789,0.6983360494392399,1.1604850546924563,0.9922960697440881,-0.07638153270694843,-0.0975416394765502,0.004867504973505216,-0.7626859202048828,0.6467507205381096,-0.1237934463764897,-0.6422429825093992,-0.7564384535781234,,0.18007101773957546,0.6877910364996829,-0.4288753624282575,0.9930733029488626,0.005199667939279035,-0.11738133762893511,0.08420736826944675,-0.7282149573168625,0.6801559343776502,-0.08194226076555734,-0.6853290737983628,-0.7236086832724632,,0.0,0.0,0.045,1.0,0.0,0.0,0.0,1.0,0.0,0.0,0.0,1.0,,-0.0031823361860085927,-0.18649200154343593,0.22944396511176599,False,,0.11952274427680555,0.4747756261501597,-0.4382359291720692,0.2574280419089754,-0.6495379309277081,-0.7154238460696308,0.7440442521467419,0.6056379433114274,-0.2821361948933527,0.6165459870004072,-0.4596772323137794,0.6391931539104885,False,,0.0,0.0,0.0,0.0,0.0,0.0
16:27:35.498356,,-0.5547007341569239,-0.8519255542872025,0.18036060544000002,-3.515436690875528,-0.9848666613762653,0.7154187863031808,,0.11948659419320064,0.47477957650007097,-0.4382236946860541,0.17487215729262603,-0.6281799711794138,-0.7581620225340057,0.7593755717174901,0.5761878519477811,-0.30225204771272796,0.6267124298133541,-0.5228742516866107,0.5777837374317565,,0.002306906931403162,0.24306475277715217,-0.11805610934348215,0.9278562615189059,-0.3651533185060752,-0.07580099426155211,0.37263166531485875,0.9159783632994034,0.14875906277904832,0.01511220538882942,-0.16627288034501153,0.9859639594310428,,0.05370437762837789,0.6983360494392399,1.1604850546924563,0.9922960697440881,-0.07638153270694843,-0.0975416394765502,0.004867504973505216,-0.7626859202048828,0.6467507205381096,-0.1237934463764897,-0.6422429825093992,-0.7564384535781234,,0.18007101773957546,0.6877910364996829,-0.4288753624282575,0.9930733029488626,0.005199667939279035,-0.11738133762893511,0.08420736826944675,-0.7282149573168625,0.6801559343776502,-0.08194226076555734,-0.6853290737983628,-0.7236086832724632,,0.0,0.0,0.045,1.0,0.0,0.0,0.0,1.0,0.0,0.0,0.0,1.0,,-0.0031823361860085927,-0.18649200154343593,0.22944396511176599,False,,0.11948659419320064,0.47477957650007097,-0.4382236946860541,0.2521846057230677,-0.6466095000809555,-0.7199299125896617,0.7449592720328617,0.6045587974576974,-0.2820360676026594,0.6176071628863851,-0.4651933090894149,0.6341581644431227,False,,0.0,0.0,0.0,0.0,0.0,0.0
16:27:35.510469,,-0.5543145975132127,-0.851940999752951,0.18035801286000003,-3.502436746056592,-0.9836593881601953,0.713084899136021,,0.11938381736542909,0.47479113625634856,-0.43819744595173055,0.17951840136361952,-0.6329589595165437,-0.7530843904500908,0.7590294714347091,0.5761062344532291,-0.3032752349231092,0.6258173895517737,-0.5171697614824898,0.5838561747063639,,0.002305597894691445,0.24306266238730467,-0.11805591119857961,0.9278323289823467,-0.3652070731238651,-0.07583501098831512,0.372689573004693,0.9159634992926775,0.14870553450761748,0.015153789126075692,-0.1662367214544263,0.9859694219250967,,0.05370437762837789,0.6983360494392399,1.1604850546924563,0.9922960697440881,-0.07638153270694843,-0.0975416394765502,0.004867504973505216,-0.7626859202048828,0.6467507205381096,-0.1237934463764897,-0.6422429825093992,-0.7564384535781234,,0.18007101773957546,0.6877910364996829,-0.4288753624282575,0.9930733029488626,0.005199667939279035,-0.11738133762893511,0.08420736826944675,-0.7282149573168625,0.6801559343776502,-0.08194226076555734,-0.6853290737983628,-0.7236086832724632,,0.0,0.0,0.045,1.0,0.0,0.0,0.0,1.0,0.0,0.0,0.0,1.0,,-0.0031823361860085927,-0.18649200154343593,0.22944396511176599,False,,0.11938381736542909,0.47479113625634856,-0.43819744595173055,0.23913644736663936,-0.6379494424213933,-0.7320070139384571,0.7472735089715438,0.6022862899754884,-0.2807730893389152,0.6199968244517218,-0.4798663707969082,0.6207513220670462,False,,0.0,0.0,0.0,0.0,0.0,0.0
16:27:35.522726,,-0.5538512335407592,-0.8519641679515737,0.18035153141000002,-3.4862916532975907,-0.9821838320072207,0.7097884664478353,,0.1193097581763695,0.4748051611623762,-0.4381855323062613,0.18270345265143909,-0.636098986294948,-0.7496649438407688,0.7587821615719986,0.5761012793714416,-0.3039028581417317,0.6251952332426797,-0.5133082850891145,0.5879162566127115,,0.0023044521443580535,0.24306034860647077,-0.1180558709439341,0.9278085712023543,-0.3652606120724899,-0.07586791457746708,0.3727470642993756,0.9159489625001851,0.1486510145995965,0.01519477706651088,-0.16619922789749153,0.9859751190504933,,0.05370437762837789,0.6983360494392399,1.1604850546924563,0.9922960697440881,-0.07638153270694843,-0.0975416394765502,0.004867504973505216,-0.7626859202048828,0.6467507205381096,-0.1237934463764897,-0.6422429825093992,-0.7564384535781234,,0.18007101773957546,0.6877910364996829,-0.4288753624282575,0.9930733029488626,0.005199667939279035,-0.11738133762893511,0.08420736826944675,-0.7282149573168625,0.6801559343776502,-0.08194226076555734,-0.6853290737983628,-0.7236086832724632,,0.0,0.0,0.045,1.0,0.0,0.0,0.0,1.0,0.0,0.0,0.0,1.0,,-0.0031823361860085927,-0.18649200154343593,0.22944396511176599,False,,0.1193097581763695,0.4748051611623762,-0.4381855323062613,0.23027886551461993,-0.63220992817593,-0.7397852734497256,0.7488846418072502,0.6005796400598624,-0.28013548366958557,0.6214044072603012,-0.4895045481518548,0.6117531037731826,False,,0.0,0.0,0.0,0.0,0.0,0.0
16:27:35.534891,,-0.5528704464657327,-0.8519796134173221,0.18034116109,-3.458404674895679,-0.9800375685119851,0.703052445296332,,0.11923572688132958,0.4748147407989862,-0.4381701476626825,0.18579976924189598,-0.6389779344072546,-0.7464486888529555,0.7585338857654202,0.5761643934388163,-0.30440258848914736,0.6245836932671799,-0.5096486937822161,0.5917376268506257,,0.0023042889562549748,0.24306057193491232,-0.11805571305407823,0.927808395025364,-0.3652608289900986,-0.07586902473339212,0.37274747843773814,0.9159486333363386,0.1486520043446224,0.015195375179245501,-0.16620056523018106,0.9859748844054815,,0.05370437762837789,0.6983360494392399,1.1604850546924563,0.9922960697440881,-0.07638153270694843,-0.0975416394765502,0.004867504973505216,-0.7626859202048828,0.6467507205381096,-0.1237934463764897,-0.6422429825093992,-0.7564384535781234,,0.18007101773957546,0.6877910364996829,-0.4288753624282575,0.9930733029488626,0.005199667939279035,-0.11738133762893511,0.08420736826944675,-0.7282149573168625,0.6801559343776502,-0.08194226076555734,-0.6853290737983628,-0.7236086832724632,,0.0,0.0,0.045,1.0,0.0,0.0,0.0,1.0,0.0,0.0,0.0,1.0,,-0.0031823361860085927,-0.18649200154343593,0.22944396511176599,False,,0.11923572688132958,0.4748147407989862,-0.4381701476626825,0.22165974083072323,-0.6268214466233718,-0.7469684286151859,0.7506193401265638,0.5986520951409147,-0.27961808813335937,0.6224448293004117,-0.4987088760352844,0.603201368898318,False,,0.0,0.0,0.0,0.0,0.0,0.0
16:27:35.547061,,-0.5524225279590276,-0.8519873361501964,0.18033986480000003,-3.446453112723432,-0.9790985782328194,0.7002345891251434,,0.11920657295071206,0.47482471232946666,-0.43815430674064676,0.18811928041325093,-0.6408821877586277,-0.7442319247052733,0.758342815007022,0.5763135787541135,-0.3045961816419432,0.624121231223571,-0.5070825182919848,0.5944240980803459,,0.002303840772943401,0.2430601425269709,-0.1180555664679159,0.9278089632132507,-0.36525899591842864,-0.07587090124396965,0.3727459597140444,0.9159494762125642,0.14865061895782217,0.015197936431201532,-0.16619994855699866,0.985974948871239,,0.05370437762837789,0.6983360494392399,1.1604850546924563,0.9922960697440881,-0.07638153270694843,-0.0975416394765502,0.004867504973505216,-0.7626859202048828,0.6467507205381096,-0.1237934463764897,-0.6422429825093992,-0.7564384535781234,,0.18007101773957546,0.6877910364996829,-0.4288753624282575,0.9930733029488626,0.005199667939279035,-0.11738133762893511,0.08420736826944675,-0.7282149573168625,0.6801559343776502,-0.08194226076555734,-0.6853290737983628,-0.7236086832724632,,0.0,0.0,0.045,1.0,0.0,0.0,0.0,1.0,0.0,0.0,0.0,1.0,,-0.0031823361860085927,-0.18649200154343593,0.22944396511176599,False,,0.11920657295071206,0.47482471232946666,-0.43815430674064676,0.2149560117279821,-0.6230196882739226,-0.7520906734198103,0.7519852065788329,0.5969531354506556,-0.27958040554055474,0.6231469827485241,-0.5054635714853202,0.5968202541743328,False,,0.0,0.0,0.0,0.0,0.0,0.0
16:27:35.559518,,-0.5519668867194484,-0.8520182270816933,0.18033208706,-3.433662844433833,-0.9780254464852016,0.6978309215660946,,0.11916228781600102,0.4748265743820665,-0.4381522032425499,0.19329028340163268,-0.6450266510476016,-0.7393101418084511,0.7579011475214799,0.576685775042578,-0.30499076617033044,0.6230768146289353,-0.5013722532229488,0.6003341959025845,,0.0023036166818266343,0.2430599278228087,-0.11805549317387071,0.9278092473086414,-0.36525807938432325,-0.07587183950050966,0.3727452003521639,0.9159498976535854,0.14864992626622858,0.015199217056838459,-0.16619964021924177,0.9859749811065173,,0.05370437762837789,0.6983360494392399,1.1604850546924563,0.9922960697440881,-0.07638153270694843,-0.0975416394765502,0.004867504973505216,-0.7626859202048828,0.6467507205381096,-0.1237934463764897,-0.6422429825093992,-0.7564384535781234,,0.18007101773957546,0.6877910364996829,-0.4288753624282575,0.9930733029488626,0.005199667939279035,-0.11738133762893511,0.08420736826944675,-0.7282149573168625,0.6801559343776502,-0.08194226076555734,-0.6853290737983628,-0.7236086832724632,,0.0,0.0,0.045,1.0,0.0,0.0,0.0,1.0,0.0,0.0,0.0,1.0,,-0.0031823361860085927,-0.18649200154343593,0.22944396511176599,False,,0.11916228781600102,0.4748265743820665,-0.4381522032425499,0.20125433713351634,-0.6140520992029102,-0.7631754131583698,0.7546952016380473,0.5938811180463509,-0.2788196016289453,0.6244452293111514,-0.5198511682130914,0.5829433235727363,False,,0.0,0.0,0.0,0.0,0.0,0.0
16:27:35.572822,,-0.5514494636168753,-0.8520259498145675,0.18032819819,-3.424856430201651,-0.9769523147375838,0.695702780583247,,0.11915856289967484,0.4748214906261842,-0.4381393476191129,0.19521483534822137,-0.6462408910343459,-0.737742420371163,0.7577312201084558,0.5769593716359305,-0.30489552563857575,0.6226833594475749,-0.4994903344776627,0.6023079275839519,,0.0023133736750421976,0.24305926679904308,-0.11805906528214193,0.9278081222199075,-0.3652598061670333,-0.07587728384543167,0.3727477130610573,0.9159499063141401,0.1486435716505742,0.015206268861578238,-0.1661957971313023,0.985975520114658,,0.05370437762837789,0.6983360494392399,1.1604850546924563,0.9922960697440881,-0.07638153270694843,-0.0975416394765502,0.004867504973505216,-0.7626859202048828,0.6467507205381096,-0.1237934463764897,-0.6422429825093992,-0.7564384535781234,,0.1800371564368982,0.6877919050602289,-0.42886718665150303,0.9930742380856995,0.005163046184590986,-0.11737504251161392,0.08417548753379248,-0.7282240374402121,0.6801501588566489,-0.08196368066989025,-0.6853197022181489,-0.7236151330663779,,0.0,0.0,0.045,1.0,0.0,0.0,0.0,1.0,0.0,0.0,0.0,1.0,,-0.0031823361860085927,-0.18649200154343593,0.22944396511176599,False,,0.11915856289967484,0.4748214906261842,-0.4381393476191129,0.19628071146613316,-0.6111156786320276,-0.7668190853366033,0.7554844272224689,0.5927763577095277,-0.2790330983323738,0.6250737256761691,-0.5245510624055033,0.578038943669517,False,,0.0,0.0,0.0,0.0,0.0,0.0
16:27:35.588522,,-0.5508316449869374,-0.8520568407460644,0.18031782787000003,-3.4114371323240396,-0.9749401927108003,0.6914455998697127,,0.11914790156348662,0.47482285219102216,-0.43813587445333524,0.1968481650294156,-0.6471349552948501,-0.7365236924635109,0.7575846413605405,0.5772482096518234,-0.3047130053482881,0.6223474199345357,-0.4979968414451009,0.6038897538553952,,0.0023227433909112694,0.24305861439336404,-0.11806240621945781,0.9278071050026033,-0.3652608333680101,-0.0758847765764669,0.37274988050402946,0.915950007262273,0.1486375140485698,0.015215199406686714,-0.16619298302158805,0.9859758566534305,,0.05370437762837789,0.6983360494392399,1.1604850546924563,0.9922960697440881,-0.07638153270694843,-0.0975416394765502,0.004867504973505216,-0.7626859202048828,0.6467507205381096,-0.1237934463764897,-0.6422429825093992,-0.7564384535781234,,0.1800371564368982,0.6877919050602289,-0.42886718665150303,0.9930742380856995,0.005163046184590986,-0.11737504251161392,0.08417548753379248,-0.7282240374402121,0.6801501588566489,-0.08196368066989025,-0.6853197022181489,-0.7236151330663779,,0.0,0.0,0.045,1.0,0.0,0.0,0.0,1.0,0.0,0.0,0.0,1.0,,-0.0031823361860085927,-0.18649200154343593,0.22944396511176599,False,,0.11914790156348662,0.47482285219102216,-0.43813587445333524,0.1923175185675648,-0.6090605418903573,-0.7694538507046664,0.7559563773366668,0.5919139766823229,-0.2795850492643376,0.6257347102535049,-0.5279044426033402,0.5742586280271453,False,,0.0,0.0,0.0,0.0,0.0,0.0
16:27:35.600104,,-0.5503760037473582,-0.8520491180131902,0.18031912416,-3.405356512973247,-0.9738670609631825,0.6891796955987646,,0.11913991110140182,0.47480787415429737,-0.4381225128604385,0.1999235984272435,-0.64836035754217,-0.7346151383953993,0.7573027441028567,0.5779825960861084,-0.30402084204186675,0.621709826660465,-0.4955451194284451,0.6065574383720495,,0.002332500386417933,0.24305795336292757,-0.11806597834144879,0.9278059798684588,-0.36526256021730563,-0.0758902208823781,0.37275239313749853,0.9159500159254186,0.14863115937864793,0.015222251224595324,-0.166189139932405,0.9859763955784797,,0.05370437762837789,0.6983360494392399,1.1604850546924563,0.9922960697440881,-0.07638153270694843,-0.0975416394765502,0.004867504973505216,-0.7626859202048828,0.6467507205381096,-0.1237934463764897,-0.6422429825093992,-0.7564384535781234,,0.1800371564368982,0.6877919050602289,-0.42886718665150303,0.9930742380856995,0.005163046184590986,-0.11737504251161392,0.08417548753379248,-0.7282240374402121,0.6801501588566489,-0.08196368066989025,-0.6853197022181489,-0.7236151330663779,,0.0,0.0,0.045,1.0,0.0,0.0,0.0,1.0,0.0,0.0,0.0,1.0,,-0.0031823361860085927,-0.18649200154343593,0.22944396511176599,False,,0.11913991110140182,0.47480787415429737,-0.4381225128604385,0.18507366300127567,-0.60578281878988,-0.7738054766685731,0.7568100966882277,0.5901512782968437,-0.28099812503886346,0.6268861274697708,-0.53361844531799,0.5676840124597182,False,,0.0,0.0,0.0,0.0,0.0,0.0
16:27:35.614482,,-0.5498740261105335,-0.852041395280316,0.18031134642000002,-3.3992758936224536,-0.9718549389363991,0.6854735680376323,,0.11914603098457026,0.4747978049753112,-0.43811771629757257,0.2012172921563687,-0.6484934556269828,-0.7341442905493669,0.7571818568102137,0.5784501083234355,-0.3034322130197173,0.621439648763012,-0.4948249288279446,0.6074216433053105,,0.0023423791802856734,0.2430581683953501,-0.11806938125709113,0.9278039341670498,-0.36526655392363117,-0.07589600898325892,0.37275725277658645,0.9159485234255617,0.14862816956308364,0.015227938050961343,-0.16618858826639013,0.9859764007740893,,0.05370437762837789,0.6983360494392399,1.1604850546924563,0.9922960697440881,-0.07638153270694843,-0.0975416394765502,0.004867504973505216,-0.7626859202048828,0.6467507205381096,-0.1237934463764897,-0.6422429825093992,-0.7564384535781234,,0.1800371564368982,0.6877919050602289,-0.42886718665150303,0.9930742380856995,0.005163046184590986,-0.11737504251161392,0.08417548753379248,-0.7282240374402121,0.6801501588566489,-0.08196368066989025,-0.6853197022181489,-0.7236151330663779,,0.0,0.0,0.045,1.0,0.0,0.0,0.0,1.0,0.0,0.0,0.0,1.0,,-0.0031823361860085927,-0.18649200154343593,0.22944396511176599,False,,0.11914603098457026,0.4747978049753112,-0.43811771629757257,0.18241878401023745,-0.6051325827602001,-0.7749438331403096,0.7568228640919119,0.5895544702597709,-0.28221388871640685,0.6276484203978705,-0.5350140968971664,0.5655239840124976,False,,0.0,0.0,0.0,0.0,0.0,0.0
16:27:35.626151,,-0.5496268986585584,-0.8520491180131902,0.18031005013,-3.3978081579170905,-0.9714525145310424,0.6840986314001436,,0.11915585481528806,0.4747930202848458,-0.4381138257537909,0.20180744178054166,-0.6482844097642079,-0.7341669295866343,0.757126257104734,0.578774773590404,-0.3029514684862129,0.6213160123838508,-0.4947191986491422,0.607634205129518,,0.002351972988726528,0.24305773069196107,-0.11807279549090055,0.9278026327955101,-0.3652684977287632,-0.07590256341366275,0.3727601795044588,0.9159482029666922,0.1486228045959413,0.015235587996405672,-0.16618608256148354,0.9859767050033911,,0.05370437762837789,0.6983360494392399,1.1604850546924563,0.9922960697440881,-0.07638153270694843,-0.0975416394765502,0.004867504973505216,-0.7626859202048828,0.6467507205381096,-0.1237934463764897,-0.6422429825093992,-0.7564384535781234,,0.1800371564368982,0.6877919050602289,-0.42886718665150303,0.9930742380856995,0.005163046184590986,-0.11737504251161392,0.08417548753379248,-0.7282240374402121,0.6801501588566489,-0.08196368066989025,-0.6853197022181489,-0.7236151330663779,,0.0,0.0,0.045,1.0,0.0,0.0,0.0,1.0,0.0,0.0,0.0,1.0,,-0.0031823361860085927,-0.18649200154343593,0.22944396511176599,False,,0.11915585481528806,0.4747930202848458,-0.4381138257537909,0.1813305525828546,-0.6054097780451743,-0.7749827297090495,0.7566345435990064,0.5892754801467459,-0.2832994456940314,0.6281905746926804,-0.5350078589564036,0.5649275995401226,False,,0.0,0.0,0.0,0.0,0.0,0.0
16:27:35.639703,,-0.5494878894668224,-0.8520568407460644,0.18031005013,-3.3971791283290775,-0.9711842315941379,0.6825161510826658,,0.11919196364845853,0.4747776651680151,-0.43810499824797833,0.2024374464423952,-0.6474550114579802,-0.7347251788361613,0.7570665884280435,0.5793705516797569,-0.3019601704401057,0.621183757807467,-0.4951078387424714,0.6074528517111045,,0.0023526705400658252,0.24305961506096324,-0.11807268907099504,0.9278269609731943,-0.36521312457713245,-0.07587153655098558,0.37270117083371396,0.915963584550228,0.148675939438193,0.01519716029981772,-0.16622295673359447,0.9859710750850231,,0.05370437762837789,0.6983360494392399,1.1604850546924563,0.9922960697440881,-0.07638153270694843,-0.0975416394765502,0.004867504973505216,-0.7626859202048828,0.6467507205381096,-0.1237934463764897,-0.6422429825093992,-0.7564384535781234,,0.1800371564368982,0.6877919050602289,-0.42886718665150303,0.9930742380856995,0.005163046184590986,-0.11737504251161392,0.08417548753379248,-0.7282240374402121,0.6801501588566489,-0.08196368066989025,-0.6853197022181489,-0.7236151330663779,,0.0,0.0,0.045,1.0,0.0,0.0,0.0,1.0,0.0,0.0,0.0,1.0,,-0.0031823361860085927,-0.18649200154343593,0.22944396511176599,False,,0.11919196364845853,0.4747776651680151,-0.43810499824797833,0.1800204423089214,-0.6067551511701083,-0.7742356404089388,0.7566056582945501,0.5883972741186416,-0.28519559191267785,0.6286020348261459,-0.5344500297860327,0.5649979181148705,False,,0.0,0.0,0.0,0.0,0.0,0.0
16:27:35.653296,,-0.5493566030079605,-0.852041395280316,0.18030875384000003,-3.3969694517997393,-0.970647665720329,0.6809354682608653,,0.11920673645854647,0.4747697540709239,-0.4380993919826833,0.20268515150402924,-0.6468299620331921,-0.7352072698062282,0.757043039045365,0.5797269310520209,-0.3013345689527896,0.621131682006921,-0.4955075031007551,0.6071801610544505,,0.002353653160022123,0.24306215211656682,-0.11807257133234234,0.9278505436066646,-0.36515980244951257,-0.07583974071591926,0.37264409273358706,0.9159777920191472,0.1487314477388615,0.015156772334066072,-0.1662617877648645,0.9859651459608765,,0.05370437762837789,0.6983360494392399,1.1604850546924563,0.9922960697440881,-0.07638153270694843,-0.0975416394765502,0.004867504973505216,-0.7626859202048828,0.6467507205381096,-0.1237934463764897,-0.6422429825093992,-0.7564384535781234,,0.1800371564368982,0.6877919050602289,-0.42886718665150303,0.9930742380856995,0.005163046184590986,-0.11737504251161392,0.08417548753379248,-0.7282240374402121,0.6801501588566489,-0.08196368066989025,-0.6853197022181489,-0.7236151330663779,,0.0,0.0,0.045,1.0,0.0,0.0,0.0,1.0,0.0,0.0,0.0,1.0,,-0.0031823361860085927,-0.18649200154343593,0.22944396511176599,False,,0.11920673645854647,0.4747697540709239,-0.4380993919826833,0.179788249816958,-0.6079036044510439,-0.7733882549684757,0.7563450058523465,0.5881215762188681,-0.2864528647230608,0.6289820485116956,-0.5334474850266548,0.5655222041341681,False,,0.0,0.0,0.0,0.0,0.0,0.0
16:27:35.667646,,-0.5492484847477214,-0.852041395280316,0.18030875384000003,-3.400743629327818,-0.9697086754411635,0.6785997835980283,,0.11922882251487396,0.47475974603902843,-0.4380970050645473,0.20268137488920276,-0.6460441044391994,-0.7358989573252399,0.7570433984657134,0.5800470233051185,-0.3007170490583371,0.621132476298338,-0.496157702625107,0.6066481525672607,,0.002354187716012095,0.2430642596848607,-0.11807230701785179,0.9278746931931837,-0.3651046482255913,-0.07580981782844237,0.3725854936137848,0.915992840275141,0.148785568576765,0.015118947836630335,-0.16630000394529793,0.9859592816174337,,0.05370437762837789,0.6983360494392399,1.1604850546924563,0.9922960697440881,-0.07638153270694843,-0.0975416394765502,0.004867504973505216,-0.7626859202048828,0.6467507205381096,-0.1237934463764897,-0.6422429825093992,-0.7564384535781234,,0.1800371564368982,0.6877919050602289,-0.42886718665150303,0.9930742380856995,0.005163046184590986,-0.11737504251161392,0.08417548753379248,-0.7282240374402121,0.6801501588566489,-0.08196368066989025,-0.6853197022181489,-0.7236151330663779,,0.0,0.0,0.045,1.0,0.0,0.0,0.0,1.0,0.0,0.0,0.0,1.0,,-0.0031823361860085927,-0.18649200154343593,0.22944396511176599,False,,0.11922882251487396,0.47475974603902843,-0.4380970050645473,0.18026269843524953,-0.6093726079367083,-0.7721207057508925,0.7559552461130492,0.5880550998778735,-0.28761582950488457,0.6293147268473867,-0.5318422926056543,0.5666628189399407,False,,0.0,0.0,0.0,0.0,0.0,0.0
16:27:35.680039,,-0.5492330392819729,-0.8520336725474417,0.18030875384000003,-3.4022113650331813,-0.9690379680989023,0.6770199995240664,,0.11926468534501339,0.47473887586573416,-0.4381004169740748,0.20251297412491615,-0.6438886545309461,-0.73783188862871,0.7570594133085264,0.5808566509397994,-0.2991096718261543,0.6211678839347948,-0.49800898749453104,0.6050929749572715,,0.002355048762605932,0.24306592055516343,-0.11807235847277399,0.9278991933589593,-0.36504906154981137,-0.07577767174673478,0.37252606433631114,0.9160085446546506,0.148837708325978,0.015079929172659937,-0.1663355484892882,0.9859538868298439,,0.05370437762837789,0.6983360494392399,1.1604850546924563,0.9922960697440881,-0.07638153270694843,-0.0975416394765502,0.004867504973505216,-0.7626859202048828,0.6467507205381096,-0.1237934463764897,-0.6422429825093992,-0.7564384535781234,,0.1800371564368982,0.6877919050602289,-0.42886718665150303,0.9930742380856995,0.005163046184590986,-0.11737504251161392,0.08417548753379248,-0.7282240374402121,0.6801501588566489,-0.08196368066989025,-0.6853197022181489,-0.7236151330663779,,0.0,0.0,0.045,1.0,0.0,0.0,0.0,1.0,0.0,0.0,0.0,1.0,,-0.0031823361860085927,-0.18649200154343593,0.22944396511176599,False,,0.11926468534501339,0.47473887586573416,-0.4381004169740748,0.18227964137745858,-0.6137507714208127,-0.7681693321915829,0.754589219455822,0.5881950825765878,-0.2908980142829688,0.6303723044521851,-0.5266275110674322,0.5703457042588849,False,,0.0,0.0,0.0,0.0,0.0,0.0
16:27:35.691677,,-0.5491944256176018,-0.8520336725474417,0.18030745755000002,-3.402421041562519,-0.9683672607566411,0.675302452162004,,0.11927088215574783,0.47473258343030933,-0.4381029869646278,0.20280757417792275,-0.6432078246279529,-0.7383446229190288,0.7570313817654388,0.5812503703141747,-0.2984149695171895,0.6211059288707336,-0.4984292340413143,0.6048104858338783,,0.0023559708041905707,0.24306801939915634,-0.11807232532485662,0.9279232321160887,-0.36499460960945457,-0.07574569450594405,0.37246780632240234,0.9160234963671642,0.14889152876362013,0.01504023050100509,-0.16637274127762744,0.9859482250134429,,0.05370437762837789,0.6983360494392399,1.1604850546924563,0.9922960697440881,-0.07638153270694843,-0.0975416394765502,0.004867504973505216,-0.7626859202048828,0.6467507205381096,-0.1237934463764897,-0.6422429825093992,-0.7564384535781234,,0.1800371564368982,0.6877919050602289,-0.42886718665150303,0.9930742380856995,0.005163046184590986,-0.11737504251161392,0.08417548753379248,-0.7282240374402121,0.6801501588566489,-0.08196368066989025,-0.6853197022181489,-0.7236151330663779,,0.0,0.0,0.045,1.0,0.0,0.0,0.0,1.0,0.0,0.0,0.0,1.0,,-0.0031823361860085927,-0.18649200154343593,0.22944396511176599,False,,0.11927088215574783,0.47473258343030933,-0.4381029869646278,0.18224769998807894,-0.6151388077430276,-0.7670658531427024,0.7541619578093427,0.5880139360964391,-0.29236852147512743,0.6308926352734152,-0.5252083949870369,0.5710784749864999,False,,0.0,0.0,0.0,0.0,0.0,0.0
16:27:35.705128,,-0.5491944256176018,-0.8520259498145675,0.18030745755000002,-3.4064048956199353,-0.9678306948828322,0.6725507813913497,,0.11927747883344036,0.4747259709051317,-0.4381042441533608,0.20290823454336346,-0.6424388396203408,-0.7389861877611554,0.7570217875451011,0.5816010121646549,-0.29775539597305184,0.6210847458572101,-0.4990116231074375,0.6043518333447543,,0.0023559708041905707,0.24306801939915634,-0.11807232532485662,0.9279232321160887,-0.36499460960945457,-0.07574569450594405,0.37246780632240234,0.9160234963671642,0.14889152876362013,0.01504023050100509,-0.16637274127762744,0.9859482250134429,,0.05370437762837789,0.6983360494392399,1.1604850546924563,0.9922960697440881,-0.07638153270694843,-0.0975416394765502,0.004867504973505216,-0.7626859202048828,0.6467507205381096,-0.1237934463764897,-0.6422429825093992,-0.7564384535781234,,0.1800371564368982,0.6877919050602289,-0.42886718665150303,0.9930742380856995,0.005163046184590986,-0.11737504251161392,0.08417548753379248,-0.7282240374402121,0.6801501588566489,-0.08196368066989025,-0.6853197022181489,-0.7236151330663779,,0.0,0.0,0.045,1.0,0.0,0.0,0.0,1.0,0.0,0.0,0.0,1.0,,-0.0031823361860085927,-0.18649200154343593,0.22944396511176599,False,,0.11927747883344036,0.4747259709051317,-0.4381042441533608,0.18259193055030462,-0.6167566659485206,-0.7656836173681516,0.7537158101728394,0.5878752633529573,-0.29379440470027973,0.631326115722622,-0.523463360461605,0.5722005294132735,False,,0.0,0.0,0.0,0.0,0.0,0.0
16:27:35.717759,,-0.5492175938162245,-0.8520105043488191,0.18030745755000002,-3.410598426206689,-0.9678306948828322,0.6719997282389479,,0.11930300797633066,0.474718641708195,-0.4381031937661386,0.20233834532859535,-0.6412002445261129,-0.7402171576161546,0.7570759959459015,0.5818711450827483,-0.2970890554743014,0.6212045801281632,-0.5002881339185892,0.6031721584158608,,0.0023561340053129902,0.24306779607525572,-0.11807248320941005,0.9279234079869794,-0.3649943929007114,-0.07574458425637694,0.3724673923499651,0.9160238255730959,0.14889053899340904,0.015039631948536653,-0.16637140414377644,0.9859484597773767,,0.05370437762837789,0.6983360494392399,1.1604850546924563,0.9922960697440881,-0.07638153270694843,-0.0975416394765502,0.004867504973505216,-0.7626859202048828,0.6467507205381096,-0.1237934463764897,-0.6422429825093992,-0.7564384535781234,,0.1800371564368982,0.6877919050602289,-0.42886718665150303,0.9930742380856995,0.005163046184590986,-0.11737504251161392,0.08417548753379248,-0.7282240374402121,0.6801501588566489,-0.08196368066989025,-0.6853197022181489,-0.7236151330663779,,0.0,0.0,0.045,1.0,0.0,0.0,0.0,1.0,0.0,0.0,0.0,1.0,,-0.0031823361860085927,-0.18649200154343593,0.22944396511176599,False,,0.11930300797633066,0.474718641708195,-0.4381031937661386,0.18430426569692113,-0.6193701870834092,-0.7631595567102476,0.7532224904779827,0.5878215950601873,-0.2951637718607118,0.6314173085084569,-0.5204289997042439,0.5748615822811403,False,,0.0,0.0,0.0,0.0,0.0,0.0
16:27:35.729281,,-0.5492175938162245,-0.8520027816159448,0.18030875384000003,-3.412904868029403,-0.9683672607566411,0.6722027781797442,,0.11933420961994433,0.4747095736875105,-0.4380992563669322,0.20155763522356526,-0.6398734077854034,-0.7415770638930111,0.7571498268389758,0.58209091026614,-0.29646974871518605,0.6213683765696426,-0.5017292040479919,0.6018049072619592,,0.0023562843209139843,0.24306695276025927,-0.11807280417302836,0.9279109986631273,-0.36502323632658623,-0.07575758703681969,0.37249762715702256,0.916015838441941,0.14886402512989486,0.015056321408763174,-0.1663520879254339,0.9859514625581034,,0.05370437762837789,0.6983360494392399,1.1604850546924563,0.9922960697440881,-0.07638153270694843,-0.0975416394765502,0.004867504973505216,-0.7626859202048828,0.6467507205381096,-0.1237934463764897,-0.6422429825093992,-0.7564384535781234,,0.1800371564368982,0.6877919050602289,-0.42886718665150303,0.9930742380856995,0.005163046184590986,-0.11737504251161392,0.08417548753379248,-0.7282240374402121,0.6801501588566489,-0.08196368066989025,-0.6853197022181489,-0.7236151330663779,,0.0,0.0,0.045,1.0,0.0,0.0,0.0,1.0,0.0,0.0,0.0,1.0,,-0.0031823361860085927,-0.18649200154343593,0.22944396511176599,False,,0.11933420961994433,0.4747095736875105,-0.4380992563669322,0.18659503191567006,-0.6220575495395241,-0.7604121902792411,0.7525715524801865,0.588043461334937,-0.29637973273958634,0.6315206666942517,-0.5169615968736065,0.5778688042245739,False,,0.0,0.0,0.0,0.0,0.0,0.0
16:27:35.740713,,-0.5491944256176018,-0.8519950588830706,0.18031005013,-3.414582280264105,-0.9687696851619978,0.6723378452243287,,0.11937129517076953,0.47470416509405566,-0.438087316249656,0.2003422390355225,-0.6388714583880404,-0.7427693093520842,0.7572637744191986,0.5820065534525916,-0.29634430598650774,0.6216225246969601,-0.5031020089359356,0.6003947079996651,,0.00235497504593,0.24306486250873577,-0.11807260614284669,0.9278870672954809,-0.3650769890093446,-0.075791611041363,0.3725555389694636,0.9160009776216764,0.14881050111429747,0.015097900236353563,-0.16631592513823415,0.9859569221403384,,0.05370437762837789,0.6983360494392399,1.1604850546924563,0.9922960697440881,-0.07638153270694843,-0.0975416394765502,0.004867504973505216,-0.7626859202048828,0.6467507205381096,-0.1237934463764897,-0.6422429825093992,-0.7564384535781234,,0.1800371564368982,0.6877919050602289,-0.42886718665150303,0.9930742380856995,0.005163046184590986,-0.11737504251161392,0.08417548753379248,-0.7282240374402121,0.6801501588566489,-0.08196368066989025,-0.6853197022181489,-0.7236151330663779,,0.0,0.0,0.045,1.0,0.0,0.0,0.0,1.0,0.0,0.0,0.0,1.0,,-0.0031823361860085927,-0.18649200154343593,0.22944396511176599,False,,0.11937129517076953,0.47470416509405566,-0.438087316249656,0.18896173135605068,-0.624088676591653,-0.7581601333709145,0.7525221250463107,0.5880458332523807,-0.29650050473869016,0.6308755149779619,-0.5145050259663091,0.5807586958941718,False,,0.0,0.0,0.0,0.0,0.0,0.0
16:27:35.752457,,-0.5492484847477214,-0.8519950588830706,0.18031134642000002,-3.4170983986161567,-0.9691721095673544,0.6725417939129634,,0.11938554473884969,0.4747023028746423,-0.43808627582695675,0.19970279669523608,-0.6383104088182496,-0.7434235770988034,0.7573232400806962,0.5819756190570502,-0.29625308244276466,0.6217558226713904,-0.5038493830674425,0.5996294657176048,,0.002354053154956615,0.24306276357780476,-0.11807263928639733,0.9278630265543539,-0.36513144268759257,-0.07582358371817635,0.37261379372761116,0.9159860227074275,0.14875667804216763,0.015137602548199128,-0.16627873616040378,0.9859625840890653,,0.05370437762837789,0.6983360494392399,1.1604850546924563,0.9922960697440881,-0.07638153270694843,-0.0975416394765502,0.004867504973505216,-0.7626859202048828,0.6467507205381096,-0.1237934463764897,-0.6422429825093992,-0.7564384535781234,,0.1800371564368982,0.6877919050602289,-0.42886718665150303,0.9930742380856995,0.005163046184590986,-0.11737504251161392,0.08417548753379248,-0.7282240374402121,0.6801501588566489,-0.08196368066989025,-0.6853197022181489,-0.7236151330663779,,0.0,0.0,0.045,1.0,0.0,0.0,0.0,1.0,0.0,0.0,0.0,1.0,,-0.0031823361860085927,-0.18649200154343593,0.22944396511176599,False,,0.11938554473884969,0.4747023028746423,-0.43808627582695675,0.19041492077006913,-0.6252993915788966,-0.7567977463227478,0.7523634948269199,0.5881643765961597,-0.2966678913449755,0.6306277266343048,-0.5128970042750423,0.5824477087307802,False,,0.0,0.0,0.0,0.0,0.0,0.0
16:27:35.765026,,-0.5493334348093378,-0.8519950588830706,0.18031005013,-3.4223403118495987,-0.9711842315941379,0.6736304190001875,,0.11940429284538519,0.4747050647439017,-0.438079807868619,0.19869554037016107,-0.6377463010284131,-0.7441772220120597,0.7574162342119386,0.5817995190232954,-0.2963612117272905,0.6219652163820863,-0.5047662579737663,0.5986403715269676,,0.002352968168353133,0.2430608879111492,-0.11807251453839661,0.9278388083423806,-0.365186114432156,-0.07585666350054003,0.3726724604236312,0.9159707365235613,0.1487038429630534,0.01517790543147966,-0.16624288705423662,0.9859680114122792,,0.05370437762837789,0.6983360494392399,1.1604850546924563,0.9922960697440881,-0.07638153270694843,-0.0975416394765502,0.004867504973505216,-0.7626859202048828,0.6467507205381096,-0.1237934463764897,-0.6422429825093992,-0.7564384535781234,,0.1800371564368982,0.6877919050602289,-0.42886718665150303,0.9930742380856995,0.005163046184590986,-0.11737504251161392,0.08417548753379248,-0.7282240374402121,0.6801501588566489,-0.08196368066989025,-0.6853197022181489,-0.7236151330663779,,0.0,0.0,0.045,1.0,0.0,0.0,0.0,1.0,0.0,0.0,0.0,1.0,,-0.0031823361860085927,-0.18649200154343593,0.22944396511176599,False,,0.11940429284538519,0.4747050647439017,-0.438079807868619,0.19220510038773772,-0.6265911523193849,-0.755275265860074,0.7524652435581803,0.5881455520695232,-0.29644707254038494,0.6299629009885171,-0.5113397475415943,0.5845326389195308,False,,0.0,0.0,0.0,0.0,0.0,0.0
16:27:35.776475,,-0.5493797712065832,-0.8519950588830706,0.18031134642000002,-3.4240177240842997,-0.9717207974679468,0.6739712322290841,,0.11942265158216132,0.47471055405221896,-0.4380748001194137,0.19773715657695695,-0.6373901330212205,-0.7447374270412699,0.7575039479504851,0.581560206730052,-0.29660663308079904,0.6221637933440748,-0.5054913889229863,0.5978216038053672,,0.0023518223943269326,0.24305857414455379,-0.11807247439140839,0.9278150489753498,-0.36523965389113144,-0.07588956815933966,0.37272995133978526,0.9159561989906382,0.14864932337524833,0.015218893000670378,-0.16620539459104317,0.9859737058054465,,0.05370437762837789,0.6983360494392399,1.1604850546924563,0.9922960697440881,-0.07638153270694843,-0.0975416394765502,0.004867504973505216,-0.7626859202048828,0.6467507205381096,-0.1237934463764897,-0.6422429825093992,-0.7564384535781234,,0.1800371564368982,0.6877919050602289,-0.42886718665150303,0.9930742380856995,0.005163046184590986,-0.11737504251161392,0.08417548753379248,-0.7282240374402121,0.6801501588566489,-0.08196368066989025,-0.6853197022181489,-0.7236151330663779,,0.0,0.0,0.045,1.0,0.0,0.0,0.0,1.0,0.0,0.0,0.0,1.0,,-0.0031823361860085927,-0.18649200154343593,0.22944396511176599,False,,0.11942265158216132,0.47471055405221896,-0.4380748001194137,0.19366881079030018,-0.627474218282314,-0.7541674198200754,0.7527408735507221,0.5880414558042222,-0.2959534144789462,0.6291848448692696,-0.5103756965673915,0.5862107806413861,False,,0.0,0.0,0.0,0.0,0.0,0.0
16:27:35.789511,,-0.5494183848709543,-0.8519796134173221,0.18031134642000002,-3.4254854597896642,-0.9718549389363991,0.674108096769346,,0.1194311992958149,0.474711486532041,-0.4380729118262382,0.1971869700980247,-0.6371021919253244,-0.7451295832722706,0.7575539641108168,0.58145614104616,-0.2966829073264849,0.6222775026333093,-0.5059738660085669,0.5972948657345017,,0.0023511375211748126,0.2430573098851546,-0.11807241775751123,0.9278033087922617,-0.3652659650365584,-0.07590648831368146,0.37275831544066695,0.9159491381768601,0.14862171621595455,0.015240027954029161,-0.16618649477936287,0.9859765669066287,,0.05370437762837789,0.6983360494392399,1.1604850546924563,0.9922960697440881,-0.07638153270694843,-0.0975416394765502,0.004867504973505216,-0.7626859202048828,0.6467507205381096,-0.1237934463764897,-0.6422429825093992,-0.7564384535781234,,0.1800371564368982,0.6877919050602289,-0.42886718665150303,0.9930742380856995,0.005163046184590986,-0.11737504251161392,0.08417548753379248,-0.7282240374402121,0.6801501588566489,-0.08196368066989025,-0.6853197022181489,-0.7236151330663779,,0.0,0.0,0.045,1.0,0.0,0.0,0.0,1.0,0.0,0.0,0.0,1.0,,-0.0031823361860085927,-0.18649200154343593,0.22944396511176599,False,,0.1194311992958149,0.474711486532041,-0.4380729118262382,0.19468660186698886,-0.6281468671897178,-0.7533449676564038,0.7527953491911553,0.588057156811391,-0.29578360765781164,0.6288054462945208,-0.5095294825254439,0.5873528897925865,False,,0.0,0.0,0.0,0.0,0.0,0.0
16:27:35.800988,,-0.5494801667339481,-0.8519564452186995,0.18031134642000002,-3.4273725485537034,-0.9718549389363991,0.6742458600574465,,0.11944334937796741,0.4747089955269671,-0.438067530314878,0.19649953952221036,-0.6363489048042273,-0.7459544237565856,0.7576161101822753,0.5814827015866335,-0.29647208527581287,0.6224192803567689,-0.5068904606618383,0.5963692650784339,,0.002351361612316966,0.24305752459432042,-0.11807249103713097,0.927803024729489,-0.3652668815598603,-0.07590555006842153,0.3727590748393528,0.9159487167330133,0.1486224089190423,0.015238747342365778,-0.1661868031569421,0.9859765347252208,,0.05370437762837789,0.6983360494392399,1.1604850546924563,0.9922960697440881,-0.07638153270694843,-0.0975416394765502,0.004867504973505216,-0.7626859202048828,0.6467507205381096,-0.1237934463764897,-0.6422429825093992,-0.7564384535781234,,0.1800371564368982,0.6877919050602289,-0.42886718665150303,0.9930742380856995,0.005163046184590986,-0.11737504251161392,0.08417548753379248,-0.7282240374402121,0.6801501588566489,-0.08196368066989025,-0.6853197022181489,-0.7236151330663779,,0.0,0.0,0.045,1.0,0.0,0.0,0.0,1.0,0.0,0.0,0.0,1.0,,-0.0031823361860085927,-0.18649200154343593,0.22944396511176599,False,,0.11944334937796741,0.4747089955269671,-0.438067530314878,0.19655225522182976,-0.6296733288853262,-0.751584133585645,0.7523617629142345,0.5884006402168844,-0.296203417091947,0.6287439770461409,-0.5072437140890289,0.5893936085888356,False,,0.0,0.0,0.0,0.0,0.0,0.0
16:27:35.812528,,-0.5495342258640676,-0.851940999752951,0.18031264271000003,-3.428840284259067,-0.9721232218733036,0.67451958913797,,0.11944744460104309,0.4747087571990911,-0.4380646654048235,0.1961098858176931,-0.6360866664818139,-0.7462805540871509,0.7576511652731464,0.5814322132748122,-0.2964815224033306,0.6224994975458331,-0.5072773739192462,0.5959564090307096,,0.002351361612316966,0.2430575245943204,-0.11807249103713098,0.9278030247294892,-0.3652668815598603,-0.07590555006842153,0.3727590748393528,0.9159487167330135,0.14862240891904233,0.015238747342365782,-0.16618680315694212,0.9859765347252211,,0.05370437762837789,0.6983360494392399,1.1604850546924563,0.9922960697440881,-0.07638153270694843,-0.0975416394765502,0.004867504973505216,-0.7626859202048828,0.6467507205381096,-0.1237934463764897,-0.6422429825093992,-0.7564384535781234,,0.1800371564368982,0.6877919050602289,-0.42886718665150303,0.9930742380856995,0.005163046184590986,-0.11737504251161392,0.08417548753379248,-0.7282240374402121,0.6801501588566489,-0.08196368066989025,-0.6853197022181489,-0.7236151330663779,,0.0,0.0,0.045,1.0,0.0,0.0,0.0,1.0,0.0,0.0,0.0,1.0,,-0.0031823361860085927,-0.18649200154343593,0.22944396511176599,False,,0.11944744460104309,0.4747087571990911,-0.4380646654048235,0.19740874895104954,-0.6302418396358935,-0.7508828200258321,0.7522955619741336,0.5885021190292029,-0.29616995683586855,0.6285548291689468,-0.5064192724122004,0.590303606001093,False,,0.0,0.0,0.0,0.0,0.0,0.0
16:27:35.823915,,-0.5495573940626903,-0.8519487224858252,0.18031264271000003,-3.4294693138470804,-0.9725256462786602,0.6747924194706549,,0.11945093934352138,0.4747113534701723,-0.4380644873017041,0.1958172030836128,-0.6360438034393991,-0.7463939329086579,0.7576774150810124,0.5813330721233753,-0.29660882308480613,0.6225596820005825,-0.5074447155719937,0.5957510411114629,,0.002351748898753462,0.24305751598225073,-0.11807272220928164,0.9278029168662454,-0.3652675812071166,-0.07590350165866498,0.37275942010895574,0.9159486244148098,0.1486221118915699,0.015236868608066948,-0.16618577418713606,0.9859767371917556,,0.05370437762837789,0.6983360494392399,1.1604850546924563,0.9922960697440881,-0.07638153270694843,-0.0975416394765502,0.004867504973505216,-0.7626859202048828,0.6467507205381096,-0.1237934463764897,-0.6422429825093992,-0.7564384535781234,,0.1800371564368982,0.6877919050602289,-0.42886718665150303,0.9930742380856995,0.005163046184590986,-0.11737504251161392,0.08417548753379248,-0.7282240374402121,0.6801501588566489,-0.08196368066989025,-0.6853197022181489,-0.7236151330663779,,0.0,0.0,0.045,1.0,0.0,0.0,0.0,1.0,0.0,0.0,0.0,1.0,,-0.0031823361860085927,-0.18649200154343593,0.22944396511176599,False,,0.11945093934352138,0.4747113534701723,-0.4380644873017041,0.19782504551749536,-0.6304045719221488,-0.7506366145250666,0.7524320397075747,0.5884602504315,-0.29590633532182986,0.6282605168140839,-0.506265354692328,0.590748773719211,False,,0.0,0.0,0.0,0.0,0.0,0.0
16:27:35.835380,,-0.5496191759256841,-0.8519564452186995,0.180313939,-3.429888666905755,-0.9729280706840169,0.6753407763795407,,0.11944773022092806,0.47471471877508675,-0.43806570897257785,0.19571344972119128,-0.6362013935890563,-0.7462868298406274,0.7576867036537757,0.5812292375879251,-0.29678853158306995,0.6225810025245762,-0.5073661007283619,0.595795715935581,,0.0023522096854245926,0.24305856552765498,-0.1180727055607208,0.9278149411289444,-0.36524035354511913,-0.07588751964897356,0.37273029656240037,0.9159561067580854,0.1486490262175285,0.015217014186168273,-0.1662043655056954,0.9859739082980091,,0.05370437762837789,0.6983360494392399,1.1604850546924563,0.9922960697440881,-0.07638153270694843,-0.0975416394765502,0.004867504973505216,-0.7626859202048828,0.6467507205381096,-0.1237934463764897,-0.6422429825093992,-0.7564384535781234,,0.1800371564368982,0.6877919050602289,-0.42886718665150303,0.9930742380856995,0.005163046184590986,-0.11737504251161392,0.08417548753379248,-0.7282240374402121,0.6801501588566489,-0.08196368066989025,-0.6853197022181489,-0.7236151330663779,,0.0,0.0,0.045,1.0,0.0,0.0,0.0,1.0,0.0,0.0,0.0,1.0,,-0.0031823361860085927,-0.18649200154343593,0.22944396511176599,False,,0.11944773022092806,0.47471471877508675,-0.43806570897257785,0.19787526564598903,-0.6301569715328116,-0.7508312529950555,0.752584406411427,0.5884508928991048,-0.29553723601706544,0.6280621708651858,-0.5065843837652735,0.5906861871190732,False,,0.0,0.0,0.0,0.0,0.0,0.0
16:27:35.847148,,-0.5496268986585584,-0.8519487224858252,0.180313939,-3.4305176964937685,-0.9729280706840169,0.6754785396676413,,0.11944692272739789,0.4747148224155049,-0.43806621404926194,0.19561554998441485,-0.6361787533288353,-0.7463317964667349,0.7576954601415142,0.5811993744248113,-0.296824656740553,0.6226011133022763,-0.5074286954648671,0.5957213885144541,,0.0023533554586664604,0.2430608792925602,-0.11807274570896154,0.9278387004577622,-0.3651868141219773,-0.07585461501394161,0.3726728056148223,0.9159706443603703,0.14870354575411623,0.015176026576472344,-0.16624185801449057,0.9859682138668884,,0.05370437762837789,0.6983360494392399,1.1604850546924563,0.9922960697440881,-0.07638153270694843,-0.0975416394765502,0.004867504973505216,-0.7626859202048828,0.6467507205381096,-0.1237934463764897,-0.6422429825093992,-0.7564384535781234,,0.1800371564368982,0.6877919050602289,-0.42886718665150303,0.9930742380856995,0.005163046184590986,-0.11737504251161392,0.08417548753379248,-0.7282240374402121,0.6801501588566489,-0.08196368066989025,-0.6853197022181489,-0.7236151330663779,,0.0,0.0,0.045,1.0,0.0,0.0,0.0,1.0,0.0,0.0,0.0,1.0,,-0.0031823361860085927,-0.18649200154343593,0.22944396511176599,False,,0.11944692272739789,0.4747148224155049,-0.43806621404926194,0.19812974671239408,-0.630218982424014,-0.7507120870614266,0.7525955608816645,0.5884982694607113,-0.29541446914963543,0.6279685702397018,-0.5064521902748457,0.5908990216246055,False,,0.0,0.0,0.0,0.0,0.0,0.0
16:27:35.858422,,-0.5496268986585584,-0.851940999752951,0.180313939,-3.4307273730231063,-0.9730622121524691,0.6758220491400537,,0.11945066699920356,0.47471369577107764,-0.43806479426334377,0.19551421005943675,-0.6360435161495456,-0.7464736024997516,0.7577045161129476,0.581212921512401,-0.2967750092731249,0.6226219237441597,-0.5075826882697461,0.5955684298567038,,0.0023546645264240127,0.24306296967264057,-0.11807294374785357,0.9278626345416325,-0.36513305907664745,-0.0758205972465233,0.3726148982905772,0.9159855091586351,0.14875707364467766,0.015134443147761651,-0.16627801585523783,0.9859627540885516,,0.05370437762837789,0.6983360494392399,1.1604850546924563,0.9922960697440881,-0.07638153270694843,-0.0975416394765502,0.004867504973505216,-0.7626859202048828,0.6467507205381096,-0.1237934463764897,-0.6422429825093992,-0.7564384535781234,,0.1800371564368982,0.6877919050602289,-0.42886718665150303,0.9930742380856995,0.005163046184590986,-0.11737504251161392,0.08417548753379248,-0.7282240374402121,0.6801501588566489,-0.08196368066989025,-0.6853197022181489,-0.7236151330663779,,0.0,0.0,0.045,1.0,0.0,0.0,0.0,1.0,0.0,0.0,0.0,1.0,,-0.0031823361860085927,-0.18649200154343593,0.22944396511176599,False,,0.11945066699920356,0.47471369577107764,-0.43806479426334377,0.1984736975321134,-0.6304447655620714,-0.7504316017888081,0.752501184456624,0.5885946257214932,-0.2954629147002266,0.6279730557749347,-0.5060590520355903,0.5912309845344125,False,,0.0,0.0,0.0,0.0,0.0,0.0
16:27:35.871361,,-0.5496346213914326,-0.851940999752951,0.180313939,-3.4305176964937685,-0.9733304950893736,0.6762335415086778,,0.11944991871028389,0.474717337633908,-0.43806081338281727,0.19531367483652967,-0.6363043992914778,-0.7463037450422999,0.7577224117681503,0.5810295208877069,-0.29708827402181276,0.6226630831566203,-0.5074656710550121,0.5956251149629087,,0.002355362333543643,0.24306485388714977,-0.11807283731787871,0.9278869593316247,-0.36507768876700736,-0.0757895626014041,0.3725558840975343,0.9160008855901659,0.14881020379932472,0.015096021299554611,-0.16631489619102705,0.9859571245132069,,0.05370437762837789,0.6983360494392399,1.1604850546924563,0.9922960697440881,-0.07638153270694843,-0.0975416394765502,0.004867504973505216,-0.7626859202048828,0.6467507205381096,-0.1237934463764897,-0.6422429825093992,-0.7564384535781234,,0.1800371564368982,0.6877919050602289,-0.42886718665150303,0.9930742380856995,0.005163046184590986,-0.11737504251161392,0.08417548753379248,-0.7282240374402121,0.6801501588566489,-0.08196368066989025,-0.6853197022181489,-0.7236151330663779,,0.0,0.0,0.045,1.0,0.0,0.0,0.0,1.0,0.0,0.0,0.0,1.0,,-0.0031823361860085927,-0.18649200154343593,0.22944396511176599,False,,0.11944991871028389,0.474717337633908,-0.43806081338281727,0.19855434396633725,-0.6299217499943248,-0.7508493599758774,0.7527448730449162,0.5886292771747093,-0.29477233614668175,0.6276554218651269,-0.5066696783278694,0.591045267696513,False,,0.0,0.0,0.0,0.0,0.0,0.0
16:27:35.882980,,-0.5496268986585584,-0.8519332770200768,0.180313939,-3.4303080199644302,-0.9733304950893736,0.6764401864408285,,0.11944868474028922,0.4747176056652723,-0.438058883974592,0.19534866279628174,-0.6364131659168886,-0.7462018374349849,0.7577192918187998,0.5810001100306749,-0.29715374295128794,0.6226559039705004,-0.5073629414846799,0.59572012796169,,0.0023558361513149563,0.24306652333698178,-0.11807265759134944,0.9279115667324342,-0.3650214028312921,-0.07575946315570069,0.3724961084901381,0.9160166811556012,0.14886263958020554,0.015058882503945565,-0.16635147062216946,0.9859515275803263,,0.05370437762837789,0.6983360494392399,1.1604850546924563,0.9922960697440881,-0.07638153270694843,-0.0975416394765502,0.004867504973505216,-0.7626859202048828,0.6467507205381096,-0.1237934463764897,-0.6422429825093992,-0.7564384535781234,,0.1800371564368982,0.6877919050602289,-0.42886718665150303,0.9930742380856995,0.005163046184590986,-0.11737504251161392,0.08417548753379248,-0.7282240374402121,0.6801501588566489,-0.08196368066989025,-0.6853197022181489,-0.7236151330663779,,0.0,0.0,0.045,1.0,0.0,0.0,0.0,1.0,0.0,0.0,0.0,1.0,,-0.0031823361860085927,-0.18649200154343593,0.22944396511176599,False,,0.11944868474028922,0.4747176056652723,-0.438058883974592,0.19844367662872203,-0.6296603155398337,-0.7510978592968778,0.7527822697504911,0.588666603263538,-0.2946022480421139,0.6276455700117496,-0.5069511980816749,0.5908142865640442,False,,0.0,0.0,0.0,0.0,0.0,0.0
16:27:35.895914,,-0.5496191759256841,-0.851940999752951,0.180313939,-3.4290499607884044,-0.9733304950893736,0.6767157130170294,,0.11944441202459521,0.47471881268474775,-0.43805867792769615,0.19546391219074924,-0.6366247674393455,-0.7459911289780103,0.7577090077431373,0.5809615985945187,-0.29725524477023385,0.6226322499003705,-0.5071415250611023,0.5959333477350482,,0.0023562972053919,0.24306757275181828,-0.11807264109603481,0.9279235838490082,-0.3649941761970567,-0.0757434740105579,0.3724669783851237,0.9160241547707609,0.14888954921455128,0.015039033400185517,-0.16637006700391888,0.9859486945351889,,0.05370437762837789,0.6983360494392399,1.1604850546924563,0.9922960697440881,-0.07638153270694843,-0.0975416394765502,0.004867504973505216,-0.7626859202048828,0.6467507205381096,-0.1237934463764897,-0.6422429825093992,-0.7564384535781234,,0.1800371564368982,0.6877919050602289,-0.42886718665150303,0.9930742380856995,0.005163046184590986,-0.11737504251161392,0.08417548753379248,-0.7282240374402121,0.6801501588566489,-0.08196368066989025,-0.6853197022181489,-0.7236151330663779,,0.0,0.0,0.045,1.0,0.0,0.0,0.0,1.0,0.0,0.0,0.0,1.0,,-0.0031823361860085927,-0.18649200154343593,0.22944396511176599,False,,0.11944441202459521,0.47471881268474775,-0.43805867792769615,0.19810309307894686,-0.6292267535935263,-0.7515509677159002,0.7528805279733808,0.5886492507706016,-0.294385750615978,0.6276353042261704,-0.5075093616174595,0.5903458077767312,False,,0.0,0.0,0.0,0.0,0.0,0.0
16:27:35.907453,,-0.5496114531928099,-0.851940999752951,0.180313939,-3.4290499607884044,-0.9733304950893736,0.6768534763051297,,0.11943959046897687,0.47472026127839484,-0.4380604518284174,0.19558595908209953,-0.636850006474236,-0.7457668548974946,0.7576981053175513,0.580920312127246,-0.2973637034948547,0.6226071906171082,-0.5069059678202146,0.596159899674679,,0.0023562972053919,0.2430675727518183,-0.11807264109603481,0.9279235838490082,-0.36499417619705665,-0.0757434740105579,0.37246697838512366,0.9160241547707609,0.1488895492145513,0.015039033400185513,-0.1663700670039189,0.9859486945351889,,0.05370437762837789,0.6983360494392399,1.1604850546924563,0.9922960697440881,-0.07638153270694843,-0.0975416394765502,0.004867504973505216,-0.7626859202048828,0.6467507205381096,-0.1237934463764897,-0.6422429825093992,-0.7564384535781234,,0.1800371564368982,0.6877919050602289,-0.42886718665150303,0.9930742380856995,0.005163046184590986,-0.11737504251161392,0.08417548753379248,-0.7282240374402121,0.6801501588566489,-0.08196368066989025,-0.6853197022181489,-0.7236151330663779,,0.0,0.0,0.045,1.0,0.0,0.0,0.0,1.0,0.0,0.0,0.0,1.0,,-0.0031823361860085927,-0.18649200154343593,0.22944396511176599,False,,0.11943959046897687,0.47472026127839484,-0.4380604518284174,0.19775980867914245,-0.6287871122164287,-0.7520091924848482,0.7529737955115873,0.588637169311876,-0.2941712871396123,0.6276316764982974,-0.5080679584612932,0.5898689924389232,False,,0.0,0.0,0.0,0.0,0.0,0.0
16:27:35.919391,,-0.5496037304599357,-0.851940999752951,0.180313939,-3.428840284259067,-0.9733304950893736,0.6769912395932303,,0.11944066647889867,0.4747199399862184,-0.43806010231657433,0.19558576678238115,-0.6368823748838135,-0.7457392630098683,0.7576981225051862,0.5809073284826528,-0.2973890227753254,0.6226072301092108,-0.5068801794088034,0.5961817849768939,,0.002356134004278263,0.2430677960757368,-0.11807248321144742,0.927923407977824,-0.36499439290692487,-0.07574458425985889,0.3724673923565716,0.9160238255652164,0.1488905389853049,0.015039631953251885,-0.1663714041376828,0.9859484597722841,,0.05370437762837789,0.6983360494392399,1.1604850546924563,0.9922960697440881,-0.07638153270694843,-0.0975416394765502,0.004867504973505216,-0.7626859202048828,0.6467507205381096,-0.1237934463764897,-0.6422429825093992,-0.7564384535781234,,0.1800371564368982,0.6877919050602289,-0.42886718665150303,0.9930742380856995,0.005163046184590986,-0.11737504251161392,0.08417548753379248,-0.7282240374402121,0.6801501588566489,-0.08196368066989025,-0.6853197022181489,-0.7236151330663779,,0.0,0.0,0.045,1.0,0.0,0.0,0.0,1.0,0.0,0.0,0.0,1.0,,-0.0031823361860085927,-0.18649200154343593,0.22944396511176599,False,,0.11944066647889867,0.4747199399862184,-0.43806010231657433,0.19775935325184293,-0.6286894803432209,-0.7520909356634897,0.7529748671846993,0.5886743421212792,-0.29409414872836825,0.6276305343031019,-0.508145703744359,0.5898032351357128,False,,0.0,0.0,0.0,0.0,0.0,0.0
16:27:35.932113,,-0.5496037304599357,-0.851940999752951,0.180313939,-3.4277919016123786,-0.9733304950893736,0.6770601212372805,,0.1194310457897291,0.474722676329681,-0.43806005695810746,0.19580611747091856,-0.6372973870856031,-0.745326777175507,0.757678407944337,0.5808293252173126,-0.2975915407106465,0.6225619603669179,-0.5064477617498813,0.596596404718161,,0.0023564189675553365,0.24306844882620648,-0.11807247191399975,0.9279226640202767,-0.36499644317256896,-0.0757438185111116,0.3724693250032244,0.916022653623427,0.14889291438512142,0.015037669464149875,-0.16637335872616832,0.985948159883175,,0.05370437762837789,0.6983360494392399,1.1604850546924563,0.9922960697440881,-0.07638153270694843,-0.0975416394765502,0.004867504973505216,-0.7626859202048828,0.6467507205381096,-0.1237934463764897,-0.6422429825093992,-0.7564384535781234,,0.1800371564368982,0.6877919050602289,-0.42886718665150303,0.9930742380856995,0.005163046184590986,-0.11737504251161392,0.08417548753379248,-0.7282240374402121,0.6801501588566489,-0.08196368066989025,-0.6853197022181489,-0.7236151330663779,,0.0,0.0,0.045,1.0,0.0,0.0,0.0,1.0,0.0,0.0,0.0,1.0,,-0.0031823361860085927,-0.18649200154343593,0.22944396511176599,False,,0.1194310457897291,0.474722676329681,-0.43806005695810746,0.19707868988864247,-0.6278661426853269,-0.7529569023929756,0.7531703748562175,0.5886219804630375,-0.29369806018207933,0.6276100512505525,-0.509223203502374,0.5888950267951485,False,,0.0,0.0,0.0,0.0,0.0,0.0
16:27:35.944946,,-0.5496114531928099,-0.851940999752951,0.180313939,-3.4269531954950274,-0.9733304950893736,0.6771978845253809,,0.11942283905189123,0.4747250366788003,-0.43806061707864874,0.1959549720381687,-0.6375905036812165,-0.7450369108635176,0.7576650676992351,0.5807714452872303,-0.29773843139120454,0.622531359950512,-0.5061451155098844,0.5968851044578444,,0.00235664305029408,0.24306866353929957,-0.11807254520658861,0.9279223799783971,-0.36499735995274857,-0.07574288051320571,0.3724700843402973,0.9160222322584071,0.1488936072017312,0.015036388943022682,-0.1663736674523205,0.9859481273229873,,0.05370437762837789,0.6983360494392399,1.1604850546924563,0.9922960697440881,-0.07638153270694843,-0.0975416394765502,0.004867504973505216,-0.7626859202048828,0.6467507205381096,-0.1237934463764897,-0.6422429825093992,-0.7564384535781234,,0.1800371564368982,0.6877919050602289,-0.42886718665150303,0.9930742380856995,0.005163046184590986,-0.11737504251161392,0.08417548753379248,-0.7282240374402121,0.6801501588566489,-0.08196368066989025,-0.6853197022181489,-0.7236151330663779,,0.0,0.0,0.045,1.0,0.0,0.0,0.0,1.0,0.0,0.0,0.0,1.0,,-0.0031823361860085927,-0.18649200154343593,0.22944396511176599,False,,0.11942283905189123,0.4747250366788003,-0.43806061707864874,0.19662569950951042,-0.6273064643795024,-0.7535415941008722,0.7532989680555958,0.5885923465575313,-0.29342752819098816,0.6275978003616408,-0.5099467122372561,0.5882816941395026,False,,0.0,0.0,0.0,0.0,0.0,0.0
16:27:35.962561,,-0.5496037304599357,-0.851940999752951,0.180313939,-3.42674351896569,-0.9733304950893736,0.677266766169431,,0.1194210564147112,0.47472554649864207,-0.4380606706860264,0.19599129550347644,-0.6376507301760805,-0.7449758106091636,0.7576618096765838,0.580761826112621,-0.2977654840439673,0.6225238905009777,-0.506080277857422,0.5969478688455815,,0.00235664305029408,0.24306866353929957,-0.11807254520658861,0.9279223799783968,-0.36499735995274846,-0.07574288051320571,0.3724700843402972,0.9160222322584067,0.14889360720173117,0.015036388943022682,-0.16637366745232046,0.985948127322987,,0.05370437762837789,0.6983360494392399,1.1604850546924563,0.9922960697440881,-0.07638153270694843,-0.0975416394765502,0.004867504973505216,-0.7626859202048828,0.6467507205381096,-0.1237934463764897,-0.6422429825093992,-0.7564384535781234,,0.1800371564368982,0.6877919050602289,-0.42886718665150303,0.9930742380856995,0.005163046184590986,-0.11737504251161392,0.08417548753379248,-0.7282240374402121,0.6801501588566489,-0.08196368066989025,-0.6853197022181489,-0.7236151330663779,,0.0,0.0,0.045,1.0,0.0,0.0,0.0,1.0,0.0,0.0,0.0,1.0,,-0.0031823361860085927,-0.18649200154343593,0.22944396511176599,False,,0.1194210564147112,0.47472554649864207,-0.4380606706860264,0.19651234084538377,-0.6271938942080156,-0.7536648585171347,0.7533313877183595,0.5885739610449421,-0.2933811729784278,0.6275943914454613,-0.5101063726793187,0.5881468935377876,False,,0.0,0.0,0.0,0.0,0.0,0.0
16:27:35.974910,,-0.5496037304599357,-0.851940999752951,0.180313939,-3.426324165907015,-0.9733304950893736,0.677266766169431,,0.11941856717363965,0.4747262448110199,-0.4380604294273327,0.19604975430210664,-0.6377869178220437,-0.7448438368498066,0.7576565639757651,0.5807306414642196,-0.29783964331329954,0.6225118672784649,-0.5059444332331504,0.5970755442805082,,0.0023559579140713335,0.2430673994104246,-0.11807248840461279,0.9279106468387476,-0.3650236697548222,-0.07575980767345561,0.37249845513160124,0.9160151800133066,0.14886600473734482,0.015057518539486229,-0.1663547623622816,0.9859509930171587,,0.05370437762837789,0.6983360494392399,1.1604850546924563,0.9922960697440881,-0.07638153270694843,-0.0975416394765502,0.004867504973505216,-0.7626859202048828,0.6467507205381096,-0.1237934463764897,-0.6422429825093992,-0.7564384535781234,,0.1800371564368982,0.6877919050602289,-0.42886718665150303,0.9930742380856995,0.005163046184590986,-0.11737504251161392,0.08417548753379248,-0.7282240374402121,0.6801501588566489,-0.08196368066989025,-0.6853197022181489,-0.7236151330663779,,0.0,0.0,0.045,1.0,0.0,0.0,0.0,1.0,0.0,0.0,0.0,1.0,,-0.0031823361860085927,-0.18649200154343593,0.22944396511176599,False,,0.11941856717363965,0.4747262448110199,-0.4380604294273327,0.1962851693305145,-0.6269227121191988,-0.7539496304992791,0.75339729611763,0.588554019420104,-0.29325190609284046,0.627586365772501,-0.5104626129831138,0.5878463015473656,False,,0.0,0.0,0.0,0.0,0.0,0.0
16:27:35.987663,,-0.5495882849941872,-0.851940999752951,0.180313939,-3.424856430201651,-0.9733304950893736,0.677266766169431,,0.11941073042779478,0.4747284730934192,-0.4380603574211135,0.19620694737036473,-0.6380863691265799,-0.744545914862516,0.7576424447210399,0.580673413739637,-0.29798710128641853,0.6224795255755234,-0.505632447644348,0.597373474577217,,0.0023551991325303115,0.243065077208919,-0.11807267943017287,0.9278867833869664,-0.3650779054659056,-0.07579067288283461,0.37255629806250173,0.9160005564390696,0.14881119352016525,0.015096619799476668,-0.1663162333735314,0.9859568897911755,,0.05370437762837789,0.6983360494392399,1.1604850546924563,0.9922960697440881,-0.07638153270694843,-0.0975416394765502,0.004867504973505216,-0.7626859202048828,0.6467507205381096,-0.1237934463764897,-0.6422429825093992,-0.7564384535781234,,0.1800371564368982,0.6877919050602289,-0.42886718665150303,0.9930742380856995,0.005163046184590986,-0.11737504251161392,0.08417548753379248,-0.7282240374402121,0.6801501588566489,-0.08196368066989025,-0.6853197022181489,-0.7236151330663779,,0.0,0.0,0.045,1.0,0.0,0.0,0.0,1.0,0.0,0.0,0.0,1.0,,-0.0031823361860085927,-0.18649200154343593,0.22944396511176599,False,,0.11941073042779478,0.4747284730934192,-0.4380603574211135,0.19571794744452234,-0.6263650181772695,-0.7545603680633461,0.7535604956023854,0.5884584680779799,-0.2930242495337287,0.6275675776484879,-0.5112567802495204,0.5871758170542305,False,,0.0,0.0,0.0,0.0,0.0,0.0
16:27:35.999791,,-0.5495882849941872,-0.851940999752951,0.180313939,-3.424856430201651,-0.9734646365578258,0.6773347490656426,,0.11940824143881103,0.4747291716940519,-0.43806012148896484,0.196255034295343,-0.6382052160685523,-0.744431369366328,0.7576381214810257,0.5806449846787464,-0.2980534828619202,0.6224696284899659,-0.5055150877573398,0.5974831024031164,,0.0023544404522028517,0.24306275495048837,-0.11807287045518451,0.9278629186955626,-0.36513214237667485,-0.07582153502513597,0.3726141388131145,0.9159859307076151,0.14875638057798288,0.01513572352777763,-0.16627770689277707,0.9859627865818096,,0.05370437762837789,0.6983360494392399,1.1604850546924563,0.9922960697440881,-0.07638153270694843,-0.0975416394765502,0.004867504973505216,-0.7626859202048828,0.6467507205381096,-0.1237934463764897,-0.6422429825093992,-0.7564384535781234,,0.1800371564368982,0.6877919050602289,-0.42886718665150303,0.9930742380856995,0.005163046184590986,-0.11737504251161392,0.08417548753379248,-0.7282240374402121,0.6801501588566489,-0.08196368066989025,-0.6853197022181489,-0.7236151330663779,,0.0,0.0,0.045,1.0,0.0,0.0,0.0,1.0,0.0,0.0,0.0,1.0,,-0.0031823361860085927,-0.18649200154343593,0.22944396511176599,False,,0.11940824143881103,0.4747291716940519,-0.43806012148896484,0.1954907914695957,-0.6261453152987234,-0.7548015597361029,0.7536264216009464,0.5884181715438092,-0.29293561077819363,0.6275592140312689,-0.5115721840820736,0.5869099874409648,False,,0.0,0.0,0.0,0.0,0.0,0.0
16:27:36.012543,,-0.5495882849941872,-0.851940999752951,0.180313939,-3.424856430201651,-0.9734646365578258,0.6773347490656426,,0.11940852204827573,0.47473025344185943,-0.4380592208195142,0.19617137820587865,-0.638238926337616,-0.7444245181885221,0.7576456413440702,0.5805981749763258,-0.29812554631646776,0.6224868452627242,-0.5055262922159113,0.5974556848447375,,0.002353579556147487,0.2430610939943669,-0.11807281899051558,0.9278384164743926,-0.36518773067646454,-0.07585367654507169,0.3726735648942692,0.9159702230584276,0.14870423822820283,0.01517474583072937,-0.166242166135452,0.9859681816647553,,0.05370437762837789,0.6983360494392399,1.1604850546924563,0.9922960697440881,-0.07638153270694843,-0.0975416394765502,0.004867504973505216,-0.7626859202048828,0.6467507205381096,-0.1237934463764897,-0.6422429825093992,-0.7564384535781234,,0.1800371564368982,0.6877919050602289,-0.42886718665150303,0.9930742380856995,0.005163046184590986,-0.11737504251161392,0.08417548753379248,-0.7282240374402121,0.6801501588566489,-0.08196368066989025,-0.6853197022181489,-0.7236151330663779,,0.0,0.0,0.045,1.0,0.0,0.0,0.0,1.0,0.0,0.0,0.0,1.0,,-0.0031823361860085927,-0.18649200154343593,0.22944396511176599,False,,0.11940852204827573,0.47473025344185943,-0.4380592208195142,0.19551705837551184,-0.6261104359849252,-0.7548236892380589,0.7537065001786436,0.5883747251576322,-0.2928168273582328,0.6274548521388985,-0.5116648363396177,0.5869408009168431,False,,0.0,0.0,0.0,0.0,0.0,0.0
16:27:36.024212,,-0.549580562261313,-0.851940999752951,0.180313939,-3.4244370771429757,-0.9734646365578258,0.6773347490656426,,0.11940603280566128,0.4747309522134292,-0.43805898641534746,0.19622390974922846,-0.6383560490784249,-0.7443102389781496,0.7576409199386278,0.580572181410473,-0.29818815973615515,0.622476034620833,-0.5054082476347894,0.597566807600167,,0.0023528819549920453,0.24305920965592323,-0.1180729254085149,0.9278140889430903,-0.3652431031703825,-0.075884704917329,0.3727325746985171,0.9159548424680467,0.14865110431196685,0.015213172336338732,-0.16620529065292175,0.9859738116408873,,0.05370437762837789,0.6983360494392399,1.1604850546924563,0.9922960697440881,-0.07638153270694843,-0.0975416394765502,0.004867504973505216,-0.7626859202048828,0.6467507205381096,-0.1237934463764897,-0.6422429825093992,-0.7564384535781234,,0.1800371564368982,0.6877919050602289,-0.42886718665150303,0.9930742380856995,0.005163046184590986,-0.11737504251161392,0.08417548753379248,-0.7282240374402121,0.6801501588566489,-0.08196368066989025,-0.6853197022181489,-0.7236151330663779,,0.0,0.0,0.045,1.0,0.0,0.0,0.0,1.0,0.0,0.0,0.0,1.0,,-0.0031823361860085927,-0.18649200154343593,0.22944396511176599,False,,0.11940603280566128,0.4747309522134292,-0.43805898641534746,0.19528995044026948,-0.6258905738191735,-0.7550647818971183,0.753772418009898,0.5883343753602275,-0.2927282094657132,0.6274463938095021,-0.5119801288856792,0.5866748422436867,False,,0.0,0.0,0.0,0.0,0.0,0.0
16:27:36.037898,,-0.5495573940626903,-0.851940999752951,0.180313939,-3.42317901796695,-0.9734646365578258,0.6773347490656426,,0.11939927204329348,0.4747328602285479,-0.43805858190700947,0.19639453012483385,-0.6386397860208307,-0.7440217821060842,0.7576255694964811,0.5805264300499259,-0.2983162088432697,0.62244090882764,-0.505102254721513,0.5978620470418451,,0.002352257971910887,0.24305838343316286,-0.11807278416347289,0.9278018884529061,-0.3652705476360384,-0.0759017970865081,0.37276211240433055,0.9159470309405878,0.14862517974776268,0.015233624885562999,-0.16618803665986964,0.9859764059712867,,0.05370437762837789,0.6983360494392399,1.1604850546924563,0.9922960697440881,-0.07638153270694843,-0.0975416394765502,0.004867504973505216,-0.7626859202048828,0.6467507205381096,-0.1237934463764897,-0.6422429825093992,-0.7564384535781234,,0.1800371564368982,0.6877919050602289,-0.42886718665150303,0.9930742380856995,0.005163046184590986,-0.11737504251161392,0.08417548753379248,-0.7282240374402121,0.6801501588566489,-0.08196368066989025,-0.6853197022181489,-0.7236151330663779,,0.0,0.0,0.045,1.0,0.0,0.0,0.0,1.0,0.0,0.0,0.0,1.0,,-0.0031823361860085927,-0.18649200154343593,0.22944396511176599,False,,0.11939927204329348,0.4747328602285479,-0.43805858190700947,0.1947224307505161,-0.6253373785414161,-0.7556694634306459,0.7539367043472004,0.5882349835418247,-0.29250478624397147,0.6274253906248078,-0.5127697018511321,0.5860073481303868,False,,0.0,0.0,0.0,0.0,0.0,0.0
16:27:36.049755,,-0.5495496713298161,-0.851940999752951,0.180313939,-3.42317901796695,-0.9733304950893736,0.677266766169431,,0.11939856551808266,0.47473304898428414,-0.438058292298527,0.1964277899678168,-0.6386898081346789,-0.743970061436108,0.7576225744002333,0.5805196244468445,-0.2983370583606026,0.622434059228383,-0.5050468241826511,0.5979160035452271,,0.002351646594437089,0.24305817733585716,-0.11807247971165333,0.9278022803851642,-0.3652689314621244,-0.07590478373834725,0.3727610077410444,0.9159475447005869,0.1486247840657994,0.015236784231864604,-0.1661887572588542,0.9859762356876496,,0.05370437762837789,0.6983360494392399,1.1604850546924563,0.9922960697440881,-0.07638153270694843,-0.0975416394765502,0.004867504973505216,-0.7626859202048828,0.6467507205381096,-0.1237934463764897,-0.6422429825093992,-0.7564384535781234,,0.1800371564368982,0.6877919050602289,-0.42886718665150303,0.9930742380856995,0.005163046184590986,-0.11737504251161392,0.08417548753379248,-0.7282240374402121,0.6801501588566489,-0.08196368066989025,-0.6853197022181489,-0.7236151330663779,,0.0,0.0,0.045,1.0,0.0,0.0,0.0,1.0,0.0,0.0,0.0,1.0,,-0.0031823361860085927,-0.18649200154343593,0.22944396511176599,False,,0.11939856551808266,0.47473304898428414,-0.438058292298527,0.194608653152288,-0.6252302449207544,-0.7557874125404485,0.7539701983094905,0.5882130758793345,-0.29246250601695944,0.6274204429084218,-0.5129254509194353,0.5858763262154343,False,,0.0,0.0,0.0,0.0,0.0,0.0
16:27:36.062303,,-0.5495496713298161,-0.851940999752951,0.180313939,-3.42317901796695,-0.9733304950893736,0.677266766169431,,0.11939936216764051,0.4747316453472199,-0.43805884317491905,0.19649005698831845,-0.6386521952911347,-0.7439859077660957,0.7576169647439456,0.5805595157344416,-0.2982736720234653,0.6224212337612677,-0.5050485344400129,0.597927910055298,,0.0023511984135204697,0.24305774791699414,-0.1180723331505118,0.927802848513916,-0.3652670984241466,-0.07590666022988808,0.37275948895814626,0.9159483875928789,0.1486233986512707,0.01523934546207793,-0.16618814050285793,0.9859763000574999,,0.05370437762837789,0.6983360494392399,1.1604850546924563,0.9922960697440881,-0.07638153270694843,-0.0975416394765502,0.004867504973505216,-0.7626859202048828,0.6467507205381096,-0.1237934463764897,-0.6422429825093992,-0.7564384535781234,,0.1800371564368982,0.6877919050602289,-0.42886718665150303,0.9930742380856995,0.005163046184590986,-0.11737504251161392,0.08417548753379248,-0.7282240374402121,0.6801501588566489,-0.08196368066989025,-0.6853197022181489,-0.7236151330663779,,0.0,0.0,0.045,1.0,0.0,0.0,0.0,1.0,0.0,0.0,0.0,1.0,,-0.0031823361860085927,-0.18649200154343593,0.22944396511176599,False,,0.11939936216764051,0.4747316453472199,-0.43805884317491905,0.1945817506424429,-0.6252712635863901,-0.7557604046587789,0.7538912252073385,0.5882532388185807,-0.2925852825670283,0.6275236751488347,-0.5128293809372946,0.5858498640224908,False,,0.0,0.0,0.0,0.0,0.0,0.0
16:27:36.074346,,-0.5495496713298161,-0.851940999752951,0.180313939,-3.42317901796695,-0.9733304950893736,0.677266766169431,,0.11939936216764051,0.4747316453472199,-0.43805884317491905,0.19648387492097286,-0.6386542336842813,-0.7439857906527401,0.7576175218296228,0.5805562353628946,-0.29827864187367514,0.6224225072350617,-0.5050497276292767,0.597925576563516,,0.00235091342892,0.2430570951764957,-0.11807234447990403,0.9278035928468088,-0.36526504851569985,-0.07590742656113761,0.3727575560434071,0.9159495596141517,0.14862102350928025,0.015241308567747316,-0.16618618639713484,0.9859765990821879,,0.05370437762837789,0.6983360494392399,1.1604850546924563,0.9922960697440881,-0.07638153270694843,-0.0975416394765502,0.004867504973505216,-0.7626859202048828,0.6467507205381096,-0.1237934463764897,-0.6422429825093992,-0.7564384535781234,,0.1800371564368982,0.6877919050602289,-0.42886718665150303,0.9930742380856995,0.005163046184590986,-0.11737504251161392,0.08417548753379248,-0.7282240374402121,0.6801501588566489,-0.08196368066989025,-0.6853197022181489,-0.7236151330663779,,0.0,0.0,0.045,1.0,0.0,0.0,0.0,1.0,0.0,0.0,0.0,1.0,,-0.0031823361860085927,-0.18649200154343593,0.22944396511176599,False,,0.11939936216764051,0.4747316453472199,-0.43805884317491905,0.1945817506424429,-0.6252712635863901,-0.7557604046587789,0.7538912252073385,0.5882532388185807,-0.2925852825670283,0.6275236751488347,-0.5128293809372946,0.5858498640224908,False,,0.0,0.0,0.0,0.0,0.0,0.0
16:27:36.086608,,-0.5495496713298161,-0.8519332770200768,0.180313939,-3.42317901796695,-0.9731963536209214,0.6771987832732195,,0.11939936216764051,0.4747316453472199,-0.43805884317491905,0.1964820889007262,-0.638654568198051,-0.7439859751776026,0.7576176827677709,0.5805553896365225,-0.2982798791765529,0.6224228751410095,-0.5050502767881102,0.5979247297256175,,0.0023506893389339256,0.24305688046692112,-0.11807227119838129,0.9278038769115436,-0.36526413199962543,-0.07590836481018243,0.37275679664983025,0.915949981062487,0.14862033080528766,0.015242589181389467,-0.1661858780157817,0.9859766312691481,,0.05370437762837789,0.6983360494392399,1.1604850546924563,0.9922960697440881,-0.07638153270694843,-0.0975416394765502,0.004867504973505216,-0.7626859202048828,0.6467507205381096,-0.1237934463764897,-0.6422429825093992,-0.7564384535781234,,0.1800371564368982,0.6877919050602289,-0.42886718665150303,0.9930742380856995,0.005163046184590986,-0.11737504251161392,0.08417548753379248,-0.7282240374402121,0.6801501588566489,-0.08196368066989025,-0.6853197022181489,-0.7236151330663779,,0.0,0.0,0.045,1.0,0.0,0.0,0.0,1.0,0.0,0.0,0.0,1.0,,-0.0031823361860085927,-0.18649200154343593,0.22944396511176599,False,,0.11939936216764051,0.4747316453472199,-0.43805884317491905,0.1945817506424429,-0.6252712635863901,-0.7557604046587789,0.7538912252073385,0.5882532388185807,-0.2925852825670283,0.6275236751488347,-0.5128293809372946,0.5858498640224908,False,,0.0,0.0,0.0,0.0,0.0,0.0
16:27:36.099167,,-0.5495496713298161,-0.8519332770200768,0.180313939,-3.42317901796695,-0.9731963536209214,0.6771987832732195,,0.11939855597811944,0.47473064333024917,-0.43805811689991087,0.19653526462162166,-0.6386256518783334,-0.7439967516885291,0.7576128899947038,0.5805881682688937,-0.2982282477902518,0.6224119204144328,-0.5050491615963189,0.5979370750312053,,0.002351076625373095,0.2430568718547266,-0.11807250237046099,0.9278037690529506,-0.3652648316465933,-0.07590631640034487,0.37275714192002196,0.9159498887410635,0.14862003377403168,0.015240710446038943,-0.1661848490493751,0.9859768337378323,,0.05370437762837789,0.6983360494392399,1.1604850546924563,0.9922960697440881,-0.07638153270694843,-0.0975416394765502,0.004867504973505216,-0.7626859202048828,0.6467507205381096,-0.1237934463764897,-0.6422429825093992,-0.7564384535781234,,0.1800371564368982,0.6877919050602289,-0.42886718665150303,0.9930742380856995,0.005163046184590986,-0.11737504251161392,0.08417548753379248,-0.7282240374402121,0.6801501588566489,-0.08196368066989025,-0.6853197022181489,-0.7236151330663779,,0.0,0.0,0.045,1.0,0.0,0.0,0.0,1.0,0.0,0.0,0.0,1.0,,-0.0031823361860085927,-0.18649200154343593,0.22944396511176599,False,,0.11939855597811944,0.47473064333024917,-0.43805811689991087,0.19455847374522497,-0.6253060094898475,-0.7557376494457659,0.7538151225490033,0.588294602619131,-0.29269817482456234,0.6276223078495218,-0.5127395586699759,0.5858228261723494,False,,0.0,0.0,0.0,0.0,0.0,0.0
16:27:36.113242,,-0.5495496713298161,-0.8519332770200768,0.180313939,-3.4233886944962872,-0.9731963536209214,0.6771987832732195,,0.1194003381336931,0.47473013316777724,-0.43805805679160736,0.19651773705976142,-0.6385600629414345,-0.7440576758808027,0.7576144700232699,0.5806074735159802,-0.29818664710001747,0.6224155314838075,-0.5051098966696471,0.5978820104787466,,0.002352385553845119,0.24305896232096447,-0.11807270039763813,0.9278277052175197,-0.36521107456527474,-0.07587230289616399,0.3726992379658863,0.9159647565273634,0.14867356429612466,0.015199123380563544,-0.1662210026312667,0.9859713742466447,,0.05370437762837789,0.6983360494392399,1.1604850546924563,0.9922960697440881,-0.07638153270694843,-0.0975416394765502,0.004867504973505216,-0.7626859202048828,0.6467507205381096,-0.1237934463764897,-0.6422429825093992,-0.7564384535781234,,0.1800371564368982,0.6877919050602289,-0.42886718665150303,0.9930742380856995,0.005163046184590986,-0.11737504251161392,0.08417548753379248,-0.7282240374402121,0.6801501588566489,-0.08196368066989025,-0.6853197022181489,-0.7236151330663779,,0.0,0.0,0.045,1.0,0.0,0.0,0.0,1.0,0.0,0.0,0.0,1.0,,-0.0031823361860085927,-0.18649200154343593,0.22944396511176599,False,,0.1194003381336931,0.47473013316777724,-0.43805805679160736,0.19467183447262737,-0.6254191031648773,-0.7556148637100137,0.7537826717406868,0.5883131692485525,-0.2927444255185675,0.627626131264891,-0.5125802964269742,0.5859580864433064,False,,0.0,0.0,0.0,0.0,0.0,0.0
16:27:36.124772,,-0.5495496713298161,-0.8519255542872025,0.180313939,-3.4233886944962872,-0.9731963536209214,0.6771987832732195,,0.11939981121371954,0.47473021317262554,-0.4380564297481087,0.19652519777490204,-0.6385521478296508,-0.744062498142243,0.7576137975049242,0.5806136176522655,-0.2981763921354552,0.622413994435941,-0.5051128403623183,0.5978811236620601,,0.0023535313854500107,0.24306127604864394,-0.11807274053607528,0.927851463863339,-0.365157535622721,-0.07583939653137098,0.3726417458852259,0.9159792931682356,0.1487280827290956,0.015158136821919493,-0.16625849616366434,0.9859656800432393,,0.05370437762837789,0.6983360494392399,1.1604850546924563,0.9922960697440881,-0.07638153270694843,-0.0975416394765502,0.004867504973505216,-0.7626859202048828,0.6467507205381096,-0.1237934463764897,-0.6422429825093992,-0.7564384535781234,,0.1800371564368982,0.6877919050602289,-0.42886718665150303,0.9930742380856995,0.005163046184590986,-0.11737504251161392,0.08417548753379248,-0.7282240374402121,0.6801501588566489,-0.08196368066989025,-0.6853197022181489,-0.7236151330663779,,0.0,0.0,0.045,1.0,0.0,0.0,0.0,1.0,0.0,0.0,0.0,1.0,,-0.0031823361860085927,-0.18649200154343593,0.22944396511176599,False,,0.11939981121371954,0.47473021317262554,-0.4380564297481087,0.19467500162591975,-0.6254188256766956,-0.7556142774135036,0.753786610446555,0.588311062115261,-0.2927385183133696,0.6276204184484774,-0.5125830534479232,0.5859617936901361,False,,0.0,0.0,0.0,0.0,0.0,0.0
16:27:36.137386,,-0.5495419485969418,-0.8519332770200768,0.180313939,-3.423598371025625,-0.9731963536209214,0.6771987832732195,,0.1194003381336931,0.47473013316777724,-0.43805805679160736,0.19656283028862764,-0.63854597150539,-0.7440578579809246,0.7576104045711752,0.5806310843092166,-0.2981510000308627,0.6224062408382681,-0.5051005703898392,0.5978995610948671,,0.002354901398577135,0.24306380443080036,-0.11807285396699721,0.9278749371133098,-0.3651049146398977,-0.07580554914006392,0.3725850109491743,0.9159934063515959,0.14878329218721356,0.015115872142794997,-0.16629630099270123,0.9859599533364273,,0.05370437762837789,0.6983360494392399,1.1604850546924563,0.9922960697440881,-0.07638153270694843,-0.0975416394765502,0.004867504973505216,-0.7626859202048828,0.6467507205381096,-0.1237934463764897,-0.6422429825093992,-0.7564384535781234,,0.1800371564368982,0.6877919050602289,-0.42886718665150303,0.9930742380856995,0.005163046184590986,-0.11737504251161392,0.08417548753379248,-0.7282240374402121,0.6801501588566489,-0.08196368066989025,-0.6853197022181489,-0.7236151330663779,,0.0,0.0,0.045,1.0,0.0,0.0,0.0,1.0,0.0,0.0,0.0,1.0,,-0.0031823361860085927,-0.18649200154343593,0.22944396511176599,False,,0.1194003381336931,0.47473013316777724,-0.43805805679160736,0.19467183447262737,-0.6254191031648773,-0.7556148637100137,0.7537826717406868,0.5883131692485525,-0.2927444255185675,0.627626131264891,-0.5125802964269742,0.5859580864433064,False,,0.0,0.0,0.0,0.0,0.0,0.0
16:27:36.150382,,-0.5495419485969418,-0.8519332770200768,0.180313939,-3.4238080475549624,-0.9731963536209214,0.6771987832732195,,0.1194031962841792,0.47472930154184023,-0.4380576473485082,0.19654817718897205,-0.6384682679707563,-0.7441284061491772,0.7576117258264474,0.5806563796480165,-0.29809837581632387,0.622409260000174,-0.5051697136294702,0.5978379993757128,,0.0023558842186140218,0.24306634136744187,-0.11807273623084524,0.9278985171557953,-0.36505159502268414,-0.07577374724194946,0.37252792839104776,0.9160076097122339,0.148838796882972,0.015075488992634455,-0.16633513717880052,0.9859540241365005,,0.05370437762837789,0.6983360494392399,1.1604850546924563,0.9922960697440881,-0.07638153270694843,-0.0975416394765502,0.004867504973505216,-0.7626859202048828,0.6467507205381096,-0.1237934463764897,-0.6422429825093992,-0.7564384535781234,,0.1800371564368982,0.6877919050602289,-0.42886718665150303,0.9930742380856995,0.005163046184590986,-0.11737504251161392,0.08417548753379248,-0.7282240374402121,0.6801501588566489,-0.08196368066989025,-0.6853197022181489,-0.7236151330663779,,0.0,0.0,0.045,1.0,0.0,0.0,0.0,1.0,0.0,0.0,0.0,1.0,,-0.0031823361860085927,-0.18649200154343593,0.22944396511176599,False,,0.1194031962841792,0.47472930154184023,-0.4380576473485082,0.19478473697243895,-0.6255381606767629,-0.7554872042461807,0.7537512785748677,0.5883283937767556,-0.29279465692327006,0.6276288045408134,-0.5124175159117761,0.5860975798427037,False,,0.0,0.0,0.0,0.0,0.0,0.0
16:27:36.162824,,-0.5495419485969418,-0.8519332770200768,0.180313939,-3.4238080475549624,-0.9731963536209214,0.6771987832732195,,0.11940497848417125,0.47472879144267727,-0.4380575880250139,0.19653410304904795,-0.6384002581852577,-0.744190470704713,0.7576129947128365,0.5806780154540109,-0.2980530030223464,0.6224121597309564,-0.505230791537281,0.5977833643567364,,0.0023566430502940804,0.24306866353929957,-0.11807254520658861,0.9279223799783968,-0.3649973599527484,-0.0757428805132057,0.37247008434029716,0.9160222322584067,0.14889360720173117,0.015036388943022672,-0.16637366745232046,0.985948127322987,,0.05370437762837789,0.6983360494392399,1.1604850546924563,0.9922960697440881,-0.07638153270694843,-0.0975416394765502,0.004867504973505216,-0.7626859202048828,0.6467507205381096,-0.1237934463764897,-0.6422429825093992,-0.7564384535781234,,0.1800371564368982,0.6877919050602289,-0.42886718665150303,0.9930742380856995,0.005163046184590986,-0.11737504251161392,0.08417548753379248,-0.7282240374402121,0.6801501588566489,-0.08196368066989025,-0.6853197022181489,-0.7236151330663779,,0.0,0.0,0.045,1.0,0.0,0.0,0.0,1.0,0.0,0.0,0.0,1.0,,-0.0031823361860085927,-0.18649200154343593,0.22944396511176599,False,,0.11940497848417125,0.47472879144267727,-0.4380575880250139,0.19489810052524079,-0.625651190131929,-0.7553643615488845,0.7537188317935597,0.5883469378114905,-0.29284091819210284,0.6276325780354337,-0.5122582054534051,0.5862327847657893,False,,0.0,0.0,0.0,0.0,0.0,0.0
16:27:36.177558,,-0.5495419485969418,-0.8519332770200768,0.180313939,-3.4238080475549624,-0.9731963536209214,0.6772676649172698,,0.11940605446505348,0.4747284699674297,-0.4380572383188572,0.1965334005143832,-0.6384120596228751,-0.744180532270451,0.7576130580472339,0.5806730089864893,-0.29806259562530696,0.6224123044723423,-0.5052216333082494,0.5977909538281531,,0.0023568671318645886,0.2430688782528955,-0.11807261850115305,0.9279220959301036,-0.36499827673117824,-0.07574194251553179,0.3724708436743851,0.9160218108880411,0.14889430001836157,0.015035108421548003,-0.16637397617637284,0.9859480947565586,,0.05370437762837789,0.6983360494392399,1.1604850546924563,0.9922960697440881,-0.07638153270694843,-0.0975416394765502,0.004867504973505216,-0.7626859202048828,0.6467507205381096,-0.1237934463764897,-0.6422429825093992,-0.7564384535781234,,0.1800371564368982,0.6877919050602289,-0.42886718665150303,0.9930742380856995,0.005163046184590986,-0.11737504251161392,0.08417548753379248,-0.7282240374402121,0.6801501588566489,-0.08196368066989025,-0.6853197022181489,-0.7236151330663779,,0.0,0.0,0.045,1.0,0.0,0.0,0.0,1.0,0.0,0.0,0.0,1.0,,-0.0031823361860085927,-0.18649200154343593,0.22944396511176599,False,,0.11940605446505348,0.4747284699674297,-0.4380572383188572,0.19489764115996044,-0.6256051529527941,-0.7554026092549553,0.7537198883209865,0.5883637763297113,-0.29280436583569114,0.6276314519044461,-0.5122950900623122,0.5862017581672408,False,,0.0,0.0,0.0,0.0,0.0,0.0
16:27:36.189325,,-0.5495419485969418,-0.8519332770200768,0.180313939,-3.4238080475549624,-0.9730622121524691,0.6771996820210582,,0.11940497848417125,0.47472879144267727,-0.4380575880250139,0.19653575336982407,-0.6384214273361818,-0.7441718744788652,0.7576128459327296,0.5806701940499179,-0.29806861864299117,0.6224118197183164,-0.5052130311661241,0.5977987285156025,,0.002356867131864588,0.2430688782528955,-0.11807261850115307,0.9279220959301031,-0.36499827673117813,-0.0757419425155318,0.372470843674385,0.9160218108880407,0.14889430001836151,0.01503510842154801,-0.16637397617637284,0.9859480947565582,,0.05370437762837789,0.6983360494392399,1.1604850546924563,0.9922960697440881,-0.07638153270694843,-0.0975416394765502,0.004867504973505216,-0.7626859202048828,0.6467507205381096,-0.1237934463764897,-0.6422429825093992,-0.7564384535781234,,0.1800371564368982,0.6877919050602289,-0.42886718665150303,0.9930742380856995,0.005163046184590986,-0.11737504251161392,0.08417548753379248,-0.7282240374402121,0.6801501588566489,-0.08196368066989025,-0.6853197022181489,-0.7236151330663779,,0.0,0.0,0.045,1.0,0.0,0.0,0.0,1.0,0.0,0.0,0.0,1.0,,-0.0031823361860085927,-0.18649200154343593,0.22944396511176599,False,,0.11940497848417125,0.47472879144267727,-0.4380575880250139,0.19489810052524084,-0.6255991579086322,-0.7554074556394476,0.7537188317935599,0.5883671077796058,-0.29280039119306805,0.6276325780354338,-0.5122985849161332,0.5861974981877038,False,,0.0,0.0,0.0,0.0,0.0,0.0
16:27:36.200858,,-0.5495419485969418,-0.8519255542872025,0.180313939,-3.4240177240842997,-0.9730622121524691,0.6771996820210582,,0.1194046987631861,0.47472770967716654,-0.43805848894953914,0.1966003732974443,-0.6383931907416375,-0.7441790290205823,0.7576070185576874,0.58070723982621,-0.2980112532196667,0.6223985046989085,-0.5052061318196124,0.5978184220316626,,0.002356418967555336,0.24306844882620648,-0.11807247191399975,0.9279226640202767,-0.36499644317256896,-0.07574381851111162,0.3724693250032244,0.916022653623427,0.14889291438512142,0.015037669464149882,-0.16637335872616832,0.985948159883175,,0.05370437762837789,0.6983360494392399,1.1604850546924563,0.9922960697440881,-0.07638153270694843,-0.0975416394765502,0.004867504973505216,-0.7626859202048828,0.6467507205381096,-0.1237934463764897,-0.6422429825093992,-0.7564384535781234,,0.1800371564368982,0.6877919050602289,-0.42886718665150303,0.9930742380856995,0.005163046184590986,-0.11737504251161392,0.08417548753379248,-0.7282240374402121,0.6801501588566489,-0.08196368066989025,-0.6853197022181489,-0.7236151330663779,,0.0,0.0,0.045,1.0,0.0,0.0,0.0,1.0,0.0,0.0,0.0,1.0,,-0.0031823361860085927,-0.18649200154343593,0.22944396511176599,False,,0.1194046987631861,0.47472770967716654,-0.43805848894953914,0.1948717209746304,-0.6256341303116576,-0.7553852972844796,0.7536387580488709,0.5884105510345625,-0.29291917963451636,0.6277369152208122,-0.5122059726519972,0.5861667056807989,False,,0.0,0.0,0.0,0.0,0.0,0.0
16:27:36.218148,,-0.5495419485969418,-0.8519255542872025,0.180313939,-3.424227400613638,-0.9730622121524691,0.6771996820210582,,0.11940595390197753,0.4747272796365486,-0.43805680296514654,0.19654346405235992,-0.6383340921532935,-0.7442447537827387,0.7576121507680655,0.5807082400126853,-0.2979962566710453,0.62241023107504,-0.5052796520504266,0.5977440735606796,,0.002356134004278263,0.24306779607573686,-0.11807248321144742,0.927923407977824,-0.36499439290692487,-0.07574458425985889,0.3724673923565716,0.9160238255652164,0.1488905389853049,0.015039631953251892,-0.1663714041376828,0.9859484597722841,,0.05370437762837789,0.6983360494392399,1.1604850546924563,0.9922960697440881,-0.07638153270694843,-0.0975416394765502,0.004867504973505216,-0.7626859202048828,0.6467507205381096,-0.1237934463764897,-0.6422429825093992,-0.7564384535781234,,0.1800371564368982,0.6877919050602289,-0.42886718665150303,0.9930742380856995,0.005163046184590986,-0.11737504251161392,0.08417548753379248,-0.7282240374402121,0.6801501588566489,-0.08196368066989025,-0.6853197022181489,-0.7236151330663779,,0.0,0.0,0.045,1.0,0.0,0.0,0.0,1.0,0.0,0.0,0.0,1.0,,-0.0031823361860085927,-0.18649200154343593,0.22944396511176599,False,,0.11940595390197753,0.4747272796365486,-0.43805680296514654,0.19498827510940395,-0.6257468397007546,-0.7552618520581968,0.7536102453761031,0.588426978733433,-0.29295953434359157,0.627734952534929,-0.5120493953742766,0.5863055910212767,False,,0.0,0.0,0.0,0.0,0.0,0.0
